;bara conectare 1
;Printer name: Prusa i3 MK3
;TIME:258
;Print time: 4m:18s
;Extruder 1 material used: 127mm
;Extruder 1 material name: 
;Extruder 1 filament diameter: 1.75mm
;Extruder 1 nozzle diameter: 0.4mm
;Extruder 1 offset x: 0mm
;Extruder 1 offset y: 0mm
;Extruder 1 offset z: 0mm
;Extruder 1 max temp: 200
;Bed temp: 70
;Layer count: 33
;Width: 250mm
;Depth: 210mm
;Height: 210mm
;Center x: 125mm
;Center y: 105mm
;Center z: 0mm
;Count of bodies: 1
;Fusion version: 2.0.19440
G21
M115 U3.0.10 ;tell printer latest fw version
G28 W ;home all without mesh bed level
;--------------------------------
;Selected Profile: PLA Direct Drive
;--------------------------------
;Selected Printer: Prusa, i3 MK3
;--------------------------------
T0
M140 S70
M104 S200 T0
M190 S70
M109 S200 T0
G80 ;mesh bed leveling
G92 E0
G90
M83
G0 X10 Y10 Z10 F7200
G92 E0
;--------------------------------
;Part 1
;LAYER_COUNT:33
;LAYER:1
M107
;rapid-leaky
G0 X20 Y20.5 Z0.2 F7200
;bead-prime
G1 X120 F720 E8.315
G1 F2100 E-0.5
;rapid-dry
G0 X124.591 Y86.655 F7200
G1 F2100 E0.5
;bead-skirt/brim
G1 X125.409 F960 E0.027
G1 X126.216 Y86.768 E0.027
G1 X126.996 Y86.989 E0.027
G1 X127.744 Y87.316 E0.027
G1 X128.454 Y87.755 E0.028
G1 X129.091 Y88.291 E0.028
G1 X129.614 Y88.86 E0.026
G1 X130.079 Y89.53 E0.027
G1 X130.445 Y90.257 E0.027
G1 X130.709 Y91.026 E0.027
G1 X130.864 Y91.825 E0.027
G1 X130.909 Y92.642 E0.027
G1 X130.839 Y93.451 E0.027
G1 X130.662 Y94.241 E0.027
G1 X130.399 Y94.94 E0.025
G1 X130.377 Y123.352 E0.945
G1 X119.608 Y123.318 E0.358
G1 X119.618 Y103.85 E0.648
G1 X119.6
G1 Y94.94 E0.297
G1 X119.337 Y94.238 E0.025
G1 X119.157 Y93.434 E0.027
G1 X119.093 Y92.602 E0.028
G1 X119.136 Y91.824 E0.026
G1 X119.291 Y91.026 E0.027
G1 X119.555 Y90.257 E0.027
G1 X119.921 Y89.53 E0.027
G1 X120.386 Y88.859 E0.027
G1 X120.936 Y88.261 E0.027
G1 X121.561 Y87.746 E0.027
G1 X122.271 Y87.307 E0.028
G1 X123.043 Y86.978 E0.028
G1 X123.785 Y86.768 E0.025
G1 X124.591 Y86.655 E0.027
;rapid-leaky
G0 X124.618 Y87.055 F7200
;bead-skirt/brim
G1 X125.382 F960 E0.026
G1 X126.133 Y87.16 E0.025
G1 X126.86 Y87.366 E0.025
G1 X127.558 Y87.672 E0.025
G1 X128.219 Y88.08 E0.026
G1 X128.814 Y88.58 E0.026
G1 X129.301 Y89.11 E0.024
G1 X129.735 Y89.735 E0.025
G1 X130.076 Y90.412 E0.025
G1 X130.322 Y91.13 E0.026
G1 X130.466 Y91.874 E0.025
G1 X130.508 Y92.635 E0.025
G1 X130.443 Y93.39 E0.025
G1 X130.278 Y94.126 E0.026
G1 X129.999 Y94.859 E0.026
G1 X129.977 Y122.951 E0.934
G1 X120.008 Y122.919 E0.332
G1 X120.018 Y103.45 E0.647
G1 X120 E0.001
G1 Y94.849 E0.286
G1 X119.721 Y94.124 E0.026
G1 X119.554 Y93.375 E0.025
G1 X119.494 Y92.598 E0.026
G1 X119.534 Y91.873 E0.024
G1 X119.678 Y91.13 E0.025
G1 X119.924 Y90.412 E0.026
G1 X120.266 Y89.735 E0.025
G1 X120.699 Y89.109 E0.025
G1 X121.212 Y88.552 E0.025
G1 X121.794 Y88.072 E0.025
G1 X122.456 Y87.663 E0.026
G1 X123.177 Y87.356 E0.026
G1 X123.867 Y87.16 E0.024
G1 X124.618 Y87.055 E0.025
;rapid-leaky
G0 X124.646 Y87.455 F7200
;bead-skirt/brim
G1 X125.354 F960 E0.024
G1 X126.05 Y87.552 E0.023
G1 X126.725 Y87.743 E0.024
G1 X127.372 Y88.027 E0.023
G1 X127.984 Y88.405 E0.024
G1 X128.537 Y88.87 E0.024
G1 X128.988 Y89.361 E0.022
G1 X129.39 Y89.94 E0.024
G1 X129.706 Y90.568 E0.023
G1 X129.935 Y91.233 E0.024
G1 X130.068 Y91.923 E0.023
G1 X130.107 Y92.629 E0.023
G1 X130.046 Y93.329 E0.024
G1 X129.894 Y94.012 E0.023
G1 X129.645 Y94.673 E0.024
G1 X129.599 Y94.757 E0.003
G1 X129.578 Y122.549 E0.924
G1 X120.408 Y122.521 E0.305
G1 X120.419 Y103.05 E0.648
G1 X120.4
G1 Y94.749 E0.276
G1 X120.342 Y94.64 E0.005
G1 X120.106 Y94.009 E0.022
G1 X119.951 Y93.315 E0.024
G1 X119.895 Y92.594 E0.024
G1 X119.932 Y91.922 E0.022
G1 X120.065 Y91.233 E0.023
G1 X120.294 Y90.568 E0.024
G1 X120.61 Y89.94 E0.023
G1 X121.012 Y89.36 E0.024
G1 X121.488 Y88.843 E0.023
G1 X122.028 Y88.398 E0.023
G1 X122.64 Y88.019 E0.024
G1 X123.31 Y87.733 E0.024
G1 X123.95 Y87.552 E0.023
G1 X124.646 Y87.455 E0.023
;rapid-leaky
G0 X124.674 Y87.855 F7200
;bead-skirt/brim
G1 X125.326 F960 E0.022
G1 X125.968 Y87.945 E0.021
G1 X126.59 Y88.121 E0.022
G1 X127.186 Y88.382 E0.021
G1 X127.749 Y88.73 E0.022
G1 X128.26 Y89.159 E0.023
G1 X128.675 Y89.611 E0.02
G1 X129.045 Y90.145 E0.022
G1 X129.337 Y90.723 E0.021
G1 X129.547 Y91.337 E0.022
G1 X129.67 Y91.973 E0.021
G1 X129.706 Y92.623 E0.022
G1 X129.65 Y93.268 E0.021
G1 X129.51 Y93.897 E0.022
G1 X129.28 Y94.507 E0.022
G1 X129.199 Y94.655 E0.005
G1 X129.178 Y122.148 E0.915
G1 X120.809 Y122.122 E0.278
G1 X120.819 Y102.65 E0.648
G1 X120.8
G1 Y94.649 E0.266
G1 X120.707 Y94.475 E0.007
G1 X120.49 Y93.895 E0.02
G1 X120.347 Y93.256 E0.022
G1 X120.295 Y92.589 E0.022
G1 X120.33 Y91.972 E0.021
G1 X120.453 Y91.337 E0.022
G1 X120.663 Y90.723 E0.021
G1 X120.955 Y90.145 E0.022
G1 X121.325 Y89.61 E0.021
G1 X121.764 Y89.134 E0.022
G1 X122.261 Y88.724 E0.021
G1 X122.825 Y88.375 E0.022
G1 X123.444 Y88.111 E0.023
G1 X124.032 Y87.945 E0.02
G1 X124.674 Y87.855 E0.022
;rapid-leaky
G0 X124.702 Y88.255 F7200
;bead-skirt/brim
G1 X125.298 F960 E0.019
G1 X125.885 Y88.337 E0.02
G1 X126.454 Y88.498 E0.02
G1 X126.999 Y88.737 E0.02
G1 X127.514 Y89.055 E0.02
G1 X127.983 Y89.449 E0.02
G1 X128.362 Y89.862 E0.019
G1 X128.701 Y90.35 E0.02
G1 X128.967 Y90.879 E0.019
G1 X129.16 Y91.44 E0.02
G1 X129.272 Y92.022 E0.02
G1 X129.305 Y92.617 E0.019
G1 X129.254 Y93.206 E0.02
G1 X129.125 Y93.782 E0.02
G1 X128.916 Y94.34 E0.02
G1 X128.8 Y94.554 E0.008
G1 X128.778 Y121.747 E0.904
G1 X121.209 Y121.723 E0.252
G1 X121.219 Y102.25 E0.648
G1 X121.2
G1 Y94.549 E0.256
G1 X121.072 Y94.31 E0.009
G1 X120.874 Y93.781 E0.019
G1 X120.744 Y93.197 E0.02
G1 X120.696 Y92.585 E0.02
G1 X120.728 Y92.021 E0.019
G1 X120.84 Y91.44 E0.02
G1 X121.033 Y90.879 E0.02
G1 X121.299 Y90.35 E0.019
G1 X121.638 Y89.861 E0.02
G1 X122.039 Y89.425 E0.02
G1 X122.495 Y89.049 E0.019
G1 X123.01 Y88.731 E0.021
G1 X123.577 Y88.489 E0.02
G1 X124.115 Y88.337 E0.019
G1 X124.702 Y88.255 E0.019
;rapid-leaky
G0 X124.73 Y88.655 F7200
;bead-skirt/brim
G1 X125.27 F960 E0.018
G1 X125.803 Y88.729 E0.018
G1 X126.319 Y88.876 E0.018
G1 X126.813 Y89.092 E0.018
G1 X127.279 Y89.38 E0.018
G1 X127.706 Y89.739 E0.019
G1 X128.049 Y90.112 E0.017
G1 X128.356 Y90.555 E0.018
G1 X128.598 Y91.035 E0.018
G1 X128.772 Y91.544 E0.017
G1 X128.874 Y92.071 E0.018
G1 X128.904 Y92.61 E0.018
G1 X128.858 Y93.145 E0.018
G1 X128.741 Y93.668 E0.018
G1 X128.551 Y94.173 E0.018
G1 X128.4 Y94.452 E0.01
G1 X128.379 Y121.346 E0.895
G1 X121.609 Y121.324 E0.225
G1 X121.619 Y101.85 E0.648
G1 X121.6
G1 Y94.449 E0.247
G1 X121.438 Y94.145 E0.011
G1 X121.259 Y93.666 E0.017
G1 X121.14 Y93.137 E0.018
G1 X121.097 Y92.581 E0.019
G1 X121.126 Y92.071 E0.017
G1 X121.228 Y91.544 E0.017
G1 X121.402 Y91.035 E0.018
G1 X121.644 Y90.555 E0.018
G1 X121.951 Y90.112 E0.018
G1 X122.315 Y89.716 E0.018
G1 X122.728 Y89.375 E0.018
G1 X123.194 Y89.087 E0.018
G1 X123.71 Y88.867 E0.019
G1 X124.198 Y88.729 E0.017
G1 X124.73 Y88.655 E0.017
;rapid-leaky
G0 X124.758 Y89.055 F7200
;bead-skirt/brim
G1 X125.242 F960 E0.017
G1 X125.72 Y89.122 E0.016
G1 X126.184 Y89.253 E0.016
G1 X126.627 Y89.447 E0.016
G1 X127.044 Y89.705 E0.016
G1 X127.429 Y90.028 E0.017
G1 X127.736 Y90.362 E0.015
G1 X128.011 Y90.76 E0.016
G1 X128.228 Y91.19 E0.016
G1 X128.385 Y91.647 E0.016
G1 X128.477 Y92.12 E0.016
G1 X128.503 Y92.604 E0.016
G1 X128.462 Y93.084 E0.016
G1 X128.357 Y93.553 E0.016
G1 X128.186 Y94.007 E0.016
G1 X128 Y94.35 E0.013
G1 X127.979 Y120.944 E0.885
G1 X122.009 Y120.926 E0.198
G1 X122.019 Y101.45 E0.648
G1 X122 E0.001
G1 Y94.35 E0.236
G1 X121.803 Y93.98 E0.014
G1 X121.643 Y93.552 E0.015
G1 X121.537 Y93.078 E0.016
G1 X121.498 Y92.576 E0.017
G1 X121.523 Y92.12 E0.015
G1 X121.615 Y91.647 E0.016
G1 X121.772 Y91.19 E0.016
G1 X121.989 Y90.76 E0.016
G1 X122.264 Y90.362 E0.016
G1 X122.591 Y90.007 E0.016
G1 X122.962 Y89.701 E0.016
G1 X123.379 Y89.444 E0.017
G1 X123.844 Y89.245 E0.017
G1 X124.28 Y89.122 E0.015
G1 X124.758 Y89.055 E0.016
;rapid-leaky
G0 X124.785 Y89.455 F7200
;bead-skirt/brim
G1 X125.215 F960 E0.014
G1 X125.637 Y89.514 E0.014
G1 X126.048 Y89.631 E0.014
G1 X126.441 Y89.802 E0.015
G1 X126.809 Y90.03 E0.014
G1 X127.152 Y90.318 E0.015
G1 X127.423 Y90.613 E0.013
G1 X127.667 Y90.965 E0.014
G1 X127.859 Y91.346 E0.015
G1 X127.998 Y91.75 E0.014
G1 X128.079 Y92.17 E0.014
G1 X128.102 Y92.598 E0.014
G1 X128.065 Y93.023 E0.015
G1 X127.973 Y93.439 E0.014
G1 X127.822 Y93.84 E0.014
G1 X127.6 Y94.239 E0.015
G1 X127.579 Y120.543 E0.875
G1 X122.409 Y120.527 E0.172
G1 X122.42 Y101.05 E0.648
G1 X122.4
G1 Y94.239 E0.227
G1 X122.169 Y93.815 E0.016
G1 X122.027 Y93.438 E0.013
G1 X121.934 Y93.018 E0.015
G1 X121.899 Y92.572 E0.015
G1 X121.921 Y92.169 E0.013
G1 X122.003 Y91.75 E0.014
G1 X122.141 Y91.346 E0.014
G1 X122.333 Y90.965 E0.015
G1 X122.577 Y90.613 E0.014
G1 X122.867 Y90.298 E0.014
G1 X123.195 Y90.027 E0.014
G1 X123.563 Y89.8 E0.015
G1 X123.977 Y89.623 E0.015
G1 X124.363 Y89.514 E0.013
G1 X124.785 Y89.455 E0.014
;rapid-leaky
G0 X124.813 Y89.855 F7200
;bead-skirt/brim
G1 X125.187 F960 E0.013
G1 X125.555 Y89.906 E0.012
G1 X125.913 Y90.008 E0.012
G1 X126.254 Y90.157 E0.013
G1 X126.574 Y90.355 E0.012
G1 X126.875 Y90.608 E0.013
G1 X127.11 Y90.863 E0.012
G1 X127.322 Y91.17 E0.012
G1 X127.489 Y91.502 E0.013
G1 X127.61 Y91.854 E0.012
G1 X127.681 Y92.219 E0.012
G1 X127.701 Y92.591 E0.013
G1 X127.669 Y92.962 E0.012
G1 X127.588 Y93.324 E0.012
G1 X127.457 Y93.673 E0.013
G1 X127.279 Y94 E0.012
G1 X127.2 Y94.108 E0.005
G1 X127.18 Y120.142 E0.866
G1 X122.81 Y120.128 E0.145
G1 X122.82 Y100.65 E0.648
G1 X122.8
G1 Y94.107 E0.218
G1 X122.719 Y93.998 E0.005
G1 X122.534 Y93.65 E0.013
G1 X122.412 Y93.323 E0.011
G1 X122.33 Y92.959 E0.013
G1 X122.3 Y92.568 E0.013
G1 X122.319 Y92.219 E0.011
G1 X122.39 Y91.854 E0.013
G1 X122.511 Y91.502 E0.012
G1 X122.678 Y91.17 E0.012
G1 X122.89 Y90.863 E0.013
G1 X123.142 Y90.589 E0.012
G1 X123.429 Y90.353 E0.013
G1 X123.748 Y90.156 E0.012
G1 X124.111 Y90.001 E0.013
G1 X124.445 Y89.906 E0.012
G1 X124.813 Y89.855 E0.012
;rapid-leaky
G0 X124.841 Y90.255 F7200
;bead-skirt/brim
G1 X125.159 F960 E0.011
G1 X125.472 Y90.299 E0.01
G1 X125.778 Y90.385 E0.011
G1 X126.068 Y90.512 E0.01
G1 X126.339 Y90.68 E0.011
G1 X126.598 Y90.897 E0.011
G1 X126.797 Y91.114 E0.01
G1 X126.977 Y91.375 E0.01
G1 X127.12 Y91.657 E0.011
G1 X127.223 Y91.957 E0.011
G1 X127.283 Y92.268 E0.01
G1 X127.3 Y92.585 E0.011
G1 X127.273 Y92.901 E0.01
G1 X127.204 Y93.209 E0.011
G1 X127.092 Y93.506 E0.01
G1 X126.941 Y93.785 E0.011
G1 X126.8 Y93.976 E0.008
G1 X126.78 Y119.741 E0.857
G1 X123.21 Y119.729 E0.118
G1 X123.22 Y100.25 E0.648
G1 X123.2 E0.001
G1 Y93.976 E0.209
G1 X123.058 Y93.784 E0.008
G1 X122.899 Y93.485 E0.011
G1 X122.796 Y93.209 E0.01
G1 X122.727 Y92.9 E0.01
G1 X122.701 Y92.563 E0.011
G1 X122.717 Y92.268 E0.01
G1 X122.777 Y91.957 E0.011
G1 X122.88 Y91.657 E0.01
G1 X123.023 Y91.375 E0.011
G1 X123.204 Y91.114 E0.01
G1 X123.418 Y90.88 E0.011
G1 X123.662 Y90.679 E0.01
G1 X123.933 Y90.512 E0.011
G1 X124.244 Y90.379 E0.011
G1 X124.528 Y90.299 E0.01
G1 X124.841 Y90.255 E0.011
G1 F2100 E-0.5
;rapid-dry
G0 X126.75 Y91.813 F7200
G1 F2100 E0.5
;bead-perimeter_outer
G1 X126.835 Y92.061 F720 E0.008
G1 X126.885 Y92.318 E0.009
G1 X126.9 Y92.579 E0.009
G1 X126.877 Y92.839 E0.008
G1 X126.82 Y93.095 E0.009
G1 X126.728 Y93.34 E0.009
G1 X126.603 Y93.569 E0.008
G1 X126.4 Y93.844 E0.012
G1 Y99.85 E0.2
G1 X123.6 E0.093
G1 Y93.844 E0.199
G1 X123.398 Y93.57 E0.012
G1 X123.265 Y93.321 E0.009
G1 X123.18 Y93.095 E0.008
G1 X123.123 Y92.84 E0.009
G1 X123.101 Y92.559 E0.009
G1 X123.115 Y92.318 E0.008
G1 X123.165 Y92.061 E0.009
G1 X123.25 Y91.813 E0.009
G1 X123.367 Y91.579 E0.008
G1 X123.517 Y91.364 E0.009
G1 X123.694 Y91.172 E0.009
G1 X123.896 Y91.005 E0.009
G1 X124.117 Y90.868 E0.008
G1 X124.378 Y90.757 E0.01
G1 X124.61 Y90.691 E0.008
G1 X124.869 Y90.655 E0.008
G1 X125.131 E0.009
G1 X125.39 Y90.691 E0.009
G1 X125.642 Y90.763 E0.009
G1 X125.882 Y90.868 E0.008
G1 X126.103 Y91.004 E0.009
G1 X126.32 Y91.187 E0.009
G1 X126.483 Y91.364 E0.008
G1 X126.633 Y91.579 E0.009
G1 X126.75 Y91.813 E0.009
;rapid-leaky
G0 X126.418 Y91.953 F7200
;bead-perimeter_inner
G1 X126.487 Y92.154 F960 E0.007
G1 X126.527 Y92.362 E0.007
G1 X126.539 Y92.573 E0.007
G1 X126.52 Y92.784 E0.007
G1 X126.474 Y92.992 E0.007
G1 X126.399 Y93.19 E0.007
G1 X126.298 Y93.376 E0.007
G1 X126.04 Y93.726 E0.015
G1 Y99.49 E0.191
G1 X123.96 E0.069
G1 Y93.726 E0.192
G1 X123.703 Y93.377 E0.015
G1 X123.594 Y93.172 E0.007
G1 X123.526 Y92.992 E0.007
G1 X123.48 Y92.787 E0.007
G1 X123.462 Y92.555 E0.007
G1 X123.473 Y92.362 E0.007
G1 X123.513 Y92.154 E0.007
G1 X123.582 Y91.953 E0.007
G1 X123.677 Y91.764 E0.007
G1 X123.798 Y91.59 E0.007
G1 X123.942 Y91.433 E0.007
G1 X124.106 Y91.298 E0.007
G1 X124.284 Y91.189 E0.007
G1 X124.498 Y91.097 E0.008
G1 X124.685 Y91.044 E0.006
G1 X124.894 Y91.015 E0.007
G1 X125.106 E0.007
G1 X125.315 Y91.044 E0.007
G1 X125.521 Y91.102 E0.008
G1 X125.714 Y91.187 E0.007
G1 X125.892 Y91.297 E0.007
G1 X126.071 Y91.448 E0.007
G1 X126.202 Y91.59 E0.007
G1 X126.323 Y91.764 E0.007
G1 X126.418 Y91.953 E0.007
G1 F2100 E-0.5
;rapid-dry
G0 X123.74 Y100.711 F7200
G1 F2100 E0.5
;bead-support
G1 X123.897 Y100.62 F1320 E0.006
G1 X126.27 E0.079
G1 X126.269 Y102.33 E0.057
G1 X123.738 Y103.791 E0.097
G1 X123.737 Y106.871 E0.102
G1 X126.267 Y105.41 E0.097
G1 X126.266 Y108.49 E0.103
G1 X123.735 Y109.951 E0.097
G1 X123.733 Y113.031 E0.103
G1 X126.264 Y111.57 E0.097
G1 X126.263 Y114.65 E0.102
G1 X123.732 Y116.112 E0.097
G1 X123.73 Y119.192 E0.103
G1 X124.645 Y118.664 E0.035
G1 X124.785 Y118.702 E0.005
G1 X124.997 Y118.722 E0.007
G1 X125.203 Y118.705 E0.007
G1 X125.4 Y118.652 E0.007
G1 X125.585 Y118.566 E0.006
G1 X125.753 Y118.449 E0.007
G1 X125.899 Y118.303 E0.007
G1 X126.016 Y118.135 E0.007
G1 X126.102 Y117.95 E0.007
G1 X126.142 Y117.799 E0.005
G1 X126.261 Y117.731 E0.004
G1 F2100 E-0.5
G0 X126.142 Y117.799 F2400
G0 X126.102 Y117.95 F2400
G0 X126.016 Y118.135 F2400
G0 X125.899 Y118.303 F2400
G0 X125.753 Y118.449 F2400
G0 X125.678 Y118.501 F2400
G0 X125.753 Y118.449 F2400
G0 X125.899 Y118.303 F2400
G0 X126.016 Y118.135 F2400
G0 X126.102 Y117.95 F2400
G0 X126.142 Y117.799 F2400
G0 X126.261 Y117.731 F2400
;rapid-dry
G0 X124.999 Y117.151 F7200
G1 F2100 E0.5
;bead-perimeter_outer
G1 X125.137 Y117.175 F720 E0.005
G1 X125.257 Y117.244 E0.005
G1 X125.346 Y117.35 E0.004
G1 X125.394 Y117.487 E0.005
G1 X125.393 Y117.619 E0.004
G1 X125.346 Y117.75 E0.005
G1 X125.306 Y117.807 E0.002
G1 X125.2 Y117.896 E0.005
G1 X125.137 Y117.925 E0.002
G1 X125.001 Y117.949 E0.005
G1 X124.863 Y117.925 E0.005
G1 X124.743 Y117.856 E0.004
G1 X124.654 Y117.75 E0.005
G1 X124.625 Y117.687 E0.002
G1 X124.601 Y117.551 E0.005
G1 X124.625 Y117.413 E0.004
G1 X124.654 Y117.35 E0.003
G1 X124.743 Y117.244 E0.004
G1 X124.863 Y117.175 E0.005
G1 X124.999 Y117.151 E0.004
;rapid-leaky
G0 X124.997 Y117.512 F7200
;bead-perimeter_inner
G1 X125.025 Y117.521 F960 E0.001
G1 X125.038 Y117.548 E0.001
G1 X125.037 Y117.557 E0.001
G1 X125.003 Y117.588 E0.001
G1 X124.975 Y117.579 E0.001
G1 X124.962 Y117.553 E0.001
G1 X124.971 Y117.525 E0.001
G1 X124.997 Y117.512 E0.001
G1 F2100 E-0.5
;rapid-dry
G0 X125.531 Y99.17 F7200
G1 F2100 E0.5
;bead-solid_infill
G1 X125.72 Y98.981 F720 E0.009
G1 Y98.415 E0.019
G1 X124.965 Y99.17 E0.035
G1 X124.4 E0.019
G1 X125.72 Y97.85 E0.062
G1 Y97.284 E0.019
G1 X124.28 Y98.724 E0.068
G1 Y98.158 E0.019
G1 X125.72 Y96.718 E0.067
G1 Y96.153 E0.019
G1 X124.28 Y97.593 E0.068
G1 Y97.027 E0.019
G1 X125.72 Y95.587 E0.067
G1 Y95.021 E0.019
G1 X124.28 Y96.461 E0.068
G1 Y95.896 E0.019
G1 X125.72 Y94.456 E0.068
G1 Y93.89 E0.018
G1 X124.28 Y95.33 E0.068
G1 Y94.764 E0.019
G1 X126.173 Y92.871 E0.089
G1 X126.203 Y92.735 E0.005
G1 X126.218 Y92.568 E0.005
G1 X126.209 Y92.402 E0.006
G1 X126.187 Y92.291 E0.003
G1 X124.28 Y94.198 E0.09
G1 Y93.633 E0.019
G1 X126.021 Y91.891 E0.082
G1 X125.951 Y91.79 E0.004
G1 X125.849 Y91.679 E0.005
G1 X125.751 Y91.596 E0.004
G1 X124.045 Y93.302 E0.08
G1 X123.974 Y93.206 E0.004
G1 X123.886 Y93.04 E0.007
G1 X123.861 Y92.975 E0.002
G1 X123.846 Y92.935 E0.001
G1 X125.385 Y91.397 E0.073
G1 X125.249 Y91.358 E0.005
G1 X125.084 Y91.335 E0.005
G1 X124.916 E0.006
G1 X124.875 Y91.341 E0.001
G1 X123.79 Y92.426 E0.051
G1 F2100 E-0.5
;LAYER:2
M107
;rapid-dry
G0 X126.4 Y93.844 Z0.35 F7200
G1 F2100 E0.5
;bead-perimeter_outer
G1 Y99.85 F1200 E0.15
G1 X123.6 E0.07
G1 Y93.844 E0.15
G1 X123.397 Y93.569 E0.008
G1 X123.272 Y93.34 E0.007
G1 X123.18 Y93.095 E0.006
G1 X123.123 Y92.841 E0.007
G1 X123.102 Y92.538 E0.007
G1 X123.115 Y92.318 E0.006
G1 X123.164 Y92.062 E0.006
G1 X123.268 Y91.775 E0.008
G1 X123.367 Y91.58 E0.005
G1 X123.517 Y91.364 E0.007
G1 X123.694 Y91.172 E0.006
G1 X123.896 Y91.005 E0.007
G1 X124.118 Y90.868 E0.006
G1 X124.387 Y90.754 E0.008
G1 X124.61 Y90.691 E0.005
G1 X124.869 Y90.655 E0.007
G1 X125.131 E0.006
G1 X125.388 Y90.691 E0.007
G1 X125.681 Y90.779 E0.008
G1 X125.882 Y90.867 E0.005
G1 X126.104 Y91.005 E0.007
G1 X126.306 Y91.172 E0.006
G1 X126.483 Y91.364 E0.007
G1 X126.633 Y91.579 E0.006
G1 X126.75 Y91.813 E0.007
G1 X126.835 Y92.061 E0.006
G1 X126.885 Y92.318 E0.007
G1 X126.9 Y92.579 E0.006
G1 X126.877 Y92.839 E0.007
G1 X126.82 Y93.095 E0.006
G1 X126.728 Y93.34 E0.007
G1 X126.603 Y93.569 E0.006
G1 X126.4 Y93.844 E0.009
;rapid-leaky
G0 X126.04 Y93.726 F7200
;bead-perimeter_inner
G1 Y99.49 F1200 E0.144
G1 X123.96 E0.052
G1 Y93.726 E0.143
G1 X123.702 Y93.376 E0.011
G1 X123.601 Y93.19 E0.006
G1 X123.526 Y92.992 E0.005
G1 X123.481 Y92.789 E0.005
G1 X123.463 Y92.535 E0.006
G1 X123.473 Y92.362 E0.005
G1 X123.513 Y92.158 E0.005
G1 X123.599 Y91.919 E0.006
G1 X123.677 Y91.764 E0.004
G1 X123.798 Y91.59 E0.006
G1 X123.942 Y91.433 E0.005
G1 X124.106 Y91.298 E0.005
G1 X124.286 Y91.187 E0.006
G1 X124.485 Y91.101 E0.005
G1 X124.685 Y91.044 E0.005
G1 X124.894 Y91.015 E0.006
G1 X125.106 E0.005
G1 X125.311 Y91.044 E0.005
G1 X125.556 Y91.117 E0.006
G1 X125.714 Y91.187 E0.005
G1 X125.894 Y91.298 E0.005
G1 X126.058 Y91.433 E0.005
G1 X126.202 Y91.59 E0.006
G1 X126.323 Y91.764 E0.005
G1 X126.418 Y91.953 E0.005
G1 X126.487 Y92.154 E0.005
G1 X126.527 Y92.362 E0.006
G1 X126.539 Y92.573 E0.005
G1 X126.52 Y92.784 E0.005
G1 X126.474 Y92.992 E0.006
G1 X126.4 Y93.19 E0.005
G1 X126.298 Y93.376 E0.005
G1 X126.04 Y93.726 E0.011
G1 F2100 E-0.5
;rapid-dry
G0 X123.74 Y100.711 F7200
G1 F2100 E0.5
;bead-support
G1 X123.897 Y100.62 F1200 E0.005
G1 X126.27 E0.059
G1 X126.269 Y102.33 E0.042
G1 X123.738 Y103.791 E0.073
G1 X123.737 Y106.871 E0.077
G1 X126.267 Y105.41 E0.073
G1 X126.266 Y108.49 E0.077
G1 X123.735 Y109.951 E0.073
G1 X123.733 Y113.031 E0.077
G1 X126.264 Y111.57 E0.072
G1 X126.263 Y114.65 E0.077
G1 X123.732 Y116.112 E0.073
G1 X123.73 Y119.192 E0.077
G1 X124.645 Y118.664 E0.026
G1 X124.776 Y118.699 E0.004
G1 X124.994 Y118.723 E0.005
G1 X125.203 Y118.705 E0.005
G1 X125.4 Y118.652 E0.006
G1 X125.585 Y118.566 E0.005
G1 X125.753 Y118.449 E0.005
G1 X125.899 Y118.303 E0.005
G1 X126.016 Y118.135 E0.005
G1 X126.102 Y117.95 E0.005
G1 X126.142 Y117.799 E0.004
G1 X126.261 Y117.731 E0.003
G1 F2100 E-0.5
G0 X126.142 Y117.799 F2400
G0 X126.102 Y117.95 F2400
G0 X126.016 Y118.135 F2400
G0 X125.899 Y118.303 F2400
G0 X125.753 Y118.449 F2400
G0 X125.678 Y118.501 F2400
G0 X125.753 Y118.449 F2400
G0 X125.899 Y118.303 F2400
G0 X126.016 Y118.135 F2400
G0 X126.102 Y117.95 F2400
G0 X126.142 Y117.799 F2400
G0 X126.261 Y117.731 F2400
;rapid-dry
G0 X124.998 Y117.151 F7200
G1 F2100 E0.5
;bead-perimeter_outer
G1 X125.137 Y117.175 F1200 E0.004
G1 X125.257 Y117.244 E0.003
G1 X125.306 Y117.293 E0.002
G1 X125.374 Y117.411 E0.003
G1 X125.394 Y117.495 E0.003
G1 X125.393 Y117.619 E0.003
G1 X125.375 Y117.687 E0.001
G1 X125.306 Y117.807 E0.004
G1 X125.2 Y117.896 E0.003
G1 X125.069 Y117.943 E0.004
G1 X124.918 Y117.94 E0.004
G1 X124.8 Y117.896 E0.003
G1 X124.743 Y117.856 E0.002
G1 X124.654 Y117.75 E0.003
G1 X124.607 Y117.619 E0.003
G1 X124.61 Y117.468 E0.004
G1 X124.654 Y117.35 E0.003
G1 X124.743 Y117.244 E0.004
G1 X124.863 Y117.175 E0.003
G1 X124.998 Y117.151 E0.004
;rapid-leaky
G0 X124.986 Y117.515 F7200
;bead-perimeter_inner
G1 X125.032 Y117.53 F1200 E0.001
G1 X125.038 Y117.552
G1 X125.006 Y117.587 E0.002
G1 X124.975 Y117.579
G1 X124.963 Y117.557 E0.001
G1 X124.986 Y117.515 E0.001
G1 F2100 E-0.5
;rapid-dry
G0 X124.614 Y99.17 F7200
G1 F2100 E0.5
;bead-solid_infill
G1 X124.28 Y98.836 F1200 E0.012
G1 Y98.27 E0.014
G1 X125.18 Y99.17 E0.032
G1 X125.72 E0.013
G1 Y99.145 E0.001
G1 X124.28 Y97.705 E0.051
G1 Y97.139 E0.014
G1 X125.72 Y98.579 E0.051
G1 Y98.013 E0.014
G1 X124.28 Y96.573 E0.051
G1 Y96.008 E0.014
G1 X125.72 Y97.448 E0.051
G1 Y96.882 E0.014
G1 X124.28 Y95.442 E0.05
G1 Y94.876 E0.015
G1 X125.72 Y96.316 E0.05
G1 Y95.75 E0.014
G1 X124.28 Y94.31 E0.051
G1 Y93.745 E0.014
G1 X125.72 Y95.185 E0.051
G1 Y94.619 E0.014
G1 X123.795 Y92.694 E0.068
G1 X123.784 Y92.533 E0.004
G1 X123.791 Y92.402 E0.004
G1 X123.822 Y92.243 E0.004
G1 X123.845 Y92.179 E0.001
G1 X125.72 Y94.053 E0.066
G1 Y93.62 E0.011
G1 X125.776 Y93.544 E0.003
G1 X124.038 Y91.806 E0.061
G1 X124.049 Y91.79
G1 X124.163 Y91.666 E0.005
G1 X124.293 Y91.559 E0.004
G1 X124.332 Y91.535 E0.001
G1 X126.017 Y93.219 E0.059
G1 X126.028 Y93.203 E0.001
G1 X126.108 Y93.056 E0.004
G1 X126.167 Y92.9 E0.004
G1 X126.184 Y92.821 E0.002
G1 X124.728 Y91.365 E0.052
G1 X124.751 Y91.358
G1 X124.916 Y91.335 E0.004
G1 X125.084 E0.004
G1 X125.093 Y91.336 E0.001
G1 X125.242 Y91.357 E0.003
G1 X125.306 Y91.376 E0.002
G1 X126.179 Y92.25 E0.031
G1 F2100 E-0.5
;LAYER:3
M107
;rapid-leaky
G0 X126.9 Y92.579 Z0.5 F7200
G1 F2100 E0.5
;bead-perimeter_outer
G1 X126.877 Y92.839 F1200 E0.006
G1 X126.82 Y93.095 E0.007
G1 X126.728 Y93.34 E0.007
G1 X126.603 Y93.569 E0.006
G1 X126.4 Y93.844 E0.009
G1 Y99.85 E0.149
G1 X123.6 E0.07
G1 Y93.844 E0.15
G1 X123.397 Y93.569 E0.009
G1 X123.272 Y93.34 E0.006
G1 X123.18 Y93.095 E0.007
G1 X123.123 Y92.839 E0.006
G1 X123.1 Y92.579 E0.007
G1 X123.115 Y92.318 E0.006
G1 X123.165 Y92.061 E0.007
G1 X123.25 Y91.813 E0.006
G1 X123.367 Y91.579 E0.007
G1 X123.517 Y91.364 E0.006
G1 X123.694 Y91.172 E0.007
G1 X123.896 Y91.005 E0.006
G1 X124.118 Y90.868 E0.007
G1 X124.407 Y90.748 E0.008
G1 X124.61 Y90.691 E0.005
G1 X124.869 Y90.655 E0.006
G1 X125.131 E0.007
G1 X125.39 Y90.691 E0.007
G1 X125.642 Y90.763 E0.006
G1 X125.882 Y90.868 E0.007
G1 X126.104 Y91.005 E0.006
G1 X126.306 Y91.172 E0.007
G1 X126.483 Y91.364 E0.006
G1 X126.633 Y91.579 E0.007
G1 X126.75 Y91.813 E0.006
G1 X126.835 Y92.061 E0.007
G1 X126.885 Y92.318 E0.006
G1 X126.9 Y92.579 E0.007
;rapid-leaky
G0 X126.539 Y92.573 F7200
;bead-perimeter_inner
G1 X126.52 Y92.784 F1200 E0.005
G1 X126.474 Y92.992 E0.005
G1 X126.399 Y93.19 E0.006
G1 X126.298 Y93.376 E0.005
G1 X126.04 Y93.726 E0.011
G1 Y99.49 E0.144
G1 X123.96 E0.052
G1 Y93.726 E0.143
G1 X123.702 Y93.376 E0.011
G1 X123.601 Y93.19 E0.005
G1 X123.526 Y92.992 E0.006
G1 X123.48 Y92.784 E0.005
G1 X123.461 Y92.573 E0.005
G1 X123.473 Y92.362 E0.006
G1 X123.513 Y92.154 E0.005
G1 X123.582 Y91.953 E0.005
G1 X123.677 Y91.764 E0.005
G1 X123.798 Y91.59 E0.006
G1 X123.942 Y91.433 E0.005
G1 X124.106 Y91.298 E0.005
G1 X124.286 Y91.187 E0.006
G1 X124.506 Y91.095 E0.006
G1 X124.684 Y91.044 E0.004
G1 X124.894 Y91.015 E0.005
G1 X125.106 E0.006
G1 X125.315 Y91.044 E0.005
G1 X125.521 Y91.102 E0.005
G1 X125.714 Y91.187 E0.006
G1 X125.894 Y91.298 E0.005
G1 X126.058 Y91.433 E0.005
G1 X126.202 Y91.59 E0.005
G1 X126.323 Y91.764 E0.006
G1 X126.418 Y91.953 E0.005
G1 X126.487 Y92.154 E0.005
G1 X126.527 Y92.362 E0.006
G1 X126.539 Y92.573 E0.005
G1 F2100 E-0.5
;rapid-dry
G0 X123.74 Y100.711 F7200
G1 F2100 E0.5
;bead-support
G1 X123.897 Y100.62 F1200 E0.004
G1 X126.27 E0.06
G1 X126.269 Y102.33 E0.042
G1 X123.738 Y103.791 E0.073
G1 X123.737 Y106.871 E0.077
G1 X126.267 Y105.41 E0.073
G1 X126.266 Y108.49 E0.077
G1 X123.735 Y109.951 E0.073
G1 X123.733 Y113.031 E0.076
G1 X126.264 Y111.57 E0.073
G1 X126.263 Y114.65 E0.077
G1 X123.732 Y116.112 E0.073
G1 X123.73 Y119.192 E0.077
G1 X124.645 Y118.664 E0.026
G1 X124.797 Y118.705 E0.004
G1 X125 Y118.722 E0.005
G1 X125.203 Y118.705 E0.005
G1 X125.4 Y118.652 E0.005
G1 X125.585 Y118.566 E0.006
G1 X125.753 Y118.449 E0.005
G1 X125.899 Y118.303 E0.005
G1 X126.016 Y118.135 E0.005
G1 X126.102 Y117.95 E0.005
G1 X126.142 Y117.799 E0.004
G1 X126.261 Y117.731 E0.003
G1 F2100 E-0.5
G0 X126.142 Y117.799 F2400
G0 X126.102 Y117.95 F2400
G0 X126.016 Y118.135 F2400
G0 X125.899 Y118.303 F2400
G0 X125.753 Y118.449 F2400
G0 X125.678 Y118.501 F2400
G0 X125.753 Y118.449 F2400
G0 X125.899 Y118.303 F2400
G0 X126.016 Y118.135 F2400
G0 X126.102 Y117.95 F2400
G0 X126.142 Y117.799 F2400
G0 X126.261 Y117.731 F2400
;rapid-dry
G0 X124.997 Y117.151 F7200
G1 F2100 E0.5
;bead-perimeter_outer
G1 X125.136 Y117.175 F1200 E0.004
G1 X125.257 Y117.244 E0.003
G1 X125.346 Y117.35 E0.004
G1 X125.395 Y117.501 E0.004
G1 X125.393 Y117.619 E0.003
G1 X125.346 Y117.75 E0.003
G1 X125.306 Y117.807 E0.002
G1 X125.2 Y117.896 E0.003
G1 X125.069 Y117.943 E0.004
G1 X124.931 E0.003
G1 X124.866 Y117.926 E0.002
G1 X124.743 Y117.856 E0.003
G1 X124.694 Y117.807 E0.002
G1 X124.625 Y117.687 E0.004
G1 X124.601 Y117.55 E0.003
G1 X124.624 Y117.416 E0.004
G1 X124.665 Y117.334 E0.002
G1 X124.743 Y117.244 E0.003
G1 X124.863 Y117.175 E0.003
G1 X124.997 Y117.151 E0.004
;rapid-leaky
G0 X125.016 Y117.516 F7200
;bead-perimeter_inner
G1 X125.038 Y117.553 F1200 E0.001
G1 X125.025 Y117.579
G1 X124.994 Y117.587 E0.001
G1 X124.971 Y117.575 E0.001
G1 X124.963 Y117.544 E0.001
G1 X124.98 Y117.517
G1 X125.016 Y117.516 E0.001
G1 F2100 E-0.5
;rapid-dry
G0 X125.531 Y99.17 F7200
G1 F2100 E0.5
;bead-solid_infill
G1 X125.72 Y98.981 F1200 E0.007
G1 Y98.415 E0.014
G1 X124.965 Y99.17 E0.027
G1 X124.4 E0.014
G1 X125.72 Y97.85 E0.046
G1 Y97.284 E0.015
G1 X124.28 Y98.724 E0.05
G1 Y98.158 E0.014
G1 X125.72 Y96.718 E0.051
G1 Y96.153 E0.014
G1 X124.28 Y97.593 E0.051
G1 Y97.027 E0.014
G1 X125.72 Y95.587 E0.051
G1 Y95.021 E0.014
G1 X124.28 Y96.461 E0.051
G1 Y95.896 E0.014
G1 X125.72 Y94.456 E0.051
G1 Y93.89 E0.014
G1 X124.28 Y95.33 E0.051
G1 Y94.764 E0.014
G1 X126.173 Y92.871 E0.067
G1 X126.203 Y92.735 E0.003
G1 X126.218 Y92.568 E0.004
G1 X126.209 Y92.402 E0.005
G1 X126.187 Y92.291 E0.002
G1 X124.28 Y94.198 E0.068
G1 Y93.633 E0.014
G1 X126.021 Y91.891 E0.061
G1 X125.951 Y91.79 E0.003
G1 X125.837 Y91.666 E0.004
G1 X125.752 Y91.596 E0.003
G1 X124.045 Y93.302 E0.06
G1 X123.972 Y93.203 E0.003
G1 X123.892 Y93.056 E0.005
G1 X123.847 Y92.935 E0.003
G1 X125.385 Y91.397 E0.054
G1 X125.294 Y91.371 E0.003
G1 X125.249 Y91.358 E0.001
G1 X125.084 Y91.335 E0.004
G1 X124.916 E0.004
G1 X124.875 Y91.341 E0.001
G1 X123.79 Y92.426 E0.038
G1 F2100 E-0.5
;LAYER:4
M106 S255
;rapid-leaky
G0 X123.272 Y93.339 Z0.65 F7200
G1 F2100 E0.5
;bead-perimeter_outer
G1 X123.18 Y93.095 F1200 E0.007
G1 X123.123 Y92.839 E0.006
G1 X123.1 Y92.579 E0.007
G1 X123.115 Y92.318 E0.006
G1 X123.165 Y92.061 E0.007
G1 X123.25 Y91.813 E0.006
G1 X123.367 Y91.579 E0.007
G1 X123.517 Y91.364 E0.007
G1 X123.694 Y91.172 E0.006
G1 X123.896 Y91.005 E0.007
G1 X124.118 Y90.868 E0.006
G1 X124.429 Y90.742 E0.008
G1 X124.61 Y90.691 E0.005
G1 X124.869 Y90.655 E0.007
G1 X125.131 E0.006
G1 X125.39 Y90.691 E0.007
G1 X125.642 Y90.763 E0.006
G1 X125.882 Y90.868 E0.007
G1 X126.104 Y91.005 E0.006
G1 X126.356 Y91.226 E0.009
G1 X126.483 Y91.364 E0.004
G1 X126.633 Y91.579 E0.007
G1 X126.75 Y91.813 E0.006
G1 X126.835 Y92.061 E0.007
G1 X126.885 Y92.318 E0.007
G1 X126.9 Y92.579 E0.006
G1 X126.877 Y92.839 E0.007
G1 X126.82 Y93.095 E0.006
G1 X126.728 Y93.34 E0.007
G1 X126.603 Y93.569 E0.006
G1 X126.4 Y93.844 E0.009
G1 Y99.85 E0.149
G1 X123.6 E0.07
G1 Y93.844 E0.15
G1 X123.397 Y93.569 E0.009
G1 X123.272 Y93.339 E0.006
;rapid-leaky
G0 X123.6 Y93.188 F7200
;bead-perimeter_inner
G1 X123.526 Y92.992 F1200 E0.005
G1 X123.48 Y92.784 E0.006
G1 X123.461 Y92.573 E0.005
G1 X123.473 Y92.362 E0.005
G1 X123.513 Y92.154 E0.006
G1 X123.582 Y91.953 E0.005
G1 X123.677 Y91.764 E0.005
G1 X123.798 Y91.59 E0.005
G1 X123.942 Y91.433 E0.006
G1 X124.106 Y91.298 E0.005
G1 X124.286 Y91.187 E0.005
G1 X124.527 Y91.089 E0.007
G1 X124.684 Y91.044 E0.004
G1 X124.894 Y91.015 E0.005
G1 X125.106 E0.005
G1 X125.315 Y91.044 E0.006
G1 X125.521 Y91.102 E0.005
G1 X125.714 Y91.187 E0.005
G1 X125.894 Y91.298 E0.006
G1 X126.091 Y91.47 E0.006
G1 X126.202 Y91.59 E0.004
G1 X126.323 Y91.764 E0.005
G1 X126.418 Y91.953 E0.006
G1 X126.487 Y92.154 E0.005
G1 X126.527 Y92.362 E0.005
G1 X126.539 Y92.573 E0.006
G1 X126.52 Y92.784 E0.005
G1 X126.474 Y92.992 E0.005
G1 X126.399 Y93.19 E0.005
G1 X126.298 Y93.376 E0.006
G1 X126.04 Y93.726 E0.011
G1 Y99.49 E0.143
G1 X123.96 E0.052
G1 Y93.726 E0.144
G1 X123.702 Y93.376 E0.011
G1 X123.6 Y93.188 E0.005
G1 F2100 E-0.5
;rapid-dry
G0 X123.74 Y100.711 F7200
G1 F2100 E0.5
;bead-support
G1 X123.897 Y100.62 F1200 E0.005
G1 X126.27 E0.059
G1 X126.269 Y102.33 E0.043
G1 X123.738 Y103.791 E0.073
G1 X123.737 Y106.871 E0.076
G1 X126.267 Y105.41 E0.073
G1 X126.266 Y108.49 E0.077
G1 X123.735 Y109.951 E0.073
G1 X123.733 Y113.031 E0.077
G1 X126.264 Y111.57 E0.073
G1 X126.263 Y114.65 E0.077
G1 X123.732 Y116.112 E0.072
G1 X123.73 Y119.192 E0.077
G1 X124.645 Y118.663 E0.027
G1 X124.98 Y118.724 E0.008
G1 X125.203 Y118.705 E0.006
G1 X125.4 Y118.652 E0.005
G1 X125.585 Y118.566 E0.005
G1 X125.753 Y118.449 E0.005
G1 X125.899 Y118.303 E0.005
G1 X126.016 Y118.135 E0.005
G1 X126.102 Y117.95 E0.005
G1 X126.142 Y117.799 E0.004
G1 X126.261 Y117.731 E0.004
G1 F2100 E-0.5
G0 X126.142 Y117.799 F2400
G0 X126.102 Y117.95 F2400
G0 X126.016 Y118.135 F2400
G0 X125.899 Y118.303 F2400
G0 X125.753 Y118.449 F2400
G0 X125.678 Y118.501 F2400
G0 X125.753 Y118.449 F2400
G0 X125.899 Y118.303 F2400
G0 X126.016 Y118.135 F2400
G0 X126.102 Y117.95 F2400
G0 X126.142 Y117.799 F2400
G0 X126.261 Y117.731 F2400
;rapid-dry
G0 X124.996 Y117.151 F7200
G1 F2100 E0.5
;bead-perimeter_outer
G1 X125.137 Y117.175 F1200 E0.003
G1 X125.257 Y117.244 E0.004
G1 X125.346 Y117.35 E0.003
G1 X125.396 Y117.508 E0.004
G1 X125.393 Y117.619 E0.003
G1 X125.375 Y117.687 E0.002
G1 X125.306 Y117.807 E0.003
G1 X125.2 Y117.896 E0.004
G1 X125.137 Y117.925 E0.001
G1 X125.004 Y117.949 E0.004
G1 X124.863 Y117.925 E0.003
G1 X124.743 Y117.856 E0.004
G1 X124.654 Y117.75 E0.003
G1 X124.625 Y117.687 E0.002
G1 X124.601 Y117.554 E0.003
G1 X124.625 Y117.413 E0.004
G1 X124.694 Y117.293 E0.003
G1 X124.8 Y117.204 E0.004
G1 X124.863 Y117.175 E0.002
G1 X124.996 Y117.151 E0.003
;rapid-leaky
G0 X124.991 Y117.513 F7200
;bead-perimeter_inner
G1 X125.031 Y117.528 F1200 E0.001
G1 X125.029 Y117.575 E0.001
G1 X124.981 Y117.583 E0.001
G1 X124.965 Y117.564 E0.001
G1 X124.967 Y117.531 E0.001
G1 X124.991 Y117.513 E0.001
G1 F2100 E-0.5
;rapid-dry
G0 X124.28 Y95.919 F7200
G1 F2100 E0.5
;bead-sparse_infill
G1 X124.306 Y95.796 F1200 E0.003
G1 X124.28 Y95.74 E0.001
G1 Y93.62 E0.053
G1 X123.972 Y93.203 E0.013
G1 X123.892 Y93.055 E0.004
G1 X123.834 Y92.901 E0.004
G1 X123.797 Y92.735 E0.005
G1 X123.782 Y92.568 E0.004
G1 X123.791 Y92.402 E0.004
G1 X123.823 Y92.237 E0.004
G1 X123.878 Y92.077 E0.004
G1 X123.953 Y91.928 E0.005
G1 X124.049 Y91.79 E0.004
G1 X124.163 Y91.666 E0.004
G1 X124.293 Y91.559 E0.004
G1 X124.431 Y91.473 E0.004
G1 X124.631 Y91.392 E0.006
G1 X124.75 Y91.358 E0.003
G1 X124.916 Y91.335 E0.004
G1 X125.084 E0.004
G1 X125.249 Y91.358 E0.004
G1 X125.412 Y91.404 E0.004
G1 X125.565 Y91.471 E0.005
G1 X125.704 Y91.557 E0.004
G1 X125.868 Y91.699 E0.005
G1 X125.951 Y91.79 E0.003
G1 X126.047 Y91.928 E0.004
G1 X126.122 Y92.077 E0.005
G1 X126.177 Y92.237 E0.004
G1 X126.188 Y92.297 E0.001
G1 X125.996 Y92.591 E0.009
G1 X125.797 Y93.516 E0.024
G1 F2100 E-0.5
;LAYER:5
;rapid-leaky
G0 X125.39 Y90.691 Z0.8 F7200
G1 F2100 E0.5
;bead-perimeter_outer
G1 X125.643 Y90.763 F1200 E0.006
G1 X125.882 Y90.867 E0.007
G1 X126.104 Y91.005 E0.006
G1 X126.306 Y91.172 E0.007
G1 X126.483 Y91.364 E0.006
G1 X126.633 Y91.579 E0.007
G1 X126.75 Y91.813 E0.006
G1 X126.835 Y92.061 E0.007
G1 X126.885 Y92.318 E0.006
G1 X126.9 Y92.579 E0.007
G1 X126.877 Y92.839 E0.006
G1 X126.82 Y93.095 E0.007
G1 X126.728 Y93.339 E0.006
G1 X126.603 Y93.569 E0.007
G1 X126.4 Y93.844 E0.009
G1 Y99.85 E0.149
G1 X123.6 E0.07
G1 Y93.844 E0.15
G1 X123.397 Y93.569 E0.009
G1 X123.272 Y93.34 E0.006
G1 X123.18 Y93.095 E0.007
G1 X123.123 Y92.839 E0.006
G1 X123.1 Y92.579 E0.007
G1 X123.115 Y92.318 E0.006
G1 X123.165 Y92.061 E0.007
G1 X123.25 Y91.813 E0.006
G1 X123.367 Y91.579 E0.007
G1 X123.517 Y91.364 E0.006
G1 X123.694 Y91.172 E0.007
G1 X123.896 Y91.005 E0.006
G1 X124.118 Y90.868 E0.007
G1 X124.45 Y90.736 E0.009
G1 X124.61 Y90.691 E0.004
G1 X124.869 Y90.655 E0.006
G1 X125.131 E0.007
G1 X125.39 Y90.691 E0.006
;rapid-leaky
G0 X125.315 Y91.044 F7200
;bead-perimeter_inner
G1 X125.521 Y91.103 F1200 E0.006
G1 X125.714 Y91.187 E0.005
G1 X125.894 Y91.298 E0.005
G1 X126.058 Y91.433 E0.006
G1 X126.202 Y91.59 E0.005
G1 X126.323 Y91.764 E0.005
G1 X126.418 Y91.953 E0.006
G1 X126.487 Y92.154 E0.005
G1 X126.527 Y92.362 E0.005
G1 X126.539 Y92.573 E0.005
G1 X126.52 Y92.784 E0.006
G1 X126.474 Y92.992 E0.005
G1 X126.4 Y93.189 E0.005
G1 X126.298 Y93.376 E0.006
G1 X126.04 Y93.726 E0.01
G1 Y99.49 E0.144
G1 X123.96 E0.052
G1 Y93.726 E0.144
G1 X123.702 Y93.376 E0.011
G1 X123.601 Y93.19 E0.005
G1 X123.526 Y92.992 E0.005
G1 X123.48 Y92.784 E0.006
G1 X123.461 Y92.573 E0.005
G1 X123.473 Y92.362 E0.005
G1 X123.513 Y92.154 E0.005
G1 X123.582 Y91.953 E0.006
G1 X123.677 Y91.764 E0.005
G1 X123.798 Y91.59 E0.005
G1 X123.942 Y91.433 E0.006
G1 X124.106 Y91.298 E0.005
G1 X124.286 Y91.187 E0.005
G1 X124.548 Y91.083 E0.007
G1 X124.684 Y91.044 E0.004
G1 X124.894 Y91.015 E0.005
G1 X125.106 E0.005
G1 X125.315 Y91.044 E0.006
G1 F2100 E-0.5
;rapid-dry
G0 X123.74 Y100.711 F7200
G1 F2100 E0.5
;bead-support
G1 X123.897 Y100.62 F1200 E0.004
G1 X126.27 E0.059
G1 X126.269 Y102.33 E0.043
G1 X123.738 Y103.791 E0.073
G1 X123.737 Y106.871 E0.077
G1 X126.267 Y105.41 E0.073
G1 X126.266 Y108.49 E0.076
G1 X123.735 Y109.951 E0.073
G1 X123.733 Y113.031 E0.077
G1 X126.264 Y111.57 E0.073
G1 X126.263 Y114.65 E0.077
G1 X123.732 Y116.112 E0.073
G1 X123.73 Y119.192 E0.077
G1 X124.645 Y118.664 E0.026
G1 X124.797 Y118.705 E0.004
G1 X125 Y118.722 E0.005
G1 X125.203 Y118.705 E0.005
G1 X125.4 Y118.652 E0.005
G1 X125.585 Y118.566 E0.005
G1 X125.753 Y118.449 E0.005
G1 X125.899 Y118.303 E0.005
G1 X126.016 Y118.135 E0.006
G1 X126.102 Y117.95 E0.005
G1 X126.142 Y117.799 E0.004
G1 X126.261 Y117.731 E0.003
G1 F2100 E-0.5
G0 X126.142 Y117.799 F2400
G0 X126.102 Y117.95 F2400
G0 X126.016 Y118.135 F2400
G0 X125.899 Y118.303 F2400
G0 X125.753 Y118.449 F2400
G0 X125.678 Y118.501 F2400
G0 X125.753 Y118.449 F2400
G0 X125.899 Y118.303 F2400
G0 X126.016 Y118.135 F2400
G0 X126.102 Y117.95 F2400
G0 X126.142 Y117.799 F2400
G0 X126.261 Y117.731 F2400
;rapid-dry
G0 X124.995 Y117.151 F7200
G1 F2100 E0.5
;bead-perimeter_outer
G1 X125.136 Y117.175 F1200 E0.004
G1 X125.257 Y117.244 E0.003
G1 X125.346 Y117.35 E0.003
G1 X125.393 Y117.48 E0.004
G1 Y117.619 E0.003
G1 X125.346 Y117.75 E0.004
G1 X125.306 Y117.807 E0.002
G1 X125.2 Y117.896 E0.003
G1 X125.069 Y117.943 E0.003
G1 X124.931 E0.004
G1 X124.868 Y117.926 E0.002
G1 X124.743 Y117.856 E0.003
G1 X124.694 Y117.807 E0.002
G1 X124.625 Y117.687 E0.003
G1 X124.601 Y117.55 E0.004
G1 X124.624 Y117.418 E0.003
G1 X124.673 Y117.322 E0.003
G1 X124.743 Y117.244 E0.002
G1 X124.863 Y117.175 E0.004
G1 X124.995 Y117.151 E0.003
;rapid-leaky
G0 X125.02 Y117.518 F7200
;bead-perimeter_inner
G1 X125.037 Y117.541 F1200 E0.001
G1 X125.02 Y117.583 E0.001
G1 X124.97 Y117.574 E0.001
G1 X124.962 Y117.546 E0.001
G1 X124.976 Y117.52 E0.001
G1 X125.02 Y117.518 E0.001
G1 F2100 E-0.5
;rapid-dry
G0 X124.28 Y96.387 F7200
G1 F2100 E0.5
;bead-sparse_infill
G1 X124.469 Y95.796 F1200 E0.015
G1 X124.28 Y95.227 E0.015
G1 Y93.62 E0.04
G1 X123.972 Y93.203 E0.013
G1 X123.892 Y93.056 E0.005
G1 X123.833 Y92.9 E0.004
G1 X123.797 Y92.735 E0.004
G1 X123.782 Y92.568 E0.004
G1 X123.791 Y92.402 E0.004
G1 X123.823 Y92.237 E0.004
G1 X123.878 Y92.077 E0.005
G1 X123.953 Y91.928 E0.004
G1 X124.049 Y91.79 E0.004
G1 X124.163 Y91.666 E0.004
G1 X124.293 Y91.559 E0.004
G1 X124.43 Y91.474 E0.004
G1 X124.651 Y91.386 E0.006
G1 X124.75 Y91.358 E0.003
G1 X124.916 Y91.335 E0.004
G1 X125.084 E0.004
G1 X125.249 Y91.358 E0.004
G1 X125.413 Y91.405 E0.005
G1 X125.565 Y91.471 E0.004
G1 X125.707 Y91.559 E0.004
G1 X125.837 Y91.666 E0.004
G1 X125.951 Y91.79 E0.004
G1 X126.047 Y91.928 E0.005
G1 X126.122 Y92.077 E0.004
G1 X126.177 Y92.237 E0.004
G1 X126.184 Y92.275 E0.001
G1 X125.945 Y92.591 E0.01
G1 X125.604 Y93.659 E0.028
G1 X125.72 Y94.009 E0.009
G1 F2100 E-0.5
;LAYER:6
;rapid-leaky
G0 X124.61 Y90.691 Z0.95 F7200
G1 F2100 E0.5
;bead-perimeter_outer
G1 X124.869 Y90.655 F1200 E0.007
G1 X125.131 E0.006
G1 X125.39 Y90.691 E0.007
G1 X125.642 Y90.763 E0.006
G1 X125.882 Y90.868 E0.007
G1 X126.104 Y91.005 E0.006
G1 X126.306 Y91.172 E0.007
G1 X126.483 Y91.364 E0.006
G1 X126.633 Y91.579 E0.007
G1 X126.75 Y91.813 E0.006
G1 X126.835 Y92.061 E0.007
G1 X126.885 Y92.318 E0.006
G1 X126.9 Y92.579 E0.007
G1 X126.877 Y92.839 E0.006
G1 X126.82 Y93.095 E0.007
G1 X126.728 Y93.34 E0.006
G1 X126.603 Y93.569 E0.007
G1 X126.4 Y93.844 E0.009
G1 Y99.85 E0.149
G1 X123.6 E0.07
G1 Y93.844 E0.15
G1 X123.397 Y93.569 E0.008
G1 X123.272 Y93.34 E0.007
G1 X123.18 Y93.095 E0.007
G1 X123.123 Y92.839 E0.006
G1 X123.1 Y92.579 E0.007
G1 X123.115 Y92.318 E0.006
G1 X123.165 Y92.061 E0.007
G1 X123.25 Y91.813 E0.006
G1 X123.302 Y91.709 E0.003
G1 X123.367 Y91.58 E0.004
G1 X123.517 Y91.364 E0.006
G1 X123.694 Y91.171 E0.007
G1 X123.896 Y91.005 E0.006
G1 X124.118 Y90.868 E0.007
G1 X124.358 Y90.763 E0.006
G1 X124.47 Y90.73 E0.003
G1 X124.61 Y90.691 E0.004
;rapid-leaky
G0 X124.684 Y91.044 F7200
;bead-perimeter_inner
G1 X124.894 Y91.015 F1200 E0.005
G1 X125.106 E0.005
G1 X125.315 Y91.044 E0.006
G1 X125.521 Y91.102 E0.005
G1 X125.714 Y91.187 E0.005
G1 X125.894 Y91.298 E0.006
G1 X126.058 Y91.433 E0.005
G1 X126.202 Y91.59 E0.005
G1 X126.323 Y91.764 E0.005
G1 X126.418 Y91.953 E0.006
G1 X126.487 Y92.154 E0.005
G1 X126.527 Y92.362 E0.005
G1 X126.539 Y92.573 E0.006
G1 X126.52 Y92.784 E0.005
G1 X126.474 Y92.992 E0.005
G1 X126.399 Y93.19 E0.006
G1 X126.298 Y93.376 E0.005
G1 X126.04 Y93.726 E0.011
G1 Y99.49 E0.143
G1 X123.96 E0.052
G1 Y93.726 E0.144
G1 X123.702 Y93.376 E0.011
G1 X123.601 Y93.19 E0.005
G1 X123.526 Y92.992 E0.006
G1 X123.48 Y92.784 E0.005
G1 X123.461 Y92.573 E0.005
G1 X123.473 Y92.362 E0.005
G1 X123.513 Y92.154 E0.006
G1 X123.623 Y91.871 E0.007
G1 X123.677 Y91.765 E0.003
G1 X123.798 Y91.59 E0.006
G1 X123.943 Y91.433 E0.005
G1 X124.105 Y91.299 E0.005
G1 X124.286 Y91.187 E0.005
G1 X124.568 Y91.077 E0.008
G1 X124.684 Y91.044 E0.003
G1 F2100 E-0.5
;rapid-dry
G0 X123.74 Y100.711 F7200
G1 F2100 E0.5
;bead-support
G1 X123.897 Y100.62 F1200 E0.004
G1 X126.27 E0.06
G1 X126.269 Y102.33 E0.042
G1 X123.738 Y103.791 E0.073
G1 X123.737 Y106.871 E0.077
G1 X126.267 Y105.41 E0.073
G1 X126.266 Y108.49 E0.077
G1 X123.735 Y109.951 E0.073
G1 X123.733 Y113.031 E0.077
G1 X126.264 Y111.57 E0.072
G1 X126.263 Y114.65 E0.077
G1 X123.732 Y116.112 E0.073
G1 X123.73 Y119.192 E0.077
G1 X124.645 Y118.664 E0.026
G1 X124.797 Y118.705 E0.004
G1 X125 Y118.722 E0.005
G1 X125.203 Y118.705 E0.005
G1 X125.4 Y118.652 E0.005
G1 X125.585 Y118.566 E0.006
G1 X125.753 Y118.449 E0.005
G1 X125.899 Y118.303 E0.005
G1 X126.016 Y118.135 E0.005
G1 X126.102 Y117.95 E0.005
G1 X126.142 Y117.799 E0.004
G1 X126.261 Y117.731 E0.003
G1 F2100 E-0.5
G0 X126.142 Y117.799 F2400
G0 X126.102 Y117.95 F2400
G0 X126.016 Y118.135 F2400
G0 X125.899 Y118.303 F2400
G0 X125.753 Y118.449 F2400
G0 X125.678 Y118.501 F2400
G0 X125.753 Y118.449 F2400
G0 X125.899 Y118.303 F2400
G0 X126.016 Y118.135 F2400
G0 X126.102 Y117.95 F2400
G0 X126.142 Y117.799 F2400
G0 X126.261 Y117.731 F2400
;rapid-dry
G0 X124.931 Y117.157 F7200
G1 F2100 E0.5
;bead-perimeter_outer
G1 X125.069 F1200 E0.004
G1 X125.137 Y117.175 E0.002
G1 X125.2 Y117.204 E0.001
G1 X125.306 Y117.293 E0.004
G1 X125.346 Y117.35 E0.001
G1 X125.393 Y117.481 E0.004
G1 Y117.619 E0.003
G1 X125.375 Y117.687 E0.002
G1 X125.346 Y117.75 E0.002
G1 X125.257 Y117.856 E0.003
G1 X125.2 Y117.896 E0.002
G1 X125.069 Y117.943 E0.004
G1 X124.931 E0.003
G1 X124.863 Y117.925 E0.002
G1 X124.775 Y117.879 E0.002
G1 X124.694 Y117.807 E0.003
G1 X124.654 Y117.75 E0.002
G1 X124.607 Y117.619 E0.003
G1 Y117.481 E0.004
G1 X124.625 Y117.413 E0.001
G1 X124.671 Y117.325 E0.003
G1 X124.743 Y117.244 E0.003
G1 X124.8 Y117.204 E0.001
G1 X124.931 Y117.157 E0.004
;rapid-leaky
G0 X125.007 Y117.513 F7200
;bead-perimeter_inner
G1 X125.037 Y117.543 F1200 E0.001
G1 X125.029 Y117.575 E0.001
G1 X124.993 Y117.587 E0.001
G1 X124.967 Y117.57
G1 X124.965 Y117.536 E0.001
G1 X125.007 Y117.513 E0.001
G1 F2100 E-0.5
;rapid-dry
G0 X124.28 Y96.659 F7200
G1 F2100 E0.5
;bead-sparse_infill
G1 X124.656 Y95.796 F1200 E0.024
G1 X124.724 Y94.728 E0.027
G1 X124.28 Y94.511 E0.012
G1 Y93.62 E0.022
G1 X123.972 Y93.203 E0.013
G1 X123.892 Y93.056 E0.004
G1 X123.833 Y92.9 E0.004
G1 X123.797 Y92.735 E0.005
G1 X123.782 Y92.568 E0.004
G1 X123.791 Y92.402 E0.004
G1 X123.822 Y92.243 E0.004
G1 X123.916 Y92.001 E0.006
G1 X123.953 Y91.929 E0.002
G1 X124.049 Y91.79 E0.005
G1 X124.163 Y91.666 E0.004
G1 X124.292 Y91.559 E0.004
G1 X124.429 Y91.475 E0.004
G1 X124.67 Y91.381 E0.006
G1 X124.749 Y91.358 E0.003
G1 X124.916 Y91.335 E0.004
G1 X125.084 E0.004
G1 X125.249 Y91.358 E0.004
G1 X125.412 Y91.404 E0.004
G1 X125.565 Y91.471 E0.005
G1 X125.707 Y91.559 E0.004
G1 X125.837 Y91.666 E0.004
G1 X125.951 Y91.79 E0.004
G1 X126.047 Y91.928 E0.004
G1 X126.122 Y92.077 E0.004
G1 X126.177 Y92.237 E0.005
G1 X126.179 Y92.249
G1 X125.882 Y92.591 E0.011
G1 X125.417 Y93.659 E0.029
G1 X125.349 Y94.728 E0.027
G1 X125.72 Y94.909 E0.01
G1 F2100 E-0.5
;LAYER:7
;rapid-leaky
G0 X124.118 Y90.868 Z1.1 F7200
G1 F2100 E0.5
;bead-perimeter_outer
G1 X124.358 Y90.763 F1200 E0.007
G1 X124.61 Y90.691 E0.006
G1 X124.869 Y90.655 E0.007
G1 X125.131 E0.006
G1 X125.39 Y90.691 E0.007
G1 X125.522 Y90.728 E0.003
G1 X125.642 Y90.763 E0.004
G1 X125.882 Y90.868 E0.006
G1 X126.104 Y91.005 E0.007
G1 X126.306 Y91.172 E0.006
G1 X126.483 Y91.364 E0.007
G1 X126.633 Y91.579 E0.006
G1 X126.75 Y91.813 E0.007
G1 X126.835 Y92.061 E0.006
G1 X126.885 Y92.318 E0.007
G1 X126.9 Y92.579 E0.006
G1 X126.877 Y92.839 E0.007
G1 X126.82 Y93.095 E0.006
G1 X126.728 Y93.34 E0.007
G1 X126.603 Y93.569 E0.006
G1 X126.4 Y93.844 E0.009
G1 Y99.85 E0.15
G1 X123.6 E0.07
G1 Y93.844 E0.149
G1 X123.397 Y93.569 E0.009
G1 X123.272 Y93.339 E0.006
G1 X123.18 Y93.095 E0.007
G1 X123.123 Y92.839 E0.006
G1 X123.1 Y92.579 E0.007
G1 X123.115 Y92.318 E0.006
G1 X123.165 Y92.061 E0.007
G1 X123.25 Y91.813 E0.007
G1 X123.367 Y91.579 E0.006
G1 X123.517 Y91.364 E0.007
G1 X123.694 Y91.171 E0.006
G1 X123.896 Y91.005 E0.007
G1 X124.118 Y90.868 E0.006
;rapid-leaky
G0 X124.286 Y91.187 F7200
;bead-perimeter_inner
G1 X124.479 Y91.102 F1200 E0.005
G1 X124.685 Y91.044 E0.006
G1 X124.894 Y91.015 E0.005
G1 X125.106 E0.005
G1 X125.424 Y91.075 E0.008
G1 X125.714 Y91.187 E0.008
G1 X125.894 Y91.298 E0.005
G1 X126.058 Y91.433 E0.006
G1 X126.202 Y91.59 E0.005
G1 X126.323 Y91.764 E0.005
G1 X126.418 Y91.953 E0.006
G1 X126.487 Y92.154 E0.005
G1 X126.527 Y92.362 E0.005
G1 X126.539 Y92.573 E0.005
G1 X126.52 Y92.784 E0.006
G1 X126.474 Y92.992 E0.005
G1 X126.399 Y93.19 E0.005
G1 X126.298 Y93.376 E0.006
G1 X126.04 Y93.726 E0.01
G1 Y99.49 E0.144
G1 X123.96 E0.052
G1 Y93.726 E0.144
G1 X123.702 Y93.376 E0.011
G1 X123.6 Y93.189 E0.005
G1 X123.526 Y92.993 E0.005
G1 X123.48 Y92.784 E0.006
G1 X123.461 Y92.572 E0.005
G1 X123.473 Y92.363 E0.005
G1 X123.513 Y92.154 E0.006
G1 X123.582 Y91.953 E0.005
G1 X123.677 Y91.764 E0.005
G1 X123.798 Y91.59 E0.005
G1 X123.943 Y91.433 E0.006
G1 X124.105 Y91.299 E0.005
G1 X124.286 Y91.187 E0.005
G1 F2100 E-0.5
;rapid-dry
G0 X123.74 Y100.711 F7200
G1 F2100 E0.5
;bead-support
G1 X123.897 Y100.62 F1200 E0.005
G1 X126.27 E0.059
G1 X126.269 Y102.33 E0.043
G1 X123.738 Y103.791 E0.073
G1 X123.737 Y106.871 E0.076
G1 X126.267 Y105.41 E0.073
G1 X126.266 Y108.49 E0.077
G1 X123.735 Y109.951 E0.073
G1 X123.733 Y113.031 E0.077
G1 X126.264 Y111.57 E0.073
G1 X126.263 Y114.65 E0.077
G1 X123.732 Y116.112 E0.072
G1 X123.73 Y119.192 E0.077
G1 X124.645 Y118.664 E0.027
G1 X124.797 Y118.705 E0.004
G1 X125 Y118.722 E0.005
G1 X125.203 Y118.705 E0.005
G1 X125.4 Y118.652 E0.005
G1 X125.585 Y118.566 E0.005
G1 X125.753 Y118.449 E0.005
G1 X125.899 Y118.303 E0.005
G1 X126.016 Y118.135 E0.005
G1 X126.102 Y117.95 E0.005
G1 X126.142 Y117.799 E0.004
G1 X126.261 Y117.731 E0.004
G1 F2100 E-0.5
G0 X126.142 Y117.799 F2400
G0 X126.102 Y117.95 F2400
G0 X126.016 Y118.135 F2400
G0 X125.899 Y118.303 F2400
G0 X125.753 Y118.449 F2400
G0 X125.678 Y118.501 F2400
G0 X125.753 Y118.449 F2400
G0 X125.899 Y118.303 F2400
G0 X126.016 Y118.135 F2400
G0 X126.102 Y117.95 F2400
G0 X126.142 Y117.799 F2400
G0 X126.261 Y117.731 F2400
;rapid-dry
G0 X124.931 Y117.157 F7200
G1 F2100 E0.5
;bead-perimeter_outer
G1 X125.069 F1200 E0.003
G1 X125.137 Y117.175 E0.002
G1 X125.2 Y117.204 E0.002
G1 X125.306 Y117.293 E0.003
G1 X125.346 Y117.35 E0.002
G1 X125.393 Y117.481 E0.003
G1 Y117.619 E0.004
G1 X125.375 Y117.687 E0.001
G1 X125.346 Y117.75 E0.002
G1 X125.257 Y117.856 E0.004
G1 X125.2 Y117.896 E0.001
G1 X125.069 Y117.943 E0.004
G1 X124.931 E0.003
G1 X124.863 Y117.925 E0.002
G1 X124.8 Y117.896 E0.002
G1 X124.694 Y117.807 E0.003
G1 X124.654 Y117.75 E0.002
G1 X124.607 Y117.619 E0.003
G1 Y117.481 E0.004
G1 X124.625 Y117.413 E0.002
G1 X124.654 Y117.35 E0.001
G1 X124.743 Y117.244 E0.004
G1 X124.8 Y117.204 E0.002
G1 X124.931 Y117.157 E0.003
;rapid-leaky
G0 X124.986 Y117.515 F7200
;bead-perimeter_inner
G1 X125.014 F1200 E0.001
G1 X125.035 Y117.536
G1 X125.038 Y117.544 E0.001
G1 X125.029 Y117.575
G1 X125.007 Y117.587 E0.001
G1 X124.98 Y117.583 E0.001
G1 X124.963 Y117.557 E0.001
G1 X124.986 Y117.515 E0.001
G1 F2100 E-0.5
;rapid-dry
G0 X125.72 Y95.359 F7200
G1 F2100 E0.5
;bead-sparse_infill
G1 X125.036 Y95.55 F1200 E0.017
G1 X124.28 Y96.767 E0.036
G1 Y94.116 E0.066
G1 X125.036 Y93.905 E0.02
G1 X126.104 Y92.186 E0.05
G1 X126.148 Y92.152 E0.002
G1 F2100 E-0.5
;LAYER:8
;rapid-leaky
G0 X126.75 Y91.813 Z1.25 F7200
G1 F2100 E0.5
;bead-perimeter_outer
G1 X126.835 Y92.061 F1200 E0.006
G1 X126.885 Y92.318 E0.007
G1 X126.9 Y92.579 E0.006
G1 X126.877 Y92.839 E0.007
G1 X126.82 Y93.095 E0.006
G1 X126.728 Y93.339 E0.007
G1 X126.603 Y93.569 E0.007
G1 X126.4 Y93.844 E0.008
G1 Y99.85 E0.15
G1 X123.6 E0.07
G1 Y93.844 E0.15
G1 X123.397 Y93.569 E0.008
G1 X123.272 Y93.34 E0.007
G1 X123.18 Y93.095 E0.006
G1 X123.123 Y92.839 E0.007
G1 X123.1 Y92.579 E0.006
G1 X123.115 Y92.318 E0.007
G1 X123.165 Y92.061 E0.006
G1 X123.25 Y91.813 E0.007
G1 X123.367 Y91.579 E0.006
G1 X123.517 Y91.364 E0.007
G1 X123.694 Y91.172 E0.006
G1 X123.896 Y91.005 E0.007
G1 X124.118 Y90.868 E0.006
G1 X124.358 Y90.763 E0.007
G1 X124.61 Y90.691 E0.006
G1 X124.869 Y90.655 E0.007
G1 X125.131 E0.006
G1 X125.39 Y90.691 E0.007
G1 X125.543 Y90.734 E0.004
G1 X125.882 Y90.868 E0.009
G1 X126.104 Y91.005 E0.007
G1 X126.306 Y91.172 E0.006
G1 X126.415 Y91.289 E0.004
G1 X126.633 Y91.579 E0.009
G1 X126.75 Y91.813 E0.007
;rapid-leaky
G0 X126.418 Y91.953 F7200
;bead-perimeter_inner
G1 X126.487 Y92.154 F1200 E0.005
G1 X126.527 Y92.362 E0.005
G1 X126.539 Y92.573 E0.006
G1 X126.52 Y92.784 E0.005
G1 X126.474 Y92.992 E0.005
G1 X126.4 Y93.189 E0.005
G1 X126.298 Y93.376 E0.006
G1 X126.04 Y93.726 E0.011
G1 Y99.49 E0.143
G1 X123.96 E0.052
G1 Y93.726 E0.144
G1 X123.702 Y93.376 E0.011
G1 X123.601 Y93.19 E0.005
G1 X123.526 Y92.992 E0.005
G1 X123.48 Y92.784 E0.006
G1 X123.461 Y92.573 E0.005
G1 X123.473 Y92.362 E0.005
G1 X123.513 Y92.154 E0.006
G1 X123.582 Y91.953 E0.005
G1 X123.677 Y91.764 E0.005
G1 X123.798 Y91.59 E0.005
G1 X123.942 Y91.433 E0.006
G1 X124.106 Y91.298 E0.005
G1 X124.286 Y91.187 E0.005
G1 X124.479 Y91.102 E0.006
G1 X124.685 Y91.044 E0.005
G1 X124.894 Y91.015 E0.005
G1 X125.106 E0.005
G1 X125.316 Y91.044 E0.006
G1 X125.445 Y91.081 E0.003
G1 X125.714 Y91.187 E0.007
G1 X125.894 Y91.298 E0.006
G1 X126.058 Y91.434 E0.005
G1 X126.15 Y91.533 E0.003
G1 X126.323 Y91.764 E0.007
G1 X126.418 Y91.953 E0.006
G1 F2100 E-0.5
;rapid-dry
G0 X123.74 Y100.711 F7200
G1 F2100 E0.5
;bead-support
G1 X123.897 Y100.62 F1200 E0.004
G1 X126.27 E0.059
G1 X126.269 Y102.33 E0.043
G1 X123.738 Y103.791 E0.073
G1 X123.737 Y106.871 E0.077
G1 X126.267 Y105.41 E0.073
G1 X126.266 Y108.49 E0.077
G1 X123.735 Y109.951 E0.072
G1 X123.733 Y113.031 E0.077
G1 X126.264 Y111.57 E0.073
G1 X126.263 Y114.65 E0.077
G1 X123.732 Y116.112 E0.073
G1 X123.73 Y119.192 E0.077
G1 X124.645 Y118.664 E0.026
G1 X124.797 Y118.705 E0.004
G1 X125 Y118.722 E0.005
G1 X125.203 Y118.705 E0.005
G1 X125.4 Y118.652 E0.005
G1 X125.585 Y118.566 E0.005
G1 X125.753 Y118.449 E0.005
G1 X125.899 Y118.303 E0.006
G1 X126.016 Y118.135 E0.005
G1 X126.102 Y117.95 E0.005
G1 X126.142 Y117.799 E0.004
G1 X126.261 Y117.731 E0.003
G1 F2100 E-0.5
G0 X126.142 Y117.799 F2400
G0 X126.102 Y117.95 F2400
G0 X126.016 Y118.135 F2400
G0 X125.899 Y118.303 F2400
G0 X125.753 Y118.449 F2400
G0 X125.678 Y118.501 F2400
G0 X125.753 Y118.449 F2400
G0 X125.899 Y118.303 F2400
G0 X126.016 Y118.135 F2400
G0 X126.102 Y117.95 F2400
G0 X126.142 Y117.799 F2400
G0 X126.261 Y117.731 F2400
;rapid-dry
G0 X125.069 Y117.157 F7200
G1 F2100 E0.5
;bead-perimeter_outer
G1 X125.137 Y117.175 F1200 E0.002
G1 X125.2 Y117.204 E0.002
G1 X125.306 Y117.293 E0.003
G1 X125.346 Y117.35 E0.002
G1 X125.393 Y117.48 E0.003
G1 X125.399 Y117.551 E0.002
G1 X125.375 Y117.687 E0.003
G1 X125.346 Y117.75 E0.002
G1 X125.257 Y117.856 E0.004
G1 X125.2 Y117.896 E0.001
G1 X125.069 Y117.943 E0.004
G1 X124.931 E0.003
G1 X124.863 Y117.925 E0.002
G1 X124.8 Y117.896 E0.002
G1 X124.694 Y117.807 E0.003
G1 X124.654 Y117.75 E0.002
G1 X124.607 Y117.619 E0.003
G1 Y117.481 E0.004
G1 X124.625 Y117.413 E0.002
G1 X124.654 Y117.35 E0.001
G1 X124.743 Y117.244 E0.004
G1 X124.8 Y117.204 E0.002
G1 X124.931 Y117.157 E0.003
G1 X125.069 E0.004
;rapid-leaky
G0 X124.993 Y117.513 F7200
;bead-perimeter_inner
G1 X125.02 Y117.517 F1200
G1 X125.037 Y117.542 E0.001
G1 X125.033 Y117.57 E0.001
G1 X125.007 Y117.587
G1 X124.98 Y117.583 E0.001
G1 X124.963 Y117.557 E0.001
G1 X124.967 Y117.53 E0.001
G1 X124.993 Y117.513
G1 X125.02 Y117.517 E0.001
G1 X125.037 Y117.542 E0.001
G1 X125.033 Y117.57
G1 X125.007 Y117.587 E0.001
G1 X124.98 Y117.583 E0.001
G1 X124.963 Y117.557 E0.001
G1 X124.967 Y117.53
G1 X124.993 Y117.513 E0.001
G1 F2100 E-0.5
;rapid-dry
G0 X125.72 Y95.592 F7200
G1 F2100 E0.5
;bead-sparse_infill
G1 X125.036 Y95.897 F1200 E0.019
G1 X124.28 Y96.91 E0.031
G1 Y93.896 E0.076
G1 X125.036 Y93.558 E0.02
G1 X126.104 Y92.128 E0.045
G1 X126.133 Y92.108 E0.001
G1 F2100 E-0.5
;LAYER:9
;rapid-leaky
G0 X126.75 Y91.813 Z1.4 F7200
G1 F2100 E0.5
;bead-perimeter_outer
G1 X126.835 Y92.061 F1200 E0.006
G1 X126.885 Y92.318 E0.007
G1 X126.9 Y92.579 E0.006
G1 X126.877 Y92.839 E0.007
G1 X126.82 Y93.095 E0.006
G1 X126.728 Y93.34 E0.007
G1 X126.603 Y93.569 E0.006
G1 X126.4 Y93.844 E0.009
G1 Y99.85 E0.15
G1 X123.6 E0.069
G1 Y93.844 E0.15
G1 X123.397 Y93.569 E0.009
G1 X123.272 Y93.34 E0.006
G1 X123.18 Y93.095 E0.007
G1 X123.123 Y92.839 E0.006
G1 X123.1 Y92.579 E0.007
G1 X123.115 Y92.318 E0.006
G1 X123.165 Y92.061 E0.007
G1 X123.25 Y91.813 E0.006
G1 X123.367 Y91.579 E0.007
G1 X123.517 Y91.364 E0.007
G1 X123.694 Y91.172 E0.006
G1 X123.896 Y91.005 E0.007
G1 X124.118 Y90.868 E0.006
G1 X124.358 Y90.763 E0.007
G1 X124.61 Y90.691 E0.006
G1 X124.869 Y90.655 E0.007
G1 X125.131 E0.006
G1 X125.39 Y90.691 E0.007
G1 X125.643 Y90.763 E0.006
G1 X125.882 Y90.867 E0.007
G1 X126.104 Y91.005 E0.006
G1 X126.306 Y91.172 E0.007
G1 X126.483 Y91.364 E0.006
G1 X126.633 Y91.579 E0.007
G1 X126.75 Y91.813 E0.006
;rapid-leaky
G0 X126.418 Y91.953 F7200
;bead-perimeter_inner
G1 X126.487 Y92.154 F1200 E0.006
G1 X126.527 Y92.362 E0.005
G1 X126.539 Y92.573 E0.005
G1 X126.52 Y92.784 E0.006
G1 X126.474 Y92.992 E0.005
G1 X126.399 Y93.19 E0.005
G1 X126.298 Y93.376 E0.005
G1 X126.04 Y93.726 E0.011
G1 Y99.49 E0.144
G1 X123.96 E0.052
G1 Y93.726 E0.144
G1 X123.702 Y93.376 E0.011
G1 X123.6 Y93.189 E0.005
G1 X123.526 Y92.992 E0.005
G1 X123.48 Y92.784 E0.005
G1 X123.461 Y92.573 E0.006
G1 X123.473 Y92.362 E0.005
G1 X123.513 Y92.154 E0.005
G1 X123.582 Y91.953 E0.006
G1 X123.677 Y91.764 E0.005
G1 X123.798 Y91.59 E0.005
G1 X123.942 Y91.433 E0.006
G1 X124.106 Y91.298 E0.005
G1 X124.285 Y91.188 E0.005
G1 X124.479 Y91.102 E0.005
G1 X124.685 Y91.044 E0.006
G1 X124.894 Y91.015 E0.005
G1 X125.106 E0.005
G1 X125.315 Y91.044 E0.006
G1 X125.521 Y91.103 E0.005
G1 X125.664 Y91.165 E0.004
G1 X125.894 Y91.298 E0.006
G1 X126.058 Y91.433 E0.006
G1 X126.202 Y91.59 E0.005
G1 X126.323 Y91.764 E0.005
G1 X126.418 Y91.953 E0.006
G1 F2100 E-0.5
;rapid-dry
G0 X123.74 Y100.711 F7200
G1 F2100 E0.5
;bead-support
G1 X123.897 Y100.62 F1200 E0.004
G1 X126.27 E0.059
G1 X126.269 Y102.33 E0.043
G1 X123.738 Y103.791 E0.073
G1 X123.737 Y106.871 E0.077
G1 X126.267 Y105.41 E0.073
G1 X126.266 Y108.49 E0.076
G1 X123.735 Y109.951 E0.073
G1 X123.733 Y113.031 E0.077
G1 X126.264 Y111.57 E0.073
G1 X126.263 Y114.65 E0.077
G1 X123.732 Y116.112 E0.073
G1 X123.73 Y119.192 E0.077
G1 X124.645 Y118.664 E0.026
G1 X124.797 Y118.705 E0.004
G1 X125 Y118.722 E0.005
G1 X125.214 Y118.704 E0.005
G1 X125.442 Y118.633 E0.006
G1 X125.586 Y118.565 E0.004
G1 X125.753 Y118.449 E0.005
G1 X125.899 Y118.303 E0.005
G1 X126.016 Y118.135 E0.006
G1 X126.102 Y117.95 E0.005
G1 X126.142 Y117.799 E0.004
G1 X126.261 Y117.731 E0.003
G1 F2100 E-0.5
G0 X126.142 Y117.799 F2400
G0 X126.102 Y117.95 F2400
G0 X126.016 Y118.135 F2400
G0 X125.899 Y118.303 F2400
G0 X125.753 Y118.449 F2400
G0 X125.678 Y118.501 F2400
G0 X125.753 Y118.449 F2400
G0 X125.899 Y118.303 F2400
G0 X126.016 Y118.135 F2400
G0 X126.102 Y117.95 F2400
G0 X126.142 Y117.799 F2400
G0 X126.261 Y117.731 F2400
;rapid-dry
G0 X125.069 Y117.157 F7200
G1 F2100 E0.5
;bead-perimeter_outer
G1 X125.137 Y117.175 F1200 E0.002
G1 X125.257 Y117.244 E0.003
G1 X125.346 Y117.35 E0.004
G1 X125.393 Y117.481 E0.003
G1 X125.392 Y117.623 E0.004
G1 X125.346 Y117.75 E0.003
G1 X125.306 Y117.807 E0.002
G1 X125.2 Y117.896 E0.003
G1 X125.065 Y117.944 E0.004
G1 X124.931 Y117.943 E0.003
G1 X124.8 Y117.896 E0.004
G1 X124.694 Y117.807 E0.003
G1 X124.637 Y117.714 E0.003
G1 X124.601 Y117.55 E0.004
G1 X124.625 Y117.413 E0.003
G1 X124.694 Y117.293 E0.004
G1 X124.8 Y117.204 E0.003
G1 X124.935 Y117.156 E0.004
G1 X125.069 Y117.157 E0.003
;rapid-leaky
G0 X125.003 Y117.512 F7200
;bead-perimeter_inner
G1 X125.029 Y117.525 F1200 E0.001
G1 X125.025 Y117.579 E0.001
G1 X124.98 Y117.583 E0.001
G1 X124.962 Y117.548 E0.001
G1 X124.975 Y117.521 E0.001
G1 X125.003 Y117.512 E0.001
G1 F2100 E-0.5
;rapid-dry
G0 X125.72 Y95.774 F7200
G1 F2100 E0.5
;bead-sparse_infill
G1 X125.036 Y96.143 F1200 E0.019
G1 X124.28 Y97.025 E0.029
G1 Y93.72 E0.083
G1 X125.036 Y93.312 E0.021
G1 X126.104 Y92.066 E0.041
G1 X126.114 Y92.061
G1 F2100 E-0.5
;LAYER:10
;rapid-leaky
G0 X125.585 Y90.746 Z1.55 F7200
G1 F2100 E0.5
;bead-perimeter_outer
G1 X125.882 Y90.868 F1200 E0.008
G1 X126.104 Y91.005 E0.007
G1 X126.306 Y91.172 E0.006
G1 X126.483 Y91.364 E0.007
G1 X126.633 Y91.579 E0.006
G1 X126.75 Y91.813 E0.007
G1 X126.835 Y92.061 E0.006
G1 X126.885 Y92.318 E0.007
G1 X126.9 Y92.579 E0.007
G1 X126.877 Y92.839 E0.006
G1 X126.82 Y93.095 E0.007
G1 X126.728 Y93.339 E0.006
G1 X126.603 Y93.569 E0.007
G1 X126.4 Y93.844 E0.008
G1 Y99.85 E0.15
G1 X123.6 E0.07
G1 Y93.844 E0.15
G1 X123.397 Y93.569 E0.008
G1 X123.272 Y93.34 E0.007
G1 X123.18 Y93.095 E0.006
G1 X123.123 Y92.839 E0.007
G1 X123.1 Y92.579 E0.006
G1 X123.115 Y92.318 E0.007
G1 X123.165 Y92.061 E0.006
G1 X123.25 Y91.813 E0.007
G1 X123.341 Y91.632 E0.005
G1 X123.517 Y91.364 E0.008
G1 X123.694 Y91.171 E0.006
G1 X123.896 Y91.005 E0.007
G1 X124.118 Y90.868 E0.006
G1 X124.358 Y90.763 E0.007
G1 X124.61 Y90.691 E0.007
G1 X124.869 Y90.655 E0.006
G1 X125.131 E0.007
G1 X125.39 Y90.691 E0.006
G1 X125.585 Y90.746 E0.005
;rapid-leaky
G0 X125.487 Y91.093 F7200
;bead-perimeter_inner
G1 X125.714 Y91.187 F1200 E0.006
G1 X125.894 Y91.298 E0.006
G1 X126.058 Y91.433 E0.005
G1 X126.202 Y91.59 E0.005
G1 X126.323 Y91.764 E0.005
G1 X126.418 Y91.953 E0.006
G1 X126.487 Y92.154 E0.005
G1 X126.527 Y92.362 E0.005
G1 X126.539 Y92.573 E0.006
G1 X126.52 Y92.784 E0.005
G1 X126.474 Y92.992 E0.005
G1 X126.4 Y93.188 E0.005
G1 X126.298 Y93.376 E0.006
G1 X126.04 Y93.726 E0.011
G1 Y99.49 E0.143
G1 X123.96 E0.052
G1 Y93.726 E0.144
G1 X123.702 Y93.376 E0.011
G1 X123.601 Y93.19 E0.005
G1 X123.526 Y92.992 E0.005
G1 X123.48 Y92.784 E0.006
G1 X123.461 Y92.573 E0.005
G1 X123.473 Y92.362 E0.005
G1 X123.513 Y92.154 E0.006
G1 X123.582 Y91.953 E0.005
G1 X123.662 Y91.794 E0.004
G1 X123.798 Y91.59 E0.006
G1 X123.942 Y91.433 E0.006
G1 X124.105 Y91.299 E0.005
G1 X124.286 Y91.187 E0.005
G1 X124.479 Y91.102 E0.006
G1 X124.685 Y91.044 E0.005
G1 X124.894 Y91.015 E0.005
G1 X125.106 E0.006
G1 X125.316 Y91.044 E0.005
G1 X125.487 Y91.093 E0.004
G1 F2100 E-0.5
;rapid-dry
G0 X123.74 Y100.711 F7200
G1 F2100 E0.5
;bead-support
G1 X123.897 Y100.62 F1200 E0.005
G1 X126.27 E0.059
G1 X126.269 Y102.33 E0.043
G1 X123.738 Y103.791 E0.073
G1 X123.737 Y106.871 E0.076
G1 X126.267 Y105.41 E0.073
G1 X126.266 Y108.49 E0.077
G1 X123.735 Y109.951 E0.073
G1 X123.733 Y113.031 E0.077
G1 X126.264 Y111.57 E0.073
G1 X126.263 Y114.65 E0.077
G1 X123.732 Y116.112 E0.072
G1 X123.73 Y119.192 E0.077
G1 X124.645 Y118.664 E0.027
G1 X124.797 Y118.705 E0.004
G1 X125 Y118.722 E0.005
G1 X125.203 Y118.705 E0.005
G1 X125.4 Y118.652 E0.005
G1 X125.585 Y118.566 E0.005
G1 X125.753 Y118.449 E0.005
G1 X125.899 Y118.303 E0.005
G1 X126.016 Y118.135 E0.005
G1 X126.102 Y117.95 E0.005
G1 X126.142 Y117.799 E0.004
G1 X126.261 Y117.731 E0.004
G1 F2100 E-0.5
G0 X126.142 Y117.799 F2400
G0 X126.102 Y117.95 F2400
G0 X126.016 Y118.135 F2400
G0 X125.899 Y118.303 F2400
G0 X125.753 Y118.449 F2400
G0 X125.678 Y118.501 F2400
G0 X125.753 Y118.449 F2400
G0 X125.899 Y118.303 F2400
G0 X126.016 Y118.135 F2400
G0 X126.102 Y117.95 F2400
G0 X126.142 Y117.799 F2400
G0 X126.261 Y117.731 F2400
;rapid-dry
G0 X125.069 Y117.157 F7200
G1 F2100 E0.5
;bead-perimeter_outer
G1 X125.2 Y117.204 F1200 E0.003
G1 X125.257 Y117.244 E0.002
G1 X125.346 Y117.35 E0.003
G1 X125.393 Y117.481 E0.004
G1 X125.392 Y117.622 E0.003
G1 X125.346 Y117.75 E0.004
G1 X125.306 Y117.807 E0.001
G1 X125.2 Y117.896 E0.004
G1 X125.069 Y117.943 E0.003
G1 X124.931 E0.004
G1 X124.8 Y117.896 E0.003
G1 X124.694 Y117.807 E0.004
G1 X124.625 Y117.687 E0.003
G1 X124.601 Y117.55 E0.004
G1 X124.625 Y117.413 E0.003
G1 X124.694 Y117.293 E0.004
G1 X124.8 Y117.204 E0.003
G1 X124.931 Y117.157 E0.003
G1 X125.069 E0.004
;rapid-leaky
G0 X124.993 Y117.513 F7200
;bead-perimeter_inner
G1 X125.02 Y117.517 F1200 E0.001
G1 X125.036 Y117.54
G1 X125.035 Y117.565 E0.001
G1 X124.993 Y117.587 E0.001
G1 X124.962 Y117.55 E0.001
G1 X124.993 Y117.513 E0.002
G1 F2100 E-0.5
;rapid-dry
G0 X124.28 Y97.139 F7200
G1 F2100 E0.5
;bead-solid_infill
G1 X124.791 Y97.65 F1200 E0.018
G1 X125.357 E0.014
G1 X124.28 Y96.573 E0.038
G1 Y96.008 E0.014
G1 X125.72 Y97.448 E0.051
G1 Y96.882 E0.014
G1 X124.28 Y95.442 E0.051
G1 Y94.876 E0.014
G1 X125.72 Y96.316 E0.05
G1 Y95.75 E0.015
G1 X124.28 Y94.31 E0.05
G1 Y93.745 E0.014
G1 X125.72 Y95.185 E0.051
G1 Y94.619 E0.014
G1 X123.793 Y92.692 E0.068
G1 X123.782 Y92.568 E0.003
G1 X123.791 Y92.402 E0.005
G1 X123.823 Y92.237 E0.004
G1 X123.844 Y92.177 E0.001
G1 X124.157 Y92.491 E0.011
G1 X124.164 Y92.411 E0.002
G1 X124.198 Y92.275 E0.004
G1 X124.255 Y92.146 E0.003
G1 X124.304 Y92.071 E0.003
G1 X124.039 Y91.806 E0.009
G1 X124.051 Y91.788 E0.001
G1 X124.163 Y91.666 E0.004
G1 X124.292 Y91.559 E0.004
G1 X124.332 Y91.535 E0.001
G1 X124.602 Y91.804 E0.01
G1 X124.66 Y91.773 E0.001
G1 X124.792 Y91.728 E0.004
G1 X124.929 Y91.705 E0.003
G1 X125.069 E0.004
G1 X124.728 Y91.365 E0.012
G1 X124.751 Y91.358
G1 X124.916 Y91.335 E0.004
G1 X125.084 E0.005
G1 X125.25 Y91.358 E0.004
G1 X125.302 Y91.373 E0.001
G1 X126.179 Y92.25 E0.031
G1 X126.209 Y92.402 E0.004
G1 X126.218 Y92.568 E0.004
G1 X126.203 Y92.735 E0.004
G1 X126.184 Y92.821 E0.002
G1 X125.842 Y92.478 E0.013
G1 X125.848 Y92.548 E0.001
G1 X125.835 Y92.696 E0.004
G1 X125.802 Y92.825 E0.003
G1 X125.747 Y92.949 E0.004
G1 X126.017 Y93.219 E0.009
G1 X125.776 Y93.544 E0.01
G1 X125.479 Y93.247 E0.011
G1 X125.458 Y93.263
G1 X125.34 Y93.327 E0.004
G1 X125.208 Y93.372 E0.003
G1 X125.071 Y93.395 E0.004
G1 X125.062
G1 X125.72 Y94.053 E0.023
G1 F2100 E-0.5
;rapid-dry
G0 X125.188 Y92.954 F7200
G1 F2100 E0.5
;bead-sparse_infill
G1 X125.409 Y92.724 F1200 E0.008
G1 F2100 E-0.5
;LAYER:11
;rapid-dry
G0 X125.882 Y90.868 Z1.7 F7200
G1 F2100 E0.5
;bead-perimeter_outer
G1 X126.104 Y91.005 F1200 E0.007
G1 X126.306 Y91.172 E0.006
G1 X126.459 Y91.337 E0.006
G1 X126.633 Y91.579 E0.007
G1 X126.75 Y91.813 E0.007
G1 X126.835 Y92.061 E0.006
G1 X126.885 Y92.318 E0.007
G1 X126.9 Y92.579 E0.006
G1 X126.877 Y92.839 E0.007
G1 X126.82 Y93.095 E0.006
G1 X126.728 Y93.339 E0.007
G1 X126.603 Y93.569 E0.006
G1 X126.4 Y93.844 E0.009
G1 Y99.85 E0.15
G1 X123.6 E0.07
G1 Y93.844 E0.149
G1 X123.397 Y93.569 E0.009
G1 X123.272 Y93.34 E0.006
G1 X123.18 Y93.095 E0.007
G1 X123.123 Y92.839 E0.007
G1 X123.1 Y92.579 E0.006
G1 X123.115 Y92.318 E0.007
G1 X123.165 Y92.061 E0.006
G1 X123.25 Y91.813 E0.007
G1 X123.35 Y91.612 E0.005
G1 X123.517 Y91.364 E0.008
G1 X123.694 Y91.171 E0.006
G1 X123.896 Y91.005 E0.007
G1 X124.118 Y90.868 E0.006
G1 X124.358 Y90.763 E0.007
G1 X124.61 Y90.691 E0.006
G1 X124.869 Y90.655 E0.007
G1 X125.131 E0.006
G1 X125.39 Y90.691 E0.007
G1 X125.606 Y90.752 E0.006
G1 X125.882 Y90.868 E0.007
;rapid-leaky
G0 X125.714 Y91.187 F7200
;bead-perimeter_inner
G1 X125.894 Y91.298 F1200 E0.005
G1 X126.058 Y91.434 E0.006
G1 X126.194 Y91.581 E0.005
G1 X126.323 Y91.764 E0.005
G1 X126.418 Y91.953 E0.005
G1 X126.487 Y92.154 E0.006
G1 X126.527 Y92.362 E0.005
G1 X126.539 Y92.573 E0.005
G1 X126.52 Y92.784 E0.006
G1 X126.474 Y92.992 E0.005
G1 X126.4 Y93.188 E0.005
G1 X126.298 Y93.376 E0.005
G1 X126.04 Y93.726 E0.011
G1 Y99.49 E0.144
G1 X123.96 E0.052
G1 Y93.726 E0.144
G1 X123.702 Y93.376 E0.011
G1 X123.601 Y93.19 E0.005
G1 X123.526 Y92.992 E0.005
G1 X123.48 Y92.784 E0.005
G1 X123.461 Y92.573 E0.006
G1 X123.473 Y92.362 E0.005
G1 X123.513 Y92.154 E0.005
G1 X123.582 Y91.953 E0.006
G1 X123.671 Y91.775 E0.005
G1 X123.798 Y91.59 E0.005
G1 X123.942 Y91.433 E0.005
G1 X124.105 Y91.299 E0.006
G1 X124.286 Y91.187 E0.005
G1 X124.479 Y91.102 E0.005
G1 X124.685 Y91.044 E0.006
G1 X124.894 Y91.015 E0.005
G1 X125.106 E0.005
G1 X125.316 Y91.044 E0.005
G1 X125.508 Y91.099 E0.005
G1 X125.714 Y91.187 E0.006
G1 F2100 E-0.5
;rapid-dry
G0 X125.547 Y100.62 F7200
G1 F2100 E0.5
;bead-support
G1 X126.269 Y101.871 F1319 E0.036
G1 X126.268 Y103.203 E0.033
G1 X124.777 Y100.62 E0.075
G1 X124.007 E0.019
G1 X126.268 Y104.535 E0.113
G1 X126.267 Y105.867 E0.033
G1 X123.739 Y101.489 E0.126
G1 Y102.821 E0.033
G1 X126.266 Y107.199 E0.126
G1 Y108.531 E0.034
G1 X123.738 Y104.153 E0.126
G1 X123.737 Y105.485 E0.033
G1 X126.265 Y109.864 E0.126
G1 X126.264 Y111.196 E0.033
G1 X123.737 Y106.818 E0.126
G1 X123.736 Y108.15 E0.034
G1 X126.264 Y112.528 E0.126
G1 X126.263 Y113.86 E0.033
G1 X123.735 Y109.482 E0.126
G1 Y110.814 E0.033
G1 X126.262 Y115.192 E0.126
G1 F2100 E-0.5
G0 X125.762 Y114.326 F2400
G0 X126.262 Y115.192 F2400
;rapid-dry
G0 X125.069 Y117.157 F7200
G1 F2100 E0.5
;bead-perimeter_outer
G1 X125.2 Y117.204 F1200 E0.004
G1 X125.257 Y117.244 E0.002
G1 X125.346 Y117.35 E0.003
G1 X125.393 Y117.48 E0.004
G1 Y117.622 E0.003
G1 X125.346 Y117.75 E0.003
G1 X125.306 Y117.807 E0.002
G1 X125.2 Y117.896 E0.004
G1 X125.069 Y117.943 E0.003
G1 X124.931 E0.004
G1 X124.8 Y117.896 E0.003
G1 X124.694 Y117.807 E0.003
G1 X124.625 Y117.687 E0.004
G1 X124.601 Y117.55 E0.003
G1 X124.625 Y117.413 E0.004
G1 X124.694 Y117.293 E0.003
G1 X124.8 Y117.204 E0.004
G1 X124.931 Y117.157 E0.003
G1 X125.069 E0.004
;rapid-leaky
G0 X124.993 Y117.513 F7200
;bead-perimeter_inner
G1 X125.02 Y117.517 F1200
G1 X125.037 Y117.54 E0.001
G1 X125.035 Y117.564 E0.001
G1 X124.993 Y117.587 E0.001
G1 X124.962 Y117.55 E0.001
G1 X124.993 Y117.513 E0.001
G1 F2100 E-0.5
;rapid-dry
G0 X124.735 Y119.214 F7200
G1 F2100 E0.5
;bead-support
G1 X124.325 Y118.503 F1319 E0.021
G1 X124.415 Y118.566 E0.003
G1 X124.536 Y118.622 E0.003
G1 X124.6 Y118.652 E0.002
G1 X124.797 Y118.705 E0.005
G1 X125 Y118.722 E0.005
G1 X125.203 Y118.705 E0.005
G1 X125.21 Y118.703
G1 X125.507 Y119.217 E0.015
G1 X126.26 Y119.219 E0.019
G1 Y119.188
G1 X125.804 Y118.398 E0.023
G1 X125.899 Y118.303 E0.003
G1 X126.016 Y118.135 E0.006
G1 X126.102 Y117.95 E0.005
G1 X126.159 Y117.736 E0.005
G1 Y117.68 E0.002
G1 X126.261 Y117.856 E0.005
G1 X126.262 Y116.524 E0.033
G1 X123.734 Y112.146 E0.126
G1 X123.733 Y113.478 E0.033
G1 X125.465 Y116.478 E0.087
G1 X125.4 Y116.448 E0.001
G1 X125.203 Y116.395 E0.006
G1 X125 Y116.378 E0.005
G1 X124.797 Y116.395 E0.005
G1 X124.668 Y116.43 E0.003
G1 X123.732 Y114.81 E0.047
G1 Y116.142 E0.033
G1 X124.106 Y116.791 E0.019
G1 X124.101 Y116.797
G1 X124.045 Y116.877 E0.002
G1 X123.984 Y116.965 E0.003
G1 X123.898 Y117.15 E0.005
G1 X123.845 Y117.347 E0.005
G1 X123.828 Y117.55 E0.005
G1 X123.837 Y117.659 E0.003
G1 X123.731 Y117.475 E0.005
G1 Y118.392 E0.023
G1 X123.73 Y118.807 E0.01
G1 X123.964 Y119.212 E0.012
G1 F2100 E-0.5
G0 X123.73 Y118.807 F2400
G0 X123.731 Y118.392 F2400
G0 Y118.274 F2400
G0 Y118.392 F2400
G0 X123.73 Y118.807 F2400
G0 X123.964 Y119.212 F2400
;rapid-dry
G0 X125.354 Y97.65 F7200
G1 F2100 E0.5
;bead-solid_infill
G1 X125.72 Y97.284 F1200 E0.013
G1 Y96.718 E0.014
G1 X124.788 Y97.65 E0.033
G1 X124.28 E0.013
G1 Y97.593 E0.001
G1 X125.72 Y96.153 E0.051
G1 Y95.587 E0.014
G1 X124.28 Y97.027 E0.051
G1 Y96.461 E0.014
G1 X125.72 Y95.021 E0.051
G1 Y94.456 E0.014
G1 X124.28 Y95.896 E0.051
G1 Y95.33 E0.014
G1 X125.72 Y93.89 E0.051
G1 F2100 E-0.5
;rapid-dry
G0 X124.953 Y92.993 F7200
G1 F2100 E0.5
;bead-sparse_infill
G1 X125.036 Y92.938 F1439 E0.002
G1 X125.446 Y92.552 E0.014
;rapid-leaky
G0 X124.875 Y91.341 F7200
;bead-solid_infill
G1 X123.79 Y92.426 F1200 E0.038
G1 X123.782 Y92.568 E0.004
G1 X123.797 Y92.735 E0.004
G1 X123.833 Y92.9 E0.004
G1 X123.847 Y92.935 E0.001
G1 X124.158 Y92.623 E0.011
G1 X124.163 Y92.683 E0.002
G1 X124.199 Y92.826 E0.003
G1 X124.255 Y92.954 E0.004
G1 X124.309 Y93.038 E0.002
G1 X124.045 Y93.302 E0.01
G1 X124.28 Y93.62 E0.01
G1 Y93.633
G1 X124.612 Y93.301 E0.012
G1 X124.66 Y93.327 E0.001
G1 X124.792 Y93.372 E0.003
G1 X124.929 Y93.395 E0.004
G1 X125.071 E0.003
G1 X125.086 Y93.392 E0.001
G1 X124.28 Y94.198 E0.028
G1 Y94.764 E0.014
G1 X126.173 Y92.871 E0.067
G1 X126.203 Y92.735 E0.004
G1 X126.218 Y92.568 E0.004
G1 X126.209 Y92.402 E0.004
G1 X126.187 Y92.291 E0.003
G1 X125.84 Y92.639 E0.012
G1 X125.848 Y92.548 E0.002
G1 X125.836 Y92.411 E0.004
G1 X125.802 Y92.275 E0.003
G1 X125.752 Y92.161 E0.003
G1 X126.021 Y91.892 E0.01
G1 X125.944 Y91.783 E0.003
G1 X125.837 Y91.666 E0.004
G1 X125.752 Y91.596 E0.003
G1 X125.488 Y91.859 E0.009
G1 X125.464 Y91.84 E0.001
G1 X125.34 Y91.773 E0.003
G1 X125.208 Y91.728 E0.004
G1 X125.076 Y91.706 E0.003
G1 X125.385 Y91.396 E0.011
G1 F2100 E-0.5
;LAYER:12
;rapid-dry
G0 X123.165 Y92.061 Z1.85 F7200
G1 F2100 E0.5
;bead-perimeter_outer
G1 X123.25 Y91.813 F1200 E0.007
G1 X123.367 Y91.579 E0.006
G1 X123.517 Y91.364 E0.007
G1 X123.694 Y91.172 E0.006
G1 X123.896 Y91.005 E0.007
G1 X124.094 Y90.882 E0.006
G1 X124.359 Y90.762 E0.007
G1 X124.61 Y90.691 E0.006
G1 X124.869 Y90.655 E0.007
G1 X125.131 E0.007
G1 X125.39 Y90.691 E0.006
G1 X125.643 Y90.763 E0.007
G1 X125.857 Y90.856 E0.005
G1 X126.105 Y91.006 E0.008
G1 X126.306 Y91.172 E0.006
G1 X126.483 Y91.364 E0.007
G1 X126.633 Y91.579 E0.006
G1 X126.75 Y91.813 E0.007
G1 X126.835 Y92.061 E0.006
G1 X126.885 Y92.318 E0.007
G1 X126.9 Y92.579 E0.006
G1 X126.877 Y92.839 E0.007
G1 X126.82 Y93.095 E0.006
G1 X126.728 Y93.34 E0.007
G1 X126.603 Y93.569 E0.006
G1 X126.4 Y93.844 E0.009
G1 Y99.85 E0.15
G1 X123.6 E0.07
G1 Y93.844 E0.149
G1 X123.397 Y93.569 E0.009
G1 X123.272 Y93.34 E0.006
G1 X123.19 Y93.12 E0.006
G1 X123.123 Y92.838 E0.008
G1 X123.1 Y92.579 E0.006
G1 X123.115 Y92.318 E0.007
G1 X123.165 Y92.061 E0.006
;rapid-leaky
G0 X123.513 Y92.154 F7200
;bead-perimeter_inner
G1 X123.582 Y91.953 F1200 E0.005
G1 X123.677 Y91.764 E0.006
G1 X123.798 Y91.59 E0.005
G1 X123.942 Y91.433 E0.005
G1 X124.106 Y91.298 E0.006
G1 X124.264 Y91.2 E0.004
G1 X124.483 Y91.101 E0.006
G1 X124.685 Y91.044 E0.005
G1 X124.894 Y91.015 E0.006
G1 X125.106 E0.005
G1 X125.315 Y91.044 E0.005
G1 X125.521 Y91.103 E0.006
G1 X125.692 Y91.177 E0.004
G1 X125.896 Y91.3 E0.006
G1 X126.058 Y91.433 E0.005
G1 X126.202 Y91.59 E0.006
G1 X126.323 Y91.764 E0.005
G1 X126.418 Y91.953 E0.005
G1 X126.487 Y92.154 E0.006
G1 X126.527 Y92.362 E0.005
G1 X126.539 Y92.573 E0.005
G1 X126.52 Y92.784 E0.005
G1 X126.474 Y92.992 E0.006
G1 X126.399 Y93.19 E0.005
G1 X126.298 Y93.376 E0.005
G1 X126.04 Y93.726 E0.011
G1 Y99.49 E0.144
G1 X123.96 E0.052
G1 Y93.726 E0.144
G1 X123.702 Y93.376 E0.01
G1 X123.6 Y93.189 E0.006
G1 X123.535 Y93.015 E0.004
G1 X123.479 Y92.781 E0.006
G1 X123.461 Y92.573 E0.006
G1 X123.473 Y92.362 E0.005
G1 X123.513 Y92.154 E0.005
G1 F2100 E-0.5
;rapid-dry
G0 X124.931 Y117.157 F7200
G1 F2100 E0.5
;bead-perimeter_outer
G1 X125.069 F1200 E0.004
G1 X125.2 Y117.204 E0.003
G1 X125.257 Y117.244 E0.002
G1 X125.346 Y117.35 E0.003
G1 X125.393 Y117.481 E0.004
G1 Y117.621 E0.003
G1 X125.346 Y117.75 E0.004
G1 X125.257 Y117.856 E0.003
G1 X125.2 Y117.896 E0.002
G1 X125.069 Y117.943 E0.003
G1 X124.931 E0.004
G1 X124.8 Y117.896 E0.003
G1 X124.694 Y117.807 E0.004
G1 X124.625 Y117.687 E0.003
G1 X124.601 Y117.55 E0.004
G1 X124.625 Y117.413 E0.003
G1 X124.694 Y117.293 E0.004
G1 X124.8 Y117.204 E0.003
G1 X124.931 Y117.157 E0.003
;rapid-leaky
G0 X125 Y117.512 F7200
;bead-perimeter_inner
G1 X125.037 Y117.543 F1200 E0.002
G1 X125.029 Y117.575 E0.001
G1 X125 Y117.588
G1 X124.971 Y117.575 E0.001
G1 X124.963 Y117.543 E0.001
G1 X125 Y117.512 E0.001
G1 F2100 E-0.5
;rapid-dry
G0 X124.28 Y97.139 F7200
G1 F2100 E0.5
;bead-solid_infill
G1 X124.791 Y97.65 F1200 E0.018
G1 X125.357 E0.014
G1 X124.28 Y96.573 E0.038
G1 Y96.008 E0.014
G1 X125.72 Y97.448 E0.051
G1 Y96.882 E0.014
G1 X124.28 Y95.442 E0.051
G1 Y94.876 E0.014
G1 X125.72 Y96.316 E0.051
G1 Y95.75 E0.014
G1 X124.28 Y94.31 E0.051
G1 Y93.745 E0.014
G1 X125.72 Y95.185 E0.051
G1 Y94.619 E0.014
G1 X123.793 Y92.692 E0.068
G1 X123.782 Y92.568 E0.003
G1 X123.788 Y92.455 E0.003
G1 X123.791 Y92.401 E0.001
G1 X123.823 Y92.237 E0.004
G1 X123.844 Y92.177 E0.002
G1 X124.157 Y92.491 E0.011
G1 X124.164 Y92.411 E0.002
G1 X124.198 Y92.275 E0.003
G1 X124.255 Y92.146 E0.004
G1 X124.304 Y92.071 E0.002
G1 X124.038 Y91.806 E0.01
G1 X124.049 Y91.79
G1 X124.163 Y91.666 E0.004
G1 X124.221 Y91.619 E0.002
G1 X124.293 Y91.559 E0.002
G1 X124.332 Y91.534 E0.002
G1 X124.602 Y91.804 E0.009
G1 X124.66 Y91.773 E0.002
G1 X124.792 Y91.728 E0.003
G1 X124.929 Y91.705 E0.004
G1 X125.069 E0.003
G1 X124.728 Y91.365 E0.012
G1 X124.751 Y91.358 E0.001
G1 X124.916 Y91.335 E0.004
G1 X125.084 E0.004
G1 X125.249 Y91.358 E0.004
G1 X125.303 Y91.373 E0.002
G1 X126.179 Y92.25 E0.031
G1 X126.209 Y92.402 E0.003
G1 X126.218 Y92.568 E0.005
G1 X126.203 Y92.735 E0.004
G1 X126.184 Y92.821 E0.002
G1 X125.842 Y92.478 E0.012
G1 X125.848 Y92.548 E0.002
G1 X125.835 Y92.696 E0.004
G1 X125.802 Y92.825 E0.003
G1 X125.747 Y92.949 E0.003
G1 X126.017 Y93.219 E0.01
G1 X125.776 Y93.544 E0.01
G1 X125.479 Y93.247 E0.01
G1 X125.458 Y93.263 E0.001
G1 X125.34 Y93.327 E0.003
G1 X125.208 Y93.372 E0.004
G1 X125.071 Y93.395 E0.003
G1 X125.062 E0.001
G1 X125.72 Y94.053 E0.023
G1 F2100 E-0.5
;rapid-dry
G0 X124.8 Y92.948 F7200
G1 F2100 E0.5
;bead-sparse_infill
G1 X125.036 Y92.779 F1200 E0.007
G1 X125.431 Y92.439 E0.013
G1 F2100 E-0.5
;LAYER:13
;rapid-dry
G0 X126.603 Y93.57 Z2 F7200
G1 F2100 E0.5
;bead-perimeter_outer
G1 X126.4 Y93.844 F1200 E0.008
G1 Y99.85 E0.15
G1 X123.6 E0.07
G1 Y93.844 E0.15
G1 X123.397 Y93.569 E0.008
G1 X123.272 Y93.34 E0.007
G1 X123.18 Y93.095 E0.007
G1 X123.123 Y92.839 E0.006
G1 X123.1 Y92.579 E0.007
G1 X123.115 Y92.318 E0.006
G1 X123.165 Y92.061 E0.007
G1 X123.25 Y91.813 E0.006
G1 X123.367 Y91.579 E0.007
G1 X123.517 Y91.364 E0.006
G1 X123.694 Y91.172 E0.007
G1 X123.896 Y91.005 E0.006
G1 X124.118 Y90.868 E0.007
G1 X124.358 Y90.763 E0.006
G1 X124.61 Y90.691 E0.007
G1 X124.869 Y90.655 E0.006
G1 X125.131 E0.007
G1 X125.39 Y90.691 E0.006
G1 X125.636 Y90.761 E0.007
G1 X125.882 Y90.868 E0.007
G1 X126.104 Y91.005 E0.006
G1 X126.306 Y91.172 E0.007
G1 X126.483 Y91.364 E0.006
G1 X126.633 Y91.579 E0.007
G1 X126.75 Y91.813 E0.006
G1 X126.835 Y92.061 E0.007
G1 X126.885 Y92.318 E0.006
G1 X126.9 Y92.579 E0.007
G1 X126.877 Y92.84 E0.006
G1 X126.822 Y93.088 E0.007
G1 X126.73 Y93.333 E0.006
G1 X126.603 Y93.57 E0.007
;rapid-leaky
G0 X126.298 Y93.376 F7200
;bead-perimeter_inner
G1 X126.04 Y93.726 F1200 E0.011
G1 Y99.49 E0.143
G1 X123.96 E0.052
G1 Y93.726 E0.144
G1 X123.702 Y93.376 E0.011
G1 X123.601 Y93.19 E0.005
G1 X123.526 Y92.992 E0.006
G1 X123.48 Y92.784 E0.005
G1 X123.461 Y92.573 E0.005
G1 X123.473 Y92.362 E0.005
G1 X123.513 Y92.154 E0.006
G1 X123.582 Y91.953 E0.005
G1 X123.677 Y91.764 E0.005
G1 X123.798 Y91.59 E0.006
G1 X123.942 Y91.433 E0.005
G1 X124.106 Y91.298 E0.005
G1 X124.286 Y91.187 E0.005
G1 X124.479 Y91.102 E0.006
G1 X124.685 Y91.044 E0.005
G1 X124.894 Y91.015 E0.005
G1 X125.106 E0.006
G1 X125.315 Y91.044 E0.005
G1 X125.514 Y91.101 E0.005
G1 X125.715 Y91.188 E0.006
G1 X125.894 Y91.298 E0.005
G1 X126.058 Y91.433 E0.005
G1 X126.202 Y91.59 E0.005
G1 X126.323 Y91.764 E0.006
G1 X126.418 Y91.953 E0.005
G1 X126.487 Y92.154 E0.005
G1 X126.527 Y92.362 E0.006
G1 X126.539 Y92.573 E0.005
G1 X126.52 Y92.785 E0.005
G1 X126.476 Y92.986 E0.005
G1 X126.402 Y93.184 E0.005
G1 X126.298 Y93.376 E0.006
G1 F2100 E-0.5
;rapid-dry
G0 X124.998 Y117.151 F7200
G1 F2100 E0.5
;bead-perimeter_outer
G1 X125.137 Y117.175 F1200 E0.003
G1 X125.257 Y117.244 E0.004
G1 X125.346 Y117.35 E0.003
G1 X125.393 Y117.481 E0.004
G1 Y117.62 E0.003
G1 X125.346 Y117.75 E0.004
G1 X125.306 Y117.807 E0.002
G1 X125.2 Y117.896 E0.003
G1 X125.137 Y117.925 E0.002
G1 X125.003 Y117.949 E0.003
G1 X124.863 Y117.925 E0.004
G1 X124.8 Y117.896 E0.001
G1 X124.694 Y117.807 E0.004
G1 X124.654 Y117.75 E0.002
G1 X124.607 Y117.619 E0.003
G1 Y117.48 E0.003
G1 X124.654 Y117.35 E0.004
G1 X124.743 Y117.244 E0.003
G1 X124.863 Y117.175 E0.004
G1 X124.998 Y117.151 E0.003
;rapid-leaky
G0 Y117.512 F7200
;bead-perimeter_inner
G1 X125.038 Y117.544 F1200 E0.002
G1 X125.029 Y117.575
G1 X125.002 Y117.588 E0.001
G1 X124.971 Y117.575 E0.001
G1 X124.963 Y117.543 E0.001
G1 X124.998 Y117.512 E0.001
G1 F2100 E-0.5
;rapid-dry
G0 X125.354 Y97.65 F7200
G1 F2100 E0.5
;bead-solid_infill
G1 X125.72 Y97.284 F1200 E0.013
G1 Y96.718 E0.014
G1 X124.788 Y97.65 E0.033
G1 X124.28 E0.012
G1 Y97.593 E0.002
G1 X125.72 Y96.153 E0.051
G1 Y95.587 E0.014
G1 X124.28 Y97.027 E0.051
G1 Y96.461 E0.014
G1 X125.72 Y95.021 E0.051
G1 Y94.456 E0.014
G1 X124.28 Y95.896 E0.05
G1 Y95.33 E0.015
G1 X125.72 Y93.89 E0.05
G1 F2100 E-0.5
;rapid-dry
G0 X124.704 Y92.883 F7200
G1 F2100 E0.5
;bead-sparse_infill
G1 X125.036 Y92.628 F1200 E0.011
G1 X125.394 Y92.342 E0.011
;rapid-leaky
G0 X124.875 Y91.341 F7200
;bead-solid_infill
G1 X123.79 Y92.426 F1200 E0.039
G1 X123.782 Y92.568 E0.003
G1 X123.797 Y92.735 E0.004
G1 X123.833 Y92.9 E0.004
G1 X123.847 Y92.935 E0.001
G1 X124.158 Y92.623 E0.011
G1 X124.163 Y92.683 E0.002
G1 X124.199 Y92.826 E0.004
G1 X124.255 Y92.954 E0.003
G1 X124.309 Y93.038 E0.003
G1 X124.045 Y93.302 E0.009
G1 X124.28 Y93.62 E0.01
G1 Y93.633
G1 X124.612 Y93.301 E0.012
G1 X124.66 Y93.327 E0.001
G1 X124.792 Y93.372 E0.004
G1 X124.929 Y93.395 E0.003
G1 X125.071 E0.004
G1 X125.086 Y93.392
G1 X124.28 Y94.198 E0.028
G1 Y94.764 E0.015
G1 X126.173 Y92.871 E0.066
G1 X126.203 Y92.736 E0.004
G1 X126.218 Y92.568 E0.004
G1 Y92.562
G1 X126.209 Y92.402 E0.004
G1 X126.187 Y92.291 E0.003
G1 X125.84 Y92.639 E0.012
G1 X125.848 Y92.548 E0.002
G1 X125.836 Y92.411 E0.004
G1 X125.802 Y92.275 E0.003
G1 X125.752 Y92.161 E0.004
G1 X126.021 Y91.891 E0.009
G1 X125.951 Y91.79 E0.003
G1 X125.837 Y91.666 E0.004
G1 X125.752 Y91.596 E0.003
G1 X125.488 Y91.859 E0.009
G1 X125.464 Y91.84 E0.001
G1 X125.34 Y91.773 E0.004
G1 X125.208 Y91.728 E0.003
G1 X125.076 Y91.706 E0.003
G1 X125.385 Y91.397 E0.011
G1 F2100 E-0.5
;LAYER:14
;rapid-leaky
G0 X124.693 Y91.339 Z2.15 F7200
G1 F2100 E0.5
;bead-perimeter_outer
G1 X124.896 Y91.305 F1200 E0.006
G1 X125.104 E0.005
G1 X125.307 Y91.339 E0.005
G1 X125.501 Y91.406 E0.005
G1 X125.683 Y91.504 E0.005
G1 X125.846 Y91.631 E0.005
G1 X125.986 Y91.782 E0.005
G1 X126.098 Y91.955 E0.006
G1 X126.181 Y92.144 E0.005
G1 X126.232 Y92.344 E0.005
G1 X126.249 Y92.549 E0.005
G1 X126.23 Y92.763 E0.005
G1 X126.181 Y92.956 E0.005
G1 X126.098 Y93.145 E0.005
G1 X125.986 Y93.318 E0.006
G1 X125.846 Y93.469 E0.005
G1 X125.677 Y93.6 E0.005
G1 X125.501 Y93.694 E0.005
G1 X125.307 Y93.761 E0.005
G1 X125.104 Y93.795 E0.005
G1 X124.896 E0.005
G1 X124.693 Y93.761 E0.006
G1 X124.499 Y93.694 E0.005
G1 X124.317 Y93.596 E0.005
G1 X124.154 Y93.469 E0.005
G1 X124.014 Y93.318 E0.005
G1 X123.902 Y93.145 E0.005
G1 X123.819 Y92.956 E0.005
G1 X123.767 Y92.748 E0.006
G1 X123.751 Y92.55 E0.005
G1 X123.768 Y92.344 E0.005
G1 X123.819 Y92.144 E0.005
G1 X123.902 Y91.955 E0.005
G1 X124.014 Y91.782 E0.005
G1 X124.154 Y91.631 E0.006
G1 X124.323 Y91.5 E0.005
G1 X124.499 Y91.406 E0.005
G1 X124.693 Y91.339 E0.005
;rapid-leaky
G0 X124.782 Y91.689 F7200
;bead-perimeter_inner
G1 X124.926 Y91.665 F1208 E0.004
G1 X125.074 E0.003
G1 X125.218 Y91.689 E0.004
G1 X125.356 Y91.736 E0.004
G1 X125.486 Y91.807 E0.003
G1 X125.601 Y91.896 E0.004
G1 X125.7 Y92.004 E0.004
G1 X125.781 Y92.127 E0.003
G1 X125.84 Y92.262 E0.004
G1 X125.876 Y92.404 E0.004
G1 X125.888 Y92.549 E0.003
G1 X125.874 Y92.702 E0.004
G1 X125.84 Y92.838 E0.004
G1 X125.781 Y92.973 E0.003
G1 X125.7 Y93.096 E0.004
G1 X125.602 Y93.203 E0.003
G1 X125.48 Y93.297 E0.004
G1 X125.356 Y93.364 E0.004
G1 X125.218 Y93.411 E0.003
G1 X125.074 Y93.435 E0.004
G1 X124.926 E0.004
G1 X124.782 Y93.411 E0.003
G1 X124.644 Y93.364 E0.004
G1 X124.514 Y93.293 E0.004
G1 X124.399 Y93.204 E0.003
G1 X124.3 Y93.096 E0.004
G1 X124.219 Y92.973 E0.004
G1 X124.161 Y92.839 E0.003
G1 X124.123 Y92.69 E0.004
G1 X124.112 Y92.55 E0.004
G1 X124.124 Y92.404 E0.003
G1 X124.16 Y92.262 E0.004
G1 X124.219 Y92.127 E0.004
G1 X124.3 Y92.004 E0.003
G1 X124.398 Y91.897 E0.004
G1 X124.52 Y91.803 E0.004
G1 X124.644 Y91.737 E0.003
G1 X124.782 Y91.689 E0.004
G1 F2100 E-0.5
;rapid-dry
G0 X123.6 Y97.25 F7200
G1 F2100 E0.5
;bead-perimeter_outer
G1 X126.4 F1200 E0.07
G1 Y119.35 E0.551
G1 X123.6 E0.07
G1 Y97.25 E0.551
;rapid-leaky
G0 X123.96 Y97.61 F7200
;bead-perimeter_inner
G1 X126.04 F1208 E0.052
G1 Y118.99 E0.533
G1 X123.96 E0.052
G1 Y97.61 E0.534
;rapid-leaky
G0 X124.669 Y99.85 F7200
;bead-bridge
G1 X124.28 Y115.947 F1208 E0.401
G1 Y118.67 E0.068
G1 X124.614 E0.009
G1 X125.069 Y99.85 E0.469
G1 X125.469 E0.01
G1 X125.014 Y118.67 E0.47
G1 X125.415 E0.01
G1 X125.72 Y106.021 E0.315
G1 F2100 E-0.5
;rapid-dry
G0 X124.545 Y92.886 F7200
G1 F2100 E0.5
;bead-sparse_infill
G1 X125.036 Y92.477 F1812 E0.016
G1 X125.432 Y92.184 E0.013
G1 F2100 E-0.5
;LAYER:15
;rapid-leaky
G0 X126.181 Y92.144 Z2.3 F7200
G1 F2100 E0.5
;bead-perimeter_outer
G1 X126.232 Y92.344 F1200 E0.005
G1 X126.249 Y92.55 E0.005
G1 X126.232 Y92.756 E0.005
G1 X126.181 Y92.956 E0.005
G1 X126.098 Y93.145 E0.005
G1 X125.986 Y93.318 E0.006
G1 X125.847 Y93.468 E0.005
G1 X125.666 Y93.605 E0.005
G1 X125.501 Y93.694 E0.005
G1 X125.307 Y93.761 E0.005
G1 X125.104 Y93.795 E0.005
G1 X124.896 E0.005
G1 X124.693 Y93.761 E0.006
G1 X124.499 Y93.694 E0.005
G1 X124.317 Y93.596 E0.005
G1 X124.154 Y93.469 E0.005
G1 X124.014 Y93.318 E0.005
G1 X123.902 Y93.145 E0.005
G1 X123.819 Y92.957 E0.005
G1 X123.766 Y92.737 E0.006
G1 X123.751 Y92.55 E0.005
G1 X123.768 Y92.344 E0.005
G1 X123.819 Y92.144 E0.005
G1 X123.902 Y91.955 E0.005
G1 X124.014 Y91.782 E0.005
G1 X124.153 Y91.632 E0.005
G1 X124.334 Y91.495 E0.006
G1 X124.499 Y91.406 E0.005
G1 X124.693 Y91.339 E0.005
G1 X124.896 Y91.305 E0.005
G1 X125.104 E0.005
G1 X125.307 Y91.339 E0.005
G1 X125.5 Y91.405 E0.005
G1 X125.698 Y91.515 E0.006
G1 X125.846 Y91.631 E0.005
G1 X125.986 Y91.782 E0.005
G1 X126.098 Y91.955 E0.005
G1 X126.181 Y92.144 E0.005
;rapid-leaky
G0 X125.84 Y92.262 F7200
;bead-perimeter_inner
G1 X125.876 Y92.404 F1494 E0.004
G1 X125.888 Y92.55 E0.003
G1 X125.876 Y92.696 E0.004
G1 X125.84 Y92.838 E0.004
G1 X125.781 Y92.973 E0.003
G1 X125.7 Y93.096 E0.004
G1 X125.604 Y93.201 E0.004
G1 X125.471 Y93.302 E0.004
G1 X125.356 Y93.363 E0.003
G1 X125.218 Y93.411 E0.004
G1 X125.074 Y93.435 E0.003
G1 X124.926 E0.004
G1 X124.782 Y93.411 E0.004
G1 X124.644 Y93.364 E0.003
G1 X124.514 Y93.293 E0.004
G1 X124.399 Y93.204 E0.004
G1 X124.3 Y93.096 E0.003
G1 X124.219 Y92.973 E0.004
G1 X124.162 Y92.841 E0.004
G1 X124.123 Y92.68 E0.004
G1 X124.112 Y92.55 E0.003
G1 X124.124 Y92.404 E0.004
G1 X124.16 Y92.262 E0.003
G1 X124.219 Y92.127 E0.004
G1 X124.3 Y92.004 E0.004
G1 X124.396 Y91.899 E0.003
G1 X124.529 Y91.798 E0.004
G1 X124.644 Y91.737 E0.004
G1 X124.782 Y91.689 E0.003
G1 X124.926 Y91.665 E0.004
G1 X125.074 E0.004
G1 X125.218 Y91.689 E0.003
G1 X125.353 Y91.735 E0.004
G1 X125.499 Y91.816 E0.004
G1 X125.601 Y91.896 E0.003
G1 X125.7 Y92.004 E0.004
G1 X125.781 Y92.127 E0.004
G1 X125.84 Y92.262 E0.003
G1 F2100 E-0.5
;rapid-dry
G0 X126.4 Y97.25 F7200
G1 F2100 E0.5
;bead-perimeter_outer
G1 Y119.35 F1200 E0.551
G1 X123.6 E0.07
G1 Y97.25 E0.552
G1 X126.4 E0.069
;rapid-leaky
G0 X126.04 Y97.61 F7200
;bead-perimeter_inner
G1 Y118.99 F1494 E0.534
G1 X123.96 E0.052
G1 Y97.61 E0.533
G1 X126.04 E0.052
;rapid-leaky
G0 X125.72 Y118.214 F7200
;bead-solid_infill
G1 X125.264 Y118.67 F1200 E0.016
G1 X124.699 E0.014
G1 X125.72 Y117.649 E0.036
G1 Y117.083 E0.014
G1 X124.28 Y118.523 E0.051
G1 Y117.957 E0.014
G1 X125.72 Y116.517 E0.051
G1 Y115.952 E0.014
G1 X124.28 Y117.392 E0.051
G1 Y116.826 E0.014
G1 X125.72 Y115.386 E0.051
G1 Y114.82 E0.014
G1 X124.28 Y116.26 E0.051
G1 Y115.695 E0.014
G1 X125.72 Y114.255 E0.051
G1 Y113.689 E0.014
G1 X124.28 Y115.129 E0.05
G1 Y114.563 E0.015
G1 X125.72 Y113.123 E0.05
G1 Y112.557 E0.014
G1 X124.28 Y113.997 E0.051
G1 Y113.432 E0.014
G1 X125.72 Y111.992 E0.051
G1 Y111.426 E0.014
G1 X124.28 Y112.866 E0.051
G1 Y112.3 E0.014
G1 X125.72 Y110.86 E0.051
G1 Y110.295 E0.014
G1 X124.28 Y111.735 E0.051
G1 Y111.169 E0.014
G1 X125.72 Y109.729 E0.051
G1 Y109.163 E0.014
G1 X124.28 Y110.603 E0.051
G1 Y110.038 E0.014
G1 X125.72 Y108.598 E0.051
G1 Y108.032 E0.014
G1 X124.28 Y109.472 E0.051
G1 Y108.906 E0.014
G1 X125.72 Y107.466 E0.05
G1 Y106.901 E0.015
G1 X124.28 Y108.341 E0.05
G1 Y107.775 E0.014
G1 X125.72 Y106.335 E0.051
G1 Y105.769 E0.014
G1 X124.28 Y107.209 E0.051
G1 Y106.644 E0.014
G1 X125.72 Y105.204 E0.051
G1 Y104.638 E0.014
G1 X124.28 Y106.078 E0.051
G1 Y105.512 E0.014
G1 X125.72 Y104.072 E0.051
G1 Y103.507 E0.014
G1 X124.28 Y104.946 E0.051
G1 Y104.381 E0.014
G1 X125.72 Y102.941 E0.051
G1 Y102.375 E0.014
G1 X124.28 Y103.815 E0.051
G1 Y103.249 E0.014
G1 X125.72 Y101.809 E0.051
G1 Y101.244 E0.014
G1 X124.28 Y102.684 E0.051
G1 Y102.118 E0.014
G1 X125.72 Y100.678 E0.05
G1 Y100.112 E0.015
G1 X124.28 Y101.552 E0.05
G1 Y100.987 E0.014
G1 X125.417 Y99.85 E0.041
G1 X124.851 E0.014
G1 X124.28 Y100.421 E0.02
G1 Y99.855 E0.014
G1 X124.285 Y99.85
G1 F2100 E-0.5
;rapid-dry
G0 X124.497 Y92.809 F7200
G1 F2100 E0.5
;bead-sparse_infill
G1 X125.036 Y92.322 F2241 E0.018
G1 X125.351 Y92.107 E0.01
G1 F2100 E-0.5
;LAYER:16
;rapid-leaky
G0 X126.181 Y92.956 Z2.45 F7200
G1 F2100 E0.5
;bead-perimeter_outer
G1 X126.098 Y93.145 F1200 E0.005
G1 X125.986 Y93.318 E0.005
G1 X125.846 Y93.469 E0.005
G1 X125.683 Y93.596 E0.005
G1 X125.501 Y93.694 E0.005
G1 X125.307 Y93.761 E0.006
G1 X125.104 Y93.795 E0.005
G1 X124.898 E0.005
G1 X124.665 Y93.752 E0.006
G1 X124.499 Y93.694 E0.004
G1 X124.317 Y93.596 E0.005
G1 X124.154 Y93.469 E0.005
G1 X124.014 Y93.318 E0.006
G1 X123.902 Y93.145 E0.005
G1 X123.82 Y92.957 E0.005
G1 X123.765 Y92.726 E0.006
G1 X123.751 Y92.55 E0.004
G1 X123.768 Y92.344 E0.005
G1 X123.819 Y92.144 E0.005
G1 X123.902 Y91.955 E0.006
G1 X124.014 Y91.782 E0.005
G1 X124.154 Y91.631 E0.005
G1 X124.317 Y91.504 E0.005
G1 X124.499 Y91.406 E0.005
G1 X124.693 Y91.339 E0.005
G1 X124.896 Y91.305 E0.006
G1 X125.102 E0.005
G1 X125.335 Y91.348 E0.006
G1 X125.501 Y91.406 E0.004
G1 X125.683 Y91.504 E0.005
G1 X125.846 Y91.631 E0.005
G1 X125.986 Y91.782 E0.005
G1 X126.098 Y91.955 E0.006
G1 X126.181 Y92.144 E0.005
G1 X126.232 Y92.344 E0.005
G1 X126.249 Y92.55 E0.005
G1 X126.232 Y92.756 E0.005
G1 X126.181 Y92.956 E0.005
;rapid-leaky
G0 X125.84 Y92.838 F7200
;bead-perimeter_inner
G1 X125.781 Y92.973 F1494 E0.004
G1 X125.7 Y93.096 E0.004
G1 X125.601 Y93.204 E0.003
G1 X125.486 Y93.293 E0.004
G1 X125.356 Y93.364 E0.004
G1 X125.218 Y93.411 E0.003
G1 X125.074 Y93.435 E0.004
G1 X124.931 E0.003
G1 X124.757 Y93.403 E0.005
G1 X124.644 Y93.364 E0.003
G1 X124.514 Y93.293 E0.004
G1 X124.399 Y93.204 E0.003
G1 X124.3 Y93.096 E0.004
G1 X124.219 Y92.973 E0.003
G1 X124.162 Y92.843 E0.004
G1 X124.122 Y92.67 E0.004
G1 X124.112 Y92.55 E0.003
G1 X124.124 Y92.404 E0.004
G1 X124.16 Y92.262 E0.004
G1 X124.219 Y92.127 E0.003
G1 X124.3 Y92.004 E0.004
G1 X124.399 Y91.896 E0.004
G1 X124.514 Y91.807 E0.003
G1 X124.644 Y91.736 E0.004
G1 X124.782 Y91.689 E0.004
G1 X124.926 Y91.665 E0.003
G1 X125.069 E0.004
G1 X125.243 Y91.697 E0.004
G1 X125.356 Y91.736 E0.003
G1 X125.486 Y91.807 E0.004
G1 X125.601 Y91.896 E0.004
G1 X125.7 Y92.004 E0.003
G1 X125.781 Y92.127 E0.004
G1 X125.84 Y92.262 E0.004
G1 X125.876 Y92.404 E0.003
G1 X125.888 Y92.55 E0.004
G1 X125.876 Y92.696 E0.004
G1 X125.84 Y92.838 E0.003
G1 F2100 E-0.5
;rapid-dry
G0 X126.4 Y97.25 F7200
G1 F2100 E0.5
;bead-perimeter_outer
G1 Y119.35 F1200 E0.552
G1 X123.6 E0.069
G1 Y97.25 E0.552
G1 X126.4 E0.07
;rapid-leaky
G0 X126.04 Y97.61 F7200
;bead-perimeter_inner
G1 Y118.99 F1494 E0.533
G1 X123.96 E0.052
G1 Y97.61 E0.533
G1 X126.04 E0.052
;rapid-leaky
G0 X125.294 Y99.85 F7200
;bead-solid_infill
G1 X125.72 Y100.276 F1200 E0.015
G1 Y100.842 E0.014
G1 X124.728 Y99.85 E0.035
G1 X124.28 E0.011
G1 Y99.967 E0.003
G1 X125.72 Y101.407 E0.051
G1 Y101.973 E0.014
G1 X124.28 Y100.533 E0.051
G1 Y101.099 E0.014
G1 X125.72 Y102.539 E0.051
G1 Y103.104 E0.014
G1 X124.28 Y101.664 E0.051
G1 Y102.23 E0.014
G1 X125.72 Y103.67 E0.051
G1 Y104.236 E0.014
G1 X124.28 Y102.796 E0.051
G1 Y103.361 E0.014
G1 X125.72 Y104.801 E0.05
G1 Y105.367 E0.015
G1 X124.28 Y103.927 E0.05
G1 Y104.493 E0.014
G1 X125.72 Y105.933 E0.051
G1 Y106.499 E0.014
G1 X124.28 Y105.059 E0.051
G1 Y105.624 E0.014
G1 X125.72 Y107.064 E0.051
G1 Y107.63 E0.014
G1 X124.28 Y106.19 E0.051
G1 Y106.756 E0.014
G1 X125.72 Y108.196 E0.051
G1 Y108.761 E0.014
G1 X124.28 Y107.321 E0.051
G1 Y107.887 E0.014
G1 X125.72 Y109.327 E0.051
G1 Y109.893 E0.014
G1 X124.28 Y108.453 E0.051
G1 Y109.018 E0.014
G1 X125.72 Y110.458 E0.051
G1 Y111.024 E0.014
G1 X124.28 Y109.584 E0.05
G1 Y110.15 E0.015
G1 X125.72 Y111.59 E0.05
G1 Y112.155 E0.015
G1 X124.28 Y110.715 E0.05
G1 Y111.281 E0.014
G1 X125.72 Y112.721 E0.051
G1 Y113.287 E0.014
G1 X124.28 Y111.847 E0.051
G1 Y112.412 E0.014
G1 X125.72 Y113.852 E0.051
G1 Y114.418 E0.014
G1 X124.28 Y112.978 E0.051
G1 Y113.544 E0.014
G1 X125.72 Y114.984 E0.051
G1 Y115.549 E0.014
G1 X124.28 Y114.109 E0.051
G1 Y114.675 E0.014
G1 X125.72 Y116.115 E0.051
G1 Y116.681 E0.014
G1 X124.28 Y115.241 E0.051
G1 Y115.807 E0.014
G1 X125.72 Y117.247 E0.051
G1 Y117.812 E0.014
G1 X124.28 Y116.372 E0.05
G1 Y116.938 E0.015
G1 X125.72 Y118.378 E0.05
G1 Y118.67 E0.008
G1 X125.446 E0.006
G1 X124.28 Y117.504 E0.042
G1 Y118.069 E0.014
G1 X124.881 Y118.67 E0.021
G1 X124.315 E0.014
G1 X124.28 Y118.635 E0.001
G1 F2100 E-0.5
;rapid-dry
G0 X124.463 Y92.724 F7200
G1 F2100 E0.5
;bead-sparse_infill
G1 X125.036 Y92.157 F2242 E0.02
G1 X125.232 Y92.033 E0.006
G1 F2100 E-0.5
;LAYER:17
;rapid-leaky
G0 X124.499 Y93.694 Z2.6 F7200
G1 F2100 E0.5
;bead-perimeter_outer
G1 X124.317 Y93.596 F1200 E0.005
G1 X124.154 Y93.469 E0.005
G1 X124.014 Y93.318 E0.006
G1 X123.902 Y93.145 E0.005
G1 X123.819 Y92.956 E0.005
G1 X123.768 Y92.755 E0.005
G1 X123.751 Y92.55 E0.005
G1 X123.768 Y92.344 E0.005
G1 X123.819 Y92.144 E0.005
G1 X123.902 Y91.955 E0.006
G1 X124.014 Y91.782 E0.005
G1 X124.154 Y91.631 E0.005
G1 X124.317 Y91.504 E0.005
G1 X124.499 Y91.406 E0.005
G1 X124.693 Y91.339 E0.005
G1 X124.896 Y91.305 E0.005
G1 X125.104 E0.006
G1 X125.307 Y91.339 E0.005
G1 X125.501 Y91.406 E0.005
G1 X125.684 Y91.504 E0.005
G1 X125.846 Y91.631 E0.005
G1 X125.986 Y91.782 E0.005
G1 X126.098 Y91.955 E0.006
G1 X126.181 Y92.144 E0.005
G1 X126.232 Y92.344 E0.005
G1 X126.249 Y92.55 E0.005
G1 X126.232 Y92.756 E0.005
G1 X126.181 Y92.956 E0.005
G1 X126.098 Y93.145 E0.005
G1 X125.986 Y93.318 E0.006
G1 X125.846 Y93.469 E0.005
G1 X125.683 Y93.596 E0.005
G1 X125.501 Y93.694 E0.005
G1 X125.307 Y93.761 E0.005
G1 X125.104 Y93.795 E0.005
G1 X124.896 E0.005
G1 X124.668 Y93.753 E0.006
G1 X124.499 Y93.694 E0.005
;rapid-leaky
G0 X124.644 Y93.364 F7200
;bead-perimeter_inner
G1 X124.514 Y93.293 F1200 E0.003
G1 X124.399 Y93.204 E0.004
G1 X124.3 Y93.096 E0.004
G1 X124.219 Y92.973 E0.003
G1 X124.16 Y92.838 E0.004
G1 X124.124 Y92.694 E0.004
G1 X124.112 Y92.55 E0.003
G1 X124.124 Y92.404 E0.004
G1 X124.16 Y92.262 E0.004
G1 X124.219 Y92.127 E0.003
G1 X124.3 Y92.004 E0.004
G1 X124.399 Y91.896 E0.004
G1 X124.514 Y91.807 E0.003
G1 X124.644 Y91.736 E0.004
G1 X124.782 Y91.689 E0.004
G1 X124.926 Y91.665 E0.003
G1 X125.074 E0.004
G1 X125.218 Y91.689 E0.004
G1 X125.356 Y91.736 E0.003
G1 X125.487 Y91.807 E0.004
G1 X125.601 Y91.896 E0.004
G1 X125.7 Y92.004 E0.003
G1 X125.781 Y92.127 E0.004
G1 X125.84 Y92.262 E0.004
G1 X125.876 Y92.404 E0.003
G1 X125.888 Y92.55 E0.004
G1 X125.876 Y92.696 E0.004
G1 X125.84 Y92.838 E0.003
G1 X125.781 Y92.973 E0.004
G1 X125.7 Y93.096 E0.004
G1 X125.601 Y93.204 E0.003
G1 X125.486 Y93.293 E0.004
G1 X125.356 Y93.364 E0.003
G1 X125.218 Y93.411 E0.004
G1 X125.074 Y93.435 E0.004
G1 X124.926 E0.003
G1 X124.781 Y93.411 E0.004
G1 X124.644 Y93.364 E0.004
G1 F2100 E-0.5
;rapid-dry
G0 X123.6 Y97.25 F7200
G1 F2100 E0.5
;bead-perimeter_outer
G1 X126.4 F1200 E0.07
G1 Y119.35 E0.551
G1 X123.6 E0.07
G1 Y97.25 E0.551
;rapid-leaky
G0 X123.96 Y97.61 F7200
;bead-perimeter_inner
G1 X126.04 F1200 E0.052
G1 Y118.99 E0.533
G1 X123.96 E0.052
G1 Y97.61 E0.533
;rapid-leaky
G0 X124.28 Y118.44 F7200
;bead-sparse_infill
G1 X125.036 Y117.607 F1338 E0.028
G1 X125.72 Y117.215 E0.02
G1 Y113.821 E0.085
G1 X125.036 Y114.574 E0.025
G1 X124.28 Y115.008 E0.022
G1 Y109.894 E0.127
G1 X125.036 Y109.062 E0.029
G1 X125.72 Y108.669 E0.019
G1 Y105.276 E0.085
G1 X125.036 Y106.029 E0.025
G1 X124.28 Y106.463 E0.022
G1 Y101.349 E0.128
G1 X125.036 Y100.517 E0.028
G1 X125.72 Y100.124 E0.019
G1 F2100 E-0.5
;rapid-dry
G0 X124.439 Y92.629 F7200
G1 F2100 E0.5
;bead-sparse_infill
G1 X125.024 Y91.985 F1338 E0.022
G1 F2100 E-0.5
;LAYER:18
;rapid-leaky
G0 X124.014 Y91.782 Z2.75 F7200
G1 F2100 E0.5
;bead-perimeter_outer
G1 X124.154 Y91.631 F1200 E0.005
G1 X124.317 Y91.504 E0.005
G1 X124.498 Y91.406 E0.005
G1 X124.693 Y91.339 E0.006
G1 X124.896 Y91.305 E0.005
G1 X125.104 E0.005
G1 X125.307 Y91.339 E0.005
G1 X125.501 Y91.406 E0.005
G1 X125.684 Y91.504 E0.005
G1 X125.846 Y91.631 E0.005
G1 X125.986 Y91.782 E0.006
G1 X126.098 Y91.955 E0.005
G1 X126.181 Y92.144 E0.005
G1 X126.232 Y92.344 E0.005
G1 X126.249 Y92.55 E0.005
G1 X126.232 Y92.756 E0.005
G1 X126.181 Y92.956 E0.005
G1 X126.099 Y93.144 E0.006
G1 X125.986 Y93.318 E0.005
G1 X125.846 Y93.469 E0.005
G1 X125.648 Y93.615 E0.006
G1 X125.502 Y93.694 E0.004
G1 X125.307 Y93.761 E0.005
G1 X125.104 Y93.795 E0.005
G1 X124.896 E0.006
G1 X124.656 Y93.749 E0.006
G1 X124.499 Y93.694 E0.004
G1 X124.317 Y93.596 E0.005
G1 X124.154 Y93.469 E0.005
G1 X124.014 Y93.318 E0.005
G1 X123.902 Y93.145 E0.005
G1 X123.819 Y92.956 E0.006
G1 X123.768 Y92.755 E0.005
G1 X123.751 Y92.55 E0.005
G1 X123.768 Y92.344 E0.005
G1 X123.819 Y92.144 E0.005
G1 X123.902 Y91.955 E0.005
G1 X124.014 Y91.782 E0.006
;rapid-leaky
G0 X124.3 Y92.004 F7200
;bead-perimeter_inner
G1 X124.399 Y91.896 F1200 E0.003
G1 X124.516 Y91.805 E0.004
G1 X124.643 Y91.737 E0.003
G1 X124.782 Y91.689 E0.004
G1 X124.926 Y91.665 E0.004
G1 X125.074 E0.003
G1 X125.218 Y91.689 E0.004
G1 X125.356 Y91.736 E0.004
G1 X125.487 Y91.807 E0.003
G1 X125.601 Y91.896 E0.004
G1 X125.7 Y92.004 E0.004
G1 X125.781 Y92.127 E0.003
G1 X125.84 Y92.262 E0.004
G1 X125.876 Y92.404 E0.004
G1 X125.888 Y92.55 E0.003
G1 X125.876 Y92.696 E0.004
G1 X125.836 Y92.848 E0.004
G1 X125.781 Y92.972 E0.003
G1 X125.7 Y93.096 E0.004
G1 X125.601 Y93.204 E0.004
G1 X125.484 Y93.295 E0.003
G1 X125.357 Y93.363 E0.004
G1 X125.218 Y93.411 E0.004
G1 X125.074 Y93.435 E0.003
G1 X124.926 E0.004
G1 X124.781 Y93.411 E0.004
G1 X124.644 Y93.364 E0.003
G1 X124.514 Y93.293 E0.004
G1 X124.399 Y93.204 E0.004
G1 X124.3 Y93.096 E0.003
G1 X124.219 Y92.973 E0.004
G1 X124.16 Y92.838 E0.004
G1 X124.124 Y92.694 E0.003
G1 X124.112 Y92.55 E0.004
G1 X124.124 Y92.404 E0.004
G1 X124.16 Y92.262 E0.003
G1 X124.219 Y92.127 E0.004
G1 X124.3 Y92.004 E0.004
G1 F2100 E-0.5
;rapid-dry
G0 X123.6 Y97.25 F7200
G1 F2100 E0.5
;bead-perimeter_outer
G1 X126.4 F1200 E0.069
G1 Y119.35 E0.552
G1 X123.6 E0.07
G1 Y97.25 E0.551
;rapid-leaky
G0 X123.96 Y97.61 F7200
;bead-perimeter_inner
G1 X126.04 F1200 E0.052
G1 Y118.99 E0.533
G1 X123.96 E0.052
G1 Y97.61 E0.533
;rapid-leaky
G0 X124.28 Y118.331 F7200
;bead-sparse_infill
G1 X125.036 Y117.387 F1361 E0.03
G1 X125.72 Y117.047 E0.019
G1 Y113.941 E0.078
G1 X125.036 Y114.794 E0.027
G1 X124.28 Y115.17 E0.021
G1 Y109.785 E0.135
G1 X125.036 Y108.842 E0.03
G1 X125.72 Y108.502 E0.019
G1 Y105.396 E0.077
G1 X125.036 Y106.249 E0.028
G1 X124.28 Y106.624 E0.021
G1 Y101.24 E0.134
G1 X125.036 Y100.297 E0.03
G1 X125.72 Y99.957 E0.019
G1 Y97.93 E0.051
G1 X124.581 E0.028
G1 X124.28 Y98.079 E0.008
G1 F2100 E-0.5
;rapid-dry
G0 X124.437 Y92.499 F7200
G1 F2100 E0.5
;bead-sparse_infill
G1 X124.828 Y92.011 F1361 E0.016
G1 F2100 E-0.5
;LAYER:19
;rapid-leaky
G0 X123.902 Y91.955 Z2.9 F7200
G1 F2100 E0.5
;bead-perimeter_outer
G1 X124.014 Y91.782 F1200 E0.005
G1 X124.154 Y91.631 E0.005
G1 X124.317 Y91.504 E0.006
G1 X124.499 Y91.406 E0.005
G1 X124.693 Y91.339 E0.005
G1 X124.896 Y91.305 E0.005
G1 X125.104 E0.005
G1 X125.307 Y91.339 E0.005
G1 X125.502 Y91.406 E0.005
G1 X125.683 Y91.504 E0.006
G1 X125.846 Y91.631 E0.005
G1 X125.986 Y91.782 E0.005
G1 X126.098 Y91.955 E0.005
G1 X126.181 Y92.144 E0.005
G1 X126.232 Y92.344 E0.005
G1 X126.249 Y92.55 E0.005
G1 X126.232 Y92.756 E0.006
G1 X126.181 Y92.956 E0.005
G1 X126.099 Y93.145 E0.005
G1 X125.986 Y93.318 E0.005
G1 X125.846 Y93.469 E0.005
G1 X125.683 Y93.596 E0.005
G1 X125.501 Y93.694 E0.005
G1 X125.307 Y93.761 E0.006
G1 X125.104 Y93.795 E0.005
G1 X124.896 E0.005
G1 X124.693 Y93.761 E0.005
G1 X124.453 Y93.67 E0.006
G1 X124.317 Y93.596 E0.004
G1 X124.154 Y93.469 E0.005
G1 X124.014 Y93.318 E0.006
G1 X123.902 Y93.145 E0.005
G1 X123.819 Y92.956 E0.005
G1 X123.768 Y92.755 E0.005
G1 X123.751 Y92.55 E0.005
G1 X123.768 Y92.344 E0.005
G1 X123.819 Y92.144 E0.005
G1 X123.902 Y91.955 E0.006
;rapid-leaky
G0 X124.219 Y92.127 F7200
;bead-perimeter_inner
G1 X124.3 Y92.004 F1200 E0.003
G1 X124.399 Y91.896 E0.004
G1 X124.514 Y91.807 E0.004
G1 X124.644 Y91.736 E0.003
G1 X124.782 Y91.689 E0.004
G1 X124.926 Y91.665 E0.004
G1 X125.074 E0.003
G1 X125.218 Y91.689 E0.004
G1 X125.358 Y91.737 E0.004
G1 X125.485 Y91.806 E0.003
G1 X125.601 Y91.896 E0.004
G1 X125.7 Y92.004 E0.004
G1 X125.781 Y92.127 E0.003
G1 X125.84 Y92.262 E0.004
G1 X125.876 Y92.404 E0.004
G1 X125.888 Y92.55 E0.003
G1 X125.876 Y92.696 E0.004
G1 X125.831 Y92.858 E0.004
G1 X125.781 Y92.973 E0.003
G1 X125.7 Y93.096 E0.004
G1 X125.601 Y93.204 E0.003
G1 X125.486 Y93.293 E0.004
G1 X125.356 Y93.364 E0.004
G1 X125.218 Y93.411 E0.003
G1 X125.074 Y93.435 E0.004
G1 X124.926 E0.004
G1 X124.782 Y93.411 E0.003
G1 X124.643 Y93.363 E0.004
G1 X124.515 Y93.294 E0.004
G1 X124.399 Y93.204 E0.003
G1 X124.3 Y93.096 E0.004
G1 X124.219 Y92.973 E0.004
G1 X124.16 Y92.838 E0.003
G1 X124.124 Y92.695 E0.004
G1 X124.112 Y92.551 E0.004
G1 X124.124 Y92.404 E0.003
G1 X124.16 Y92.262 E0.004
G1 X124.219 Y92.127 E0.004
G1 F2100 E-0.5
;rapid-dry
G0 X123.6 Y97.25 F7200
G1 F2100 E0.5
;bead-perimeter_outer
G1 X126.4 F1200 E0.07
G1 Y119.35 E0.551
G1 X123.6 E0.07
G1 Y97.25 E0.551
;rapid-leaky
G0 X123.96 Y97.61 F7200
;bead-perimeter_inner
G1 X126.04 F1200 E0.052
G1 Y118.99 E0.533
G1 X123.96 E0.052
G1 Y97.61 E0.533
;rapid-leaky
G0 X124.28 Y98.274 F7200
;bead-sparse_infill
G1 X125.036 Y97.991 F1359 E0.021
G1 X125.078 Y97.93 E0.001
G1 X125.72 E0.016
G1 Y99.753 E0.046
G1 X125.036 Y100.01 E0.018
G1 X124.28 Y101.114 E0.033
G1 Y106.819 E0.143
G1 X125.036 Y106.536 E0.02
G1 X125.72 Y105.537 E0.03
G1 Y108.298 E0.069
G1 X125.036 Y108.555 E0.018
G1 X124.28 Y109.659 E0.034
G1 Y115.364 E0.142
G1 X125.036 Y115.081 E0.02
G1 X125.72 Y114.082 E0.03
G1 Y116.844 E0.069
G1 X125.036 Y117.1 E0.018
G1 X124.28 Y118.204 E0.034
G1 F2100 E-0.5
;LAYER:20
;rapid-leaky
G0 X123.6 Y97.25 Z3.05 F7200
G1 F2100 E0.5
;bead-perimeter_outer
G1 X126.4 F1200 E0.07
G1 Y119.35 E0.551
G1 X123.6 E0.07
G1 Y97.25 E0.551
;rapid-leaky
G0 X123.96 Y97.61 F7200
;bead-perimeter_inner
G1 X126.04 F1200 E0.052
G1 Y118.99 E0.533
G1 X123.96 E0.052
G1 Y97.61 E0.533
G1 F2100 E-0.5
;rapid-dry
G0 X124.693 Y91.339 F7200
G1 F2100 E0.5
;bead-perimeter_outer
G1 X124.896 Y91.305 F1200 E0.006
G1 X125.104 E0.005
G1 X125.307 Y91.339 E0.005
G1 X125.501 Y91.406 E0.005
G1 X125.683 Y91.504 E0.005
G1 X125.846 Y91.631 E0.005
G1 X125.986 Y91.782 E0.005
G1 X126.098 Y91.955 E0.006
G1 X126.181 Y92.144 E0.005
G1 X126.232 Y92.344 E0.005
G1 X126.249 Y92.55 E0.005
G1 X126.232 Y92.756 E0.005
G1 X126.181 Y92.956 E0.005
G1 X126.098 Y93.145 E0.005
G1 X125.986 Y93.318 E0.006
G1 X125.846 Y93.469 E0.005
G1 X125.628 Y93.626 E0.006
G1 X125.501 Y93.694 E0.004
G1 X125.307 Y93.761 E0.005
G1 X125.104 Y93.795 E0.005
G1 X124.896 E0.005
G1 X124.693 Y93.761 E0.006
G1 X124.499 Y93.694 E0.005
G1 X124.317 Y93.596 E0.005
G1 X124.154 Y93.469 E0.005
G1 X124.014 Y93.318 E0.005
G1 X123.902 Y93.145 E0.005
G1 X123.819 Y92.956 E0.005
G1 X123.768 Y92.755 E0.006
G1 X123.751 Y92.55 E0.005
G1 X123.768 Y92.344 E0.005
G1 X123.819 Y92.144 E0.005
G1 X123.902 Y91.955 E0.005
G1 X124.014 Y91.782 E0.005
G1 X124.154 Y91.631 E0.006
G1 X124.317 Y91.504 E0.005
G1 X124.499 Y91.406 E0.005
G1 X124.693 Y91.339 E0.005
;rapid-leaky
G0 X124.782 Y91.689 F7200
;bead-perimeter_inner
G1 X124.926 Y91.665 F1200 E0.004
G1 X125.074 E0.003
G1 X125.218 Y91.689 E0.004
G1 X125.356 Y91.736 E0.004
G1 X125.486 Y91.807 E0.003
G1 X125.601 Y91.896 E0.004
G1 X125.7 Y92.004 E0.004
G1 X125.781 Y92.127 E0.003
G1 X125.84 Y92.262 E0.004
G1 X125.876 Y92.404 E0.004
G1 X125.888 Y92.55 E0.003
G1 X125.876 Y92.696 E0.004
G1 X125.84 Y92.838 E0.004
G1 X125.781 Y92.973 E0.003
G1 X125.7 Y93.096 E0.004
G1 X125.601 Y93.204 E0.004
G1 X125.456 Y93.31 E0.004
G1 X125.356 Y93.363 E0.003
G1 X125.218 Y93.411 E0.003
G1 X125.074 Y93.435 E0.004
G1 X124.926 E0.004
G1 X124.782 Y93.411 E0.003
G1 X124.644 Y93.364 E0.004
G1 X124.514 Y93.293 E0.004
G1 X124.399 Y93.204 E0.003
G1 X124.3 Y93.096 E0.004
G1 X124.219 Y92.973 E0.004
G1 X124.16 Y92.838 E0.003
G1 X124.124 Y92.695 E0.004
G1 X124.112 Y92.551 E0.004
G1 X124.124 Y92.404 E0.003
G1 X124.16 Y92.262 E0.004
G1 X124.219 Y92.127 E0.004
G1 X124.3 Y92.004 E0.003
G1 X124.399 Y91.896 E0.004
G1 X124.515 Y91.806 E0.004
G1 X124.644 Y91.737 E0.003
G1 X124.782 Y91.689 E0.004
G1 F2100 E-0.5
;rapid-dry
G0 X124.28 Y98.54 F7200
G1 F2100 E0.5
;bead-sparse_infill
G1 X125.036 Y98.463 F1365 E0.019
G1 X125.325 Y97.93 E0.015
G1 X125.72 E0.01
G1 Y99.468 E0.038
G1 X125.036 Y99.537 E0.017
G1 X124.28 Y100.936 E0.04
G1 Y107.085 E0.153
G1 X125.036 Y107.008 E0.019
G1 X125.72 Y105.744 E0.036
G1 Y108.013 E0.057
G1 X125.036 Y108.082 E0.017
G1 X124.28 Y109.481 E0.04
G1 Y115.63 E0.153
G1 X125.036 Y115.553 E0.019
G1 X125.72 Y114.289 E0.036
G1 Y116.558 E0.057
G1 X125.036 Y116.628 E0.017
G1 X124.28 Y118.026 E0.039
G1 F2100 E-0.5
;LAYER:21
;rapid-leaky
G0 X123.6 Y97.25 Z3.2 F7200
G1 F2100 E0.5
;bead-perimeter_outer
G1 X126.4 F1200 E0.07
G1 Y119.35 E0.551
G1 X123.6 E0.07
G1 Y97.25 E0.552
;rapid-leaky
G0 X123.96 Y97.61 F7200
;bead-perimeter_inner
G1 X126.04 F1200 E0.051
G1 Y118.99 E0.534
G1 X123.96 E0.052
G1 Y97.61 E0.533
G1 F2100 E-0.5
;rapid-dry
G0 X124.693 Y93.761 F7200
G1 F2100 E0.5
;bead-perimeter_outer
G1 X124.499 Y93.694 F1200 E0.005
G1 X124.317 Y93.596 E0.005
G1 X124.154 Y93.469 E0.005
G1 X124.014 Y93.318 E0.006
G1 X123.902 Y93.145 E0.005
G1 X123.819 Y92.956 E0.005
G1 X123.768 Y92.755 E0.005
G1 X123.751 Y92.55 E0.005
G1 X123.768 Y92.344 E0.005
G1 X123.819 Y92.144 E0.006
G1 X123.902 Y91.955 E0.005
G1 X124.014 Y91.782 E0.005
G1 X124.154 Y91.631 E0.005
G1 X124.317 Y91.504 E0.005
G1 X124.499 Y91.406 E0.005
G1 X124.693 Y91.339 E0.005
G1 X124.896 Y91.305 E0.006
