;bara conectare 2
;Printer name: Prusa i3 MK3
;TIME:320
;Print time: 5m:20s
;Extruder 1 material used: 174mm
;Extruder 1 material name: 
;Extruder 1 filament diameter: 1.75mm
;Extruder 1 nozzle diameter: 0.4mm
;Extruder 1 offset x: 0mm
;Extruder 1 offset y: 0mm
;Extruder 1 offset z: 0mm
;Extruder 1 max temp: 200
;Bed temp: 70
;Layer count: 33
;Width: 250mm
;Depth: 210mm
;Height: 210mm
;Center x: 125mm
;Center y: 105mm
;Center z: 0mm
;Count of bodies: 1
;Fusion version: 2.0.19440
G21
M115 U3.0.10 ;tell printer latest fw version
G28 W ;home all without mesh bed level
;--------------------------------
;Selected Profile: PLA Direct Drive
;--------------------------------
;Selected Printer: Prusa, i3 MK3
;--------------------------------
T0
M140 S70
M104 S200 T0
M190 S70
M109 S200 T0
G80 ;mesh bed leveling
G92 E0
G90
M83
G0 X10 Y10 Z10 F7200
G92 E0
;--------------------------------
;Part 1
;LAYER_COUNT:33
;LAYER:1
M107
;rapid-leaky
G0 X20 Y20.5 Z0.2 F7200
;bead-prime
G1 X120 F720 E8.315
G1 F2100 E-0.5
;rapid-dry
G0 X112.449 Y93.079 F7200
G1 F2100 E0.5
;bead-skirt/brim
G1 X105.985 Y94.286 F960 E0.219
;rapid-leaky
G0 X105.87 Y95.988 F7200
;bead-skirt/brim
G1 X106.278 Y98.266 F960 E0.077
G1 X105.92 Y98.33 E0.012
G1 X106.276 Y100.294 E0.066
G1 X105.571 Y100.418 E0.024
;rapid-leaky
G0 X105.453 Y102.172 F7200
;bead-skirt/brim
G1 X106.691 Y109.01 F960 E0.231
;rapid-leaky
G0 X107.822 Y108.519 F7200
;bead-skirt/brim
G1 X106.544 Y101.465 F960 E0.239
G1 X107.672 Y101.266 E0.038
G1 X107.315 Y99.299 E0.066
G1 X107.67 Y99.236 E0.012
G1 X106.97 Y95.323 E0.132
G1 X113.073 Y94.183 E0.207
G1 X113.781 Y98.14 E0.133
G1 X114.108 Y98.081 E0.012
G1 X114.466 Y100.065 E0.067
G1 X137.088 Y96.058 E0.764
G1 X139.549 Y95.461 E0.084
G1 X139.578 Y95.627 E0.006
G1 X140.895 Y95.395 E0.044
G1 X142.46 Y104.423 E0.305
G1 X141.533 Y104.589 E0.031
G1 X143.28 Y114.432 E0.333
G1 X135.768 Y115.785 E0.253
G1 X134.02 Y105.931 E0.333
G1 X133.033 Y106.106 E0.034
G1 X132.707 Y104.131 E0.066
G1 X107.822 Y108.519 E0.841
;rapid-leaky
G0 X108.145 Y108.056 F7200
;bead-skirt/brim
G1 X107.009 Y101.789 F960 E0.212
G1 X108.137 Y101.59 E0.038
G1 X107.781 Y99.622 E0.066
G1 X108.135 Y99.559 E0.012
G1 X107.434 Y95.643 E0.132
G1 X112.75 Y94.651 E0.18
G1 X113.458 Y98.604 E0.134
G1 X113.786 Y98.546 E0.011
G1 X114.144 Y100.528 E0.067
G1 X137.17 Y96.449 E0.778
G1 X139.229 Y95.95 E0.07
G1 X139.254 Y96.091 E0.005
G1 X140.57 Y95.858 E0.044
G1 X141.998 Y104.1 E0.279
G1 X141.07 Y104.266 E0.031
G1 X142.817 Y114.109 E0.332
G1 X136.092 Y115.32 E0.228
G1 X134.344 Y105.467 E0.333
G1 X133.362 Y105.641 E0.033
G1 X133.035 Y103.667 E0.066
G1 X108.145 Y108.056 E0.841
;rapid-leaky
G0 X108.467 Y107.593 F7200
;bead-skirt/brim
G1 X107.475 Y102.113 F960 E0.185
G1 X108.602 Y101.914 E0.038
G1 X108.245 Y99.945 E0.067
G1 X108.599 Y99.882 E0.012
G1 X107.897 Y95.963 E0.132
G1 X112.427 Y95.118 E0.153
G1 X113.135 Y99.069 E0.134
G1 X113.463 Y99.01 E0.011
G1 X113.821 Y100.992 E0.067
G1 X137.252 Y96.841 E0.791
G1 X138.909 Y96.439 E0.057
G1 X138.929 Y96.555 E0.004
G1 X140.244 Y96.322 E0.044
G1 X141.536 Y103.776 E0.252
G1 X140.606 Y103.943 E0.032
G1 X142.353 Y113.786 E0.332
G1 X136.416 Y114.855 E0.201
G1 X134.668 Y105.003 E0.333
G1 X133.691 Y105.177 E0.033
G1 X133.364 Y103.203 E0.066
G1 X108.467 Y107.593 E0.841
;rapid-leaky
G0 X108.79 Y107.13 F7200
;bead-skirt/brim
G1 X107.94 Y102.437 F960 E0.159
G1 X109.067 Y102.238 E0.038
G1 X108.711 Y100.268 E0.066
G1 X109.063 Y100.205 E0.012
G1 X108.361 Y96.284 E0.133
G1 X112.105 Y95.585 E0.126
G1 X112.811 Y99.533 E0.134
G1 X113.14 Y99.474 E0.011
G1 X113.498 Y101.455 E0.067
G1 X137.334 Y97.233 E0.805
G1 X138.588 Y96.929 E0.043
G1 X138.604 Y97.018 E0.003
G1 X139.918 Y96.786 E0.044
G1 X141.074 Y103.453 E0.225
G1 X140.142 Y103.62 E0.032
G1 X141.89 Y113.463 E0.332
G1 X136.74 Y114.391 E0.174
G1 X134.992 Y104.539 E0.333
G1 X134.019 Y104.712 E0.033
G1 X133.693 Y102.738 E0.066
G1 X108.79 Y107.13 E0.842
;rapid-leaky
G0 X109.112 Y106.667 F7200
;bead-skirt/brim
G1 X108.405 Y102.761 F960 E0.132
G1 X109.532 Y102.562 E0.038
G1 X109.176 Y100.591 E0.066
G1 X109.527 Y100.528 E0.012
G1 X108.825 Y96.604 E0.133
G1 X111.782 Y96.052 E0.1
G1 X112.488 Y99.997 E0.133
G1 X112.818 Y99.938 E0.011
G1 X113.175 Y101.918 E0.067
G1 X134.654 Y98.123 E0.726
G1 X134.652 Y98.112
G1 X137.415 Y97.625 E0.093
G1 X138.268 Y97.418 E0.029
G1 X138.28 Y97.482 E0.003
G1 X139.593 Y97.25 E0.044
G1 X140.612 Y103.129 E0.198
G1 X139.679 Y103.296 E0.032
G1 X141.426 Y113.14 E0.333
G1 X137.063 Y113.926 E0.147
G1 X135.316 Y104.075 E0.333
G1 X134.348 Y104.247 E0.032
G1 X134.021 Y102.274 E0.067
G1 X109.112 Y106.667 E0.841
;rapid-leaky
G0 X109.435 Y106.204 F7200
;bead-skirt/brim
G1 X108.87 Y103.085 F960 E0.106
G1 X109.998 Y102.886 E0.038
G1 X109.641 Y100.914 E0.066
G1 X109.991 Y100.852 E0.012
G1 X109.288 Y96.924 E0.133
G1 X111.459 Y96.519 E0.073
G1 X112.165 Y100.462 E0.134
G1 X112.495 Y100.403 E0.011
G1 X112.852 Y102.381 E0.067
G1 X135.117 Y98.447 E0.752
G1 X135.115 Y98.436
G1 X137.497 Y98.016 E0.08
G1 X137.948 Y97.907 E0.016
G1 X137.955 Y97.945 E0.001
G1 X139.267 Y97.713 E0.044
G1 X140.15 Y102.805 E0.172
G1 X139.215 Y102.973 E0.032
G1 X140.962 Y112.817 E0.332
G1 X137.387 Y113.461 E0.121
G1 X135.64 Y103.611 E0.333
G1 X134.676 Y103.782 E0.033
G1 X134.35 Y101.81 E0.066
G1 X109.435 Y106.204 E0.842
;rapid-leaky
G0 X109.758 Y105.741 F7200
;bead-skirt/brim
G1 X109.335 Y103.409 F960 E0.078
G1 X110.463 Y103.21 E0.038
G1 X110.106 Y101.237 E0.067
G1 X110.456 Y101.175 E0.012
G1 X109.752 Y97.245 E0.133
G1 X111.136 Y96.986 E0.047
G1 X111.842 Y100.926 E0.133
G1 X112.172 Y100.867 E0.011
G1 X112.529 Y102.845 E0.067
G1 X135.579 Y98.772 E0.778
G1 X135.578 Y98.761 E0.001
G1 X137.628 Y98.396 E0.069
G1 X137.63 Y98.409
G1 X138.942 Y98.177 E0.045
G1 X139.688 Y102.482 E0.145
G1 X138.751 Y102.65 E0.032
G1 X140.499 Y112.494 E0.332
G1 X137.711 Y112.996 E0.094
G1 X135.964 Y103.147 E0.333
G1 X135.005 Y103.317 E0.032
G1 X134.679 Y101.346 E0.067
G1 X109.758 Y105.741 E0.842
;rapid-leaky
G0 X108.817 Y109.562 F7200
;bead-skirt/brim
G1 X131.721 Y105.523 F960 E0.773
G1 X132.048 Y107.501 E0.067
G1 X133.048 Y107.322 E0.034
G1 X134.634 Y116.263 E0.302
;rapid-leaky
G0 X135.06 Y116.373 F7200
;bead-skirt/brim
G1 X133.372 Y106.858 F960 E0.321
G1 X132.376 Y107.036 E0.034
G1 X132.049 Y105.059 E0.066
G1 X107.885 Y109.32 E0.816
;rapid-leaky
G0 X107.499 Y108.982 F7200
;bead-skirt/brim
G1 X106.079 Y101.141 F960 E0.265
G1 X107.206 Y100.942 E0.038
G1 X106.85 Y98.976 E0.067
G1 X107.206 Y98.913 E0.012
G1 X106.506 Y95.002 E0.132
G1 X113.395 Y93.716 E0.233
G1 X114.104 Y97.676 E0.134
G1 X114.431 Y97.617 E0.011
G1 X114.789 Y99.602 E0.067
G1 X137.006 Y95.666 E0.75
G1 X139.869 Y94.972 E0.098
G1 X139.903 Y95.164 E0.007
G1 X141.221 Y94.931 E0.044
G1 X142.922 Y104.747 E0.332
G1 X141.997 Y104.913 E0.031
G1 X143.744 Y114.755 E0.333
G1 X135.444 Y116.249 E0.28
G1 X133.696 Y106.395 E0.333
G1 X132.705 Y106.571 E0.033
G1 X132.378 Y104.595 E0.067
G1 X107.499 Y108.982 E0.84
;rapid-leaky
G0 X107.118 Y109.121 F7200
;bead-skirt/brim
G1 X105.614 Y100.817 F960 E0.281
G1 X106.741 Y100.618 E0.038
G1 X106.385 Y98.653 E0.066
G1 X106.742 Y98.589 E0.013
G1 X106.043 Y94.682 E0.132
G1 X113.718 Y93.249 E0.259
G1 X114.428 Y97.211 E0.134
;rapid-leaky
G0 F7200
;bead-skirt/brim
G1 X114.754 Y97.153 F960 E0.011
G1 X115.112 Y99.139 E0.067
G1 X136.924 Y95.274 E0.737
G1 X140.189 Y94.483 E0.112
G1 X140.228 Y94.7 E0.007
G1 X141.546 Y94.467 E0.045
G1 X143.385 Y105.071 E0.358
G1 X142.46 Y105.236 E0.031
G1 X144.207 Y115.078 E0.332
G1 X135.861 Y116.581 E0.282
;rapid-leaky
G0 X136.785 Y116.821 F7200
;bead-skirt/brim
G1 X144.671 Y115.401 F960 E0.267
G1 X142.924 Y105.559 E0.332
G1 X143.847 Y105.394 E0.031
G1 X141.93 Y94.34 E0.374
;rapid-leaky
G0 X141.866 Y94.004 F7200
;bead-skirt/brim
G1 X140.553 Y94.237 F960 E0.044
G1 X140.51 Y93.993 E0.008
G1 X136.842 Y94.882 E0.126
G1 X115.435 Y98.675 E0.723
G1 X115.076 Y96.689 E0.067
G1 X114.751 Y96.747 E0.011
;rapid-leaky
G0 F7200
;bead-skirt/brim
G1 X114.107 Y93.15 F960 E0.121
;rapid-leaky
G0 X135.617 Y98.987 F7200
;bead-skirt/brim
G1 X135.53 Y99.44 F960 E0.016
G1 X135.734 Y100.282 E0.029
G1 X135.764 Y100.59 E0.01
G1 X135.946 Y101.647 E0.036
G1 X136.064 Y101.889 E0.009
G1 X136.253 Y102.957 E0.036
G1 X136.311 Y102.947 E0.002
G1 X135.617 Y98.987 E0.133
;rapid-leaky
G0 X137.735 Y99.008 F7200
;bead-skirt/brim
G1 X138.364 Y102.586 F960 E0.121
G1 X138.418 Y102.576 E0.002
G1 X137.802 Y99.062 E0.119
G1 X137.735 Y99.008 E0.002
G1 F2100 E-0.5
;rapid-dry
G0 X138.762 Y100.186 F7200
G1 F2100 E0.5
;bead-support
G1 X138.424 Y99.601 F1320 E0.023
G1 X138.76 Y101.516 E0.065
G1 X139.076 Y102.063 E0.021
G1 F2100 E-0.5
G0 X138.76 Y101.516 F2400
G0 X138.697 Y101.153 F2400
G0 X138.76 Y101.516 F2400
G0 X139.076 Y102.063 F2400
;rapid-dry
G0 X137.926 Y102.409 F7200
G1 F2100 E0.5
;bead-perimeter_outer
G1 X136.661 Y102.631 F720 E0.042
G1 X136.04 Y99.085 E0.12
G1 X137.304 Y98.863 E0.043
G1 X137.926 Y102.409 E0.119
;rapid-leaky
G0 X137.51 Y102.117 F7200
;bead-perimeter_inner
G1 X136.954 Y102.214 F960 E0.019
G1 X136.457 Y99.377 E0.096
G1 X137.011 Y99.28 E0.019
G1 X137.51 Y102.117 E0.096
G1 F2100 E-0.5
;rapid-dry
G0 X139.391 Y112.166 F7200
G1 F2100 E0.5
;bead-support
G1 X139.864 Y111.892 F1320 E0.018
G1 X139.368 Y109.099 E0.094
G1 X137.717 Y110.053 E0.063
G1 X137.222 Y107.26 E0.095
G1 X138.872 Y106.306 E0.063
G1 X138.379 Y103.529 E0.094
G1 X138.336 Y103.537 E0.001
G1 X136.726 Y104.466 E0.062
G1 F2100 E-0.5
G0 X137.592 Y103.966 F2400
G0 X136.726 Y104.466 F2400
;rapid-dry
G0 X135.587 Y102.686 F7200
G1 F2100 E0.5
;bead-support
G1 X135.363 Y102.299 F1320 E0.015
G1 X135.187 Y101.232 E0.036
G1 X135.106 Y100.743 E0.017
G1 X134.771 Y100.802 E0.011
G1 X134.723 Y100.324 E0.016
G1 X134.571 Y99.693 E0.022
G1 X134.406 Y99.507 E0.008
G1 X134.51 Y99.488 E0.003
G1 X135.275 Y100.813 E0.051
G1 F2100 E-0.5
G0 X134.775 Y99.947 F2400
G0 X135.275 Y100.813 F2400
;rapid-leaky
G0 X131.367 Y101.402 F7200
G1 F2100 E0.5
;bead-support
G1 X134.135 Y99.804 F1320 E0.106
G1 X133.944 Y99.589 E0.01
G1 X127.071 Y100.803 E0.232
G1 X123.689 Y102.756 E0.13
G1 X116.01 Y104.11 E0.259
G1 X119.386 Y102.161 E0.13
G1 X111.7 Y103.519 E0.26
G1 X110.056 Y104.469 E0.063
G1 F2100 E-0.5
G0 X110.922 Y103.969 F2400
G0 X110.056 Y104.469 F2400
;rapid-dry
G0 X110.432 Y98.093 F7200
G1 F2100 E0.5
;bead-support
G1 X110.771 Y97.897 F1320 E0.013
G1 F2100 E-0.5
G0 X110.432 Y98.093 F2400
G0 X110.771 Y97.897 F2400
;LAYER:2
M107
;rapid-leaky
G0 Z0.35 F7200
G1 F2100 E0.5
;bead-support
G1 X110.432 Y98.093 F1200 E0.01
G1 F2100 E-0.5
G0 X110.771 Y97.897 F2400
G0 X110.432 Y98.093 F2400
;rapid-dry
G0 X110.056 Y104.469 F7200
G1 F2100 E0.5
;bead-support
G1 X111.7 Y103.519 F1200 E0.047
G1 X119.386 Y102.161 E0.195
G1 X116.01 Y104.11 E0.097
G1 X123.689 Y102.756 E0.194
G1 X127.072 Y100.803 E0.098
G1 X133.363 Y99.691 E0.159
G1 X133.691 Y100.06 E0.012
G1 X131.367 Y101.402 E0.067
G1 X135.007 Y100.349 E0.095
G1 X134.51 Y99.488 E0.025
G1 F2100 E-0.5
G0 X135.007 Y100.349 F2400
G0 X135.001 Y100.35 F2400
G0 X135.007 Y100.349 F2400
G0 X134.51 Y99.488 F2400
;rapid-leaky
G0 X135.363 Y102.299 F7200
G1 F2100 E0.5
;bead-support
G1 X135.486 Y102.512 F1200 E0.006
G1 F2100 E-0.5
G0 X135.363 Y102.299 F2400
G0 X135.486 Y102.512 F2400
;rapid-dry
G0 X136.726 Y104.466 F7200
G1 F2100 E0.5
;bead-support
G1 X138.338 Y103.536 F1200 E0.046
G1 X138.379 Y103.528 E0.001
G1 X138.872 Y106.307 E0.071
G1 X137.222 Y107.26 E0.047
G1 X137.717 Y110.053 E0.071
G1 X139.368 Y109.1 E0.048
G1 X139.864 Y111.892 E0.07
G1 X139.391 Y112.166 E0.014
G1 F2100 E-0.5
G0 X139.864 Y111.892 F2400
G0 X139.785 Y111.446 F2400
G0 X139.864 Y111.892 F2400
G0 X139.391 Y112.166 F2400
;rapid-dry
G0 X138.258 Y102.351 F7200
G1 F2100 E0.5
;bead-perimeter_outer
G1 X136.333 Y102.689 F1200 E0.049
G1 X135.709 Y99.143 E0.09
G1 X137.634 Y98.805 E0.048
G1 X138.258 Y102.351 E0.09
;rapid-leaky
G0 X137.841 Y102.059 F7200
;bead-perimeter_inner
G1 X136.625 Y102.272 F1200 E0.031
G1 X136.126 Y99.435 E0.072
G1 X137.342 Y99.222 E0.031
G1 X137.841 Y102.059 E0.071
;rapid-leaky
G0 X137.098 Y99.684 F7200
;bead-solid_infill
G1 X137.017 Y99.603 F1200 E0.003
G1 X136.536 Y99.688 E0.012
G1 X137.219 Y100.371 E0.025
G1 X137.34 Y101.057 E0.017
G1 X136.607 Y100.325 E0.026
G1 X136.728 Y101.011 E0.017
G1 X137.461 Y101.744 E0.026
G1 X137.471 Y101.799 E0.001
G1 X137.028 Y101.877 E0.012
G1 X136.849 Y101.698 E0.006
G1 F2100 E-0.5
;rapid-dry
G0 X138.762 Y100.186 F7200
G1 F2100 E0.5
;bead-support
G1 X138.659 Y100.007 F1200 E0.005
G1 X138.737 Y100.452 E0.011
G1 X138.997 Y101.925 E0.038
G1 X139.076 Y102.063 E0.004
G1 F2100 E-0.5
G0 X138.997 Y101.925 F2400
G0 X138.851 Y101.097 F2400
G0 X138.997 Y101.925 F2400
G0 X139.076 Y102.063 F2400
;LAYER:3
M107
;rapid-dry
G0 X139.391 Y112.166 Z0.5 F7200
G1 F2100 E0.5
;bead-support
G1 X139.864 Y111.892 F1200 E0.013
G1 X139.368 Y109.099 E0.071
G1 X137.717 Y110.053 E0.048
G1 X137.222 Y107.26 E0.07
G1 X138.872 Y106.306 E0.048
G1 X138.377 Y103.513 E0.071
G1 X136.726 Y104.466 E0.047
G1 F2100 E-0.5
G0 X137.592 Y103.966 F2400
G0 X136.726 Y104.466 F2400
;rapid-dry
G0 X134.524 Y100.845 F7200
G1 F2100 E0.5
;bead-support
G1 X133.812 Y99.612 F1200 E0.036
G1 F2100 E-0.5
G0 X134.312 Y100.478 F2400
G0 X133.812 Y99.612 F2400
;rapid-dry
G0 X135.467 Y99.186 F7200
G1 F2100 E0.5
;bead-perimeter_outer
G1 X137.877 Y98.762 F1200 E0.061
G1 X138.5 Y102.308 E0.09
G1 X136.089 Y102.732 E0.061
G1 X135.467 Y99.186 E0.09
;rapid-leaky
G0 X135.883 Y99.478 F7200
;bead-perimeter_inner
G1 X137.585 Y99.179 F1200 E0.043
G1 X138.083 Y102.016 E0.071
G1 X136.382 Y102.315 E0.044
G1 X135.883 Y99.478 E0.071
;rapid-leaky
G0 X137.072 Y99.594 F7200
;bead-solid_infill
G1 X136.512 Y100.154 F1200 E0.02
G1 X136.596 Y100.635 E0.012
G1 X137.221 Y100.011 E0.022
G1 X137.305 Y100.492 E0.013
G1 X136.681 Y101.117 E0.022
G1 X136.765 Y101.598 E0.012
G1 X137.39 Y100.973 E0.022
G1 X137.474 Y101.454 E0.012
G1 X137.057 Y101.871 E0.015
G1 F2100 E-0.5
;rapid-dry
G0 X131.367 Y101.402 F7200
G1 F2100 E0.5
;bead-support
G1 X133.248 Y100.316 F1200 E0.054
G1 X132.784 Y99.794 E0.017
G1 X127.071 Y100.803 E0.145
G1 X123.689 Y102.756 E0.098
G1 X116.01 Y104.11 E0.194
G1 X119.386 Y102.161 E0.097
G1 X111.7 Y103.519 E0.195
G1 X110.056 Y104.469 E0.047
G1 F2100 E-0.5
G0 X110.922 Y103.969 F2400
G0 X110.056 Y104.469 F2400
;rapid-dry
G0 X110.432 Y98.093 F7200
G1 F2100 E0.5
;bead-support
G1 X110.771 Y97.897 F1200 E0.01
G1 F2100 E-0.5
G0 X110.432 Y98.093 F2400
G0 X110.771 Y97.897 F2400
;LAYER:4
M106 S255
;rapid-leaky
G0 Z0.65 F7200
G1 F2100 E0.5
;bead-support
G1 X110.432 Y98.093 F1200 E0.01
G1 F2100 E-0.5
G0 X110.771 Y97.897 F2400
G0 X110.432 Y98.093 F2400
;rapid-dry
G0 X111.698 Y102.643 F7200
G1 F2100 E0.5
;bead-support
G1 X111.668 Y102.591 F1200 E0.001
G1 X110.969 Y102.714 E0.018
G1 X111.001 Y102.768 E0.002
G1 F2100 E-0.5
G0 X110.969 Y102.714 F2400
G0 X111.668 Y102.591 F2400
G0 X111.698 Y102.643 F2400
G0 X111.668 Y102.591 F2400
G0 X110.969 Y102.714 F2400
G0 X111.001 Y102.768 F2400
;rapid-dry
G0 X110.769 Y105.034 F7200
G1 F2100 E0.5
;bead-support
G1 X110.062 Y103.809 F1200 E0.035
G1 X110.76 Y103.685 E0.018
G1 X111.468 Y104.911 E0.035
G1 X112.167 Y104.788 E0.018
G1 X111.459 Y103.562 E0.035
G1 X112.157 Y103.438 E0.018
G1 X112.865 Y104.665 E0.035
G1 X113.564 Y104.541 E0.018
G1 X112.856 Y103.315 E0.035
G1 X113.554 Y103.191 E0.018
G1 X114.263 Y104.418 E0.035
G1 X114.961 Y104.295 E0.018
G1 X114.253 Y103.068 E0.035
G1 X114.951 Y102.945 E0.018
G1 X115.66 Y104.172 E0.035
G1 X116.359 Y104.049 E0.018
G1 X115.65 Y102.821 E0.035
G1 X116.348 Y102.698 E0.018
G1 X117.057 Y103.925 E0.035
G1 X117.756 Y103.802 E0.018
G1 X117.047 Y102.574 E0.035
G1 X117.746 Y102.451 E0.018
G1 X118.455 Y103.679 E0.035
G1 X119.153 Y103.556 E0.018
G1 X118.444 Y102.327 E0.035
G1 X119.143 Y102.204 E0.018
G1 X119.852 Y103.433 E0.035
G1 X120.551 Y103.309 E0.018
G1 X119.841 Y102.08 E0.036
G1 X120.54 Y101.957 E0.017
G1 X121.249 Y103.186 E0.036
G1 X121.948 Y103.063 E0.017
G1 X121.238 Y101.834 E0.036
G1 X121.937 Y101.71 E0.017
G1 X122.647 Y102.94 E0.036
G1 X123.345 Y102.817 E0.018
G1 X122.635 Y101.587 E0.035
G1 X123.334 Y101.463 E0.018
G1 X124.044 Y102.693 E0.035
G1 X124.743 Y102.57 E0.018
G1 X124.032 Y101.34 E0.035
G1 X124.731 Y101.216 E0.018
G1 X125.441 Y102.447 E0.035
G1 X126.14 Y102.324 E0.018
G1 X125.429 Y101.093 E0.036
G1 X126.128 Y100.969 E0.017
G1 X126.839 Y102.201 E0.036
G1 X127.537 Y102.077 E0.017
G1 X126.826 Y100.846 E0.036
G1 X127.525 Y100.723 E0.018
G1 X128.236 Y101.954 E0.035
G1 X128.935 Y101.831 E0.018
G1 X128.223 Y100.599 E0.035
G1 X128.922 Y100.476 E0.018
G1 X129.633 Y101.708 E0.035
G1 X130.332 Y101.585 E0.018
G1 X129.62 Y100.352 E0.036
G1 X130.319 Y100.229 E0.017
G1 X131.031 Y101.461 E0.036
G1 X131.729 Y101.338 E0.017
G1 X131.018 Y100.105 E0.036
G1 X131.716 Y99.982 E0.018
G1 X132.428 Y101.215 E0.035
G1 X133.127 Y101.092 E0.018
G1 X132.415 Y99.858 E0.035
G1 X133.113 Y99.735 E0.018
G1 X133.825 Y100.969 E0.036
G1 X134.524 Y100.845 E0.017
G1 X134.215 Y100.311 E0.016
G1 F2100 E-0.5
G0 X134.524 Y100.845 F2400
G0 X134.147 Y100.912 F2400
G0 X134.524 Y100.845 F2400
G0 X134.215 Y100.311 F2400
;rapid-dry
G0 X136.726 Y104.466 F7200
G1 F2100 E0.5
;bead-support
G1 X138.377 Y103.513 F1200 E0.047
G1 X138.872 Y106.306 E0.071
G1 X137.222 Y107.26 E0.048
G1 X137.717 Y110.053 E0.07
G1 X139.368 Y109.099 E0.048
G1 X139.864 Y111.892 E0.071
G1 X139.391 Y112.166 E0.013
G1 F2100 E-0.5
G0 X139.864 Y111.892 F2400
G0 X139.785 Y111.446 F2400
G0 X139.864 Y111.892 F2400
G0 X139.391 Y112.166 F2400
;rapid-dry
G0 X138.694 Y102.273 F7200
G1 F2100 E0.5
;bead-perimeter_outer
G1 X135.893 Y102.766 F1200 E0.071
G1 X135.272 Y99.22 E0.09
G1 X138.073 Y98.728 E0.071
G1 X138.694 Y102.273 E0.09
;rapid-leaky
G0 X138.278 Y101.981 F7200
;bead-perimeter_inner
G1 X136.186 Y102.349 F1200 E0.053
G1 X135.689 Y99.513 E0.072
G1 X137.78 Y99.145 E0.053
G1 X138.278 Y101.981 E0.071
G1 F2100 E-0.5
;LAYER:5
;rapid-leaky
G0 X138.229 Y98.7 Z0.8 F7200
G1 F2100 E0.5
;bead-perimeter_outer
G1 X138.857 Y102.245 F1200 E0.09
G1 X135.74 Y102.793 E0.079
G1 X135.111 Y99.249 E0.09
G1 X138.229 Y98.7 E0.079
;rapid-leaky
G0 X137.937 Y99.117 F7200
;bead-perimeter_inner
G1 X138.44 Y101.953 F1200 E0.072
G1 X136.032 Y102.377 E0.061
G1 X135.528 Y99.541 E0.072
G1 X137.937 Y99.117 E0.061
;rapid-leaky
G0 X136.258 Y101.819 F7200
;bead-sparse_infill
G1 X136.342 Y101.997 F1200 E0.004
G1 F2100 E-0.5
;rapid-dry
G0 X138.72 Y105.446 F7200
G1 F2100 E0.5
;bead-support
G1 X137.464 Y103.272 F1200 E0.063
G1 X136.766 Y103.395 E0.018
G1 X138.989 Y107.245 E0.111
G1 X138.98 Y107.579 E0.008
G1 X139.079 Y107.79 E0.006
G1 X139.184 Y108.06 E0.007
G1 X139.353 Y109.014 E0.024
G1 X139.403 Y109.296 E0.007
G1 X136.776 Y104.745 E0.131
G1 X137.117 Y106.67 E0.049
G1 X139.745 Y111.221 E0.131
G1 X139.848 Y111.802 E0.015
G1 X139.84 Y112.085 E0.007
G1 X139.508 Y112.145 E0.009
G1 X137.458 Y108.595 E0.102
G1 X137.486 Y108.75 E0.004
G1 X137.8 Y110.519 E0.045
G1 X138.811 Y112.27 E0.05
G1 F2100 E-0.5
G0 X138.311 Y111.404 F2400
G0 X138.811 Y112.27 F2400
;rapid-dry
G0 X110.771 Y97.897 F7200
G1 F2100 E0.5
;bead-support
G1 X110.432 Y98.093 F1200 E0.01
G1 F2100 E-0.5
G0 X110.771 Y97.897 F2400
G0 X110.432 Y98.093 F2400
;LAYER:6
;rapid-leaky
G0 Z0.95 F7200
G1 F2100 E0.5
;bead-support
G1 X110.771 Y97.897 F1200 E0.009
G1 F2100 E-0.5
G0 X110.432 Y98.093 F2400
G0 X110.771 Y97.897 F2400
;rapid-dry
G0 X135.607 Y102.817 F7200
G1 F2100 E0.5
;bead-perimeter_outer
G1 X134.983 Y99.272 F1200 E0.09
G1 X138.361 Y98.676 E0.086
G1 X138.679 Y100.478 E0.046
G1 X138.985 Y102.222 E0.044
G1 X135.607 Y102.817 E0.085
;rapid-leaky
G0 X135.899 Y102.4 F7200
;bead-perimeter_inner
G1 X135.4 Y99.564 F1200 E0.072
G1 X138.069 Y99.093 E0.068
G1 X138.325 Y100.54 E0.036
G1 X138.568 Y101.93 E0.036
G1 X135.899 Y102.4 E0.067
;rapid-leaky
G0 X136.015 Y101.211 F7200
;bead-sparse_infill
G1 X136.404 Y101.466 F1200 E0.012
G1 X136.567 Y101.958 E0.013
G1 X138.198 Y101.67 E0.041
G1 X138.066 Y100.917 E0.019
G1 X137.893 Y100.397 E0.014
G1 X137.945 Y100.234 E0.004
G1 F2100 E-0.5
;rapid-dry
G0 X138.163 Y103.148 F7200
G1 F2100 E0.5
;bead-support
G1 X138.378 Y103.521 F1200 E0.011
G1 X138.72 Y105.446 E0.048
G1 X137.749 Y103.764 E0.049
G1 X136.766 Y103.395 E0.026
G1 X136.866 Y103.569 E0.005
G1 X136.854 Y104.05 E0.012
G1 X136.83 Y104.188 E0.004
G1 X136.909 Y104.976 E0.019
G1 X136.776 Y104.745 E0.007
G1 X137.117 Y106.67 E0.049
G1 X137.559 Y107.436 E0.022
G1 X137.275 Y106.704 E0.019
G1 X137.007 Y105.659 E0.027
G1 X137.271 Y105.604 E0.007
G1 X137.077 Y105.267 E0.01
G1 X137.785 Y105.16 E0.018
G1 X137.958 Y105.46 E0.008
G1 X138.638 Y105.318 E0.018
G1 X138.75 Y106.463 E0.028
G1 X138.735 Y106.554 E0.003
G1 X138.726 Y106.606 E0.001
G1 X138.721 Y106.782 E0.004
G1 X139.061 Y107.371 E0.017
G1 F2100 E-0.5
G0 X138.721 Y106.782 F2400
G0 X138.726 Y106.606 F2400
G0 X138.735 Y106.554 F2400
G0 X138.749 Y106.464 F2400
G0 X138.735 Y106.554 F2400
G0 X138.726 Y106.606 F2400
G0 X138.721 Y106.782 F2400
G0 X139.061 Y107.371 F2400
;rapid-leaky
G0 X139.564 Y110.908 F7200
G1 F2100 E0.5
;bead-support
G1 X139.745 Y111.221 F1200 E0.009
G1 X139.403 Y109.296 E0.049
G1 X139.204 Y108.952 E0.01
G1 X139.272 Y109.215 E0.007
G1 X139.424 Y109.809 E0.015
G1 X138.983 Y109.901 E0.011
G1 X139.172 Y110.229 E0.01
G1 X138.464 Y110.336 E0.018
G1 X138.296 Y110.045 E0.008
G1 X137.794 Y110.15 E0.013
G1 X137.68 Y109.003 E0.028
G1 X137.683 Y108.984 E0.001
G1 X137.458 Y108.595 E0.011
G1 X137.8 Y110.519 E0.049
G1 X138.651 Y111.993 E0.042
G1 F2100 E-0.5
G0 X138.151 Y111.127 F2400
G0 X138.651 Y111.993 F2400
;LAYER:7
;rapid-dry
G0 X139.061 Y107.371 Z1.1 F7200
G1 F2100 E0.5
;bead-support
G1 X138.963 Y107.201 F2768 E0.005
G1 X138.378 Y103.52 E0.093
G1 X138.163 Y103.148 E0.011
G1 F2100 E-0.5
G0 X138.378 Y103.52 F2400
G0 X138.467 Y104.083 F2400
G0 X138.378 Y103.52 F2400
G0 X138.163 Y103.148 F2400
;rapid-dry
G0 X110.771 Y97.897 F7200
G1 F2100 E0.5
;bead-support
G1 X110.432 Y98.093 F2768 E0.01
G1 F2100 E-0.5
G0 X110.771 Y97.897 F2400
G0 X110.432 Y98.093 F2400
;rapid-dry
G0 X109.786 Y103.715 F7200
G1 F2100 E0.5
;bead-perimeter_outer
G1 X138.479 Y98.656 F1510 E0.727
G1 X139.1 Y102.201 E0.089
G1 X135.489 Y102.838 E0.092
G1 X135.145 Y100.868 E0.05
G1 X110.063 Y105.29 E0.635
G1 X109.786 Y103.715 E0.04
G1 F2100 E-0.5
;rapid-dry
G0 X110.203 Y104.007 F7200
G1 F2100 E0.5
;bead-perimeter_inner
G1 X138.186 Y99.073 F2013 E0.709
G1 X138.684 Y101.909 E0.072
G1 X135.781 Y102.421 E0.073
G1 X135.437 Y100.451 E0.05
G1 X110.355 Y104.873 E0.635
G1 X110.203 Y104.007 E0.022
G1 F2100 E-0.5
;rapid-dry
G0 X110.438 Y103.6 F7200
G1 F2100 E0.5
;bead-solid_infill
G1 X109.866 Y104.172 F1510 E0.02
G1 X109.951 Y104.653 E0.013
G1 X111.125 Y103.479 E0.041
G1 X111.812 Y103.358 E0.017
G1 X110.036 Y105.134 E0.063
G1 X110.063 Y105.29 E0.004
G1 X110.527 Y105.209 E0.012
G1 X112.499 Y103.237 E0.069
G1 X113.186 Y103.116 E0.018
G1 X111.214 Y105.087 E0.069
G1 X111.901 Y104.966 E0.018
G1 X113.872 Y102.995 E0.069
G1 X114.559 Y102.874 E0.018
G1 X112.587 Y104.845 E0.069
G1 X113.274 Y104.724 E0.018
G1 X115.246 Y102.752 E0.069
G1 X115.933 Y102.631 E0.017
G1 X113.961 Y104.603 E0.07
G1 X114.648 Y104.482 E0.017
G1 X116.619 Y102.51 E0.07
G1 X117.306 Y102.389 E0.017
G1 X115.334 Y104.361 E0.07
G1 X116.021 Y104.24 E0.017
G1 X117.993 Y102.268 E0.07
G1 X118.68 Y102.147 E0.017
G1 X116.708 Y104.119 E0.07
G1 X117.395 Y103.998 E0.017
G1 X119.367 Y102.026 E0.07
G1 X120.053 Y101.905 E0.017
G1 X118.082 Y103.877 E0.07
G1 X118.768 Y103.756 E0.017
G1 X120.74 Y101.784 E0.07
G1 X121.427 Y101.663 E0.017
G1 X119.455 Y103.634 E0.07
G1 X120.142 Y103.513 E0.017
G1 X122.114 Y101.542 E0.07
G1 X122.8 Y101.42 E0.017
G1 X120.829 Y103.392 E0.07
G1 X121.515 Y103.271 E0.017
G1 X123.487 Y101.299 E0.07
G1 X124.174 Y101.178 E0.017
G1 X122.202 Y103.15 E0.07
G1 X122.889 Y103.029 E0.017
G1 X124.861 Y101.057 E0.069
G1 X125.548 Y100.936 E0.018
G1 X123.576 Y102.908 E0.069
G1 X124.262 Y102.787 E0.018
G1 X126.234 Y100.815 E0.069
G1 X126.921 Y100.694 E0.018
G1 X124.949 Y102.666 E0.069
G1 X125.636 Y102.545 E0.018
G1 X127.608 Y100.573 E0.069
G1 X128.295 Y100.452 E0.018
G1 X126.323 Y102.424 E0.069
G1 X127.01 Y102.303 E0.018
G1 X128.981 Y100.331 E0.069
G1 X129.668 Y100.21 E0.018
G1 X127.696 Y102.181 E0.069
G1 X128.383 Y102.06 E0.018
G1 X130.355 Y100.088 E0.069
G1 X131.042 Y99.967 E0.018
G1 X129.07 Y101.939 E0.069
G1 X129.757 Y101.818 E0.018
G1 X131.729 Y99.846 E0.069
G1 X132.415 Y99.725 E0.017
G1 X130.443 Y101.697 E0.07
G1 X131.13 Y101.576 E0.017
G1 X133.102 Y99.604 E0.07
G1 X133.789 Y99.483 E0.017
G1 X131.817 Y101.455 E0.07
G1 X132.504 Y101.334 E0.017
G1 X134.476 Y99.362 E0.07
G1 X134.786 Y99.307 E0.008
G1 X134.946 Y99.279 E0.004
G1 X135.163 Y99.241 E0.005
G1 X133.19 Y101.213 E0.07
G1 X133.877 Y101.092 E0.017
G1 X135.608 Y99.361 E0.061
G1 X135.692 Y99.842 E0.013
G1 X134.564 Y100.971 E0.039
G1 X135.145 Y100.868 E0.015
G1 X135.158 Y100.943 E0.002
G1 X135.777 Y100.323 E0.022
G1 X135.862 Y100.804 E0.012
G1 X135.79 Y100.876 E0.003
;rapid-leaky
G0 X135.839 Y100.892 F7200
;bead-sparse_infill
G1 X137.013 Y101.466 F3019 E0.032
G1 X136.986 Y101.883 E0.011
G1 X138.094 Y101.688 E0.028
G1 X137.638 Y101.466 E0.012
G1 X137.706 Y100.397 E0.027
G1 X137.982 Y99.763 E0.017
G1 F2100 E-0.5
;LAYER:8
;rapid-leaky
G0 X136.991 Y102.573 Z1.25 F7200
G1 F2100 E0.5
;bead-perimeter_outer
G1 X135.396 Y102.854 F1200 E0.041
G1 X135.045 Y100.885 E0.049
G1 X110.063 Y105.29 E0.633
G1 X109.786 Y103.715 E0.04
G1 X138.572 Y98.639 E0.729
G1 X139.197 Y102.184 E0.09
G1 X137.601 Y102.466 E0.041
G1 X137.738 Y103.238 E0.019
G1 X137.84 Y103.819 E0.015
G1 X139.337 Y112.314 E0.215
G1 X138.727 Y112.421 E0.015
G1 X138.694 Y112.231 E0.005
G1 X138.591 Y111.649 E0.015
G1 X136.991 Y102.573 E0.23
;rapid-leaky
G0 X135.687 Y102.438 F7200
;bead-perimeter_inner
G1 X135.336 Y100.468 F1426 E0.05
G1 X110.355 Y104.873 E0.633
G1 X110.203 Y104.007 E0.021
G1 X138.28 Y99.056 E0.712
G1 X138.78 Y101.892 E0.072
G1 X135.687 Y102.438 E0.078
;rapid-leaky
G0 X135.712 Y100.752 F7200
;bead-sparse_infill
G1 X136.258 Y100.941 F2140 E0.014
G1 X137.326 Y100.643 E0.028
G1 X138.034 Y99.503 E0.033
;rapid-leaky
G0 X135.102 Y99.951 F7200
;bead-solid_infill
G1 X135.094 Y99.943 F1200 E0.001
G1 X134.613 Y100.027 E0.012
G1 X134.82 Y100.235 E0.007
G1 X134.339 Y100.319 E0.012
G1 X134.132 Y100.112 E0.008
G1 X133.651 Y100.197 E0.012
G1 X133.858 Y100.404 E0.007
G1 X133.377 Y100.489 E0.012
G1 X133.17 Y100.282 E0.008
G1 X132.689 Y100.367 E0.012
G1 X132.897 Y100.574 E0.007
G1 X132.416 Y100.658 E0.012
G1 X132.209 Y100.451 E0.008
G1 X131.728 Y100.536 E0.012
G1 X131.935 Y100.743 E0.007
G1 X131.454 Y100.828 E0.012
G1 X131.247 Y100.621 E0.008
G1 X130.766 Y100.706 E0.012
G1 X130.973 Y100.913 E0.007
G1 X130.492 Y100.998 E0.012
G1 X130.285 Y100.791 E0.008
G1 X129.804 Y100.875 E0.012
G1 X130.011 Y101.082 E0.007
G1 X129.53 Y101.167 E0.012
G1 X129.323 Y100.96 E0.008
G1 X128.842 Y101.045 E0.012
G1 X129.049 Y101.252 E0.007
G1 X128.568 Y101.337 E0.012
G1 X128.361 Y101.13 E0.008
G1 X127.881 Y101.215 E0.012
G1 X128.088 Y101.422 E0.007
G1 X127.607 Y101.506 E0.012
G1 X127.4 Y101.299 E0.007
G1 X126.919 Y101.384 E0.013
G1 X127.126 Y101.591 E0.007
G1 X126.645 Y101.676 E0.012
G1 X126.438 Y101.469 E0.007
G1 X125.957 Y101.554 E0.013
G1 X126.164 Y101.761 E0.007
G1 X125.683 Y101.846 E0.012
G1 X125.476 Y101.639 E0.007
G1 X124.995 Y101.723 E0.013
G1 X125.202 Y101.93 E0.007
G1 X124.721 Y102.015 E0.012
G1 X124.514 Y101.808 E0.007
G1 X124.034 Y101.893 E0.013
G1 X124.24 Y102.1 E0.007
G1 X123.76 Y102.185 E0.012
G1 X123.553 Y101.978 E0.007
G1 X123.072 Y102.063 E0.013
G1 X123.279 Y102.27 E0.007
G1 X122.798 Y102.354 E0.012
G1 X122.591 Y102.147 E0.007
G1 X122.11 Y102.232 E0.012
G1 X122.317 Y102.439 E0.008
G1 X121.836 Y102.524 E0.012
G1 X121.629 Y102.317 E0.007
G1 X121.148 Y102.402 E0.012
G1 X121.355 Y102.609 E0.008
G1 X120.874 Y102.694 E0.012
G1 X120.667 Y102.487 E0.007
G1 X120.187 Y102.572 E0.012
G1 X120.393 Y102.778 E0.008
G1 X119.912 Y102.863 E0.012
G1 X119.706 Y102.656 E0.007
G1 X119.225 Y102.741 E0.012
G1 X119.432 Y102.948 E0.008
G1 X118.951 Y103.033 E0.012
G1 X118.744 Y102.826 E0.007
G1 X118.263 Y102.911 E0.012
G1 X118.47 Y103.118 E0.008
G1 X117.989 Y103.202 E0.012
G1 X117.782 Y102.996 E0.007
G1 X117.301 Y103.08 E0.012
G1 X117.508 Y103.287 E0.008
G1 X117.027 Y103.372 E0.012
G1 X116.82 Y103.165 E0.007
G1 X116.339 Y103.25 E0.012
G1 X116.546 Y103.457 E0.008
G1 X116.065 Y103.541 E0.012
G1 X115.859 Y103.335 E0.007
G1 X115.378 Y103.42 E0.012
G1 X115.584 Y103.626 E0.007
G1 X115.104 Y103.711 E0.013
G1 X114.897 Y103.504 E0.007
G1 X114.416 Y103.589 E0.012
G1 X114.623 Y103.796 E0.007
G1 X114.142 Y103.881 E0.013
G1 X113.935 Y103.674 E0.007
G1 X113.454 Y103.759 E0.012
G1 X113.661 Y103.965 E0.007
G1 X113.18 Y104.05 E0.013
G1 X112.973 Y103.844 E0.007
G1 X112.492 Y103.928 E0.012
G1 X112.699 Y104.135 E0.007
G1 X112.218 Y104.22 E0.012
G1 X112.012 Y104.013 E0.008
G1 X111.531 Y104.098 E0.012
G1 X111.737 Y104.305 E0.007
G1 X111.256 Y104.389 E0.012
G1 X111.05 Y104.183 E0.008
G1 X110.573 Y104.267 E0.012
G1 X110.574 Y104.273
G1 X110.776 Y104.474 E0.007
G1 F2100 E-0.5
;rapid-dry
G0 X110.975 Y102.724 F7200
G1 F2100 E0.5
;bead-support
G1 X110.87 Y102.543 F1961 E0.005
G1 X110.71 Y101.657 E0.023
G1 X111.09 Y101.589 E0.009
G1 X111.674 Y102.6 E0.029
G1 F2100 E-0.5
G0 X111.174 Y101.734 F2400
G0 X111.674 Y102.6 F2400
;rapid-dry
G0 X110.432 Y98.093 F7200
G1 F2100 E0.5
;bead-support
G1 X110.771 Y97.897 F1961 E0.01
G1 F2100 E-0.5
G0 X110.432 Y98.093 F2400
G0 X110.771 Y97.897 F2400
;LAYER:9
;rapid-leaky
G0 Z1.4 F7200
G1 F2100 E0.5
;bead-support
G1 X110.432 Y98.093 F2101 E0.01
G1 F2100 E-0.5
G0 X110.771 Y97.897 F2400
G0 X110.432 Y98.093 F2400
;rapid-dry
G0 X110.063 Y105.29 F7200
G1 F2100 E0.5
;bead-perimeter_outer
G1 X109.786 Y103.715 F1200 E0.04
G1 X138.657 Y98.624 E0.731
G1 X139.28 Y102.17 E0.09
G1 X137.881 Y102.417 E0.035
G1 X138.004 Y103.111 E0.018
G1 X138.061 Y103.437 E0.008
G1 X139.617 Y112.265 E0.224
G1 X138.447 Y112.471 E0.029
G1 X138.428 Y112.359 E0.003
G1 X138.369 Y112.03 E0.009
G1 X136.711 Y102.622 E0.238
G1 X135.309 Y102.87 E0.035
G1 X134.964 Y100.899 E0.05
G1 X110.063 Y105.29 E0.631
;rapid-leaky
G0 X110.355 Y104.873 F7200
;bead-perimeter_inner
G1 X110.203 Y104.007 F1528 E0.022
G1 X138.365 Y99.041 E0.713
G1 X138.864 Y101.878 E0.072
G1 X137.464 Y102.125 E0.036
G1 X139.2 Y111.973 E0.249
G1 X138.739 Y112.054 E0.012
G1 X137.004 Y102.205 E0.249
G1 X135.602 Y102.453 E0.036
G1 X135.257 Y100.482 E0.05
G1 X110.355 Y104.873 E0.63
G1 F2100 E-0.5
;rapid-dry
G0 X110.974 Y104.196 F7200
G1 F2100 E0.5
;bead-solid_infill
G1 X110.679 Y104.491 F1200 E0.011
G1 X111.365 Y104.37 E0.017
G1 X111.661 Y104.075 E0.011
G1 X112.347 Y103.954 E0.017
G1 X112.052 Y104.249 E0.011
G1 X112.739 Y104.128 E0.017
G1 X113.034 Y103.833 E0.01
G1 X113.721 Y103.712 E0.018
G1 X113.426 Y104.007 E0.01
G1 X114.113 Y103.886 E0.018
G1 X114.408 Y103.591 E0.01
G1 X115.095 Y103.469 E0.017
G1 X114.799 Y103.765 E0.011
G1 X115.486 Y103.644 E0.017
G1 X115.781 Y103.348 E0.011
G1 X116.468 Y103.227 E0.017
G1 X116.173 Y103.522 E0.01
G1 X116.86 Y103.401 E0.018
G1 X117.155 Y103.106 E0.01
G1 X117.842 Y102.985 E0.018
G1 X117.547 Y103.28 E0.01
G1 X118.233 Y103.159 E0.017
G1 X118.529 Y102.864 E0.011
G1 X119.215 Y102.743 E0.017
G1 X118.92 Y103.038 E0.011
G1 X119.607 Y102.917 E0.017
G1 X119.902 Y102.622 E0.01
G1 X120.589 Y102.501 E0.018
G1 X120.294 Y102.796 E0.01
G1 X120.981 Y102.675 E0.018
G1 X121.276 Y102.379 E0.01
G1 X121.963 Y102.258 E0.017
G1 X121.667 Y102.554 E0.011
G1 X122.354 Y102.432 E0.017
G1 X122.649 Y102.137 E0.011
G1 X123.336 Y102.016 E0.017
G1 X123.041 Y102.311 E0.01
G1 X123.728 Y102.19 E0.018
G1 X124.023 Y101.895 E0.01
G1 X124.71 Y101.774 E0.018
G1 X124.415 Y102.069 E0.01
G1 X125.101 Y101.948 E0.018
G1 X125.397 Y101.653 E0.01
G1 X126.083 Y101.532 E0.017
G1 X125.788 Y101.827 E0.011
G1 X126.475 Y101.706 E0.017
G1 X126.77 Y101.41 E0.011
G1 X127.457 Y101.289 E0.017
G1 X127.162 Y101.585 E0.01
G1 X127.848 Y101.464 E0.018
G1 X128.144 Y101.168 E0.01
G1 X128.831 Y101.047 E0.018
G1 X128.535 Y101.342 E0.01
G1 X129.222 Y101.221 E0.017
G1 X129.518 Y100.926 E0.011
G1 X130.204 Y100.805 E0.017
G1 X129.909 Y101.1 E0.011
G1 X130.596 Y100.979 E0.017
G1 X130.891 Y100.684 E0.01
G1 X131.578 Y100.563 E0.018
G1 X131.282 Y100.858 E0.01
G1 X131.969 Y100.737 E0.018
G1 X132.265 Y100.441 E0.01
G1 X132.952 Y100.32 E0.018
G1 X132.656 Y100.616 E0.01
G1 X133.343 Y100.495 E0.017
G1 X133.638 Y100.199 E0.011
G1 X134.325 Y100.078 E0.017
G1 X134.03 Y100.374 E0.011
G1 X134.716 Y100.253 E0.017
G1 X135.012 Y99.957 E0.01
;rapid-leaky
G0 X135.605 Y100.617 F7200
;bead-sparse_infill
G1 X136.258 Y100.773 F2292 E0.017
G1 X137.326 Y100.296 E0.029
G1 X137.968 Y99.436 E0.027
G1 F2100 E-0.5
;LAYER:10
;rapid-leaky
G0 X136.532 Y102.654 Z1.55 F7200
G1 F2100 E0.5
;bead-perimeter_outer
G1 X135.242 Y102.882 F1200 E0.033
G1 X134.889 Y100.913 E0.05
G1 X110.063 Y105.29 E0.629
G1 X109.786 Y103.715 E0.039
G1 X138.726 Y98.612 E0.733
G1 X139.352 Y102.157 E0.09
G1 X138.06 Y102.385 E0.033
G1 X139.796 Y112.233 E0.249
G1 X138.268 Y112.502 E0.039
G1 X136.532 Y102.654 E0.25
;rapid-leaky
G0 X136.825 Y102.237 F7200
;bead-perimeter_inner
G1 X135.533 Y102.465 F1361 E0.032
G1 X135.18 Y100.497 E0.05
G1 X110.355 Y104.873 E0.629
G1 X110.203 Y104.007 E0.022
G1 X138.434 Y99.029 E0.715
G1 X138.935 Y101.865 E0.072
G1 X137.643 Y102.093 E0.033
G1 X139.379 Y111.941 E0.249
G1 X138.56 Y112.085 E0.021
G1 X136.825 Y102.237 E0.249
;rapid-leaky
G0 X138.674 Y110.89 F7200
;bead-sparse_infill
G1 X138.874 Y110.918 F2042 E0.005
G1 X138.27 Y107.493 E0.087
G1 X138.109 Y107.681 E0.006
G1 X137.274 Y102.942 E0.12
G1 X137.326 Y102.881 E0.002
G1 X137.446 Y102.817 E0.004
G1 X137.273 Y101.833 E0.025
G1 X138.564 Y101.605 E0.032
G1 X138.174 Y99.399 E0.056
G1 X137.831 Y99.46 E0.009
G1 X137.326 Y100.05 E0.019
G1 X136.258 Y100.627 E0.031
G1 X135.509 Y100.52 E0.018
G1 X135.438 Y100.126 E0.01
G1 X134.787 Y100.241 E0.017
G1 X134.464 Y100.054 E0.009
G1 X122.288 Y102.445 E0.31
G1 X121.523 Y102.336 E0.019
G1 X121.111 Y102.408 E0.01
G1 X120.442 Y102.77 E0.019
G1 X115.395 Y103.66 E0.128
G1 X115.214 Y103.449 E0.007
G1 F2100 E-0.5
;rapid-dry
G0 X111.24 Y100.516 F7200
G1 F2100 E0.5
;bead-support
G1 X110.698 Y99.577 F1872 E0.027
G1 X110.469 Y98.299 E0.033
G1 X110.692 Y98.234 E0.005
G1 X110.894 Y98.584 E0.01
G1 F2100 E-0.5
G0 X110.692 Y98.234 F2400
G0 X110.469 Y98.299 F2400
G0 X110.533 Y98.657 F2400
G0 X110.469 Y98.299 F2400
G0 X110.692 Y98.234 F2400
G0 X110.894 Y98.584 F2400
;LAYER:11
;rapid-leaky
G0 X110.836 Y98.483 Z1.7 F7200
G1 F2100 E0.5
;bead-support
G1 X110.361 Y97.66 F1929 E0.024
G1 X110.852 Y99.844 E0.056
G1 X111.24 Y100.516 E0.019
G1 F2100 E-0.5
G0 X110.852 Y99.844 F2400
G0 X110.803 Y99.626 F2400
G0 X110.852 Y99.844 F2400
G0 X111.24 Y100.516 F2400
;rapid-dry
G0 X135.18 Y102.893 F7200
G1 F2100 E0.5
;bead-perimeter_outer
G1 X134.835 Y100.923 F1200 E0.05
G1 X110.063 Y105.29 E0.628
G1 X109.786 Y103.715 E0.04
G1 X111.24 Y103.458 E0.036
G1 X111.17 Y103.063 E0.011
G1 X111.113 Y102.741 E0.008
G1 X110.919 Y101.637 E0.028
G1 X110.893 Y101.488 E0.003
G1 X111.53 Y101.377 E0.017
G1 X111.554 Y101.514 E0.003
G1 X111.749 Y102.619 E0.028
G1 X111.807 Y102.949 E0.008
G1 X111.877 Y103.346 E0.01
G1 X138.786 Y98.602 E0.682
G1 X139.409 Y102.147 E0.09
G1 X138.194 Y102.362 E0.031
G1 X139.93 Y112.21 E0.249
G1 X138.134 Y112.525 E0.046
G1 X136.398 Y102.677 E0.249
G1 X135.18 Y102.893 E0.031
;rapid-leaky
G0 X135.473 Y102.476 F7200
;bead-perimeter_inner
G1 X135.128 Y100.506 F1403 E0.05
G1 X110.355 Y104.873 E0.627
G1 X110.203 Y104.007 E0.022
G1 X138.494 Y99.019 E0.717
G1 X138.993 Y101.855 E0.072
G1 X137.777 Y102.07 E0.03
G1 X139.513 Y111.917 E0.25
G1 X138.426 Y112.109 E0.027
G1 X136.688 Y102.26 E0.25
G1 X135.473 Y102.476 E0.031
G1 F2100 E-0.5
;rapid-dry
G0 X138.553 Y110.987 F7200
G1 F2100 E0.5
;bead-sparse_infill
G1 X139.029 Y111.012 F2105 E0.011
G1 X138.375 Y107.304 E0.094
G1 X137.977 Y107.718 E0.015
G1 X137.184 Y103.228 E0.113
G1 X137.326 Y103.081 E0.006
G1 X137.601 Y102.914 E0.008
G1 X137.407 Y101.811 E0.027
G1 X138.622 Y101.596 E0.031
G1 X138.234 Y99.389 E0.056
G1 X137.673 Y99.488 E0.014
G1 X137.326 Y99.85 E0.013
G1 X136.258 Y100.498 E0.031
G1 X135.444 Y100.455 E0.02
G1 X135.388 Y100.135 E0.008
G1 X134.781 Y100.242 E0.016
G1 X134.414 Y100.063 E0.01
G1 X122.112 Y102.476 E0.313
G1 X121.304 Y102.434 E0.02
G1 X120.874 Y102.694 E0.012
G1 X115.5 Y103.641 E0.137
G1 X115.3 Y103.433 E0.007
G1 F2100 E-0.5
;LAYER:12
;rapid-leaky
G0 X112.06 Y103.314 Z1.85 F7200
G1 F2100 E0.5
;bead-perimeter_outer
G1 X138.834 Y98.593 F1200 E0.678
G1 X139.46 Y102.138 E0.09
G1 X138.29 Y102.345 E0.029
G1 X140.027 Y112.193 E0.25
G1 X138.038 Y112.542 E0.05
G1 X136.301 Y102.694 E0.25
G1 X135.134 Y102.901 E0.029
G1 X134.783 Y100.932 E0.05
G1 X110.063 Y105.29 E0.626
G1 X109.786 Y103.715 E0.04
G1 X111.058 Y103.49 E0.032
G1 X110.71 Y101.521 E0.05
G1 X111.712 Y101.344 E0.026
G1 X112.06 Y103.314 E0.05
;rapid-leaky
G0 X111.768 Y103.731 F7200
;bead-perimeter_inner
G1 X138.542 Y99.01 F1433 E0.678
G1 X139.043 Y101.846 E0.072
G1 X137.873 Y102.053 E0.029
G1 X139.61 Y111.9 E0.25
G1 X138.33 Y112.126 E0.032
G1 X136.593 Y102.277 E0.25
G1 X135.425 Y102.484 E0.029
G1 X135.074 Y100.515 E0.05
G1 X110.355 Y104.873 E0.626
G1 X110.203 Y104.007 E0.022
G1 X111.475 Y103.782 E0.032
G1 X111.127 Y101.813 E0.05
G1 X111.42 Y101.761 E0.008
G1 X111.768 Y103.731 E0.05
;rapid-leaky
G0 X110.576 Y104.281 F7200
;bead-sparse_infill
G1 X110.622 Y104.262 F2149 E0.001
G1 X110.628 Y104.257
G1 X111.509 Y104.101 E0.022
G1 X115.397 Y103.416 E0.099
G1 X115.615 Y103.621 E0.007
G1 X121.159 Y102.644 E0.141
G1 X121.304 Y102.548 E0.004
G1 X121.793 Y102.532 E0.012
G1 X134.337 Y100.076 E0.319
G1 X134.76 Y100.246 E0.011
G1 X135.333 Y100.145 E0.015
G1 X135.381 Y100.412 E0.007
G1 X136.258 Y100.383 E0.022
G1 X137.326 Y99.676 E0.032
G1 X137.492 Y99.52 E0.005
G1 X138.282 Y99.38 E0.02
G1 X138.672 Y101.587 E0.056
G1 X137.503 Y101.794 E0.03
G1 X137.715 Y102.997 E0.03
G1 X137.326 Y103.255 E0.012
G1 X137.124 Y103.445 E0.007
G1 X137.875 Y107.703 E0.108
G1 X138.394 Y107.214 E0.017
G1 X138.454 Y107.19 E0.002
G1 X139.139 Y111.069 E0.098
G1 X138.473 Y111.091 E0.017
G1 F2100 E-0.5
;LAYER:13
;rapid-dry
G0 X111.015 Y100.521 Z2 F7200
G1 F2100 E0.5
;bead-perimeter_outer
G1 X110.543 Y97.844 F1200 E0.068
G1 X110.483 Y97.499 E0.009
G1 X110.551 Y97.488 E0.001
G1 X110.61 Y97.824 E0.009
G1 X111.082 Y100.501 E0.068
G1 X111.174 Y101.028 E0.013
G1 X111.245 Y101.427 E0.01
G1 X111.833 Y101.323 E0.015
G1 X112.18 Y103.293 E0.05
G1 X138.873 Y98.587 E0.676
G1 X139.496 Y102.132 E0.09
G1 X138.362 Y102.332 E0.028
G1 X140.098 Y112.18 E0.25
G1 X137.966 Y112.555 E0.054
G1 X136.23 Y102.707 E0.249
G1 X135.093 Y102.908 E0.029
G1 X134.748 Y100.938 E0.05
G1 X110.063 Y105.29 E0.625
G1 X109.786 Y103.715 E0.04
G1 X110.937 Y103.512 E0.029
G1 X110.589 Y101.542 E0.05
G1 X111.177 Y101.438 E0.015
G1 X111.107 Y101.04 E0.01
G1 X111.015 Y100.521 E0.013
G1 F2100 E-0.5
;rapid-dry
G0 X111.006 Y101.835 F7200
G1 F2100 E0.5
;bead-perimeter_inner
G1 X111.541 Y101.74 F1500 E0.014
G1 X111.888 Y103.71 E0.05
G1 X138.581 Y99.004 E0.676
G1 X139.079 Y101.84 E0.072
G1 X137.945 Y102.04 E0.029
G1 X139.681 Y111.888 E0.249
G1 X138.258 Y112.138 E0.036
G1 X136.522 Y102.29 E0.249
G1 X135.386 Y102.491 E0.029
G1 X135.041 Y100.521 E0.05
G1 X110.355 Y104.873 E0.625
G1 X110.203 Y104.007 E0.022
G1 X111.354 Y103.804 E0.029
G1 X111.006 Y101.835 E0.05
G1 F2100 E-0.5
;rapid-dry
G0 X110.588 Y104.348 F7200
G1 F2100 E0.5
;bead-sparse_infill
G1 X110.622 Y104.337 F2250 E0.001
G1 X110.737 Y104.238 E0.004
G1 X111.721 Y104.064 E0.025
G1 X115.508 Y103.396 E0.096
G1 X115.742 Y103.599 E0.008
G1 X134.223 Y100.097 E0.469
G1 X134.716 Y100.253 E0.013
G1 X135.301 Y100.15 E0.015
G1 X135.342 Y100.386 E0.006
G1 X136.258 Y100.28 E0.023
G1 X137.265 Y99.561 E0.03
G1 X138.321 Y99.374 E0.027
G1 X138.709 Y101.58 E0.056
G1 X137.575 Y101.78 E0.029
G1 X137.803 Y103.073 E0.033
G1 X137.326 Y103.414 E0.014
G1 X137.082 Y103.624 E0.008
G1 X137.793 Y107.658 E0.102
G1 X138.394 Y107.139 E0.02
G1 X138.513 Y107.102 E0.003
G1 X139.218 Y111.101 E0.102
G1 X138.417 Y111.193 E0.02
G1 F2100 E-0.5
;LAYER:14
;rapid-leaky
G0 X140.153 Y112.171 Z2.15 F7200
G1 F2100 E0.5
;bead-perimeter_outer
G1 X137.911 Y112.565 F1200 E0.056
G1 X136.175 Y102.716 E0.25
G1 X135.067 Y102.912 E0.028
G1 X134.717 Y100.943 E0.05
G1 X110.063 Y105.29 E0.624
G1 X109.786 Y103.715 E0.04
G1 X110.857 Y103.526 E0.027
G1 X110.509 Y101.556 E0.05
G1 X110.97 Y101.475 E0.012
G1 X110.276 Y97.536 E0.1
G1 X110.758 Y97.451 E0.012
G1 X111.452 Y101.391 E0.1
G1 X111.913 Y101.309 E0.011
G1 X112.26 Y103.279 E0.05
G1 X138.901 Y98.582 E0.675
G1 X139.526 Y102.127 E0.09
G1 X138.417 Y102.323 E0.028
G1 X140.153 Y112.171 E0.249
;rapid-leaky
G0 X139.736 Y111.879 F7200
;bead-perimeter_inner
G1 X138.203 Y112.148 F1506 E0.039
G1 X136.467 Y102.299 E0.25
G1 X135.358 Y102.495 E0.028
G1 X135.008 Y100.526 E0.05
G1 X110.355 Y104.873 E0.624
G1 X110.203 Y104.007 E0.022
G1 X111.274 Y103.818 E0.027
G1 X110.926 Y101.849 E0.05
G1 X111.621 Y101.727 E0.018
G1 X111.968 Y103.696 E0.05
G1 X138.609 Y98.999 E0.674
G1 X139.109 Y101.835 E0.072
G1 X138 Y102.031 E0.028
G1 X139.736 Y111.879 E0.25
;rapid-leaky
G0 X138.379 Y111.3 F7200
;bead-sparse_infill
G1 X138.394 Y111.289 F2259
G1 X139.277 Y111.115 E0.023
G1 X138.555 Y107.02 E0.103
G1 X138.394 Y107.058 E0.005
G1 X137.725 Y107.592 E0.021
G1 X137.054 Y103.783 E0.096
G1 X137.326 Y103.566 E0.009
G1 X137.872 Y103.145 E0.017
G1 X137.63 Y101.772 E0.035
G1 X138.739 Y101.576 E0.028
G1 X138.349 Y99.369 E0.056
G1 X137.015 Y99.605 E0.034
G1 X136.258 Y100.188 E0.024
G1 X135.307 Y100.375 E0.024
G1 X135.268 Y100.156 E0.005
G1 X134.636 Y100.267 E0.016
G1 X134.121 Y100.146 E0.014
G1 X134.09 Y100.12 E0.001
G1 X115.882 Y103.574 E0.462
G1 X115.633 Y103.375 E0.008
G1 X111.708 Y104.066 E0.099
G1 X111.628 Y103.615 E0.012
G1 X111.571 Y103.661 E0.002
G1 X111.645 Y104.078 E0.01
G1 X110.88 Y104.213 E0.02
G1 X110.622 Y104.418 E0.008
G1 X110.601 Y104.423
G1 F2100 E-0.5
;LAYER:15
;rapid-leaky
G0 X111.549 Y101.372 Z2.3 F7200
G1 F2100 E0.5
;bead-perimeter_outer
G1 X111.964 Y101.3 F1200 E0.011
G1 X112.311 Y103.27 E0.05
G1 X138.921 Y98.578 E0.674
G1 X139.544 Y102.123 E0.089
G1 X138.454 Y102.316 E0.028
G1 X140.19 Y112.164 E0.25
G1 X137.874 Y112.571 E0.058
G1 X136.138 Y102.723 E0.25
G1 X135.045 Y102.916 E0.027
G1 X134.7 Y100.946 E0.05
G1 X110.063 Y105.29 E0.624
G1 X109.786 Y103.715 E0.04
G1 X110.806 Y103.534 E0.026
G1 X110.458 Y101.565 E0.05
G1 X110.874 Y101.492 E0.01
G1 X110.179 Y97.553 E0.1
G1 X110.854 Y97.434 E0.017
G1 X111.549 Y101.372 E0.1
;rapid-leaky
G0 X111.671 Y101.716 F7200
;bead-perimeter_inner
G1 X112.019 Y103.687 F1506 E0.05
G1 X138.629 Y98.995 E0.674
G1 X139.128 Y101.831 E0.072
G1 X138.037 Y102.024 E0.027
G1 X139.773 Y111.872 E0.25
G1 X138.166 Y112.154 E0.041
G1 X136.43 Y102.306 E0.249
G1 X135.338 Y102.499 E0.028
G1 X134.993 Y100.529 E0.05
G1 X110.355 Y104.873 E0.624
G1 X110.203 Y104.007 E0.022
G1 X111.223 Y103.826 E0.025
G1 X110.875 Y101.858 E0.05
G1 X111.671 Y101.716 E0.021
;rapid-leaky
G0 X110.632 Y104.5 F7200
;bead-sparse_infill
G1 X111.066 Y104.178 F2259 E0.013
G1 X111.594 Y104.085 E0.013
G1 X111.547 Y103.822 E0.007
G1 X111.69 Y103.716 E0.004
G1 X111.698 Y103.71 E0.001
G1 X111.759 Y104.057 E0.009
G1 X115.776 Y103.349 E0.101
G1 X115.963 Y103.488 E0.006
G1 X116.034 Y103.547 E0.002
G1 X133.99 Y100.138 E0.456
G1 X134.121 Y100.234 E0.004
G1 X134.494 Y100.292 E0.01
G1 X135.253 Y100.158 E0.019
G1 X135.29 Y100.372 E0.005
G1 X136.258 Y100.103 E0.025
G1 X136.815 Y99.639 E0.019
G1 X138.369 Y99.365 E0.039
G1 X138.757 Y101.572 E0.056
G1 X137.667 Y101.765 E0.027
G1 X137.923 Y103.219 E0.037
G1 X137.326 Y103.716 E0.02
G1 X137.041 Y103.927 E0.008
G1 X137.672 Y107.504 E0.091
G1 X138.394 Y106.969 E0.022
G1 X138.579 Y106.941 E0.005
G1 X139.315 Y111.117 E0.106
G1 X138.394 Y111.373 E0.024
G1 X138.359 Y111.403 E0.001
G1 F2100 E-0.5
;LAYER:16
;rapid-dry
G0 X110.063 Y105.29 Z2.45 F7200
G1 F2100 E0.5
;bead-perimeter_outer
G1 X109.786 Y103.715 F1200 E0.04
G1 X110.78 Y103.539 E0.025
G1 X110.432 Y101.57 E0.05
G1 X110.826 Y101.5 E0.01
G1 X110.132 Y97.561 E0.1
G1 X110.902 Y97.426 E0.019
G1 X111.596 Y101.364 E0.1
G1 X111.99 Y101.295 E0.01
G1 X112.337 Y103.265 E0.05
G1 X138.93 Y98.576 E0.673
G1 X139.556 Y102.121 E0.09
G1 X138.47 Y102.313 E0.028
G1 X140.206 Y112.161 E0.249
G1 X137.859 Y112.574 E0.06
G1 X136.122 Y102.726 E0.249
G1 X135.038 Y102.918 E0.028
G1 X134.688 Y100.948 E0.049
G1 X110.063 Y105.29 E0.624
;rapid-leaky
G0 X110.355 Y104.873 F7200
;bead-perimeter_inner
G1 X110.203 Y104.007 F1554 E0.022
G1 X111.197 Y103.831 E0.025
G1 X110.849 Y101.862 E0.05
G1 X111.243 Y101.792 E0.01
G1 X110.549 Y97.853 E0.1
G1 X110.61 Y97.843 E0.001
G1 X111.304 Y101.781 E0.1
G1 X111.698 Y101.712 E0.01
G1 X112.045 Y103.682 E0.05
G1 X138.638 Y98.993 E0.674
G1 X139.139 Y101.829 E0.072
G1 X138.053 Y102.021 E0.027
G1 X139.789 Y111.869 E0.249
G1 X138.151 Y112.157 E0.042
G1 X136.414 Y102.309 E0.249
G1 X135.329 Y102.501 E0.028
G1 X134.98 Y100.531 E0.05
G1 X110.355 Y104.873 E0.624
;rapid-leaky
G0 X110.824 Y104.466 F7200
;bead-sparse_infill
G1 X111.303 Y104.137 F2332 E0.014
G1 X111.568 Y104.09 E0.007
G1 X111.546 Y103.97 E0.003
G1 X111.69 Y103.871 E0.004
G1 X111.744 Y103.822 E0.002
G1 X111.785 Y104.052 E0.006
G1 X115.943 Y103.319 E0.105
G1 X115.963 Y103.333 E0.001
G1 X116.173 Y103.523 E0.007
G1 X133.869 Y100.159 E0.449
G1 X134.121 Y100.332 E0.008
G1 X134.225 Y100.34 E0.002
G1 X135.239 Y100.161 E0.026
G1 X135.277 Y100.379 E0.006
G1 X136.258 Y100.025 E0.026
G1 X136.653 Y99.668 E0.013
G1 X138.378 Y99.363 E0.044
G1 X138.768 Y101.57 E0.055
G1 X137.683 Y101.762 E0.028
G1 X137.954 Y103.303 E0.039
G1 X137.326 Y103.871 E0.021
G1 X137.048 Y104.061 E0.008
G1 X137.636 Y107.393 E0.085
G1 X138.394 Y106.872 E0.023
G1 X138.581 Y106.858 E0.004
G1 X139.331 Y111.113 E0.108
G1 X138.394 Y111.451 E0.025
G1 X138.357 Y111.484 E0.001
G1 F2100 E-0.5
;LAYER:17
;rapid-dry
G0 X112.342 Y103.265 Z2.6 F7200
G1 F2100 E0.5
;bead-perimeter_outer
G1 X138.933 Y98.576 F1200 E0.674
G1 X139.557 Y102.121 E0.09
G1 X138.474 Y102.312 E0.027
G1 X140.21 Y112.16 E0.25
G1 X137.855 Y112.575 E0.059
G1 X136.118 Y102.727 E0.25
G1 X135.033 Y102.919 E0.027
G1 X134.689 Y100.948 E0.05
G1 X110.063 Y105.29 E0.624
G1 X109.786 Y103.715 E0.04
G1 X110.775 Y103.54 E0.025
G1 X110.427 Y101.57 E0.05
G1 X110.821 Y101.501 E0.01
G1 X110.127 Y97.562 E0.099
G1 X110.907 Y97.425 E0.02
G1 X111.601 Y101.363 E0.1
G1 X111.995 Y101.294 E0.01
G1 X112.342 Y103.265 E0.05
;rapid-leaky
G0 X112.05 Y103.682 F7200
;bead-perimeter_inner
G1 X138.641 Y98.993 F1553 E0.673
G1 X139.14 Y101.829 E0.072
G1 X138.057 Y102.02 E0.028
G1 X139.793 Y111.868 E0.249
G1 X138.147 Y112.158 E0.042
G1 X136.41 Y102.31 E0.249
G1 X135.325 Y102.502 E0.028
G1 X134.981 Y100.531 E0.05
G1 X110.355 Y104.873 E0.623
G1 X110.203 Y104.007 E0.022
G1 X111.192 Y103.832 E0.025
G1 X110.844 Y101.863 E0.05
G1 X111.238 Y101.794 E0.01
G1 X110.544 Y97.854 E0.1
G1 X110.615 Y97.842 E0.002
G1 X111.309 Y101.78 E0.1
G1 X111.703 Y101.711 E0.01
G1 X112.05 Y103.682 E0.05
;rapid-leaky
G0 X111.085 Y104.42 F7200
;bead-sparse_infill
G1 X111.69 Y104.036 F2329 E0.017
G1 X111.773 Y103.954 E0.003
G1 X111.79 Y104.052 E0.003
G1 X116.091 Y103.294 E0.109
G1 X116.299 Y103.5 E0.007
G1 X134.019 Y100.376 E0.449
G1 X133.719 Y100.186 E0.009
G1 X136.522 Y99.691 E0.071
G1 X136.258 Y99.953 E0.009
G1 X135.281 Y100.388 E0.027
G1 X135.585 Y102.131 E0.044
G1 X136.67 Y101.939 E0.027
G1 X137.068 Y104.199 E0.058
G1 X137.326 Y104.036 E0.007
G1 X137.975 Y103.394 E0.023
G1 X138.569 Y106.765 E0.085
G1 X138.394 Y106.763 E0.005
G1 X137.608 Y107.261 E0.023
G1 X138.365 Y111.552 E0.109
G1 X138.394 Y111.523 E0.001
G1 X139.334 Y111.104 E0.025
G1 F2100 E-0.5
;LAYER:18
;rapid-dry
G0 X138.924 Y98.578 Z2.75 F7200
G1 F2100 E0.5
;bead-perimeter_outer
G1 X139.55 Y102.122 F1200 E0.09
G1 X138.461 Y102.314 E0.028
G1 X140.197 Y112.162 E0.249
G1 X137.867 Y112.573 E0.059
G1 X136.131 Y102.725 E0.249
G1 X135.043 Y102.916 E0.028
G1 X134.694 Y100.947 E0.05
G1 X110.063 Y105.29 E0.624
G1 X109.786 Y103.715 E0.04
G1 X110.793 Y103.537 E0.025
G1 X110.445 Y101.568 E0.05
G1 X110.852 Y101.496 E0.01
G1 X110.157 Y97.556 E0.1
G1 X110.876 Y97.43 E0.018
G1 X111.571 Y101.37 E0.1
G1 X111.977 Y101.298 E0.01
G1 X112.324 Y103.267 E0.05
G1 X138.924 Y98.578 E0.674
;rapid-leaky
G0 X138.632 Y98.995 F7200
;bead-perimeter_inner
G1 X139.133 Y101.83 F1549 E0.072
G1 X138.044 Y102.022 E0.028
G1 X139.78 Y111.87 E0.249
G1 X138.159 Y112.156 E0.041
G1 X136.423 Y102.309 E0.249
G1 X135.335 Y102.5 E0.028
G1 X134.986 Y100.53 E0.05
G1 X110.355 Y104.873 E0.624
G1 X110.203 Y104.007 E0.022
G1 X111.21 Y103.829 E0.025
G1 X110.862 Y101.86 E0.05
G1 X111.269 Y101.788 E0.01
G1 X110.574 Y97.849 E0.1
G1 X111.279 Y101.787 E0.1
G1 X111.685 Y101.715 E0.01
G1 X112.032 Y103.684 E0.05
G1 X138.632 Y98.995 E0.674
G1 F2100 E-0.5
;rapid-dry
G0 X139.319 Y111.095 F7200
G1 F2100 E0.5
;bead-sparse_infill
G1 X138.394 Y111.591 F2324 E0.026
G1 X138.386 Y111.599
G1 X137.593 Y107.101 E0.114
G1 X138.394 Y106.642 E0.023
G1 X138.536 Y106.655 E0.004
G1 X137.98 Y103.501 E0.08
G1 X137.326 Y104.221 E0.024
G1 X137.108 Y104.347 E0.006
G1 X136.683 Y101.938 E0.061
G1 X135.594 Y102.129 E0.028
G1 X135.288 Y100.404 E0.044
G1 X136.258 Y99.886 E0.027
G1 X136.417 Y99.71 E0.006
G1 X133.525 Y100.22 E0.073
G1 X133.849 Y100.406 E0.01
G1 X116.415 Y103.48 E0.441
G1 X116.224 Y103.27 E0.007
G1 X111.855 Y104.04 E0.111
G1 X111.69 Y104.221 E0.006
G1 X111.46 Y104.354 E0.007
G1 F2100 E-0.5
;LAYER:19
;rapid-leaky
G0 X110.931 Y101.482 Z2.9 F7200
G1 F2100 E0.5
;bead-perimeter_outer
G1 X110.236 Y97.543 F1200 E0.099
G1 X110.797 Y97.444 E0.015
G1 X111.492 Y101.382 E0.099
G1 X111.937 Y101.305 E0.012
G1 X112.284 Y103.275 E0.05
G1 X138.91 Y98.58 E0.674
G1 X139.533 Y102.125 E0.09
G1 X138.429 Y102.32 E0.028
G1 X140.165 Y112.168 E0.249
G1 X137.899 Y112.567 E0.058
G1 X136.163 Y102.719 E0.249
G1 X135.056 Y102.914 E0.028
G1 X134.712 Y100.944 E0.05
G1 X110.063 Y105.29 E0.624
G1 X109.786 Y103.715 E0.04
G1 X110.833 Y103.529 E0.027
G1 X110.486 Y101.56 E0.05
G1 X110.931 Y101.482 E0.011
;rapid-leaky
G0 X110.903 Y101.853 F7200
;bead-perimeter_inner
G1 X111.644 Y101.721 F1515 E0.019
G1 X111.992 Y103.692 E0.05
G1 X138.618 Y98.997 E0.674
G1 X139.117 Y101.833 E0.072
G1 X138.012 Y102.028 E0.028
G1 X139.748 Y111.876 E0.249
G1 X138.191 Y112.15 E0.04
G1 X136.455 Y102.302 E0.249
G1 X135.348 Y102.497 E0.028
G1 X135.004 Y100.527 E0.05
G1 X110.355 Y104.873 E0.624
G1 X110.203 Y104.007 E0.022
G1 X111.25 Y103.821 E0.027
G1 X110.903 Y101.853 E0.05
;rapid-leaky
G0 X111.38 Y102.093 F7200
;bead-solid_infill
G1 X111.287 Y102.186 F1200 E0.003
G1 X111.371 Y102.667 E0.012
G1 X111.469 Y102.57 E0.004
G1 X111.554 Y103.05 E0.012
G1 X111.456 Y103.148 E0.003
G1 X111.541 Y103.629 E0.013
G1 X111.639 Y103.531 E0.003
;rapid-leaky
G0 X111.81 Y104.292 F7200
;bead-sparse_infill
G1 X111.924 Y104.151 F2272 E0.004
G1 X112.147 Y104.111 E0.006
G1 X112.126 Y103.993 E0.003
G1 X116.352 Y103.248 E0.107
G1 X116.523 Y103.461 E0.007
G1 X122.787 Y102.356 E0.159
G1 X123.44 Y102.231 E0.016
G1 X123.454 Y102.239 E0.001
G1 X133.252 Y100.268 E0.249
G1 X133.613 Y100.447 E0.01
G1 X135.264 Y100.156 E0.042
G1 X135.31 Y100.419 E0.006
G1 X136.258 Y99.822 E0.028
G1 X136.336 Y99.724 E0.004
G1 X138.358 Y99.368 E0.051
G1 X138.746 Y101.573 E0.056
G1 X137.642 Y101.768 E0.028
G1 X137.971 Y103.636 E0.047
G1 X137.326 Y104.442 E0.026
G1 X137.171 Y104.518 E0.004
G1 X137.591 Y106.903 E0.06
G1 X138.394 Y106.504 E0.023
G1 X138.479 Y106.52 E0.002
G1 X139.285 Y111.092 E0.116
G1 X138.425 Y111.634 E0.025
G1 F2100 E-0.5
;LAYER:20
;rapid-dry
G0 X110.902 Y103.518 Z3.05 F7200
G1 F2100 E0.5
;bead-perimeter_outer
G1 X110.554 Y101.548 F1200 E0.05
G1 X111.085 Y101.455 E0.013
G1 X110.391 Y97.516 E0.1
G1 X110.643 Y97.471 E0.007
G1 X111.337 Y101.411 E0.099
G1 X111.868 Y101.317 E0.014
G1 X112.215 Y103.287 E0.05
G1 X138.882 Y98.585 E0.675
G1 X139.507 Y102.13 E0.09
G1 X138.383 Y102.328 E0.028
G1 X140.12 Y112.176 E0.25
G1 X137.945 Y112.559 E0.055
G1 X136.208 Y102.711 E0.249
G1 X135.085 Y102.909 E0.029
G1 X134.736 Y100.94 E0.05
G1 X110.063 Y105.29 E0.625
G1 X109.786 Y103.715 E0.04
G1 X110.902 Y103.518 E0.028
;rapid-leaky
G0 X111.319 Y103.81 F7200
;bead-perimeter_inner
G1 X110.971 Y101.841 F1494 E0.05
G1 X111.576 Y101.734 E0.015
G1 X111.923 Y103.704 E0.05
G1 X138.59 Y99.002 E0.675
G1 X139.09 Y101.838 E0.072
G1 X137.966 Y102.036 E0.029
G1 X139.703 Y111.884 E0.249
G1 X138.237 Y112.142 E0.037
G1 X136.5 Y102.294 E0.25
G1 X135.377 Y102.492 E0.028
G1 X135.028 Y100.523 E0.05
G1 X110.355 Y104.873 E0.625
G1 X110.203 Y104.007 E0.022
G1 X111.319 Y103.81 E0.028
;rapid-leaky
G0 X112.014 Y104.256 F7200
;bead-sparse_infill
G1 X112.203 Y103.979 F2241 E0.009
G1 X116.477 Y103.226 E0.108
G1 X116.626 Y103.443 E0.007
G1 X122.295 Y102.443 E0.143
G1 X122.372 Y102.387 E0.002
G1 X123.44 Y102.075 E0.028
G1 X123.743 Y102.188 E0.008
G1 X132.96 Y100.319 E0.235
G1 X133.053 Y100.456 E0.004
G1 X133.217 Y100.518 E0.004
G1 X135.287 Y100.153 E0.053
G1 X135.337 Y100.436 E0.007
G1 X136.258 Y99.762 E0.028
G1 X136.277 Y99.735 E0.001
G1 X138.33 Y99.372 E0.052
G1 X138.719 Y101.578 E0.056
G1 X137.595 Y101.776 E0.029
G1 X137.954 Y103.811 E0.051
G1 X137.326 Y104.729 E0.028
G1 X137.259 Y104.754 E0.002
G1 X137.593 Y106.647 E0.048
G1 X138.394 Y106.347 E0.021
G1 X138.402 Y106.35
G1 X139.239 Y111.095 E0.12
G1 X138.476 Y111.654 E0.024
G1 F2100 E-0.5
;LAYER:21
;rapid-dry
G0 X110.978 Y101.473 Z3.2 F7200
G1 F2100 E0.5
;bead-perimeter_outer
G1 X111.762 Y101.336 F1200 E0.02
G1 X112.109 Y103.305 E0.05
G1 X138.85 Y98.591 E0.677
G1 X139.472 Y102.135 E0.09
G1 X138.318 Y102.34 E0.029
G1 X140.055 Y112.188 E0.25
G1 X138.01 Y112.547 E0.051
G1 X136.273 Y102.699 E0.25
G1 X135.116 Y102.903 E0.029
G1 X134.771 Y100.934 E0.05
G1 X110.063 Y105.29 E0.626
G1 X109.786 Y103.715 E0.04
G1 X111.008 Y103.499 E0.031
G1 X110.661 Y101.53 E0.05
G1 X110.978 Y101.473 E0.008
;rapid-leaky
G0 X111.077 Y101.821 F7200
;bead-perimeter_inner
G1 X111.47 Y101.752 F1583 E0.01
G1 X111.817 Y103.722 E0.049
G1 X138.557 Y99.008 E0.678
G1 X139.056 Y101.843 E0.072
G1 X137.901 Y102.048 E0.029
G1 X139.638 Y111.896 E0.249
G1 X138.302 Y112.131 E0.034
G1 X136.565 Y102.282 E0.25
G1 X135.409 Y102.486 E0.029
G1 X135.064 Y100.517 E0.05
G1 X110.355 Y104.873 E0.626
G1 X110.203 Y104.007 E0.022
G1 X111.425 Y103.791 E0.03
G1 X111.077 Y101.821 E0.05
;rapid-leaky
G0 X112.221 Y104.219 F7200
;bead-sparse_infill
G1 X112.367 Y103.95 F2375 E0.008
G1 X116.611 Y103.201 E0.108
G1 X116.732 Y103.424 E0.006
G1 X122.218 Y102.457 E0.139
G1 X122.372 Y102.327 E0.005
G1 X122.988 Y102.077 E0.016
G1 X123.813 Y101.932 E0.021
G1 X124.508 Y102.003 E0.018
G1 X124.533 Y102.049 E0.001
G1 X132.865 Y100.58 E0.211
G1 X132.744 Y100.357 E0.006
G1 X136.208 Y99.747 E0.088
G1 X135.376 Y100.447 E0.027
;rapid-leaky
G0 X137.398 Y102.096 F7200
;bead-solid_infill
G1 X136.938 Y102.556 F1200 E0.016
G1 X137.023 Y103.037 E0.013
G1 X137.642 Y102.418 E0.021
G1 X137.726 Y102.899 E0.013
G1 X137.108 Y103.518 E0.021
G1 X137.193 Y103.999 E0.013
G1 X137.811 Y103.38 E0.021
G1 X137.896 Y103.861 E0.013
G1 X137.278 Y104.479 E0.021
G1 X137.363 Y104.96 E0.013
G1 X137.981 Y104.342 E0.021
G1 X138.066 Y104.823 E0.013
G1 X137.447 Y105.441 E0.021
G1 X137.532 Y105.922 E0.013
G1 X138.151 Y105.304 E0.021
G1 X138.235 Y105.785 E0.013
G1 X137.617 Y106.403 E0.021
G1 X137.702 Y106.884 E0.013
G1 X138.32 Y106.265 E0.021
G1 X138.405 Y106.746 E0.013
G1 X137.787 Y107.365 E0.021
G1 X137.871 Y107.846 E0.013
G1 X138.49 Y107.227 E0.021
G1 X138.575 Y107.708 E0.013
G1 X137.956 Y108.326 E0.021
G1 X138.041 Y108.807 E0.013
G1 X138.659 Y108.189 E0.021
G1 X138.744 Y108.67 E0.013
G1 X138.126 Y109.288 E0.021
G1 X138.211 Y109.769 E0.013
G1 X138.829 Y109.151 E0.021
G1 X138.914 Y109.631 E0.013
G1 X138.295 Y110.25 E0.021
G1 X138.333 Y110.461 E0.006
G1 X138.38 Y110.731 E0.007
G1 X138.999 Y110.112 E0.021
G1 X139.084 Y110.593 E0.013
G1 X138.465 Y111.212 E0.021
G1 X138.55 Y111.692 E0.013
G1 X139.168 Y111.074 E0.021
G1 X139.253 Y111.555 E0.013
G1 X139.152 Y111.656 E0.003
G1 F2100 E-0.5
;LAYER:22
;rapid-leaky
G0 X139.962 Y112.204 Z3.35 F7200
G1 F2100 E0.5
;bead-perimeter_outer
G1 X138.103 Y112.531 F1200 E0.047
G1 X136.366 Y102.683 E0.25
G1 X135.165 Y102.895 E0.03
G1 X134.817 Y100.926 E0.05
G1 X110.063 Y105.29 E0.627
G1 X109.786 Y103.715 E0.04
G1 X111.171 Y103.47 E0.035
G1 X110.823 Y101.501 E0.05
G1 X111.599 Y101.365 E0.02
G1 X111.947 Y103.334 E0.049
G1 X138.802 Y98.599 E0.681
G1 X139.427 Y102.143 E0.089
G1 X138.225 Y102.356 E0.031
G1 X139.962 Y112.204 E0.249
;rapid-leaky
G0 X139.545 Y111.912 F7200
;bead-perimeter_inner
G1 X138.395 Y112.114 F1542 E0.029
G1 X136.658 Y102.266 E0.25
G1 X135.457 Y102.478 E0.03
G1 X135.109 Y100.509 E0.05
G1 X110.355 Y104.873 E0.627
G1 X110.203 Y104.007 E0.022
G1 X111.588 Y103.762 E0.035
G1 X111.24 Y101.793 E0.05
G1 X111.307 Y101.781 E0.002
G1 X111.655 Y103.751 E0.05
G1 X138.51 Y99.016 E0.68
G1 X139.01 Y101.851 E0.072
G1 X137.808 Y102.064 E0.03
G1 X139.545 Y111.912 E0.25
;rapid-leaky
G0 X137.541 Y102.389 F7200
;bead-solid_infill
G1 X137.269 Y102.118 F1200 E0.009
G1 X137.2 Y102.13 E0.002
G1 Y102.129
G1 X136.966 Y102.171 E0.006
G1 X137.011 Y102.426 E0.006
G1 X137.662 Y103.076 E0.023
G1 X137.783 Y103.763 E0.018
G1 X137.132 Y103.113 E0.023
G1 X137.254 Y103.799 E0.017
G1 X137.904 Y104.45 E0.023
G1 X138.025 Y105.137 E0.017
G1 X137.375 Y104.486 E0.023
G1 X137.496 Y105.173 E0.018
G1 X138.146 Y105.824 E0.023
G1 X138.268 Y106.51 E0.017
G1 X137.617 Y105.86 E0.023
G1 X137.738 Y106.547 E0.017
G1 X138.389 Y107.197 E0.023
G1 X138.51 Y107.884 E0.018
G1 X137.859 Y107.234 E0.023
G1 X137.98 Y107.92 E0.017
G1 X138.631 Y108.571 E0.023
G1 X138.752 Y109.258 E0.018
G1 X138.102 Y108.607 E0.023
G1 X138.223 Y109.294 E0.017
G1 X138.873 Y109.945 E0.023
G1 X138.994 Y110.631 E0.017
G1 X138.344 Y109.981 E0.023
G1 X138.465 Y110.668 E0.018
G1 X139.116 Y111.318 E0.023
G1 X139.174 Y111.652 E0.008
G1 X138.927 Y111.696 E0.006
G1 X138.586 Y111.354 E0.012
G1 F2100 E-0.5
;rapid-dry
G0 X135.43 Y100.486 F7200
G1 F2100 E0.5
;bead-sparse_infill
G1 X135.581 Y100.397 F2313 E0.005
G1 X136.092 Y99.767 E0.02
G1 X132.569 Y100.388 E0.089
G1 X132.573 Y100.397
G1 X132.521 Y100.641 E0.007
G1 X125.112 Y101.947 E0.187
G1 X125.165 Y101.694 E0.007
G1 X122.66 Y102.135 E0.063
G1 X122.065 Y102.484 E0.017
G1 X116.773 Y103.417 E0.134
G1 X116.688 Y103.188 E0.007
G1 X112.445 Y103.936 E0.107
G1 X112.347 Y104.197 E0.007
G1 F2100 E-0.5
;LAYER:23
;rapid-dry
G0 X109.786 Y103.715 Z3.5 F7200
G1 F2100 E0.5
;bead-perimeter_outer
G1 X111.458 Y103.42 F1277 E0.042
G1 X111.11 Y101.45 E0.05
G1 X111.312 Y101.415 E0.005
G1 X111.66 Y103.385 E0.05
G1 X138.749 Y98.608 E0.686
G1 X139.372 Y102.153 E0.09
G1 X138.105 Y102.377 E0.032
G1 X139.841 Y112.225 E0.25
G1 X138.223 Y112.51 E0.041
G1 X136.487 Y102.662 E0.249
G1 X135.216 Y102.886 E0.032
G1 X134.871 Y100.916 E0.05
G1 X110.063 Y105.29 E0.629
G1 X109.786 Y103.715 E0.039
;rapid-leaky
G0 X110.203 Y104.007 F7200
;bead-perimeter_inner
G1 X138.457 Y99.025 F1703 E0.716
G1 X138.956 Y101.861 E0.072
G1 X137.688 Y102.085 E0.032
G1 X139.424 Y111.933 E0.25
G1 X138.515 Y112.093 E0.023
G1 X136.779 Y102.245 E0.249
G1 X135.509 Y102.469 E0.032
G1 X135.164 Y100.499 E0.05
G1 X110.355 Y104.873 E0.628
G1 X110.203 Y104.007 E0.022
;rapid-leaky
G0 X110.974 Y104.196 F7200
;bead-solid_infill
G1 X110.679 Y104.491 F1277 E0.011
G1 X111.365 Y104.37 E0.017
G1 X111.661 Y104.075 E0.011
G1 X112.347 Y103.954 E0.017
G1 X112.052 Y104.249 E0.01
G1 X112.739 Y104.128 E0.018
G1 X113.034 Y103.833 E0.01
G1 X113.721 Y103.712 E0.018
G1 X113.426 Y104.007 E0.01
G1 X114.112 Y103.886 E0.017
G1 X114.408 Y103.591 E0.011
G1 X115.095 Y103.469 E0.017
G1 X114.799 Y103.765 E0.011
G1 X115.486 Y103.644 E0.017
G1 X115.781 Y103.348 E0.011
G1 X116.468 Y103.227 E0.017
G1 X116.173 Y103.523 E0.01
G1 X116.86 Y103.402 E0.018
G1 X117.155 Y103.106 E0.01
G1 X117.842 Y102.985 E0.018
G1 X117.546 Y103.28 E0.01
G1 X118.233 Y103.159 E0.017
G1 X118.529 Y102.864 E0.011
G1 X119.215 Y102.743 E0.017
G1 X118.92 Y103.038 E0.011
G1 X119.607 Y102.917 E0.017
G1 X119.902 Y102.622 E0.01
G1 X120.589 Y102.501 E0.018
G1 X120.293 Y102.796 E0.01
G1 X120.98 Y102.675 E0.018
G1 X121.276 Y102.379 E0.01
G1 X121.963 Y102.258 E0.017
G1 X121.667 Y102.554 E0.011
G1 X122.354 Y102.433 E0.017
G1 X122.649 Y102.137 E0.011
G1 X123.336 Y102.016 E0.017
G1 X123.041 Y102.312 E0.011
G1 X123.727 Y102.191 E0.017
G1 X124.023 Y101.895 E0.01
G1 X124.71 Y101.774 E0.018
G1 X124.414 Y102.07 E0.01
G1 X125.101 Y101.948 E0.018
G1 X125.397 Y101.653 E0.01
G1 X126.083 Y101.532 E0.017
G1 X125.788 Y101.827 E0.011
G1 X126.474 Y101.706 E0.017
G1 X126.77 Y101.411 E0.011
G1 X127.457 Y101.289 E0.017
G1 X127.161 Y101.585 E0.011
G1 X127.848 Y101.464 E0.017
G1 X128.144 Y101.168 E0.01
G1 X128.831 Y101.047 E0.018
G1 X128.535 Y101.343 E0.01
G1 X129.221 Y101.222 E0.018
G1 X129.517 Y100.926 E0.01
G1 X130.204 Y100.805 E0.017
G1 X129.908 Y101.101 E0.011
G1 X130.595 Y100.98 E0.017
G1 X130.891 Y100.684 E0.011
G1 X131.578 Y100.563 E0.017
G1 X131.282 Y100.859 E0.011
G1 X131.969 Y100.738 E0.017
G1 X132.265 Y100.442 E0.01
G1 X132.951 Y100.321 E0.018
G1 X132.655 Y100.617 E0.01
G1 X133.342 Y100.495 E0.018
G1 X133.638 Y100.199 E0.01
G1 X134.325 Y100.078 E0.017
G1 X134.029 Y100.374 E0.011
G1 X134.716 Y100.253 E0.017
G1 X135.012 Y99.957 E0.011
G1 X135.452 Y99.879 E0.011
G1 X135.483 Y100.052 E0.004
G1 X135.402 Y100.132 E0.003
G1 X135.424 Y100.128 E0.001
G1 X135.506 Y100.595 E0.011
G1 X135.568 Y100.533 E0.003
G1 X135.652 Y101.014 E0.012
G1 X135.59 Y101.076 E0.002
G1 F2100 E-0.5
;rapid-dry
G0 X135.888 Y100.043 F7200
G1 F2100 E0.5
;bead-sparse_infill
G1 X136.081 Y99.769 F2554 E0.008
;rapid-leaky
G0 X137.37 Y102.124 F7200
;bead-solid_infill
G1 X137.126 Y102.368 F1277 E0.009
G1 X137.211 Y102.849 E0.012
G1 X137.455 Y102.605 E0.009
G1 X137.54 Y103.086 E0.012
G1 X137.295 Y103.33 E0.009
G1 X137.38 Y103.811 E0.012
G1 X137.625 Y103.567 E0.008
G1 X137.709 Y104.048 E0.013
G1 X137.465 Y104.292 E0.008
G1 X137.55 Y104.773 E0.012
G1 X137.794 Y104.529 E0.009
G1 X137.879 Y105.01 E0.012
G1 X137.635 Y105.254 E0.009
G1 X137.719 Y105.735 E0.012
G1 X137.964 Y105.491 E0.009
G1 X138.048 Y105.971 E0.012
G1 X137.804 Y106.216 E0.008
G1 X137.889 Y106.697 E0.013
G1 X138.133 Y106.452 E0.008
G1 X138.218 Y106.933 E0.012
G1 X137.974 Y107.178 E0.009
G1 X138.058 Y107.659 E0.012
G1 X138.303 Y107.414 E0.009
G1 X138.388 Y107.895 E0.012
G1 X138.143 Y108.139 E0.009
G1 X138.228 Y108.62 E0.012
G1 X138.472 Y108.376 E0.008
G1 X138.557 Y108.857 E0.013
G1 X138.313 Y109.101 E0.008
G1 X138.398 Y109.582 E0.012
G1 X138.642 Y109.338 E0.009
G1 X138.727 Y109.819 E0.012
G1 X138.482 Y110.063 E0.009
G1 X138.567 Y110.544 E0.012
G1 X138.811 Y110.3 E0.009
G1 X138.896 Y110.781 E0.012
G1 X138.652 Y111.025 E0.008
G1 X138.737 Y111.506 E0.013
G1 X138.981 Y111.261 E0.008
G1 F2100 E-0.5
;LAYER:24
;rapid-leaky
G0 X137.944 Y102.406 Z3.65 F7200
G1 F2100 E0.5
;bead-perimeter_outer
G1 X139.68 Y112.254 F1200 E0.25
G1 X138.384 Y112.482 E0.032
G1 X136.648 Y102.633 E0.25
G1 X135.287 Y102.874 E0.034
G1 X134.939 Y100.904 E0.05
G1 X110.063 Y105.29 E0.63
G1 X109.786 Y103.715 E0.04
G1 X138.68 Y98.62 E0.732
G1 X139.305 Y102.165 E0.09
G1 X137.944 Y102.406 E0.035
;rapid-leaky
G0 X137.527 Y102.114 F7200
;bead-perimeter_inner
G1 X139.263 Y111.962 F1538 E0.249
G1 X138.676 Y112.065 E0.015
G1 X136.94 Y102.216 E0.249
G1 X135.579 Y102.457 E0.035
G1 X135.231 Y100.487 E0.05
G1 X110.355 Y104.873 E0.63
G1 X110.203 Y104.007 E0.022
G1 X138.388 Y99.037 E0.714
G1 X138.888 Y101.873 E0.072
G1 X137.527 Y102.114 E0.034
;rapid-leaky
G0 X135.66 Y101.074 F7200
;bead-solid_infill
G1 X135.664 Y101.078 F1200
G1 X135.543 Y100.391 E0.018
G1 X135.538 Y100.387
G1 X135.491 Y100.117 E0.007
G1 X135.301 Y100.15 E0.004
G1 X135.094 Y99.943 E0.008
G1 X134.613 Y100.027 E0.012
G1 X134.82 Y100.235 E0.007
G1 X134.339 Y100.32 E0.012
G1 X134.132 Y100.112 E0.008
G1 X133.651 Y100.197 E0.012
G1 X133.859 Y100.404 E0.007
G1 X133.378 Y100.489 E0.012
G1 X133.17 Y100.282 E0.008
G1 X132.689 Y100.367 E0.012
G1 X132.897 Y100.574 E0.007
G1 X132.416 Y100.659 E0.012
G1 X132.209 Y100.451 E0.008
G1 X131.728 Y100.536 E0.012
G1 X131.935 Y100.744 E0.007
G1 X131.454 Y100.828 E0.012
G1 X131.247 Y100.621 E0.008
G1 X130.766 Y100.706 E0.012
G1 X130.973 Y100.913 E0.007
G1 X130.492 Y100.998 E0.012
G1 X130.285 Y100.791 E0.008
G1 X129.804 Y100.875 E0.012
G1 X130.011 Y101.083 E0.007
G1 X129.531 Y101.167 E0.012
G1 X129.323 Y100.96 E0.008
G1 X128.842 Y101.045 E0.012
G1 X129.05 Y101.252 E0.007
G1 X128.569 Y101.337 E0.012
G1 X128.362 Y101.13 E0.008
G1 X127.881 Y101.215 E0.012
G1 X128.088 Y101.422 E0.007
G1 X127.607 Y101.507 E0.012
G1 X127.4 Y101.299 E0.008
G1 X126.919 Y101.384 E0.012
G1 X127.126 Y101.591 E0.007
G1 X126.645 Y101.676 E0.012
G1 X126.438 Y101.469 E0.007
G1 X125.957 Y101.554 E0.013
G1 X126.164 Y101.761 E0.007
G1 X125.683 Y101.846 E0.012
G1 X125.476 Y101.639 E0.007
G1 X124.995 Y101.723 E0.013
G1 X125.202 Y101.931 E0.007
G1 X124.722 Y102.015 E0.012
G1 X124.514 Y101.808 E0.007
G1 X124.034 Y101.893 E0.013
G1 X124.241 Y102.1 E0.007
G1 X123.76 Y102.185 E0.012
G1 X123.553 Y101.978 E0.007
G1 X123.072 Y102.063 E0.013
G1 X123.279 Y102.27 E0.007
G1 X122.798 Y102.355 E0.012
G1 X122.591 Y102.147 E0.007
G1 X122.11 Y102.232 E0.013
G1 X122.317 Y102.439 E0.007
G1 X121.836 Y102.524 E0.012
G1 X121.629 Y102.317 E0.007
G1 X121.148 Y102.402 E0.013
G1 X121.355 Y102.609 E0.007
G1 X120.874 Y102.694 E0.012
G1 X120.667 Y102.487 E0.007
G1 X120.187 Y102.572 E0.012
G1 X120.393 Y102.778 E0.008
G1 X119.913 Y102.863 E0.012
G1 X119.706 Y102.656 E0.007
G1 X119.225 Y102.741 E0.012
G1 X119.432 Y102.948 E0.008
G1 X118.951 Y103.033 E0.012
G1 X118.744 Y102.826 E0.007
G1 X118.263 Y102.911 E0.012
G1 X118.47 Y103.118 E0.008
G1 X117.989 Y103.202 E0.012
G1 X117.782 Y102.996 E0.007
G1 X117.301 Y103.08 E0.012
G1 X117.508 Y103.287 E0.008
G1 X117.027 Y103.372 E0.012
G1 X116.82 Y103.165 E0.007
G1 X116.339 Y103.25 E0.012
G1 X116.546 Y103.457 E0.008
G1 X116.065 Y103.542 E0.012
G1 X115.859 Y103.335 E0.007
G1 X115.378 Y103.42 E0.012
G1 X115.585 Y103.626 E0.008
G1 X115.104 Y103.711 E0.012
G1 X114.897 Y103.504 E0.007
G1 X114.416 Y103.589 E0.012
G1 X114.623 Y103.796 E0.008
G1 X114.142 Y103.881 E0.012
G1 X113.935 Y103.674 E0.007
G1 X113.454 Y103.759 E0.012
G1 X113.661 Y103.966 E0.007
G1 X113.18 Y104.05 E0.013
G1 X112.973 Y103.844 E0.007
G1 X112.492 Y103.928 E0.012
G1 X112.699 Y104.135 E0.007
G1 X112.218 Y104.22 E0.013
G1 X112.012 Y104.013 E0.007
G1 X111.531 Y104.098 E0.012
G1 X111.737 Y104.305 E0.007
G1 X111.256 Y104.389 E0.013
G1 X111.05 Y104.183 E0.007
G1 X110.573 Y104.267 E0.012
G1 X110.574 Y104.273
G1 X110.776 Y104.474 E0.007
G1 F2100 E-0.5
;rapid-dry
G0 X135.893 Y100.076 F7200
G1 F2100 E0.5
;bead-sparse_infill
G1 X136.079 Y99.769 F2306 E0.009
G1 F2100 E-0.5
;LAYER:25
;rapid-dry
G0 X138.617 Y112.44 Z3.8 F7200
G1 F2100 E0.5
;bead-perimeter_outer
G1 X136.881 Y102.592 F1200 E0.25
G1 X135.362 Y102.861 E0.038
G1 X135.014 Y100.891 E0.05
G1 X110.063 Y105.29 E0.632
G1 X109.786 Y103.715 E0.04
G1 X138.603 Y98.634 E0.73
G1 X139.226 Y102.179 E0.09
G1 X137.711 Y102.447 E0.038
G1 X139.447 Y112.295 E0.249
G1 X138.617 Y112.44 E0.021
;rapid-leaky
G0 X138.909 Y112.024 F7200
;bead-perimeter_inner
G1 X137.173 Y102.175 F1524 E0.25
G1 X135.654 Y102.444 E0.038
G1 X135.306 Y100.474 E0.05
G1 X110.355 Y104.873 E0.632
G1 X110.203 Y104.007 E0.022
G1 X138.311 Y99.051 E0.712
G1 X138.81 Y101.887 E0.072
G1 X137.294 Y102.155 E0.038
G1 X139.03 Y112.002 E0.25
G1 X138.909 Y112.024 E0.003
G1 F2100 E-0.5
;rapid-dry
G0 X135.638 Y100.515 F7200
G1 F2100 E0.5
;bead-sparse_infill
G1 X135.662 Y100.493 F2286 E0.001
G1 X135.958 Y100.441 E0.007
G1 X135.902 Y100.126 E0.008
G1 X136.085 Y99.768 E0.01
;rapid-leaky
G0 X135.402 Y100.132 F7200
;bead-solid_infill
G1 X135.483 Y100.052 F1200 E0.003
G1 X135.453 Y99.88 E0.004
G1 X135.011 Y99.957 E0.012
G1 X134.715 Y100.254 E0.01
G1 X134.029 Y100.375 E0.017
G1 X134.325 Y100.079 E0.011
G1 X133.638 Y100.2 E0.017
G1 X133.342 Y100.496 E0.011
G1 X132.655 Y100.617 E0.017
G1 X132.951 Y100.321 E0.01
G1 X132.264 Y100.442 E0.018
G1 X131.968 Y100.738 E0.01
G1 X131.282 Y100.859 E0.018
G1 X131.577 Y100.563 E0.01
G1 X130.891 Y100.684 E0.018
G1 X130.595 Y100.98 E0.01
G1 X129.908 Y101.101 E0.017
G1 X130.204 Y100.805 E0.011
G1 X129.517 Y100.926 E0.017
G1 X129.221 Y101.222 E0.011
G1 X128.535 Y101.343 E0.017
G1 X128.83 Y101.047 E0.01
G1 X128.144 Y101.169 E0.018
G1 X127.848 Y101.464 E0.01
G1 X127.161 Y101.585 E0.018
G1 X127.457 Y101.29 E0.01
G1 X126.77 Y101.411 E0.018
G1 X126.474 Y101.706 E0.01
G1 X125.787 Y101.828 E0.017
G1 X126.083 Y101.532 E0.011
G1 X125.396 Y101.653 E0.017
G1 X125.101 Y101.949 E0.011
G1 X124.414 Y102.07 E0.017
G1 X124.71 Y101.774 E0.01
G1 X124.023 Y101.895 E0.018
G1 X123.727 Y102.191 E0.01
G1 X123.04 Y102.312 E0.018
G1 X123.336 Y102.016 E0.01
G1 X122.649 Y102.137 E0.017
G1 X122.354 Y102.433 E0.011
G1 X121.667 Y102.554 E0.017
G1 X121.962 Y102.259 E0.011
G1 X121.276 Y102.38 E0.017
G1 X120.98 Y102.675 E0.011
G1 X120.293 Y102.796 E0.017
G1 X120.589 Y102.501 E0.01
G1 X119.902 Y102.622 E0.018
G1 X119.607 Y102.917 E0.01
G1 X118.92 Y103.038 E0.018
G1 X119.215 Y102.743 E0.01
G1 X118.528 Y102.864 E0.017
G1 X118.233 Y103.159 E0.011
G1 X117.546 Y103.281 E0.017
G1 X117.842 Y102.985 E0.011
G1 X117.155 Y103.106 E0.017
G1 X116.859 Y103.402 E0.01
G1 X116.173 Y103.523 E0.018
G1 X116.468 Y103.227 E0.01
G1 X115.781 Y103.348 E0.018
G1 X115.486 Y103.644 E0.01
G1 X114.799 Y103.765 E0.017
G1 X115.094 Y103.47 E0.011
G1 X114.408 Y103.591 E0.017
G1 X114.112 Y103.886 E0.011
G1 X113.426 Y104.007 E0.017
G1 X113.721 Y103.712 E0.011
G1 X113.034 Y103.833 E0.017
G1 X112.739 Y104.128 E0.01
G1 X112.052 Y104.249 E0.018
G1 X112.347 Y103.954 E0.01
G1 X111.66 Y104.075 E0.018
G1 X111.365 Y104.37 E0.01
G1 X110.679 Y104.491 E0.017
G1 X110.974 Y104.196 E0.011
G1 F2100 E-0.5
;LAYER:26
;rapid-leaky
G0 X138.51 Y98.65 Z3.95 F7200
G1 F2100 E0.5
;bead-perimeter_outer
G1 X139.136 Y102.195 F1200 E0.09
G1 X135.458 Y102.843 E0.093
G1 X135.111 Y100.874 E0.05
G1 X110.063 Y105.29 E0.634
G1 X109.786 Y103.715 E0.04
G1 X138.51 Y98.65 E0.728
;rapid-leaky
G0 X138.218 Y99.067 F7200
;bead-perimeter_inner
G1 X138.719 Y101.903 F1244 E0.071
G1 X135.75 Y102.426 E0.076
G1 X135.403 Y100.457 E0.049
G1 X110.355 Y104.873 E0.635
G1 X110.203 Y104.007 E0.022
G1 X138.218 Y99.067 E0.709
;rapid-leaky
G0 X136.099 Y99.765 F7200
;bead-sparse_infill
G1 X135.915 Y100.201 F1866 E0.012
G1 X135.958 Y100.441 E0.006
G1 X135.756 Y100.476 E0.005
G1 X135.735 Y100.498 E0.001
;rapid-leaky
G0 X135.094 Y99.943 F7200
;bead-solid_infill
G1 X135.302 Y100.15 F1200 E0.008
G1 X134.821 Y100.235 E0.012
G1 X134.613 Y100.027 E0.007
G1 X134.132 Y100.112 E0.012
G1 X134.34 Y100.32 E0.008
G1 X133.859 Y100.405 E0.012
G1 X133.651 Y100.197 E0.007
G1 X133.17 Y100.282 E0.012
G1 X133.378 Y100.489 E0.008
G1 X132.897 Y100.574 E0.012
G1 X132.689 Y100.367 E0.007
G1 X132.209 Y100.451 E0.012
G1 X132.416 Y100.659 E0.008
G1 X131.935 Y100.744 E0.012
G1 X131.728 Y100.536 E0.007
G1 X131.247 Y100.621 E0.012
G1 X131.454 Y100.829 E0.008
G1 X130.973 Y100.913 E0.012
G1 X130.766 Y100.706 E0.007
G1 X130.285 Y100.791 E0.012
G1 X130.493 Y100.998 E0.008
G1 X130.012 Y101.083 E0.012
G1 X129.804 Y100.875 E0.007
G1 X129.323 Y100.96 E0.012
G1 X129.531 Y101.168 E0.008
G1 X129.05 Y101.252 E0.012
G1 X128.842 Y101.045 E0.007
G1 X128.362 Y101.13 E0.012
G1 X128.569 Y101.337 E0.008
G1 X128.088 Y101.422 E0.012
G1 X127.881 Y101.215 E0.007
G1 X127.4 Y101.299 E0.012
G1 X127.607 Y101.507 E0.008
G1 X127.126 Y101.592 E0.012
G1 X126.919 Y101.384 E0.007
G1 X126.438 Y101.469 E0.012
G1 X126.645 Y101.676 E0.008
G1 X126.164 Y101.761 E0.012
G1 X125.957 Y101.554 E0.007
G1 X125.476 Y101.639 E0.012
G1 X125.684 Y101.846 E0.008
G1 X125.203 Y101.931 E0.012
G1 X124.995 Y101.723 E0.007
G1 X124.514 Y101.808 E0.012
G1 X124.722 Y102.016 E0.008
G1 X124.241 Y102.1 E0.012
G1 X124.034 Y101.893 E0.007
G1 X123.553 Y101.978 E0.012
G1 X123.76 Y102.185 E0.008
G1 X123.279 Y102.27 E0.012
G1 X123.072 Y102.063 E0.007
G1 X122.591 Y102.148 E0.012
G1 X122.798 Y102.355 E0.007
G1 X122.317 Y102.439 E0.013
G1 X122.11 Y102.232 E0.007
G1 X121.629 Y102.317 E0.012
G1 X121.836 Y102.524 E0.007
G1 X121.355 Y102.609 E0.013
G1 X121.148 Y102.402 E0.007
G1 X120.667 Y102.487 E0.012
G1 X120.874 Y102.694 E0.007
G1 X120.394 Y102.779 E0.013
G1 X120.187 Y102.572 E0.007
G1 X119.706 Y102.656 E0.012
G1 X119.913 Y102.863 E0.007
G1 X119.432 Y102.948 E0.013
G1 X119.225 Y102.741 E0.007
G1 X118.744 Y102.826 E0.012
G1 X118.951 Y103.033 E0.007
G1 X118.47 Y103.118 E0.013
G1 X118.263 Y102.911 E0.007
G1 X117.782 Y102.996 E0.012
G1 X117.989 Y103.202 E0.007
G1 X117.508 Y103.287 E0.013
G1 X117.301 Y103.08 E0.007
G1 X116.82 Y103.165 E0.012
G1 X117.027 Y103.372 E0.007
G1 X116.546 Y103.457 E0.012
G1 X116.339 Y103.25 E0.008
G1 X115.859 Y103.335 E0.012
G1 X116.065 Y103.542 E0.007
G1 X115.585 Y103.626 E0.012
G1 X115.378 Y103.42 E0.008
G1 X114.897 Y103.504 E0.012
G1 X115.104 Y103.711 E0.007
G1 X114.623 Y103.796 E0.012
G1 X114.416 Y103.589 E0.008
G1 X113.935 Y103.674 E0.012
G1 X114.142 Y103.881 E0.007
G1 X113.661 Y103.966 E0.012
G1 X113.454 Y103.759 E0.008
G1 X112.973 Y103.844 E0.012
G1 X113.18 Y104.05 E0.007
G1 X112.699 Y104.135 E0.012
G1 X112.492 Y103.928 E0.008
G1 X112.012 Y104.013 E0.012
G1 X112.218 Y104.22 E0.007
G1 X111.737 Y104.305 E0.012
G1 X111.531 Y104.098 E0.008
G1 X111.05 Y104.183 E0.012
G1 X111.256 Y104.389 E0.007
G1 X110.776 Y104.474 E0.012
G1 X110.574 Y104.273 E0.007
G1 F2100 E-0.5
;LAYER:27
;rapid-dry
G0 X139.024 Y102.215 Z4.1 F7200
G1 F2100 E0.5
;bead-perimeter_outer
G1 X135.565 Y102.825 F1200 E0.088
G1 X134.941 Y99.279 E0.09
G1 X138.401 Y98.669 E0.087
G1 X139.024 Y102.215 E0.09
;rapid-leaky
G0 X138.608 Y101.923 F7200
;bead-perimeter_inner
G1 X135.857 Y102.408 F1200 E0.07
G1 X135.358 Y99.571 E0.072
G1 X138.109 Y99.086 E0.069
G1 X138.608 Y101.923 E0.072
;rapid-leaky
G0 X137.823 Y101.671 F7200
;bead-solid_infill
G1 X138.176 Y101.318 F1200 E0.013
G1 X138.092 Y100.837 E0.012
G1 X137.739 Y101.19 E0.012
G1 X137.654 Y100.709 E0.012
G1 X138.007 Y100.356 E0.013
G1 X137.922 Y99.875 E0.012
G1 X137.569 Y100.228 E0.013
G1 X137.484 Y99.747 E0.012
G1 X137.759 Y99.472 E0.009
G1 X136.16 Y99.94 E0.042
G1 X135.809 Y100.291 E0.012
G1 X135.894 Y100.772 E0.013
G1 X136.245 Y100.421 E0.012
G1 X136.33 Y100.902 E0.012
G1 X135.979 Y101.253 E0.013
G1 X136.063 Y101.734 E0.012
G1 X136.414 Y101.383 E0.012
G1 X136.499 Y101.864 E0.012
G1 X136.37 Y101.993 E0.005
G1 F2100 E-0.5
;LAYER:28
;rapid-leaky
G0 X138.902 Y102.237 Z4.25 F7200
G1 F2100 E0.5
;bead-perimeter_outer
G1 X135.691 Y102.802 F1200 E0.081
G1 X135.067 Y99.257 E0.09
G1 X138.279 Y98.691 E0.081
G1 X138.902 Y102.237 E0.09
;rapid-leaky
G0 X138.485 Y101.945 F7200
;bead-perimeter_inner
G1 X135.983 Y102.385 F1200 E0.063
G1 X135.484 Y99.549 E0.072
G1 X137.987 Y99.108 E0.064
G1 X138.485 Y101.945 E0.072
;rapid-leaky
G0 X137.784 Y99.804 F7200
;bead-solid_infill
G1 X137.499 Y99.519 F1200 E0.01
G1 X137.018 Y99.604 E0.012
G1 X137.905 Y100.491 E0.031
G1 X138.026 Y101.177 E0.018
G1 X136.537 Y99.688 E0.052
G1 X136.056 Y99.773 E0.012
G1 X137.99 Y101.707 E0.068
G1 X137.509 Y101.792 E0.013
G1 X135.925 Y100.208 E0.056
G1 X136.046 Y100.894 E0.017
G1 X137.028 Y101.876 E0.035
G1 X136.547 Y101.961 E0.012
G1 X136.167 Y101.581 E0.013
G1 F2100 E-0.5
;LAYER:29
;rapid-leaky
G0 X135.22 Y99.23 Z4.4 F7200
G1 F2100 E0.5
;bead-perimeter_outer
G1 X138.124 Y98.718 F1200 E0.074
G1 X138.75 Y102.264 E0.09
G1 X135.844 Y102.775 E0.073
G1 X135.22 Y99.23 E0.09
;rapid-leaky
G0 X135.637 Y99.522 F7200
;bead-perimeter_inner
G1 X137.832 Y99.135 F1200 E0.056
G1 X138.333 Y101.972 E0.071
G1 X136.136 Y102.358 E0.056
G1 X135.637 Y99.522 E0.072
;rapid-leaky
G0 X136.385 Y99.715 F7200
;bead-solid_infill
G1 X136.054 Y100.046 F1200 E0.012
G1 X136.139 Y100.527 E0.012
G1 X137.072 Y99.594 E0.033
G1 X137.572 Y99.506 E0.012
G1 X137.596 Y99.636 E0.004
G1 X136.223 Y101.008 E0.048
G1 X136.308 Y101.489 E0.012
G1 X137.68 Y100.117 E0.049
G1 X137.765 Y100.598 E0.012
G1 X136.393 Y101.97 E0.048
G1 X136.396 Y101.988 E0.001
G1 X137.057 Y101.871 E0.016
G1 X137.85 Y101.078 E0.028
G1 X137.935 Y101.559 E0.013
G1 X137.744 Y101.75 E0.006
G1 F2100 E-0.5
;LAYER:30
;rapid-dry
G0 X135.398 Y99.198 Z4.55 F7200
G1 F2100 E0.5
;bead-perimeter_outer
G1 X137.943 Y98.75 F1200 E0.065
G1 X138.568 Y102.295 E0.09
G1 X136.022 Y102.744 E0.064
G1 X135.398 Y99.198 E0.09
;rapid-leaky
G0 X135.815 Y99.49 F7200
;bead-perimeter_inner
G1 X137.651 Y99.167 F1200 E0.046
G1 X138.151 Y102.003 E0.072
G1 X136.314 Y102.327 E0.047
G1 X135.815 Y99.49 E0.072
;rapid-leaky
G0 X136.46 Y101.309 F7200
;bead-solid_infill
G1 X137.028 Y101.876 F1200 E0.02
G1 X137.508 Y101.791 E0.012
G1 X136.339 Y100.622 E0.041
G1 X136.218 Y99.935 E0.018
G1 X137.728 Y101.445 E0.053
G1 X137.607 Y100.758 E0.017
G1 X136.536 Y99.688 E0.038
G1 X137.017 Y99.603 E0.012
G1 X137.486 Y100.072 E0.017
G1 F2100 E-0.5
;LAYER:31
;rapid-leaky
G0 X137.722 Y98.789 Z4.7 F7200
G1 F2100 E0.5
;bead-perimeter_outer
G1 X138.346 Y102.334 F1200 E0.089
G1 X136.241 Y102.706 E0.054
G1 X135.617 Y99.16 E0.09
G1 X137.722 Y98.789 E0.053
;rapid-leaky
G0 X137.43 Y99.206 F7200
;bead-perimeter_inner
G1 X137.929 Y102.042 F1200 E0.072
G1 X136.533 Y102.289 E0.035
G1 X136.034 Y99.452 E0.072
G1 X137.43 Y99.206 E0.035
;rapid-leaky
G0 X137.072 Y99.594 F7200
;bead-solid_infill
G1 X136.487 Y100.179 F1200 E0.021
G1 X136.571 Y100.66 E0.012
G1 X137.243 Y99.989 E0.024
G1 X137.327 Y100.47 E0.012
G1 X136.656 Y101.141 E0.024
G1 X136.741 Y101.622 E0.012
G1 X137.412 Y100.951 E0.024
G1 X137.497 Y101.432 E0.012
G1 X137.057 Y101.871 E0.015
G1 F2100 E-0.5
;LAYER:32
;rapid-leaky
G0 X135.912 Y99.108 Z4.85 F7200
G1 F2100 E0.5
;bead-perimeter_outer
G1 X137.428 Y98.841 F1200 E0.039
G1 X138.052 Y102.386 E0.089
G1 X136.537 Y102.653 E0.039
G1 X135.912 Y99.108 E0.09
;rapid-leaky
G0 X136.329 Y99.4 F7200
;bead-perimeter_inner
G1 X137.136 Y99.258 F1200 E0.02
G1 X137.635 Y102.094 E0.072
G1 X136.829 Y102.236 E0.02
G1 X136.329 Y99.4 E0.072
;rapid-leaky
G0 X136.961 Y100.113 F7200
;bead-solid_infill
G1 X136.741 Y99.892 F1200 E0.008
G1 X136.862 Y100.579 E0.017
G1 X137.082 Y100.8 E0.008
G1 X137.203 Y101.486 E0.018
G1 X136.983 Y101.266 E0.007
G1 F2100 E-0.5
;LAYER:33
;rapid-leaky
G0 X136.962 Y98.923 Z5 F7200
G1 F2100 E0.5
;bead-perimeter_outer
G1 X137.586 Y102.469 F1200 E0.09
G1 X137.019 Y102.568 E0.015
G1 X136.39 Y99.024 E0.089
G1 X136.962 Y98.923 E0.015
G1 F2100 E-0.5
;part 1 complete
;move to park position
G0 Z200 F7200
G0 X0 Y0 F7200
;--------------------------------
M107
M104 S0 T0
M140 S0
;--------------------------------
G4 ; wait
G1 X0 Y200 ;home X axis
M84 ;disable motors
