;baza1
;Printer name: Prusa i3 MK3
;TIME:8264
;Print time: 2h:17m:44s
;Extruder 1 material used: 5528mm
;Extruder 1 material name: 
;Extruder 1 filament diameter: 1.75mm
;Extruder 1 nozzle diameter: 0.4mm
;Extruder 1 offset x: 0mm
;Extruder 1 offset y: 0mm
;Extruder 1 offset z: 0mm
;Extruder 1 max temp: 200
;Bed temp: 70
;Layer count: 79
;Width: 250mm
;Depth: 210mm
;Height: 210mm
;Center x: 125mm
;Center y: 105mm
;Center z: 0mm
;Count of bodies: 1
;Fusion version: 2.0.19440
G21
M115 U3.0.10 ;tell printer latest fw version
G28 W ;home all without mesh bed level
;--------------------------------
;Selected Profile: PLA Direct Drive
;--------------------------------
;Selected Printer: Prusa, i3 MK3
;--------------------------------
T0
M140 S70
M104 S200 T0
M190 S70
M109 S200 T0
G80 ;mesh bed leveling
G92 E0
G90
M83
G0 X10 Y10 Z10 F7200
G92 E0
;--------------------------------
;Part 1
;LAYER_COUNT:79
;LAYER:1
M107
;rapid-leaky
G0 X20 Y20.5 Z0.2 F7200
;bead-prime
G1 X120 F720 E8.315
G1 F2100 E-0.5
;rapid-dry
G0 X158.795 Y35.211 F7200
G1 F2100 E0.5
;bead-skirt/brim
G1 X159.465 Y35.269 F960 E0.022
G1 X160.281 Y35.487 E0.028
G1 X161.04 Y35.843 E0.028
G1 X161.725 Y36.322 E0.028
G1 X162.32 Y36.917 E0.028
G1 X162.822 Y37.636 E0.029
G1 X163.174 Y38.429 E0.029
G1 X163.374 Y39.181 E0.026
G1 X163.431 Y39.847 E0.022
G1 Y81.679 E1.392
G1 X166.349 Y98.228 E0.559
G1 X171.273 Y97.36 E0.166
G1 X174.33 Y114.693 E0.585
G1 X173.24 Y114.885 E0.037
G1 Y117.391 E0.083
G1 X173.205 Y118.05 E0.022
G1 X173.075 Y118.807 E0.026
G1 X172.864 Y119.538 E0.025
G1 X172.573 Y120.241 E0.026
G1 X172.205 Y120.907 E0.025
G1 X171.763 Y121.531 E0.025
G1 X171.253 Y122.102 E0.026
G1 X170.681 Y122.613 E0.025
G1 X170.06 Y123.053 E0.026
G1 X169.394 Y123.421 E0.025
G1 X168.66 Y123.725 E0.026
G1 X167.862 Y123.941 E0.028
G1 X167.199 Y124.052 E0.022
G1 X166.547 Y124.089 E0.022
G1 X161.24 E0.176
G1 Y139.489 E0.513
G1 X168.025 E0.225
G1 X168.649 Y139.524 E0.021
G1 X169.37 Y139.64 E0.024
G1 X170.076 Y139.835 E0.025
G1 X170.754 Y140.102 E0.024
G1 X171.402 Y140.443 E0.024
G1 X172.006 Y140.848 E0.024
G1 X172.566 Y141.317 E0.025
G1 X173.073 Y141.844 E0.024
G1 X173.519 Y142.423 E0.024
G1 X173.902 Y143.046 E0.025
G1 X174.216 Y143.707 E0.024
G1 X174.456 Y144.395 E0.024
G1 X174.598 Y145.006 E0.021
G1 X177.672 Y162.441 E0.589
G1 X177.75 Y163.105 E0.022
G1 X177.753 Y163.906 E0.027
G1 X177.649 Y164.736 E0.028
G1 X177.49 Y165.416 E0.023
G1 X177.234 Y166.141 E0.025
G1 X176.895 Y166.838 E0.026
G1 X176.463 Y167.516 E0.027
G1 X175.93 Y168.155 E0.028
G1 X175.428 Y168.645 E0.023
G1 X174.815 Y169.12 E0.026
G1 X174.151 Y169.523 E0.026
G1 X173.446 Y169.847 E0.025
G1 X172.814 Y170.056 E0.023
G1 X164.406 Y172.297 E0.289
G1 X163.469 Y172.343 E0.031
G1 X162.783 Y172.315 E0.023
G1 X162.094 Y172.226 E0.023
G1 X161.388 Y172.068 E0.024
G1 X160.72 Y171.851 E0.024
G1 X159.957 Y171.743 E0.025
G1 X158.766 Y171.605 E0.04
G1 X157.583 Y171.5 E0.04
G1 X156.404 Y171.428 E0.039
G1 X155.135 Y171.39 E0.042
G1 X154.157 Y171.389 E0.033
G1 X152.882 Y171.427 E0.042
G1 X151.166 Y171.551 E0.057
G1 X149.448 Y171.759 E0.058
G1 X148.277 Y171.95 E0.039
G1 X147.118 Y172.175 E0.04
G1 X145.955 Y172.438 E0.039
G1 X144.785 Y172.736 E0.04
G1 X143.613 Y173.067 E0.041
G1 X143.125 Y173.219 E0.017
G1 X142.788 Y173.469 E0.014
G1 X142.19 Y173.834 E0.023
G1 X141.522 Y174.16 E0.025
G1 X140.829 Y174.418 E0.024
G1 X140.113 Y174.613 E0.025
G1 X139.377 Y174.737 E0.025
G1 X138.631 Y174.792 E0.025
G1 X137.855 Y174.771 E0.026
G1 X137.158 Y174.687 E0.023
G1 X136.436 Y174.532 E0.025
G1 X135.727 Y174.307 E0.024
G1 X135.043 Y174.015 E0.025
G1 X134.335 Y173.622 E0.027
G1 X133.601 Y173.366 E0.026
G1 X132.26 Y172.941 E0.047
G1 X131.284 Y172.659 E0.033
G1 X130.127 Y172.359 E0.04
G1 X128.986 Y172.1 E0.039
G1 X127.315 Y171.79 E0.057
G1 X126.172 Y171.624 E0.038
G1 X125.015 Y171.498 E0.039
G1 X123.758 Y171.405 E0.042
G1 X122.587 Y171.36 E0.039
G1 X121.419 Y171.353 E0.038
G1 X119.594 Y171.414 E0.061
G1 X118.401 Y171.497 E0.04
G1 X117.182 Y171.616 E0.041
G1 X116.536 Y171.696 E0.021
G1 X115.985 Y171.917 E0.02
G1 X115.257 Y172.13 E0.025
G1 X114.496 Y172.273 E0.026
G1 X113.705 Y172.338 E0.027
G1 X112.995 Y172.33 E0.023
G1 X112.233 Y172.251 E0.026
G1 X111.454 Y172.085 E0.026
G1 X110.766 Y171.871 E0.024
G1 X110.059 Y171.573 E0.026
G1 X109.368 Y171.195 E0.026
G1 X108.704 Y170.736 E0.027
G1 X107.941 Y170.38 E0.028
G1 X106.798 Y169.884 E0.041
G1 X105.032 Y169.191 E0.063
G1 X103.881 Y168.788 E0.041
G1 X102.15 Y168.26 E0.06
G1 X100.966 Y167.954 E0.041
G1 X99.792 Y167.695 E0.04
G1 X98.606 Y167.477 E0.04
G1 X97.393 Y167.298 E0.04
G1 X95.689 Y167.119 E0.057
G1 X94.359 Y167.034 E0.045
G1 X92.508 Y166.986 E0.061
G1 X91.235 Y166.999 E0.043
G1 X90.401 Y167.03 E0.027
G1 X89.592 Y167.199 E0.028
G1 X88.841 Y167.274 E0.025
G1 X88.095 Y167.275 E0.025
G1 X87.356 Y167.208 E0.025
G1 X86.617 Y167.068 E0.025
G1 X85.896 Y166.857 E0.025
G1 X85.203 Y166.58 E0.024
G1 X84.893 Y166.42 E0.012
G1 X76.541 Y163.262 E0.297
G1 X75.952 Y163.001 E0.021
G1 X75.304 Y162.624 E0.025
G1 X74.703 Y162.18 E0.025
G1 X74.155 Y161.672 E0.025
G1 X73.665 Y161.107 E0.025
G1 X73.242 Y160.494 E0.025
G1 X72.888 Y159.84 E0.024
G1 X72.604 Y159.142 E0.025
G1 X72.401 Y158.418 E0.025
G1 X72.279 Y157.683 E0.025
G1 X72.244 Y157.042 E0.022
G1 Y41.904 E3.829
G1 X72.281 Y41.25 E0.022
G1 X72.408 Y40.499 E0.025
G1 X72.627 Y39.737 E0.027
G1 X72.951 Y38.985 E0.027
G1 X73.282 Y38.391 E0.022
G1 X73.718 Y37.772 E0.026
G1 X74.231 Y37.198 E0.025
G1 X74.805 Y36.685 E0.026
G1 X75.426 Y36.247 E0.025
G1 X76.111 Y35.867 E0.026
G1 X76.87 Y35.565 E0.027
G1 X77.533 Y35.375 E0.023
G1 X78.283 Y35.248 E0.026
G1 X78.937 Y35.211 E0.021
G1 X158.795 E2.656
;rapid-leaky
G0 X158.777 Y35.611 F7200
;bead-skirt/brim
G1 X159.396 Y35.664 F960 E0.021
G1 X160.143 Y35.865 E0.026
G1 X160.839 Y36.19 E0.025
G1 X161.467 Y36.63 E0.026
G1 X162.012 Y37.175 E0.026
G1 X162.472 Y37.833 E0.026
G1 X162.795 Y38.562 E0.027
G1 X162.978 Y39.25 E0.023
G1 X163.031 Y39.865 E0.021
G1 Y81.714 E1.392
G1 X166.025 Y98.691 E0.573
G1 X170.949 Y97.823 E0.167
G1 X173.867 Y114.368 E0.558
G1 X172.84 Y114.549 E0.035
G1 Y117.38 E0.094
G1 X172.807 Y118.005 E0.021
G1 X172.684 Y118.717 E0.024
G1 X172.486 Y119.405 E0.024
G1 X172.212 Y120.067 E0.024
G1 X171.866 Y120.695 E0.023
G1 X171.449 Y121.282 E0.024
G1 X170.97 Y121.819 E0.024
G1 X170.432 Y122.299 E0.024
G1 X169.847 Y122.713 E0.024
G1 X169.22 Y123.06 E0.024
G1 X168.531 Y123.346 E0.025
G1 X167.777 Y123.55 E0.026
G1 X167.155 Y123.654 E0.021
G1 X166.536 Y123.689 E0.02
G1 X160.84 E0.19
G1 Y139.889 E0.539
G1 X168.014 E0.238
G1 X168.606 Y139.922 E0.02
G1 X169.285 Y140.031 E0.023
G1 X169.949 Y140.215 E0.023
G1 X170.587 Y140.466 E0.023
G1 X171.197 Y140.787 E0.023
G1 X171.766 Y141.168 E0.022
G1 X172.292 Y141.61 E0.023
G1 X172.769 Y142.106 E0.023
G1 X173.19 Y142.65 E0.023
G1 X173.55 Y143.237 E0.023
G1 X173.845 Y143.859 E0.023
G1 X174.071 Y144.507 E0.023
G1 X174.206 Y145.086 E0.019
G1 X177.276 Y162.499 E0.588
G1 X177.35 Y163.129 E0.021
G1 X177.353 Y163.882 E0.026
G1 X177.255 Y164.665 E0.026
G1 X177.106 Y165.304 E0.022
G1 X176.865 Y165.986 E0.024
G1 X176.545 Y166.643 E0.024
G1 X176.14 Y167.279 E0.025
G1 X175.636 Y167.883 E0.026
G1 X175.165 Y168.343 E0.022
G1 X174.588 Y168.79 E0.024
G1 X173.963 Y169.169 E0.025
G1 X173.3 Y169.474 E0.024
G1 X172.699 Y169.672 E0.021
G1 X164.344 Y171.899 E0.288
G1 X163.468 Y171.942 E0.029
G1 X162.816 Y171.916 E0.021
G1 X162.164 Y171.832 E0.022
G1 X161.493 Y171.681 E0.023
G1 X160.827 Y171.463 E0.024
G1 X160.008 Y171.346 E0.027
G1 X158.807 Y171.207 E0.04
G1 X157.612 Y171.101 E0.04
G1 X156.423 Y171.029 E0.04
G1 X155.141 Y170.99 E0.042
G1 X154.151 Y170.989 E0.033
G1 X152.865 Y171.027 E0.043
G1 X151.127 Y171.153 E0.058
G1 X149.388 Y171.364 E0.058
G1 X148.207 Y171.556 E0.04
G1 X147.036 Y171.784 E0.04
G1 X145.861 Y172.049 E0.04
G1 X144.681 Y172.35 E0.04
G1 X143.5 Y172.684 E0.041
G1 X142.942 Y172.857 E0.02
G1 X142.564 Y173.137 E0.015
G1 X141.998 Y173.482 E0.022
G1 X141.364 Y173.792 E0.024
G1 X140.707 Y174.037 E0.023
G1 X140.027 Y174.222 E0.024
G1 X139.33 Y174.339 E0.023
G1 X138.621 Y174.391 E0.024
G1 X137.885 Y174.371 E0.024
G1 X137.224 Y174.292 E0.022
G1 X136.539 Y174.145 E0.024
G1 X135.867 Y173.932 E0.023
G1 X135.217 Y173.655 E0.024
G1 X134.515 Y173.262 E0.026
G1 X133.727 Y172.986 E0.028
G1 X132.376 Y172.558 E0.047
G1 X131.39 Y172.273 E0.034
G1 X130.221 Y171.97 E0.041
G1 X129.067 Y171.709 E0.039
G1 X127.38 Y171.395 E0.057
G1 X126.222 Y171.227 E0.039
G1 X125.052 Y171.099 E0.039
G1 X123.78 Y171.005 E0.042
G1 X122.596 Y170.96 E0.04
G1 X121.413 Y170.953 E0.039
G1 X119.574 Y171.014 E0.061
G1 X118.368 Y171.098 E0.041
G1 X117.138 Y171.219 E0.041
G1 X116.436 Y171.306 E0.023
G1 X115.855 Y171.538 E0.021
G1 X115.164 Y171.74 E0.024
G1 X114.442 Y171.876 E0.024
G1 X113.69 Y171.938 E0.026
G1 X113.018 Y171.93 E0.022
G1 X112.295 Y171.855 E0.024
G1 X111.556 Y171.698 E0.025
G1 X110.904 Y171.495 E0.023
G1 X110.233 Y171.212 E0.024
G1 X109.576 Y170.853 E0.025
G1 X108.919 Y170.395 E0.027
G1 X108.105 Y170.015 E0.03
G1 X106.951 Y169.514 E0.041
G1 X105.171 Y168.816 E0.064
G1 X104.007 Y168.409 E0.041
G1 X102.255 Y167.875 E0.061
G1 X101.059 Y167.565 E0.041
G1 X99.871 Y167.303 E0.041
G1 X98.671 Y167.083 E0.04
G1 X97.447 Y166.902 E0.041
G1 X95.721 Y166.72 E0.058
G1 X94.379 Y166.634 E0.045
G1 X92.509 Y166.586 E0.062
G1 X91.226 Y166.599 E0.043
G1 X90.334 Y166.632 E0.029
G1 X89.533 Y166.803 E0.028
G1 X88.821 Y166.874 E0.023
G1 X88.112 Y166.875 E0.024
G1 X87.412 Y166.811 E0.023
G1 X86.711 Y166.679 E0.024
G1 X86.027 Y166.478 E0.024
G1 X85.369 Y166.216 E0.023
G1 X85.056 Y166.054 E0.012
G1 X76.693 Y162.891 E0.297
G1 X76.134 Y162.644 E0.021
G1 X75.524 Y162.289 E0.023
G1 X74.959 Y161.871 E0.024
G1 X74.443 Y161.394 E0.023
G1 X73.981 Y160.862 E0.023
G1 X73.583 Y160.285 E0.024
G1 X73.25 Y159.669 E0.023
G1 X72.983 Y159.012 E0.024
G1 X72.792 Y158.331 E0.023
G1 X72.677 Y157.64 E0.023
G1 X72.644 Y157.031 E0.021
G1 Y41.915 E3.828
G1 X72.679 Y41.295 E0.021
G1 X72.798 Y40.588 E0.024
G1 X73.004 Y39.872 E0.025
G1 X73.31 Y39.162 E0.025
G1 X73.621 Y38.604 E0.022
G1 X74.032 Y38.021 E0.023
G1 X74.514 Y37.481 E0.024
G1 X75.054 Y36.999 E0.025
G1 X75.638 Y36.587 E0.023
G1 X76.283 Y36.229 E0.025
G1 X77 Y35.944 E0.026
G1 X77.622 Y35.765 E0.021
G1 X78.328 Y35.646 E0.024
G1 X78.948 Y35.611 E0.021
G1 X158.777 E2.655
;rapid-leaky
G0 X158.76 Y36.011 F7200
;bead-skirt/brim
G1 X159.326 Y36.06 F960 E0.019
G1 X160.005 Y36.242 E0.023
G1 X160.638 Y36.538 E0.023
G1 X161.209 Y36.937 E0.023
G1 X161.705 Y37.433 E0.024
G1 X162.122 Y38.03 E0.024
G1 X162.417 Y38.696 E0.024
G1 X162.582 Y39.319 E0.022
G1 X162.631 Y39.882 E0.018
G1 Y81.749 E1.393
G1 X165.7 Y99.155 E0.588
G1 X170.624 Y98.287 E0.166
G1 X173.404 Y114.044 E0.532
G1 X172.44 Y114.214 E0.033
G1 Y117.369 E0.105
G1 X172.408 Y117.96 E0.019
G1 X172.294 Y118.628 E0.023
G1 X172.108 Y119.273 E0.022
G1 X171.851 Y119.894 E0.023
G1 X171.526 Y120.482 E0.022
G1 X171.136 Y121.032 E0.022
G1 X170.687 Y121.536 E0.023
G1 X170.182 Y121.986 E0.022
G1 X169.634 Y122.374 E0.023
G1 X169.046 Y122.699 E0.022
G1 X168.401 Y122.966 E0.023
G1 X167.691 Y123.158 E0.025
G1 X167.11 Y123.256 E0.019
G1 X166.525 Y123.289 E0.02
G1 X160.44 E0.202
G1 Y140.289 E0.566
G1 X168.003 E0.251
G1 X168.563 Y140.32 E0.019
G1 X169.199 Y140.422 E0.021
G1 X169.822 Y140.595 E0.022
G1 X170.42 Y140.831 E0.021
G1 X170.992 Y141.131 E0.022
G1 X171.525 Y141.489 E0.021
G1 X172.019 Y141.903 E0.021
G1 X172.466 Y142.368 E0.022
G1 X172.86 Y142.878 E0.021
G1 X173.198 Y143.428 E0.022
G1 X173.475 Y144.011 E0.021
G1 X173.686 Y144.618 E0.022
G1 X173.814 Y145.166 E0.018
G1 X176.88 Y162.557 E0.588
G1 X176.95 Y163.153 E0.02
G1 X176.953 Y163.858 E0.023
G1 X176.86 Y164.595 E0.025
G1 X176.721 Y165.192 E0.02
G1 X176.495 Y165.832 E0.023
G1 X176.195 Y166.447 E0.022
G1 X175.816 Y167.043 E0.024
G1 X175.342 Y167.611 E0.025
G1 X174.902 Y168.04 E0.02
G1 X174.361 Y168.46 E0.023
G1 X173.775 Y168.816 E0.023
G1 X173.153 Y169.101 E0.022
G1 X172.585 Y169.289 E0.02
G1 X164.282 Y171.502 E0.286
G1 X163.466 Y171.542 E0.027
G1 X162.85 Y171.517 E0.021
G1 X162.233 Y171.438 E0.02
G1 X161.598 Y171.295 E0.022
G1 X160.934 Y171.074 E0.023
G1 X160.059 Y170.95 E0.03
G1 X158.847 Y170.809 E0.04
G1 X157.642 Y170.702 E0.041
G1 X156.441 Y170.629 E0.04
G1 X155.147 Y170.59 E0.043
G1 X154.145 Y170.589 E0.033
G1 X152.848 Y170.628 E0.043
G1 X151.089 Y170.755 E0.059
G1 X149.329 Y170.968 E0.059
G1 X148.136 Y171.163 E0.04
G1 X146.954 Y171.392 E0.04
G1 X145.768 Y171.66 E0.04
G1 X144.577 Y171.964 E0.041
G1 X143.386 Y172.3 E0.041
G1 X142.758 Y172.496 E0.022
G1 X142.34 Y172.805 E0.018
G1 X141.805 Y173.131 E0.02
G1 X141.206 Y173.424 E0.023
G1 X140.584 Y173.656 E0.022
G1 X139.941 Y173.831 E0.022
G1 X139.282 Y173.942 E0.022
G1 X138.612 Y173.991 E0.022
G1 X137.914 Y173.972 E0.024
G1 X137.29 Y173.897 E0.021
G1 X136.641 Y173.758 E0.022
G1 X136.006 Y173.556 E0.022
G1 X135.392 Y173.295 E0.022
G1 X134.807 Y172.976 E0.022
G1 X134.696 Y172.901 E0.005
G1 X133.854 Y172.607 E0.029
G1 X132.492 Y172.176 E0.048
G1 X131.496 Y171.887 E0.034
G1 X130.316 Y171.582 E0.041
G1 X129.148 Y171.317 E0.04
G1 X127.446 Y171 E0.057
G1 X126.273 Y170.831 E0.04
G1 X125.088 Y170.701 E0.039
G1 X123.803 Y170.606 E0.043
G1 X122.604 Y170.56 E0.04
G1 X121.408 Y170.553 E0.04
G1 X119.553 Y170.615 E0.062
G1 X118.335 Y170.7 E0.04
G1 X117.094 Y170.821 E0.042
G1 X116.335 Y170.915 E0.025
G1 X115.724 Y171.16 E0.022
G1 X115.07 Y171.351 E0.023
G1 X114.389 Y171.479 E0.023
G1 X113.676 Y171.537 E0.023
G1 X113.041 Y171.53 E0.022
G1 X112.357 Y171.46 E0.022
G1 X111.657 Y171.311 E0.024
G1 X111.041 Y171.119 E0.022
G1 X110.407 Y170.852 E0.023
G1 X109.784 Y170.511 E0.023
G1 X109.254 Y170.153 E0.022
G1 X109.134 Y170.054 E0.005
G1 X108.27 Y169.651 E0.031
G1 X107.104 Y169.144 E0.043
G1 X105.31 Y168.441 E0.064
G1 X104.133 Y168.029 E0.041
G1 X102.361 Y167.489 E0.062
G1 X101.152 Y167.176 E0.041
G1 X99.95 Y166.911 E0.041
G1 X98.737 Y166.688 E0.041
G1 X97.5 Y166.505 E0.042
G1 X95.753 Y166.322 E0.058
G1 X94.398 Y166.235 E0.046
G1 X93.223 Y166.194 E0.039
G1 X92.509 Y166.186 E0.023
G1 X91.216 Y166.199 E0.043
G1 X90.268 Y166.235 E0.032
G1 X90.134 Y166.275 E0.005
G1 X89.474 Y166.407 E0.022
G1 X88.8 Y166.474 E0.022
G1 X88.13 Y166.475 E0.023
G1 X87.467 Y166.414 E0.022
G1 X86.804 Y166.29 E0.022
G1 X86.158 Y166.1 E0.023
G1 X85.535 Y165.852 E0.022
G1 X85.219 Y165.688 E0.012
G1 X76.844 Y162.521 E0.298
G1 X76.316 Y162.288 E0.019
G1 X75.744 Y161.955 E0.022
G1 X75.214 Y161.563 E0.022
G1 X74.731 Y161.115 E0.022
G1 X74.298 Y160.616 E0.022
G1 X73.925 Y160.076 E0.022
G1 X73.612 Y159.498 E0.021
G1 X73.362 Y158.882 E0.023
G1 X73.183 Y158.244 E0.022
G1 X73.075 Y157.596 E0.021
G1 X73.044 Y157.02 E0.02
G1 Y41.926 E3.828
G1 X73.077 Y41.34 E0.019
G1 X73.189 Y40.676 E0.023
G1 X73.382 Y40.007 E0.023
G1 X73.67 Y39.339 E0.024
G1 X73.96 Y38.817 E0.02
G1 X74.345 Y38.271 E0.022
G1 X74.797 Y37.764 E0.023
G1 X75.304 Y37.312 E0.022
G1 X75.851 Y36.926 E0.022
G1 X76.454 Y36.592 E0.023
G1 X77.129 Y36.323 E0.025
G1 X77.71 Y36.156 E0.02
G1 X78.373 Y36.044 E0.022
G1 X78.959 Y36.011 E0.02
G1 X158.76 E2.654
;rapid-leaky
G0 X158.743 Y36.411 F7200
;bead-skirt/brim
G1 X159.257 Y36.455 F960 E0.017
G1 X159.868 Y36.619 E0.021
G1 X160.437 Y36.886 E0.021
G1 X160.951 Y37.245 E0.021
G1 X161.397 Y37.691 E0.021
G1 X161.772 Y38.228 E0.021
G1 X162.038 Y38.829 E0.022
G1 X162.187 Y39.388 E0.02
G1 X162.231 Y39.899 E0.017
G1 Y81.784 E1.393
G1 X165.376 Y99.618 E0.602
G1 X170.3 Y98.75 E0.166
G1 X172.94 Y113.719 E0.506
G1 X172.04 Y113.878 E0.03
G1 Y117.359 E0.116
G1 X172.01 Y117.916 E0.019
G1 X171.903 Y118.539 E0.021
G1 X171.73 Y119.14 E0.02
G1 X171.49 Y119.72 E0.021
G1 X171.187 Y120.269 E0.021
G1 X170.823 Y120.783 E0.021
G1 X170.403 Y121.252 E0.021
G1 X169.933 Y121.672 E0.021
G1 X169.421 Y122.035 E0.021
G1 X168.872 Y122.338 E0.021
G1 X168.272 Y122.587 E0.021
G1 X167.606 Y122.767 E0.023
G1 X167.065 Y122.858 E0.019
G1 X166.514 Y122.889 E0.018
G1 X160.04 E0.215
G1 Y140.689 E0.592
G1 X167.992 E0.265
G1 X168.52 Y140.719 E0.017
G1 X169.114 Y140.814 E0.02
G1 X169.695 Y140.975 E0.02
G1 X170.254 Y141.195 E0.02
G1 X170.787 Y141.475 E0.02
G1 X171.284 Y141.809 E0.02
G1 X171.745 Y142.195 E0.02
G1 X172.163 Y142.629 E0.02
G1 X172.53 Y143.105 E0.02
G1 X172.846 Y143.619 E0.02
G1 X173.104 Y144.163 E0.02
G1 X173.302 Y144.73 E0.02
G1 X173.422 Y145.247 E0.018
G1 X176.484 Y162.615 E0.587
G1 X176.551 Y163.177 E0.018
G1 X176.552 Y163.833 E0.022
G1 X176.466 Y164.524 E0.023
G1 X176.336 Y165.079 E0.019
G1 X176.125 Y165.677 E0.022
G1 X175.846 Y166.252 E0.021
G1 X175.492 Y166.806 E0.022
G1 X175.048 Y167.339 E0.023
G1 X174.639 Y167.738 E0.019
G1 X174.134 Y168.13 E0.021
G1 X173.587 Y168.462 E0.021
G1 X173.007 Y168.729 E0.021
G1 X172.471 Y168.905 E0.019
G1 X164.22 Y171.104 E0.284
G1 X163.464 Y171.142 E0.025
G1 X162.884 Y171.118 E0.02
G1 X162.303 Y171.043 E0.019
G1 X161.703 Y170.909 E0.021
G1 X161.04 Y170.685 E0.023
G1 X160.11 Y170.553 E0.031
G1 X158.888 Y170.411 E0.041
G1 X157.672 Y170.303 E0.041
G1 X156.459 Y170.23 E0.04
G1 X155.153 Y170.19 E0.044
G1 X154.139 Y170.189 E0.033
G1 X152.832 Y170.228 E0.044
G1 X152.256 Y170.259 E0.019
G1 X151.051 Y170.356 E0.04
G1 X149.27 Y170.573 E0.06
G1 X148.066 Y170.769 E0.04
G1 X146.871 Y171.001 E0.041
G1 X145.675 Y171.271 E0.041
G1 X144.474 Y171.577 E0.041
G1 X143.272 Y171.917 E0.041
G1 X142.574 Y172.134 E0.025
G1 X142.117 Y172.473 E0.019
G1 X141.613 Y172.78 E0.019
G1 X141.048 Y173.056 E0.021
G1 X140.461 Y173.275 E0.021
G1 X139.856 Y173.44 E0.021
G1 X139.234 Y173.544 E0.021
G1 X138.603 Y173.591 E0.021
G1 X137.943 Y173.573 E0.022
G1 X137.356 Y173.502 E0.02
G1 X136.744 Y173.371 E0.02
G1 X136.145 Y173.181 E0.021
G1 X135.566 Y172.934 E0.021
G1 X135.015 Y172.634 E0.021
G1 X134.877 Y172.541 E0.006
G1 X133.98 Y172.227 E0.031
G1 X132.607 Y171.793 E0.048
G1 X131.601 Y171.502 E0.035
G1 X130.41 Y171.193 E0.041
G1 X129.229 Y170.925 E0.04
G1 X127.511 Y170.606 E0.058
G1 X126.323 Y170.434 E0.04
G1 X125.125 Y170.303 E0.04
G1 X123.825 Y170.206 E0.044
G1 X122.613 Y170.16 E0.04
G1 X121.402 Y170.153 E0.04
G1 X119.533 Y170.215 E0.063
G1 X118.301 Y170.301 E0.041
G1 X117.05 Y170.423 E0.041
G1 X116.22 Y170.526 E0.028
G1 X115.593 Y170.781 E0.023
G1 X114.977 Y170.961 E0.021
G1 X114.335 Y171.082 E0.022
G1 X113.662 Y171.137 E0.022
G1 X113.064 Y171.13 E0.02
G1 X112.42 Y171.064 E0.022
G1 X111.758 Y170.923 E0.022
G1 X111.179 Y170.743 E0.02
G1 X110.581 Y170.491 E0.022
G1 X109.993 Y170.169 E0.022
G1 X109.493 Y169.832 E0.02
G1 X109.349 Y169.713 E0.007
G1 X108.434 Y169.286 E0.033
G1 X107.256 Y168.775 E0.043
G1 X105.449 Y168.066 E0.064
G1 X104.259 Y167.649 E0.042
G1 X102.466 Y167.103 E0.063
G1 X101.245 Y166.787 E0.042
G1 X100.029 Y166.519 E0.041
G1 X98.802 Y166.293 E0.041
G1 X97.553 Y166.109 E0.042
G1 X95.785 Y165.923 E0.06
G1 X94.418 Y165.835 E0.045
G1 X93.232 Y165.794 E0.04
G1 X92.509 Y165.786 E0.024
G1 X91.207 Y165.8 E0.043
G1 X90.202 Y165.837 E0.033
G1 X90.037 Y165.887 E0.006
G1 X89.415 Y166.011 E0.021
G1 X88.78 Y166.074 E0.021
G1 X88.148 Y166.075 E0.022
G1 X87.523 Y166.018 E0.02
G1 X86.898 Y165.9 E0.022
G1 X86.288 Y165.721 E0.021
G1 X85.702 Y165.487 E0.021
G1 X85.382 Y165.322 E0.012
G1 X76.996 Y162.151 E0.298
G1 X76.498 Y161.931 E0.018
G1 X75.964 Y161.62 E0.02
G1 X75.47 Y161.254 E0.021
G1 X75.018 Y160.836 E0.02
G1 X74.615 Y160.371 E0.021
G1 X74.266 Y159.866 E0.02
G1 X73.974 Y159.327 E0.021
G1 X73.741 Y158.753 E0.02
G1 X73.574 Y158.157 E0.021
G1 X73.474 Y157.552 E0.02
G1 X73.444 Y157.009 E0.018
G1 Y41.938 E3.828
G1 X73.475 Y41.385 E0.018
G1 X73.58 Y40.765 E0.021
G1 X73.759 Y40.142 E0.022
G1 X74.029 Y39.516 E0.022
G1 X74.299 Y39.03 E0.019
G1 X74.659 Y38.52 E0.02
G1 X75.081 Y38.048 E0.022
G1 X75.553 Y37.626 E0.021
G1 X76.064 Y37.265 E0.02
G1 X76.626 Y36.954 E0.022
G1 X77.259 Y36.702 E0.022
G1 X77.799 Y36.547 E0.019
G1 X78.417 Y36.442 E0.021
G1 X78.97 Y36.411 E0.018
G1 X158.743 E2.654
;rapid-leaky
G0 X158.726 Y36.811 F7200
;bead-skirt/brim
G1 X159.187 Y36.851 F960 E0.015
G1 X159.73 Y36.996 E0.019
G1 X160.236 Y37.233 E0.018
G1 X160.693 Y37.553 E0.019
G1 X161.089 Y37.949 E0.019
G1 X161.422 Y38.425 E0.019
G1 X161.66 Y38.962 E0.019
G1 X161.791 Y39.457 E0.017
G1 X161.831 Y39.916 E0.016
G1 Y81.819 E1.393
G1 X165.052 Y100.081 E0.617
G1 X169.975 Y99.214 E0.167
G1 X172.477 Y113.395 E0.478
G1 X171.64 Y113.542 E0.029
G1 Y117.348 E0.126
G1 X171.612 Y117.871 E0.018
G1 X171.513 Y118.449 E0.019
G1 X171.352 Y119.008 E0.02
G1 X171.129 Y119.546 E0.019
G1 X170.848 Y120.056 E0.019
G1 X170.509 Y120.533 E0.02
G1 X170.12 Y120.969 E0.019
G1 X169.683 Y121.359 E0.02
G1 X169.208 Y121.695 E0.019
G1 X168.698 Y121.977 E0.019
G1 X168.143 Y122.208 E0.02
G1 X167.52 Y122.376 E0.022
G1 X167.021 Y122.46 E0.017
G1 X166.502 Y122.489 E0.017
G1 X159.64 E0.228
G1 Y141.089 E0.619
G1 X167.98 E0.277
G1 X168.477 Y141.117 E0.017
G1 X169.029 Y141.205 E0.018
G1 X169.568 Y141.355 E0.019
G1 X170.087 Y141.559 E0.019
G1 X170.582 Y141.82 E0.018
G1 X171.044 Y142.129 E0.019
G1 X171.472 Y142.488 E0.018
G1 X171.859 Y142.891 E0.019
G1 X172.201 Y143.333 E0.018
G1 X172.494 Y143.81 E0.019
G1 X172.733 Y144.315 E0.019
G1 X172.917 Y144.841 E0.018
G1 X173.03 Y145.327 E0.017
G1 X176.089 Y162.673 E0.586
G1 X176.151 Y163.201 E0.017
G1 X176.152 Y163.809 E0.02
G1 X176.072 Y164.454 E0.022
G1 X175.952 Y164.967 E0.018
G1 X175.756 Y165.522 E0.019
G1 X175.496 Y166.056 E0.02
G1 X175.169 Y166.57 E0.02
G1 X174.754 Y167.067 E0.022
G1 X174.376 Y167.436 E0.017
G1 X173.907 Y167.799 E0.02
G1 X173.399 Y168.108 E0.02
G1 X172.86 Y168.356 E0.02
G1 X172.357 Y168.521 E0.017
G1 X164.158 Y170.707 E0.282
G1 X163.462 Y170.741 E0.024
G1 X162.918 Y170.719 E0.018
G1 X162.372 Y170.649 E0.018
G1 X161.808 Y170.522 E0.019
G1 X161.301 Y170.36 E0.018
G1 X161.147 Y170.296 E0.005
G1 X160.161 Y170.156 E0.034
G1 X158.929 Y170.013 E0.041
G1 X157.701 Y169.904 E0.041
G1 X156.477 Y169.83 E0.041
G1 X155.16 Y169.79 E0.043
G1 X154.134 Y169.789 E0.035
G1 X152.815 Y169.828 E0.043
G1 X152.229 Y169.86 E0.02
G1 X151.012 Y169.958 E0.041
G1 X149.89 Y170.084 E0.037
G1 X149.211 Y170.177 E0.023
G1 X147.996 Y170.375 E0.041
G1 X146.789 Y170.609 E0.041
G1 X145.581 Y170.882 E0.041
G1 X144.37 Y171.191 E0.042
G1 X143.158 Y171.533 E0.041
G1 X142.391 Y171.772 E0.027
G1 X141.893 Y172.141 E0.021
G1 X141.421 Y172.429 E0.018
G1 X140.89 Y172.688 E0.02
G1 X140.339 Y172.893 E0.019
G1 X139.77 Y173.048 E0.02
G1 X139.186 Y173.147 E0.02
G1 X138.593 Y173.19 E0.019
G1 X137.973 Y173.173 E0.021
G1 X137.422 Y173.107 E0.019
G1 X136.847 Y172.984 E0.019
G1 X136.284 Y172.805 E0.02
G1 X135.741 Y172.574 E0.019
G1 X135.223 Y172.292 E0.02
G1 X135.057 Y172.18 E0.007
G1 X134.107 Y171.848 E0.033
G1 X132.723 Y171.41 E0.048
G1 X131.707 Y171.116 E0.036
G1 X130.504 Y170.804 E0.041
G1 X129.31 Y170.533 E0.041
G1 X127.576 Y170.211 E0.058
G1 X126.374 Y170.037 E0.041
G1 X125.161 Y169.904 E0.04
G1 X123.848 Y169.807 E0.044
G1 X122.622 Y169.76 E0.041
G1 X121.397 Y169.753 E0.041
G1 X119.512 Y169.815 E0.062
G1 X118.268 Y169.903 E0.042
G1 X117.006 Y170.026 E0.042
G1 X116.1 Y170.138 E0.03
G1 X115.462 Y170.403 E0.023
G1 X114.884 Y170.572 E0.02
G1 X114.282 Y170.685 E0.021
G1 X113.648 Y170.737 E0.021
G1 X113.086 Y170.731 E0.019
G1 X112.482 Y170.668 E0.02
G1 X111.859 Y170.536 E0.021
G1 X111.316 Y170.367 E0.019
G1 X110.756 Y170.13 E0.02
G1 X110.201 Y169.827 E0.021
G1 X109.733 Y169.511 E0.019
G1 X109.564 Y169.372 E0.007
G1 X108.598 Y168.921 E0.036
G1 X107.409 Y168.405 E0.043
G1 X105.589 Y167.691 E0.065
G1 X104.385 Y167.269 E0.042
G1 X103.163 Y166.886 E0.043
G1 X102.571 Y166.717 E0.02
G1 X101.339 Y166.398 E0.043
G1 X100.108 Y166.127 E0.042
G1 X98.867 Y165.899 E0.041
G1 X97.607 Y165.713 E0.043
G1 X95.817 Y165.524 E0.06
G1 X94.438 Y165.436 E0.046
G1 X93.242 Y165.395 E0.039
G1 X92.51 Y165.386 E0.025
G1 X91.197 Y165.4 E0.043
G1 X90.136 Y165.439 E0.036
G1 X89.94 Y165.498 E0.007
G1 X89.356 Y165.615 E0.019
G1 X88.76 Y165.674 E0.02
G1 X88.166 Y165.675 E0.02
G1 X87.578 Y165.621 E0.02
G1 X86.991 Y165.511 E0.02
G1 X86.419 Y165.343 E0.019
G1 X85.868 Y165.123 E0.02
G1 X85.545 Y164.956 E0.012
G1 X77.148 Y161.781 E0.299
G1 X76.68 Y161.574 E0.017
G1 X76.185 Y161.285 E0.019
G1 X75.725 Y160.946 E0.019
G1 X75.306 Y160.558 E0.019
G1 X74.931 Y160.126 E0.019
G1 X74.608 Y159.657 E0.019
G1 X74.337 Y159.156 E0.019
G1 X74.12 Y158.623 E0.019
G1 X73.965 Y158.07 E0.019
G1 X73.872 Y157.508 E0.019
G1 X73.844 Y156.998 E0.017
G1 Y41.949 E3.827
G1 X73.873 Y41.429 E0.017
G1 X73.97 Y40.854 E0.019
G1 X74.136 Y40.277 E0.02
G1 X74.388 Y39.693 E0.021
G1 X74.639 Y39.243 E0.018
G1 X74.973 Y38.769 E0.019
G1 X75.364 Y38.331 E0.019
G1 X75.802 Y37.94 E0.02
G1 X76.277 Y37.605 E0.019
G1 X76.798 Y37.316 E0.02
G1 X77.389 Y37.081 E0.021
G1 X77.888 Y36.937 E0.017
G1 X78.462 Y36.84 E0.02
G1 X78.982 Y36.811 E0.017
G1 X158.726 E2.652
;rapid-leaky
G0 X158.709 Y37.211 F7200
;bead-skirt/brim
G1 X159.118 Y37.246 F960 E0.014
G1 X159.592 Y37.373 E0.016
G1 X160.035 Y37.581 E0.017
G1 X160.435 Y37.861 E0.016
G1 X160.781 Y38.207 E0.016
G1 X161.072 Y38.623 E0.017
G1 X161.281 Y39.095 E0.017
G1 X161.396 Y39.526 E0.015
G1 X161.431 Y39.934 E0.014
G1 Y81.854 E1.394
G1 X164.727 Y100.545 E0.631
G1 X169.651 Y99.677 E0.167
G1 X172.013 Y113.07 E0.452
G1 X171.24 Y113.207 E0.026
G1 Y117.337 E0.137
G1 X171.214 Y117.826 E0.017
G1 X171.122 Y118.36 E0.018
G1 X170.974 Y118.876 E0.018
G1 X170.768 Y119.373 E0.017
G1 X170.508 Y119.843 E0.018
G1 X170.196 Y120.283 E0.018
G1 X169.837 Y120.686 E0.018
G1 X169.434 Y121.045 E0.018
G1 X168.995 Y121.356 E0.018
G1 X168.525 Y121.616 E0.018
G1 X168.013 Y121.828 E0.018
G1 X167.435 Y121.985 E0.02
G1 X166.976 Y122.062 E0.016
G1 X166.491 Y122.089 E0.016
G1 X159.24 E0.241
G1 Y141.489 E0.645
G1 X167.969 E0.291
G1 X168.434 Y141.515 E0.015
G1 X168.943 Y141.597 E0.017
G1 X169.441 Y141.735 E0.017
G1 X169.92 Y141.923 E0.018
G1 X170.377 Y142.164 E0.017
G1 X170.803 Y142.45 E0.017
G1 X171.199 Y142.781 E0.017
G1 X171.556 Y143.153 E0.017
G1 X171.871 Y143.561 E0.017
G1 X172.142 Y144.001 E0.017
G1 X172.363 Y144.467 E0.018
G1 X172.532 Y144.953 E0.017
G1 X172.638 Y145.407 E0.015
G1 X175.693 Y162.731 E0.585
G1 X175.751 Y163.225 E0.017
G1 X175.752 Y163.785 E0.018
G1 X175.677 Y164.383 E0.021
G1 X175.567 Y164.855 E0.016
G1 X175.386 Y165.368 E0.018
G1 X175.146 Y165.86 E0.018
G1 X174.845 Y166.333 E0.019
G1 X174.46 Y166.795 E0.02
G1 X174.113 Y167.134 E0.016
G1 X173.68 Y167.469 E0.018
G1 X173.211 Y167.754 E0.018
G1 X172.714 Y167.983 E0.018
G1 X172.243 Y168.138 E0.017
G1 X164.096 Y170.309 E0.28
G1 X163.46 Y170.341 E0.022
G1 X162.951 Y170.32 E0.016
G1 X162.442 Y170.255 E0.018
G1 X161.913 Y170.136 E0.018
G1 X161.439 Y169.984 E0.016
G1 X161.253 Y169.907 E0.007
G1 X160.213 Y169.759 E0.035
G1 X158.97 Y169.615 E0.041
G1 X157.731 Y169.505 E0.042
G1 X156.495 Y169.43 E0.041
G1 X155.166 Y169.39 E0.044
G1 X154.128 Y169.389 E0.035
G1 X152.798 Y169.429 E0.044
G1 X152.202 Y169.461 E0.02
G1 X150.974 Y169.56 E0.041
G1 X149.84 Y169.687 E0.038
G1 X149.151 Y169.781 E0.023
G1 X147.925 Y169.981 E0.041
G1 X146.707 Y170.218 E0.041
G1 X145.488 Y170.493 E0.042
G1 X144.266 Y170.805 E0.042
G1 X143.044 Y171.15 E0.042
G1 X142.187 Y171.417 E0.03
G1 X141.669 Y171.809 E0.022
G1 X141.228 Y172.078 E0.017
G1 X140.732 Y172.32 E0.018
G1 X140.216 Y172.512 E0.018
G1 X139.684 Y172.657 E0.019
G1 X139.138 Y172.749 E0.018
G1 X138.584 Y172.79 E0.019
G1 X138.002 Y172.774 E0.019
G1 X137.488 Y172.712 E0.017
G1 X136.95 Y172.597 E0.019
G1 X136.424 Y172.43 E0.018
G1 X135.915 Y172.213 E0.018
G1 X135.431 Y171.949 E0.019
G1 X135.238 Y171.82 E0.007
G1 X134.233 Y171.468 E0.036
G1 X132.839 Y171.027 E0.048
G1 X131.813 Y170.73 E0.036
G1 X130.599 Y170.415 E0.042
G1 X129.39 Y170.141 E0.041
G1 X127.641 Y169.816 E0.059
G1 X126.424 Y169.64 E0.041
G1 X125.198 Y169.506 E0.041
G1 X123.87 Y169.407 E0.044
G1 X122.631 Y169.36 E0.042
G1 X121.391 Y169.353 E0.041
G1 X119.492 Y169.416 E0.063
G1 X118.234 Y169.504 E0.042
G1 X116.962 Y169.628 E0.042
G1 X115.98 Y169.75 E0.033
G1 X115.854 Y169.815 E0.005
G1 X115.331 Y170.024 E0.019
G1 X114.79 Y170.183 E0.019
G1 X114.229 Y170.288 E0.019
G1 X113.634 Y170.337 E0.019
G1 X113.109 Y170.331 E0.018
G1 X112.544 Y170.273 E0.019
G1 X111.96 Y170.148 E0.02
G1 X111.453 Y169.991 E0.017
G1 X110.93 Y169.77 E0.019
G1 X110.409 Y169.485 E0.02
G1 X109.972 Y169.19 E0.017
G1 X109.779 Y169.031 E0.009
G1 X108.763 Y168.556 E0.037
G1 X107.562 Y168.035 E0.044
G1 X105.728 Y167.316 E0.065
G1 X104.511 Y166.89 E0.043
G1 X103.278 Y166.503 E0.043
G1 X102.676 Y166.331 E0.021
G1 X101.432 Y166.009 E0.043
G1 X100.188 Y165.735 E0.042
G1 X98.933 Y165.504 E0.042
G1 X97.66 Y165.316 E0.043
G1 X95.85 Y165.125 E0.061
G1 X94.457 Y165.036 E0.046
G1 X93.251 Y164.995 E0.04
G1 X92.51 Y164.986 E0.025
G1 X91.188 Y165 E0.044
G1 X90.07 Y165.041 E0.037
G1 X89.843 Y165.109 E0.008
G1 X89.297 Y165.218 E0.019
G1 X88.739 Y165.274 E0.018
G1 X88.184 Y165.275 E0.019
G1 X87.633 Y165.225 E0.018
G1 X87.085 Y165.121 E0.019
G1 X86.55 Y164.964 E0.018
G1 X86.034 Y164.759 E0.019
G1 X85.708 Y164.59 E0.012
G1 X77.299 Y161.41 E0.299
G1 X76.862 Y161.217 E0.016
G1 X76.405 Y160.951 E0.017
G1 X75.981 Y160.637 E0.018
G1 X75.594 Y160.279 E0.017
G1 X75.248 Y159.88 E0.018
G1 X74.949 Y159.447 E0.017
G1 X74.699 Y158.985 E0.018
G1 X74.499 Y158.493 E0.018
G1 X74.356 Y157.983 E0.017
G1 X74.27 Y157.464 E0.018
G1 X74.244 Y156.987 E0.016
G1 Y41.96 E3.825
G1 X74.272 Y41.474 E0.017
G1 X74.361 Y40.943 E0.017
G1 X74.514 Y40.412 E0.019
G1 X74.748 Y39.869 E0.02
G1 X74.978 Y39.456 E0.015
G1 X75.286 Y39.018 E0.018
G1 X75.647 Y38.614 E0.018
G1 X76.051 Y38.253 E0.018
G1 X76.49 Y37.944 E0.018
G1 X76.969 Y37.678 E0.018
G1 X77.518 Y37.46 E0.02
G1 X77.977 Y37.328 E0.016
G1 X78.507 Y37.239 E0.018
G1 X78.993 Y37.211 E0.016
G1 X158.709 E2.651
;rapid-leaky
G0 X158.691 Y37.611 F7200
;bead-skirt/brim
G1 X159.048 Y37.642 F960 E0.012
G1 X159.455 Y37.751 E0.014
G1 X159.834 Y37.928 E0.014
G1 X160.177 Y38.168 E0.014
G1 X160.474 Y38.465 E0.014
G1 X160.722 Y38.82 E0.014
G1 X160.903 Y39.228 E0.015
G1 X161 Y39.595 E0.013
G1 X161.031 Y39.951 E0.012
G1 Y81.889 E1.394
G1 X164.403 Y101.008 E0.646
G1 X169.327 Y100.14 E0.166
G1 X171.55 Y112.746 E0.426
G1 X170.84 Y112.871 E0.024
G1 Y117.326 E0.148
G1 X170.816 Y117.781 E0.016
G1 X170.732 Y118.27 E0.016
G1 X170.595 Y118.743 E0.016
G1 X170.407 Y119.199 E0.017
G1 X170.169 Y119.63 E0.016
G1 X169.883 Y120.034 E0.017
G1 X169.554 Y120.403 E0.016
G1 X169.184 Y120.732 E0.017
G1 X168.782 Y121.017 E0.016
G1 X168.351 Y121.255 E0.016
G1 X167.884 Y121.449 E0.017
G1 X167.349 Y121.593 E0.019
G1 X166.932 Y121.663 E0.014
G1 X166.48 Y121.689 E0.015
G1 X158.84 E0.254
G1 Y141.889 E0.672
G1 X167.958 E0.303
G1 X168.391 Y141.913 E0.014
G1 X168.858 Y141.988 E0.016
G1 X169.314 Y142.114 E0.016
G1 X169.753 Y142.287 E0.016
G1 X170.172 Y142.508 E0.015
G1 X170.563 Y142.77 E0.016
G1 X170.925 Y143.073 E0.016
G1 X171.253 Y143.414 E0.015
G1 X171.542 Y143.788 E0.016
G1 X171.789 Y144.192 E0.016
G1 X171.992 Y144.619 E0.016
G1 X172.147 Y145.064 E0.015
G1 X172.246 Y145.487 E0.015
G1 X175.297 Y162.79 E0.584
G1 X175.351 Y163.249 E0.015
G1 X175.352 Y163.76 E0.017
G1 X175.283 Y164.313 E0.019
G1 X175.183 Y164.742 E0.015
G1 X175.017 Y165.213 E0.016
G1 X174.797 Y165.665 E0.017
G1 X174.522 Y166.097 E0.017
G1 X174.166 Y166.523 E0.018
G1 X173.85 Y166.832 E0.015
G1 X173.453 Y167.139 E0.017
G1 X173.023 Y167.4 E0.017
G1 X172.567 Y167.61 E0.016
G1 X172.129 Y167.754 E0.016
G1 X164.034 Y169.912 E0.278
G1 X163.458 Y169.94 E0.019
G1 X162.985 Y169.921 E0.016
G1 X162.512 Y169.86 E0.016
G1 X162.018 Y169.749 E0.017
G1 X161.577 Y169.608 E0.015
G1 X161.36 Y169.518 E0.008
G1 X160.264 Y169.363 E0.037
G1 X159.01 Y169.217 E0.042
G1 X157.761 Y169.106 E0.042
G1 X156.513 Y169.031 E0.041
G1 X155.172 Y168.99 E0.045
G1 X154.122 Y168.989 E0.035
G1 X152.781 Y169.029 E0.044
G1 X152.175 Y169.062 E0.021
G1 X150.935 Y169.162 E0.041
G1 X149.791 Y169.29 E0.038
G1 X149.092 Y169.386 E0.024
G1 X147.855 Y169.587 E0.041
G1 X146.625 Y169.826 E0.042
G1 X145.394 Y170.104 E0.042
G1 X144.162 Y170.418 E0.042
G1 X142.93 Y170.766 E0.043
G1 X141.983 Y171.061 E0.033
G1 X141.882 Y171.153 E0.004
G1 X141.446 Y171.476 E0.018
G1 X141.036 Y171.726 E0.016
G1 X140.574 Y171.952 E0.018
G1 X140.093 Y172.131 E0.017
G1 X139.598 Y172.266 E0.017
G1 X139.09 Y172.351 E0.017
G1 X138.575 Y172.389 E0.017
G1 X138.031 Y172.375 E0.018
G1 X137.554 Y172.317 E0.016
G1 X137.052 Y172.21 E0.017
G1 X136.563 Y172.054 E0.017
G1 X136.089 Y171.853 E0.017
G1 X135.639 Y171.607 E0.017
G1 X135.419 Y171.459 E0.009
G1 X134.36 Y171.088 E0.038
G1 X132.955 Y170.644 E0.049
G1 X131.919 Y170.344 E0.035
G1 X130.693 Y170.027 E0.042
G1 X129.471 Y169.749 E0.042
G1 X127.707 Y169.422 E0.06
G1 X126.474 Y169.243 E0.041
G1 X125.234 Y169.107 E0.042
G1 X123.892 Y169.008 E0.045
G1 X122.639 Y168.96 E0.041
G1 X121.385 Y168.953 E0.042
G1 X119.471 Y169.016 E0.064
G1 X118.201 Y169.105 E0.042
G1 X116.918 Y169.231 E0.043
G1 X115.86 Y169.362 E0.035
G1 X115.688 Y169.451 E0.007
G1 X115.201 Y169.646 E0.017
G1 X114.697 Y169.793 E0.018
G1 X114.175 Y169.891 E0.017
G1 X113.62 Y169.937 E0.019
G1 X113.132 Y169.931 E0.016
G1 X112.607 Y169.877 E0.018
G1 X112.062 Y169.761 E0.018
G1 X111.591 Y169.615 E0.017
G1 X111.104 Y169.409 E0.017
G1 X110.618 Y169.143 E0.019
G1 X110.211 Y168.869 E0.016
G1 X109.994 Y168.69 E0.009
G1 X108.927 Y168.192 E0.039
G1 X107.715 Y167.665 E0.044
G1 X105.867 Y166.941 E0.066
G1 X104.637 Y166.51 E0.044
G1 X103.393 Y166.12 E0.043
G1 X102.782 Y165.945 E0.021
G1 X101.525 Y165.62 E0.043
G1 X100.267 Y165.343 E0.043
G1 X98.998 Y165.109 E0.043
G1 X97.713 Y164.92 E0.043
G1 X97.081 Y164.843 E0.022
G1 X95.882 Y164.727 E0.04
G1 X94.477 Y164.636 E0.046
G1 X93.26 Y164.595 E0.041
G1 X92.51 Y164.586 E0.025
G1 X91.178 Y164.6 E0.044
G1 X90.004 Y164.643 E0.039
G1 X89.746 Y164.721 E0.009
G1 X89.238 Y164.822 E0.017
G1 X88.719 Y164.874 E0.018
G1 X88.202 Y164.875 E0.017
G1 X87.689 Y164.828 E0.017
G1 X87.178 Y164.732 E0.017
G1 X86.681 Y164.586 E0.018
G1 X86.2 Y164.394 E0.017
G1 X85.87 Y164.224 E0.012
G1 X77.451 Y161.04 E0.3
G1 X77.044 Y160.86 E0.014
G1 X76.625 Y160.616 E0.017
G1 X76.237 Y160.329 E0.016
G1 X75.882 Y160 E0.016
G1 X75.565 Y159.635 E0.016
G1 X75.291 Y159.238 E0.016
G1 X75.061 Y158.814 E0.016
G1 X74.878 Y158.364 E0.016
G1 X74.747 Y157.896 E0.016
G1 X74.668 Y157.42 E0.016
G1 X74.644 Y156.976 E0.015
G1 Y41.971 E3.825
G1 X74.67 Y41.519 E0.015
G1 X74.752 Y41.032 E0.017
G1 X74.891 Y40.547 E0.016
G1 X75.107 Y40.046 E0.019
G1 X75.317 Y39.669 E0.014
G1 X75.6 Y39.268 E0.016
G1 X75.93 Y38.897 E0.017
G1 X76.301 Y38.567 E0.016
G1 X76.703 Y38.283 E0.017
G1 X77.141 Y38.04 E0.016
G1 X77.648 Y37.839 E0.018
G1 X78.065 Y37.719 E0.015
G1 X78.552 Y37.637 E0.016
G1 X79.004 Y37.611 E0.015
G1 X158.691 E2.651
;rapid-leaky
G0 X158.674 Y38.011 F7200
;bead-skirt/brim
G1 X158.979 Y38.037 F960 E0.01
G1 X159.317 Y38.128 E0.012
G1 X159.633 Y38.276 E0.011
G1 X159.919 Y38.476 E0.012
G1 X160.166 Y38.723 E0.011
G1 X160.372 Y39.017 E0.012
G1 X160.524 Y39.361 E0.013
G1 X160.605 Y39.664 E0.01
G1 X160.631 Y39.968 E0.01
G1 Y81.924 E1.396
G1 X164.078 Y101.472 E0.66
G1 X169.002 Y100.604 E0.166
G1 X171.087 Y112.421 E0.399
G1 X170.44 Y112.535 E0.022
G1 Y117.316 E0.159
G1 X170.417 Y117.737 E0.014
G1 X170.341 Y118.181 E0.015
G1 X170.217 Y118.611 E0.015
G1 X170.046 Y119.025 E0.015
G1 X169.829 Y119.417 E0.015
G1 X169.569 Y119.784 E0.015
G1 X169.27 Y120.119 E0.015
G1 X168.935 Y120.419 E0.015
G1 X168.569 Y120.677 E0.015
G1 X168.177 Y120.894 E0.015
G1 X167.754 Y121.069 E0.015
G1 X167.264 Y121.202 E0.017
G1 X166.887 Y121.265 E0.012
G1 X166.468 Y121.289 E0.014
G1 X158.44 E0.267
G1 Y142.289 E0.699
G1 X167.947 E0.316
G1 X168.348 Y142.311 E0.014
G1 X168.772 Y142.379 E0.014
G1 X169.187 Y142.494 E0.014
G1 X169.586 Y142.652 E0.014
G1 X169.967 Y142.852 E0.015
G1 X170.322 Y143.09 E0.014
G1 X170.652 Y143.366 E0.014
G1 X170.949 Y143.676 E0.014
G1 X171.212 Y144.016 E0.015
G1 X171.437 Y144.383 E0.014
G1 X171.622 Y144.771 E0.014
G1 X171.763 Y145.176 E0.015
G1 X171.854 Y145.567 E0.013
G1 X174.901 Y162.848 E0.584
G1 X174.951 Y163.273 E0.014
G1 X174.952 Y163.736 E0.015
G1 X174.889 Y164.242 E0.017
G1 X174.798 Y164.63 E0.013
G1 X174.647 Y165.059 E0.016
G1 X174.447 Y165.469 E0.015
G1 X174.198 Y165.86 E0.015
G1 X173.872 Y166.251 E0.017
G1 X173.587 Y166.529 E0.013
G1 X173.226 Y166.809 E0.016
G1 X172.835 Y167.047 E0.015
G1 X172.42 Y167.237 E0.015
G1 X172.014 Y167.371 E0.014
G1 X163.972 Y169.515 E0.277
G1 X163.457 Y169.54 E0.017
G1 X163.019 Y169.522 E0.015
G1 X162.581 Y169.466 E0.014
G1 X162.123 Y169.363 E0.016
G1 X161.715 Y169.233 E0.014
G1 X161.467 Y169.129 E0.009
G1 X160.315 Y168.966 E0.039
G1 X159.051 Y168.819 E0.042
G1 X157.791 Y168.707 E0.042
G1 X156.532 Y168.631 E0.042
G1 X155.178 Y168.59 E0.045
G1 X154.116 Y168.589 E0.036
G1 X152.764 Y168.629 E0.045
G1 X152.148 Y168.663 E0.02
G1 X150.897 Y168.764 E0.042
G1 X149.742 Y168.893 E0.039
G1 X149.033 Y168.99 E0.023
G1 X147.785 Y169.194 E0.042
G1 X146.543 Y169.435 E0.043
G1 X145.301 Y169.715 E0.042
G1 X144.058 Y170.032 E0.042
G1 X142.817 Y170.383 E0.043
G1 X141.779 Y170.706 E0.037
G1 X141.628 Y170.844 E0.006
G1 X141.222 Y171.144 E0.017
G1 X140.844 Y171.375 E0.015
G1 X140.416 Y171.584 E0.016
G1 X139.971 Y171.75 E0.016
G1 X139.512 Y171.875 E0.015
G1 X139.042 Y171.954 E0.016
G1 X138.565 Y171.989 E0.016
G1 X138.061 Y171.975 E0.017
G1 X137.62 Y171.922 E0.015
G1 X137.155 Y171.823 E0.015
G1 X136.702 Y171.679 E0.016
G1 X136.264 Y171.492 E0.016
G1 X135.846 Y171.265 E0.016
G1 X135.599 Y171.098 E0.01
G1 X134.486 Y170.709 E0.039
G1 X133.071 Y170.261 E0.049
G1 X132.025 Y169.958 E0.037
G1 X130.788 Y169.638 E0.042
G1 X129.552 Y169.358 E0.042
G1 X127.772 Y169.027 E0.061
G1 X126.525 Y168.846 E0.041
G1 X125.271 Y168.709 E0.042
G1 X123.915 Y168.609 E0.046
G1 X122.648 Y168.56 E0.042
G1 X121.38 Y168.553 E0.042
G1 X119.45 Y168.617 E0.064
G1 X118.168 Y168.707 E0.043
G1 X116.874 Y168.833 E0.043
G1 X115.74 Y168.973 E0.038
G1 X115.521 Y169.087 E0.008
G1 X115.07 Y169.267 E0.017
G1 X114.603 Y169.404 E0.016
G1 X114.122 Y169.494 E0.016
G1 X113.606 Y169.536 E0.017
G1 X113.155 Y169.531 E0.015
G1 X112.669 Y169.481 E0.016
G1 X112.163 Y169.374 E0.018
G1 X111.728 Y169.238 E0.015
G1 X111.278 Y169.049 E0.016
G1 X110.826 Y168.801 E0.017
G1 X110.451 Y168.548 E0.015
G1 X110.209 Y168.349 E0.011
G1 X109.091 Y167.827 E0.041
G1 X107.867 Y167.295 E0.044
G1 X106.006 Y166.566 E0.067
G1 X104.763 Y166.13 E0.043
G1 X103.508 Y165.737 E0.044
G1 X102.887 Y165.559 E0.022
G1 X101.618 Y165.231 E0.043
G1 X100.346 Y164.95 E0.044
G1 X99.064 Y164.715 E0.043
G1 X97.767 Y164.523 E0.044
G1 X97.125 Y164.445 E0.021
G1 X95.914 Y164.328 E0.04
G1 X94.497 Y164.237 E0.048
G1 X93.269 Y164.195 E0.041
G1 X92.51 Y164.186 E0.025
G1 X91.169 Y164.2 E0.044
G1 X89.938 Y164.246 E0.041
G1 X89.649 Y164.332 E0.01
G1 X89.179 Y164.426 E0.016
G1 X88.699 Y164.474 E0.016
G1 X88.219 Y164.475 E0.016
G1 X87.744 Y164.431 E0.016
G1 X87.272 Y164.342 E0.016
G1 X86.811 Y164.207 E0.016
G1 X86.367 Y164.03 E0.016
G1 X86.034 Y163.858 E0.013
G1 X77.603 Y160.67 E0.299
G1 X77.226 Y160.503 E0.014
G1 X76.845 Y160.282 E0.015
G1 X76.492 Y160.02 E0.014
G1 X76.17 Y159.722 E0.015
G1 X75.881 Y159.389 E0.015
G1 X75.632 Y159.029 E0.014
G1 X75.423 Y158.643 E0.015
G1 X75.257 Y158.234 E0.014
G1 X75.138 Y157.809 E0.015
G1 X75.066 Y157.377 E0.015
G1 X75.044 Y156.965 E0.013
G1 Y41.983 E3.825
G1 X75.068 Y41.563 E0.014
G1 X75.142 Y41.121 E0.015
G1 X75.269 Y40.682 E0.015
G1 X75.467 Y40.223 E0.016
G1 X75.656 Y39.882 E0.013
G1 X75.914 Y39.517 E0.015
G1 X76.214 Y39.181 E0.015
G1 X76.55 Y38.881 E0.015
G1 X76.916 Y38.623 E0.015
G1 X77.313 Y38.403 E0.015
G1 X77.777 Y38.218 E0.017
G1 X78.154 Y38.109 E0.013
G1 X78.596 Y38.035 E0.015
G1 X79.016 Y38.011 E0.014
G1 X158.674 E2.649
;rapid-leaky
G0 X158.657 Y38.411 F7200
;bead-skirt/brim
G1 X158.909 Y38.433 F960 E0.009
G1 X159.179 Y38.505 E0.009
G1 X159.432 Y38.624 E0.009
G1 X159.661 Y38.784 E0.01
G1 X159.858 Y38.981 E0.009
G1 X160.022 Y39.215 E0.009
G1 X160.146 Y39.494 E0.01
G1 X160.209 Y39.733 E0.009
G1 X160.231 Y39.985 E0.008
G1 Y81.959 E1.396
G1 X163.754 Y101.935 E0.675
G1 X168.678 Y101.067 E0.166
G1 X170.623 Y112.097 E0.373
G1 X170.04 Y112.2 E0.019
G1 Y117.305 E0.17
G1 X170.019 Y117.692 E0.013
G1 X169.951 Y118.091 E0.014
G1 X169.839 Y118.479 E0.013
G1 X169.685 Y118.852 E0.013
G1 X169.49 Y119.204 E0.014
G1 X169.256 Y119.534 E0.013
G1 X168.987 Y119.836 E0.014
G1 X168.685 Y120.105 E0.013
G1 X168.356 Y120.338 E0.013
G1 X168.003 Y120.533 E0.014
G1 X167.625 Y120.69 E0.014
G1 X167.178 Y120.811 E0.015
G1 X166.843 Y120.867 E0.011
G1 X166.457 Y120.889 E0.013
G1 X158.04 E0.28
G1 Y142.689 E0.725
G1 X167.936 E0.329
G1 X168.305 Y142.71 E0.013
G1 X168.687 Y142.771 E0.012
G1 X169.06 Y142.874 E0.013
G1 X169.419 Y143.016 E0.013
G1 X169.762 Y143.196 E0.013
G1 X170.082 Y143.411 E0.013
G1 X170.378 Y143.659 E0.013
G1 X170.646 Y143.938 E0.013
G1 X170.882 Y144.244 E0.012
G1 X171.085 Y144.574 E0.013
G1 X171.251 Y144.923 E0.013
G1 X171.378 Y145.288 E0.013
G1 X171.462 Y145.648 E0.012
G1 X174.505 Y162.906 E0.583
G1 X174.551 Y163.297 E0.013
G1 X174.552 Y163.712 E0.014
G1 X174.494 Y164.172 E0.015
G1 X174.414 Y164.517 E0.012
G1 X174.277 Y164.904 E0.014
G1 X174.097 Y165.273 E0.014
G1 X173.874 Y165.624 E0.013
G1 X173.578 Y165.979 E0.016
G1 X173.324 Y166.227 E0.012
G1 X172.999 Y166.479 E0.013
G1 X172.647 Y166.693 E0.014
G1 X172.274 Y166.864 E0.014
G1 X171.9 Y166.987 E0.013
G1 X163.91 Y169.117 E0.275
G1 X163.455 Y169.14 E0.015
G1 X163.052 Y169.123 E0.013
G1 X162.651 Y169.071 E0.014
G1 X162.228 Y168.977 E0.014
G1 X161.853 Y168.857 E0.013
G1 X161.573 Y168.74 E0.01
G1 X160.366 Y168.569 E0.041
G1 X159.092 Y168.421 E0.043
G1 X157.82 Y168.308 E0.042
G1 X156.55 Y168.231 E0.042
G1 X155.185 Y168.19 E0.046
G1 X154.111 Y168.189 E0.035
G1 X152.747 Y168.229 E0.046
G1 X152.121 Y168.264 E0.021
G1 X150.859 Y168.365 E0.042
G1 X149.692 Y168.496 E0.039
G1 X148.974 Y168.594 E0.024
G1 X147.714 Y168.8 E0.042
G1 X146.46 Y169.043 E0.043
G1 X145.207 Y169.326 E0.043
G1 X143.955 Y169.646 E0.043
G1 X142.703 Y169.999 E0.043
G1 X141.575 Y170.35 E0.039
G1 X141.373 Y170.535 E0.009
G1 X140.999 Y170.812 E0.016
G1 X140.651 Y171.024 E0.013
G1 X140.258 Y171.216 E0.015
G1 X139.848 Y171.369 E0.014
G1 X139.426 Y171.484 E0.015
G1 X138.994 Y171.556 E0.015
G1 X138.556 Y171.589 E0.014
G1 X138.09 Y171.576 E0.016
G1 X137.686 Y171.527 E0.013
G1 X137.258 Y171.436 E0.015
G1 X136.841 Y171.303 E0.014
G1 X136.438 Y171.132 E0.015
G1 X136.054 Y170.922 E0.014
G1 X135.78 Y170.738 E0.011
G1 X134.612 Y170.329 E0.042
G1 X133.187 Y169.878 E0.049
G1 X132.13 Y169.573 E0.037
G1 X130.882 Y169.249 E0.043
G1 X129.633 Y168.966 E0.042
G1 X127.837 Y168.632 E0.061
G1 X126.575 Y168.449 E0.043
G1 X125.307 Y168.311 E0.042
G1 X123.937 Y168.209 E0.046
G1 X122.657 Y168.16 E0.042
G1 X121.374 Y168.153 E0.043
G1 X119.43 Y168.217 E0.065
G1 X118.134 Y168.308 E0.043
G1 X116.83 Y168.435 E0.043
G1 X115.62 Y168.585 E0.041
G1 X115.355 Y168.722 E0.01
G1 X114.939 Y168.889 E0.015
G1 X114.51 Y169.014 E0.015
G1 X114.068 Y169.097 E0.015
G1 X113.592 Y169.136 E0.015
G1 X113.178 Y169.132 E0.014
G1 X112.731 Y169.086 E0.015
G1 X112.264 Y168.986 E0.016
G1 X111.866 Y168.862 E0.014
G1 X111.453 Y168.688 E0.015
G1 X111.035 Y168.459 E0.016
G1 X110.69 Y168.227 E0.014
G1 X110.424 Y168.008 E0.011
G1 X109.256 Y167.462 E0.043
G1 X108.02 Y166.926 E0.045
G1 X106.145 Y166.191 E0.067
G1 X104.889 Y165.751 E0.044
G1 X103.623 Y165.354 E0.044
G1 X102.992 Y165.173 E0.022
G1 X101.711 Y164.842 E0.044
G1 X100.425 Y164.558 E0.044
G1 X99.129 Y164.32 E0.044
G1 X97.82 Y164.127 E0.044
G1 X97.168 Y164.048 E0.021
G1 X95.946 Y163.929 E0.041
G1 X94.516 Y163.837 E0.048
G1 X93.278 Y163.795 E0.041
G1 X92.511 Y163.786 E0.026
G1 X91.159 Y163.8 E0.045
G1 X89.872 Y163.848 E0.042
G1 X89.552 Y163.944 E0.012
G1 X89.12 Y164.03 E0.014
G1 X88.678 Y164.074 E0.015
G1 X88.237 Y164.075 E0.015
G1 X87.8 Y164.035 E0.014
G1 X87.366 Y163.953 E0.015
G1 X86.942 Y163.829 E0.015
G1 X86.533 Y163.666 E0.014
G1 X86.197 Y163.492 E0.013
G1 X77.754 Y160.299 E0.3
G1 X77.408 Y160.146 E0.013
G1 X77.066 Y159.947 E0.013
G1 X76.748 Y159.712 E0.013
G1 X76.457 Y159.443 E0.013
G1 X76.198 Y159.144 E0.013
G1 X75.974 Y158.819 E0.013
G1 X75.786 Y158.472 E0.014
G1 X75.636 Y158.104 E0.013
G1 X75.529 Y157.722 E0.013
G1 X75.465 Y157.333 E0.013
G1 X75.444 Y156.954 E0.013
G1 Y41.994 E3.823
G1 X75.466 Y41.608 E0.013
G1 X75.533 Y41.21 E0.014
G1 X75.646 Y40.817 E0.013
G1 X75.826 Y40.4 E0.015
G1 X75.995 Y40.095 E0.012
G1 X76.228 Y39.766 E0.013
G1 X76.497 Y39.464 E0.014
G1 X76.799 Y39.195 E0.013
G1 X77.129 Y38.962 E0.014
G1 X77.484 Y38.765 E0.013
G1 X77.907 Y38.597 E0.015
G1 X78.243 Y38.5 E0.012
G1 X78.641 Y38.433 E0.013
G1 X79.027 Y38.411 E0.013
G1 X158.657 E2.649
;rapid-leaky
G0 X158.64 Y38.811 F7200
;bead-skirt/brim
G1 X158.84 Y38.828 F960 E0.006
G1 X159.042 Y38.882 E0.007
G1 X159.231 Y38.971 E0.007
G1 X159.403 Y39.091 E0.007
G1 X159.551 Y39.239 E0.007
G1 X159.672 Y39.412 E0.007
G1 X159.767 Y39.627 E0.008
G1 X159.814 Y39.802 E0.006
G1 X159.831 Y40.002 E0.007
G1 Y81.994 E1.396
G1 X163.429 Y102.398 E0.689
G1 X168.353 Y101.53 E0.167
G1 X170.16 Y111.772 E0.346
G1 X169.64 Y111.864 E0.017
G1 Y117.294 E0.181
G1 X169.621 Y117.647 E0.012
G1 X169.56 Y118.002 E0.012
G1 X169.461 Y118.346 E0.012
G1 X169.324 Y118.678 E0.011
G1 X169.151 Y118.991 E0.012
G1 X168.943 Y119.285 E0.012
G1 X168.704 Y119.553 E0.012
G1 X168.436 Y119.792 E0.012
G1 X168.143 Y119.999 E0.012
G1 X167.829 Y120.172 E0.012
G1 X167.496 Y120.311 E0.012
G1 X167.093 Y120.42 E0.014
G1 X166.798 Y120.469 E0.01
G1 X166.446 Y120.489 E0.012
G1 X157.64 E0.293
G1 Y143.089 E0.751
G1 X167.925 E0.342
G1 X168.262 Y143.108 E0.012
G1 X168.602 Y143.162 E0.011
G1 X168.933 Y143.254 E0.011
G1 X169.252 Y143.38 E0.012
G1 X169.557 Y143.54 E0.011
G1 X169.841 Y143.731 E0.012
G1 X170.105 Y143.952 E0.011
G1 X170.343 Y144.199 E0.011
G1 X170.553 Y144.471 E0.012
G1 X170.733 Y144.765 E0.011
G1 X170.88 Y145.075 E0.012
G1 X170.993 Y145.399 E0.011
G1 X171.07 Y145.728 E0.011
G1 X174.109 Y162.964 E0.583
G1 X174.151 Y163.321 E0.012
G1 X174.152 Y163.687 E0.012
G1 X174.1 Y164.101 E0.014
G1 X174.029 Y164.405 E0.01
G1 X173.908 Y164.749 E0.012
G1 X173.748 Y165.078 E0.012
G1 X173.551 Y165.387 E0.012
G1 X173.284 Y165.707 E0.014
G1 X173.061 Y165.925 E0.011
G1 X172.772 Y166.149 E0.012
G1 X172.459 Y166.339 E0.012
G1 X172.127 Y166.491 E0.012
G1 X171.786 Y166.604 E0.012
G1 X163.848 Y168.72 E0.273
G1 X163.453 Y168.739 E0.013
G1 X163.086 Y168.724 E0.013
G1 X162.72 Y168.677 E0.012
G1 X162.333 Y168.59 E0.013
G1 X161.991 Y168.481 E0.012
G1 X161.68 Y168.351 E0.011
G1 X160.417 Y168.172 E0.043
G1 X159.133 Y168.023 E0.043
G1 X157.85 Y167.909 E0.043
G1 X156.568 Y167.832 E0.042
G1 X155.191 Y167.79 E0.046
G1 X154.105 Y167.789 E0.036
G1 X152.73 Y167.83 E0.046
G1 X152.094 Y167.865 E0.021
G1 X150.82 Y167.967 E0.043
G1 X149.643 Y168.099 E0.039
G1 X148.915 Y168.199 E0.025
G1 X147.644 Y168.406 E0.042
G1 X146.378 Y168.652 E0.043
G1 X145.114 Y168.937 E0.043
G1 X143.851 Y169.259 E0.044
G1 X142.589 Y169.616 E0.043
G1 X141.371 Y169.995 E0.043
G1 X141.118 Y170.226 E0.011
G1 X140.775 Y170.48 E0.014
G1 X140.459 Y170.673 E0.013
G1 X140.1 Y170.848 E0.013
G1 X139.725 Y170.988 E0.013
G1 X139.34 Y171.093 E0.013
G1 X138.946 Y171.159 E0.014
G1 X138.547 Y171.188 E0.013
G1 X138.119 Y171.177 E0.014
G1 X137.752 Y171.132 E0.013
G1 X137.361 Y171.049 E0.013
G1 X136.98 Y170.928 E0.013
G1 X136.613 Y170.771 E0.014
G1 X136.262 Y170.58 E0.013
G1 X135.961 Y170.377 E0.012
G1 X134.739 Y169.95 E0.043
G1 X133.303 Y169.495 E0.05
G1 X132.236 Y169.187 E0.037
G1 X130.977 Y168.86 E0.043
G1 X129.714 Y168.574 E0.043
G1 X127.902 Y168.237 E0.062
G1 X126.626 Y168.052 E0.042
G1 X125.344 Y167.912 E0.043
G1 X123.96 Y167.81 E0.047
G1 X122.666 Y167.76 E0.043
G1 X121.369 Y167.753 E0.043
G1 X119.409 Y167.818 E0.065
G1 X118.101 Y167.909 E0.044
G1 X116.786 Y168.038 E0.044
G1 X115.5 Y168.197 E0.043
G1 X115.188 Y168.358 E0.011
G1 X114.808 Y168.51 E0.014
G1 X114.417 Y168.625 E0.013
G1 X114.015 Y168.7 E0.014
G1 X113.578 Y168.736 E0.015
G1 X113.201 Y168.732 E0.012
G1 X112.794 Y168.69 E0.014
G1 X112.365 Y168.599 E0.014
G1 X112.003 Y168.486 E0.013
G1 X111.627 Y168.327 E0.014
G1 X111.243 Y168.117 E0.014
G1 X110.929 Y167.906 E0.013
G1 X110.639 Y167.667 E0.012
G1 X109.42 Y167.097 E0.045
G1 X108.173 Y166.556 E0.045
G1 X106.284 Y165.816 E0.068
G1 X105.015 Y165.371 E0.044
G1 X103.738 Y164.971 E0.045
G1 X103.097 Y164.787 E0.022
G1 X101.804 Y164.453 E0.044
G1 X100.504 Y164.166 E0.045
G1 X99.194 Y163.925 E0.044
G1 X97.873 Y163.73 E0.044
G1 X97.211 Y163.65 E0.023
G1 X95.978 Y163.53 E0.041
G1 X94.536 Y163.438 E0.048
G1 X93.287 Y163.395 E0.041
G1 X92.511 Y163.386 E0.026
G1 X91.15 Y163.4 E0.046
G1 X89.806 Y163.45 E0.044
G1 X89.455 Y163.555 E0.012
G1 X89.061 Y163.634 E0.014
G1 X88.658 Y163.674 E0.013
G1 X88.255 Y163.675 E0.014
G1 X87.855 Y163.638 E0.013
G1 X87.459 Y163.564 E0.013
G1 X87.073 Y163.45 E0.014
G1 X86.699 Y163.301 E0.013
G1 X86.359 Y163.126 E0.013
G1 X77.906 Y159.929 E0.301
G1 X77.59 Y159.789 E0.011
G1 X77.286 Y159.612 E0.012
G1 X77.003 Y159.403 E0.011
G1 X76.745 Y159.164 E0.012
G1 X76.515 Y158.899 E0.012
G1 X76.315 Y158.61 E0.012
G1 X76.148 Y158.301 E0.011
G1 X76.015 Y157.975 E0.012
G1 X75.92 Y157.635 E0.012
G1 X75.863 Y157.289 E0.011
G1 X75.844 Y156.943 E0.012
G1 Y42.005 E3.823
G1 X75.864 Y41.653 E0.011
G1 X75.924 Y41.299 E0.012
G1 X76.023 Y40.952 E0.012
G1 X76.185 Y40.577 E0.014
G1 X76.334 Y40.308 E0.01
G1 X76.541 Y40.015 E0.012
G1 X76.78 Y39.747 E0.012
G1 X77.048 Y39.508 E0.012
G1 X77.342 Y39.301 E0.012
G1 X77.656 Y39.127 E0.012
G1 X78.036 Y38.976 E0.014
G1 X78.332 Y38.891 E0.01
G1 X78.686 Y38.831 E0.012
G1 X79.038 Y38.811 E0.011
G1 X158.64 E2.648
G1 F2100 E-0.5
;rapid-dry
G0 X158.622 Y39.211 F7200
G1 F2100 E0.5
;bead-perimeter_outer
G1 X158.77 Y39.224 F720 E0.005
G1 X158.904 Y39.26 E0.005
G1 X159.031 Y39.319 E0.004
G1 X159.145 Y39.399 E0.005
G1 X159.243 Y39.497 E0.004
G1 X159.322 Y39.61 E0.005
G1 X159.389 Y39.761 E0.005
G1 X159.418 Y39.872 E0.004
G1 X159.431 Y40.02 E0.005
G1 Y82.029 E1.397
G1 X163.105 Y102.862 E0.704
G1 X168.029 Y101.994 E0.166
G1 X169.696 Y111.448 E0.32
G1 X169.24 Y111.528 E0.015
G1 Y117.284 E0.192
G1 X169.223 Y117.603 E0.01
G1 X169.17 Y117.912 E0.011
G1 X169.083 Y118.214 E0.01
G1 X168.963 Y118.504 E0.01
G1 X168.811 Y118.779 E0.011
G1 X168.629 Y119.035 E0.01
G1 X168.42 Y119.269 E0.011
G1 X168.186 Y119.478 E0.01
G1 X167.931 Y119.659 E0.011
G1 X167.655 Y119.812 E0.01
G1 X167.365 Y119.932 E0.011
G1 X167.063 Y120.019 E0.01
G1 X166.754 Y120.071 E0.01
G1 X166.434 Y120.089 E0.011
G1 X157.24 E0.306
G1 Y143.489 E0.778
G1 X167.913 E0.355
G1 X168.22 Y143.506 E0.01
G1 X168.516 Y143.554 E0.01
G1 X168.805 Y143.634 E0.01
G1 X169.086 Y143.744 E0.01
G1 X169.351 Y143.884 E0.01
G1 X169.601 Y144.051 E0.01
G1 X169.831 Y144.244 E0.01
G1 X170.039 Y144.461 E0.01
G1 X170.223 Y144.699 E0.01
G1 X170.381 Y144.955 E0.01
G1 X170.51 Y145.227 E0.01
G1 X170.609 Y145.511 E0.01
G1 X170.678 Y145.808 E0.01
G1 X173.713 Y163.022 E0.582
G1 X173.751 Y163.345 E0.011
G1 X173.752 Y163.663 E0.01
G1 X173.706 Y164.031 E0.013
G1 X173.645 Y164.293 E0.009
G1 X173.538 Y164.595 E0.01
G1 X173.398 Y164.882 E0.011
G1 X173.227 Y165.151 E0.01
G1 X172.99 Y165.435 E0.013
G1 X172.797 Y165.623 E0.009
G1 X172.544 Y165.819 E0.01
G1 X172.271 Y165.985 E0.011
G1 X171.981 Y166.119 E0.011
G1 X171.672 Y166.22 E0.01
G1 X163.786 Y168.322 E0.272
G1 X163.451 Y168.339 E0.011
G1 X163.12 Y168.326 E0.011
G1 X162.79 Y168.283 E0.011
G1 X162.437 Y168.204 E0.012
G1 X162.129 Y168.105 E0.011
G1 X161.786 Y167.963 E0.012
G1 X160.469 Y167.776 E0.044
G1 X159.173 Y167.625 E0.044
G1 X157.88 Y167.511 E0.043
G1 X156.586 Y167.432 E0.043
G1 X155.197 Y167.39 E0.046
G1 X154.1 Y167.389 E0.037
G1 X152.713 Y167.43 E0.046
G1 X152.068 Y167.465 E0.022
G1 X150.782 Y167.569 E0.042
G1 X149.593 Y167.703 E0.04
G1 X148.855 Y167.803 E0.025
G1 X147.574 Y168.012 E0.043
G1 X146.296 Y168.26 E0.043
G1 X145.02 Y168.549 E0.044
G1 X143.747 Y168.873 E0.044
G1 X142.475 Y169.232 E0.044
G1 X141.167 Y169.639 E0.045
G1 X140.864 Y169.916 E0.014
G1 X140.551 Y170.148 E0.013
G1 X140.267 Y170.321 E0.011
G1 X139.942 Y170.48 E0.012
G1 X139.603 Y170.606 E0.012
G1 X139.254 Y170.701 E0.012
G1 X138.898 Y170.761 E0.012
G1 X138.537 Y170.788 E0.012
G1 X138.149 Y170.777 E0.013
G1 X137.818 Y170.738 E0.011
G1 X137.463 Y170.661 E0.012
G1 X137.12 Y170.552 E0.012
G1 X136.787 Y170.411 E0.012
G1 X136.47 Y170.238 E0.012
G1 X136.141 Y170.017 E0.013
G1 X134.865 Y169.57 E0.045
G1 X133.419 Y169.113 E0.051
G1 X132.342 Y168.801 E0.037
G1 X131.072 Y168.472 E0.044
G1 X129.795 Y168.182 E0.043
G1 X127.968 Y167.843 E0.062
G1 X126.676 Y167.656 E0.043
G1 X125.38 Y167.514 E0.044
G1 X123.982 Y167.41 E0.046
G1 X122.674 Y167.36 E0.044
G1 X121.364 Y167.353 E0.043
G1 X119.388 Y167.418 E0.066
G1 X118.067 Y167.511 E0.044
G1 X116.742 Y167.64 E0.045
G1 X115.38 Y167.809 E0.045
G1 X115.022 Y167.994 E0.014
G1 X114.678 Y168.132 E0.012
G1 X114.323 Y168.235 E0.012
G1 X113.961 Y168.304 E0.012
G1 X113.564 Y168.336 E0.014
G1 X113.223 Y168.332 E0.011
G1 X112.856 Y168.294 E0.012
G1 X112.467 Y168.211 E0.014
G1 X112.141 Y168.11 E0.011
G1 X111.801 Y167.967 E0.012
G1 X111.451 Y167.775 E0.013
G1 X111.169 Y167.584 E0.012
G1 X110.853 Y167.325 E0.013
G1 X109.584 Y166.733 E0.047
G1 X108.326 Y166.186 E0.046
G1 X106.423 Y165.44 E0.068
G1 X105.141 Y164.991 E0.045
G1 X103.852 Y164.587 E0.045
G1 X103.203 Y164.401 E0.022
G1 X101.898 Y164.064 E0.045
G1 X100.584 Y163.774 E0.045
G1 X99.26 Y163.531 E0.044
G1 X97.926 Y163.334 E0.045
G1 X97.255 Y163.252 E0.023
G1 X96.011 Y163.132 E0.041
G1 X94.555 Y163.038 E0.049
G1 X93.297 Y162.995 E0.042
G1 X92.511 Y162.986 E0.026
G1 X91.14 Y163 E0.046
G1 X89.74 Y163.052 E0.046
G1 X89.359 Y163.167 E0.013
G1 X89.002 Y163.238 E0.012
G1 X88.638 Y163.274 E0.013
G1 X88.273 Y163.275 E0.012
G1 X87.911 Y163.242 E0.012
G1 X87.553 Y163.174 E0.012
G1 X87.203 Y163.072 E0.012
G1 X86.865 Y162.937 E0.012
G1 X86.522 Y162.76 E0.013
G1 X78.058 Y159.559 E0.301
G1 X77.772 Y159.433 E0.01
G1 X77.506 Y159.278 E0.011
G1 X77.259 Y159.095 E0.01
G1 X77.033 Y158.886 E0.01
G1 X76.831 Y158.653 E0.01
G1 X76.657 Y158.4 E0.011
G1 X76.51 Y158.129 E0.01
G1 X76.395 Y157.845 E0.01
G1 X76.312 Y157.549 E0.01
G1 X76.261 Y157.245 E0.011
G1 X76.244 Y156.933 E0.01
G1 Y42.017 E3.822
G1 X76.262 Y41.697 E0.011
G1 X76.314 Y41.387 E0.01
G1 X76.401 Y41.088 E0.011
G1 X76.545 Y40.753 E0.012
G1 X76.674 Y40.522 E0.008
G1 X76.855 Y40.265 E0.011
G1 X77.064 Y40.031 E0.01
G1 X77.298 Y39.822 E0.011
G1 X77.554 Y39.641 E0.01
G1 X77.828 Y39.489 E0.011
G1 X78.166 Y39.354 E0.012
G1 X78.42 Y39.281 E0.009
G1 X78.73 Y39.229 E0.01
G1 X79.05 Y39.211 E0.011
G1 X158.622 E2.646
;rapid-leaky
G0 X158.607 Y39.571 F7200
;bead-perimeter_inner
G1 X158.78 Y39.599 F960 E0.006
G1 X158.913 Y39.676 E0.005
G1 X159.007 Y39.787 E0.005
G1 X159.048 Y39.88 E0.003
G1 X159.071 Y40.035 E0.006
G1 Y82.06 E1.397
G1 X162.813 Y103.279 E0.717
G1 X167.737 Y102.411 E0.166
G1 X169.279 Y111.156 E0.296
G1 X168.88 Y111.226 E0.013
G1 Y117.274 E0.201
G1 X168.865 Y117.562 E0.01
G1 X168.818 Y117.832 E0.009
G1 X168.743 Y118.095 E0.009
G1 X168.638 Y118.348 E0.009
G1 X168.506 Y118.587 E0.009
G1 X168.347 Y118.811 E0.009
G1 X168.165 Y119.014 E0.009
G1 X167.962 Y119.196 E0.01
G1 X167.739 Y119.354 E0.009
G1 X167.499 Y119.487 E0.009
G1 X167.246 Y119.592 E0.009
G1 X166.983 Y119.667 E0.009
G1 X166.714 Y119.713 E0.009
G1 X166.424 Y119.729 E0.01
G1 X156.88 E0.317
G1 Y143.849 E0.802
G1 X167.903 E0.367
G1 X168.181 Y143.865 E0.009
G1 X168.439 Y143.906 E0.009
G1 X168.691 Y143.976 E0.009
G1 X168.935 Y144.072 E0.008
G1 X169.167 Y144.194 E0.009
G1 X169.384 Y144.339 E0.009
G1 X169.585 Y144.508 E0.008
G1 X169.766 Y144.696 E0.009
G1 X169.927 Y144.904 E0.009
G1 X170.064 Y145.127 E0.009
G1 X170.176 Y145.364 E0.008
G1 X170.262 Y145.611 E0.009
G1 X170.325 Y145.88 E0.009
G1 X173.357 Y163.074 E0.581
G1 X173.391 Y163.367 E0.01
G1 X173.392 Y163.641 E0.009
G1 X173.351 Y163.967 E0.011
G1 X173.299 Y164.192 E0.007
G1 X173.206 Y164.456 E0.01
G1 X173.083 Y164.706 E0.009
G1 X172.936 Y164.938 E0.009
G1 X172.725 Y165.19 E0.011
G1 X172.561 Y165.351 E0.008
G1 X172.34 Y165.522 E0.009
G1 X172.102 Y165.667 E0.009
G1 X171.849 Y165.783 E0.01
G1 X171.569 Y165.875 E0.009
G1 X163.73 Y167.965 E0.27
G1 X163.449 Y167.978 E0.01
G1 X163.15 Y167.966 E0.009
G1 X162.852 Y167.928 E0.01
G1 X162.532 Y167.856 E0.011
G1 X162.253 Y167.767 E0.01
G1 X161.882 Y167.613 E0.013
G1 X160.515 Y167.419 E0.046
G1 X159.21 Y167.267 E0.044
G1 X157.907 Y167.152 E0.044
G1 X156.602 Y167.073 E0.043
G1 X155.203 Y167.03 E0.047
G1 X154.096 Y167.029 E0.036
G1 X152.696 Y167.071 E0.047
G1 X152.043 Y167.106 E0.022
G1 X150.747 Y167.211 E0.043
G1 X149.549 Y167.345 E0.04
G1 X148.802 Y167.447 E0.025
G1 X147.511 Y167.658 E0.044
G1 X146.222 Y167.908 E0.043
G1 X144.936 Y168.198 E0.044
G1 X143.654 Y168.525 E0.044
G1 X142.373 Y168.887 E0.045
G1 X140.983 Y169.319 E0.048
G1 X140.635 Y169.638 E0.016
G1 X140.35 Y169.849 E0.011
G1 X140.094 Y170.005 E0.01
G1 X139.8 Y170.149 E0.011
G1 X139.492 Y170.263 E0.011
G1 X139.177 Y170.349 E0.011
G1 X138.855 Y170.403 E0.011
G1 X138.529 Y170.427 E0.011
G1 X138.175 Y170.418 E0.012
G1 X137.877 Y170.382 E0.01
G1 X137.556 Y170.313 E0.011
G1 X137.245 Y170.214 E0.01
G1 X136.944 Y170.086 E0.011
G1 X136.657 Y169.93 E0.011
G1 X136.304 Y169.692 E0.014
G1 X134.979 Y169.229 E0.047
G1 X133.523 Y168.768 E0.051
G1 X132.437 Y168.454 E0.037
G1 X131.158 Y168.122 E0.044
G1 X129.869 Y167.83 E0.044
G1 X128.026 Y167.487 E0.063
G1 X126.721 Y167.298 E0.043
G1 X125.413 Y167.155 E0.044
G1 X124.002 Y167.051 E0.047
G1 X122.682 Y167 E0.044
G1 X121.36 Y166.993 E0.044
G1 X119.368 Y167.059 E0.066
G1 X118.037 Y167.152 E0.045
G1 X116.702 Y167.282 E0.044
G1 X115.272 Y167.46 E0.048
G1 X114.872 Y167.666 E0.015
G1 X114.56 Y167.791 E0.012
G1 X114.239 Y167.885 E0.011
G1 X113.913 Y167.946 E0.011
G1 X113.551 Y167.976 E0.012
G1 X113.244 Y167.972 E0.01
G1 X112.912 Y167.938 E0.011
G1 X112.558 Y167.863 E0.012
G1 X112.264 Y167.771 E0.01
G1 X111.958 Y167.642 E0.011
G1 X111.639 Y167.467 E0.013
G1 X111.384 Y167.296 E0.01
G1 X111.047 Y167.018 E0.014
G1 X109.732 Y166.404 E0.049
G1 X108.465 Y165.854 E0.045
G1 X106.547 Y165.102 E0.069
G1 X105.254 Y164.649 E0.046
G1 X103.954 Y164.242 E0.045
G1 X103.297 Y164.054 E0.023
G1 X101.984 Y163.714 E0.045
G1 X100.655 Y163.421 E0.045
G1 X99.319 Y163.176 E0.045
G1 X97.972 Y162.977 E0.045
G1 X97.294 Y162.894 E0.023
G1 X96.041 Y162.773 E0.042
G1 X94.571 Y162.679 E0.049
G1 X93.305 Y162.635 E0.042
G1 X92.511 Y162.626 E0.027
G1 X91.132 Y162.64 E0.045
G1 X89.681 Y162.694 E0.049
G1 X89.271 Y162.817 E0.014
G1 X88.948 Y162.881 E0.011
G1 X88.62 Y162.914 E0.011
G1 X88.289 Y162.915 E0.011
G1 X87.961 Y162.885 E0.011
G1 X87.637 Y162.824 E0.011
G1 X87.321 Y162.731 E0.011
G1 X87.015 Y162.609 E0.011
G1 X86.669 Y162.431 E0.013
G1 X78.194 Y159.226 E0.301
G1 X77.936 Y159.111 E0.009
G1 X77.704 Y158.977 E0.009
G1 X77.489 Y158.817 E0.009
G1 X77.292 Y158.635 E0.009
G1 X77.116 Y158.432 E0.009
G1 X76.964 Y158.212 E0.009
G1 X76.836 Y157.976 E0.009
G1 X76.736 Y157.729 E0.009
G1 X76.663 Y157.47 E0.009
G1 X76.619 Y157.206 E0.009
G1 X76.604 Y156.923 E0.009
G1 Y42.027 E3.822
G1 X76.62 Y41.738 E0.009
G1 X76.666 Y41.467 E0.009
G1 X76.74 Y41.209 E0.009
G1 X76.868 Y40.913 E0.011
G1 X76.979 Y40.713 E0.008
G1 X77.137 Y40.489 E0.009
G1 X77.319 Y40.286 E0.009
G1 X77.522 Y40.104 E0.009
G1 X77.746 Y39.946 E0.009
G1 X77.982 Y39.815 E0.009
G1 X78.282 Y39.696 E0.011
G1 X78.5 Y39.633 E0.007
G1 X78.771 Y39.587 E0.009
G1 X79.06 Y39.571 E0.01
G1 X158.607 E2.646
G1 F2100 E-0.5
;rapid-dry
G0 X147.377 Y49.32 F7200
G1 F2100 E0.5
;bead-perimeter_outer
G1 X147.44 Y49.625 F720 E0.01
G1 X147.544 Y49.917 E0.01
G1 X147.687 Y50.193 E0.011
G1 X147.867 Y50.447 E0.01
G1 X148.078 Y50.673 E0.01
G1 X148.319 Y50.87 E0.011
G1 X148.585 Y51.031 E0.01
G1 X148.89 Y51.161 E0.011
G1 X149.168 Y51.238 E0.01
G1 X149.476 Y51.281 E0.01
G1 X149.787 E0.01
G1 X150.095 Y51.238 E0.011
G1 X150.393 Y51.155 E0.01
G1 X150.678 Y51.031 E0.01
G1 X150.944 Y50.87 E0.011
G1 X151.186 Y50.673 E0.01
G1 X151.409 Y50.429 E0.011
G1 X151.575 Y50.193 E0.01
G1 X151.719 Y49.917 E0.01
G1 X151.822 Y49.625 E0.01
G1 X151.886 Y49.32 E0.011
G1 X151.906 Y49.011 E0.01
G1 X151.886 Y48.701 E0.01
G1 X151.822 Y48.397 E0.011
G1 X151.719 Y48.104 E0.01
G1 X151.575 Y47.829 E0.01
G1 X151.397 Y47.575 E0.011
G1 X151.185 Y47.347 E0.01
G1 X150.944 Y47.152 E0.01
G1 X150.678 Y46.99 E0.011
G1 X150.393 Y46.867 E0.01
G1 X150.095 Y46.783 E0.01
G1 X149.786 Y46.741 E0.011
G1 X149.477 E0.01
G1 X149.168 Y46.783 E0.01
G1 X148.869 Y46.867 E0.011
G1 X148.585 Y46.99 E0.01
G1 X148.319 Y47.152 E0.01
G1 X148.078 Y47.347 E0.011
G1 X147.866 Y47.575 E0.01
G1 X147.687 Y47.829 E0.01
G1 X147.544 Y48.104 E0.01
G1 X147.44 Y48.398 E0.011
G1 X147.376 Y48.723 E0.011
G1 X147.357 Y49.033 E0.01
G1 X147.377 Y49.32 E0.01
;rapid-leaky
G0 X147.02 Y49.37 F7200
;bead-perimeter_inner
G1 X147.092 Y49.722 F960 E0.012
G1 X147.213 Y50.061 E0.012
G1 X147.378 Y50.381 E0.012
G1 X147.587 Y50.675 E0.012
G1 X147.832 Y50.937 E0.012
G1 X148.111 Y51.165 E0.012
G1 X148.42 Y51.352 E0.012
G1 X148.771 Y51.502 E0.012
G1 X149.095 Y51.592 E0.012
G1 X149.451 Y51.641 E0.011
G1 X149.812 E0.012
G1 X150.168 Y51.591 E0.012
G1 X150.514 Y51.495 E0.012
G1 X150.844 Y51.351 E0.012
G1 X151.152 Y51.165 E0.012
G1 X151.433 Y50.935 E0.012
G1 X151.69 Y50.655 E0.013
G1 X151.883 Y50.381 E0.011
G1 X152.05 Y50.061 E0.012
G1 X152.17 Y49.722 E0.012
G1 X152.243 Y49.369 E0.012
G1 X152.267 Y49.011 E0.012
G1 X152.243 Y48.651 E0.012
G1 X152.17 Y48.3 E0.012
G1 X152.05 Y47.96 E0.012
G1 X151.883 Y47.641 E0.012
G1 X151.677 Y47.347 E0.012
G1 X151.431 Y47.083 E0.012
G1 X151.152 Y46.857 E0.012
G1 X150.844 Y46.669 E0.012
G1 X150.514 Y46.527 E0.012
G1 X150.168 Y46.429 E0.012
G1 X149.811 Y46.381 E0.012
G1 X149.452 E0.012
G1 X149.095 Y46.429 E0.012
G1 X148.748 Y46.527 E0.012
G1 X148.419 Y46.67 E0.012
G1 X148.111 Y46.857 E0.012
G1 X147.832 Y47.083 E0.011
G1 X147.587 Y47.347 E0.012
G1 X147.378 Y47.641 E0.012
G1 X147.213 Y47.96 E0.012
G1 X147.091 Y48.303 E0.012
G1 X147.018 Y48.677 E0.013
G1 X146.996 Y49.035 E0.012
G1 X147.02 Y49.37 E0.011
G1 F2100 E-0.5
;rapid-dry
G0 X137.167 Y50.284 F7200
G1 F2100 E0.5
;bead-perimeter_outer
G1 X137.382 Y50.467 F720 E0.01
G1 X137.623 Y50.615 E0.009
G1 X137.884 Y50.723 E0.009
G1 X138.158 Y50.789 E0.01
G1 X138.44 Y50.812 E0.009
G1 X138.723 Y50.789 E0.01
G1 X138.997 Y50.723 E0.009
G1 X139.258 Y50.615 E0.009
G1 X139.499 Y50.467 E0.01
G1 X139.714 Y50.284 E0.009
G1 X139.897 Y50.069 E0.01
G1 X140.045 Y49.828 E0.009
G1 X140.153 Y49.567 E0.009
G1 X140.219 Y49.292 E0.01
G1 X140.241 Y49.011 E0.009
G1 X140.219 Y48.729 E0.01
G1 X140.153 Y48.454 E0.009
G1 X140.045 Y48.193 E0.009
G1 X139.897 Y47.952 E0.01
G1 X139.714 Y47.737 E0.009
G1 X139.499 Y47.554 E0.01
G1 X139.258 Y47.406 E0.009
G1 X138.997 Y47.298 E0.009
G1 X138.722 Y47.232 E0.01
G1 X138.44 Y47.21 E0.009
G1 X138.159 Y47.232 E0.01
G1 X137.884 Y47.298 E0.009
G1 X137.623 Y47.406 E0.009
G1 X137.382 Y47.554 E0.01
G1 X137.167 Y47.737 E0.009
G1 X136.984 Y47.952 E0.01
G1 X136.836 Y48.193 E0.009
G1 X136.728 Y48.454 E0.009
G1 X136.662 Y48.728 E0.01
G1 X136.639 Y49.011 E0.009
G1 X136.662 Y49.293 E0.01
G1 X136.728 Y49.567 E0.009
G1 X136.836 Y49.828 E0.009
G1 X136.984 Y50.069 E0.01
G1 X137.167 Y50.284 E0.009
;rapid-leaky
G0 X136.912 Y50.539 F7200
;bead-perimeter_inner
G1 X137.17 Y50.76 F960 E0.011
G1 X137.459 Y50.937 E0.012
G1 X137.772 Y51.066 E0.011
G1 X138.101 Y51.146 E0.011
G1 X138.44 Y51.173 E0.012
G1 X138.78 Y51.146 E0.011
G1 X139.109 Y51.066 E0.011
G1 X139.422 Y50.937 E0.011
G1 X139.711 Y50.76 E0.012
G1 X139.969 Y50.539 E0.011
G1 X140.19 Y50.281 E0.011
G1 X140.367 Y49.992 E0.012
G1 X140.496 Y49.679 E0.011
G1 X140.576 Y49.349 E0.011
G1 X140.602 Y49.011 E0.011
G1 X140.576 Y48.672 E0.012
G1 X140.496 Y48.342 E0.011
G1 X140.367 Y48.029 E0.011
G1 X140.19 Y47.74 E0.012
G1 X139.969 Y47.482 E0.011
G1 X139.711 Y47.261 E0.011
G1 X139.422 Y47.084 E0.011
G1 X139.109 Y46.955 E0.012
G1 X138.779 Y46.875 E0.011
G1 X138.44 Y46.849 E0.011
G1 X138.102 Y46.875 E0.012
G1 X137.772 Y46.955 E0.011
G1 X137.459 Y47.084 E0.011
G1 X137.17 Y47.261 E0.011
G1 X136.912 Y47.482 E0.012
G1 X136.691 Y47.74 E0.011
G1 X136.514 Y48.029 E0.011
G1 X136.385 Y48.342 E0.011
G1 X136.305 Y48.671 E0.012
G1 X136.278 Y49.011 E0.011
G1 X136.305 Y49.35 E0.011
G1 X136.385 Y49.679 E0.012
G1 X136.514 Y49.992 E0.011
G1 X136.691 Y50.281 E0.011
G1 X136.912 Y50.539 E0.012
G1 F2100 E-0.5
;rapid-dry
G0 X127.319 Y49.3 F7200
G1 F2100 E0.5
;bead-perimeter_outer
G1 X127.341 Y49.011 F720 E0.009
G1 X127.319 Y48.72 E0.01
G1 X127.252 Y48.437 E0.01
G1 X127.143 Y48.166 E0.009
G1 X126.982 Y47.902 E0.011
G1 X126.809 Y47.693 E0.009
G1 X126.593 Y47.5 E0.009
G1 X126.349 Y47.341 E0.01
G1 X126.083 Y47.222 E0.01
G1 X125.802 Y47.145 E0.009
G1 X125.514 Y47.112 E0.01
G1 X125.223 Y47.123 E0.01
G1 X124.937 Y47.178 E0.009
G1 X124.663 Y47.276 E0.01
G1 X124.407 Y47.416 E0.01
G1 X124.176 Y47.592 E0.009
G1 X123.974 Y47.801 E0.01
G1 X123.807 Y48.04 E0.01
G1 X123.678 Y48.3 E0.009
G1 X123.59 Y48.577 E0.01
G1 X123.545 Y48.866 E0.01
G1 Y49.156 E0.009
G1 X123.59 Y49.444 E0.01
G1 X123.678 Y49.722 E0.01
G1 X123.818 Y49.998 E0.01
G1 X123.974 Y50.22 E0.009
G1 X124.175 Y50.43 E0.01
G1 X124.408 Y50.607 E0.009
G1 X124.682 Y50.752 E0.011
G1 X124.937 Y50.843 E0.009
G1 X125.223 Y50.899 E0.01
G1 X125.515 Y50.909 E0.009
G1 X125.822 Y50.872 E0.011
G1 X126.083 Y50.8 E0.009
G1 X126.349 Y50.68 E0.009
G1 X126.593 Y50.523 E0.01
G1 X126.81 Y50.329 E0.01
G1 X126.995 Y50.104 E0.009
G1 X127.144 Y49.854 E0.01
G1 X127.252 Y49.585 E0.01
G1 X127.319 Y49.3 E0.009
;rapid-leaky
G0 X127.676 Y49.355 F7200
;bead-perimeter_inner
G1 X127.701 Y49.011 F960 E0.012
G1 X127.676 Y48.665 E0.011
G1 X127.596 Y48.328 E0.012
G1 X127.466 Y48.004 E0.011
G1 X127.276 Y47.692 E0.013
G1 X127.069 Y47.442 E0.01
G1 X126.812 Y47.213 E0.012
G1 X126.521 Y47.024 E0.011
G1 X126.204 Y46.882 E0.012
G1 X125.871 Y46.791 E0.011
G1 X125.528 Y46.751 E0.012
G1 X125.182 Y46.764 E0.011
G1 X124.842 Y46.829 E0.012
G1 X124.515 Y46.947 E0.012
G1 X124.21 Y47.113 E0.011
G1 X123.935 Y47.323 E0.012
G1 X123.696 Y47.572 E0.011
G1 X123.496 Y47.855 E0.012
G1 X123.343 Y48.165 E0.011
G1 X123.238 Y48.494 E0.012
G1 X123.185 Y48.838 E0.011
G1 Y49.184 E0.012
G1 X123.238 Y49.527 E0.011
G1 X123.344 Y49.859 E0.012
G1 X123.509 Y50.184 E0.012
G1 X123.696 Y50.449 E0.011
G1 X123.935 Y50.699 E0.011
G1 X124.213 Y50.911 E0.012
G1 X124.537 Y51.083 E0.012
G1 X124.841 Y51.192 E0.011
G1 X125.182 Y51.258 E0.011
G1 X125.531 Y51.27 E0.012
G1 X125.892 Y51.226 E0.012
G1 X126.205 Y51.139 E0.011
G1 X126.521 Y50.997 E0.011
G1 X126.811 Y50.81 E0.012
G1 X127.07 Y50.58 E0.011
G1 X127.29 Y50.312 E0.012
G1 X127.467 Y50.014 E0.011
G1 X127.596 Y49.694 E0.012
G1 X127.676 Y49.355 E0.011
G1 F2100 E-0.5
;rapid-dry
G0 X119.341 Y49.011 F7200
G1 F2100 E0.5
;bead-perimeter_outer
G1 X119.319 Y48.72 F720 E0.01
G1 X119.252 Y48.437 E0.01
G1 X119.143 Y48.166 E0.01
G1 X118.982 Y47.902 E0.01
G1 X118.809 Y47.693 E0.009
G1 X118.593 Y47.5 E0.01
G1 X118.349 Y47.341 E0.009
G1 X118.083 Y47.222 E0.01
G1 X117.802 Y47.145 E0.01
G1 X117.514 Y47.112 E0.009
G1 X117.223 Y47.123 E0.01
G1 X116.937 Y47.178 E0.01
G1 X116.663 Y47.276 E0.009
G1 X116.407 Y47.416 E0.01
G1 X116.176 Y47.592 E0.01
G1 X115.974 Y47.801 E0.009
G1 X115.807 Y48.04 E0.01
G1 X115.678 Y48.3 E0.01
G1 X115.59 Y48.577 E0.009
G1 X115.545 Y48.866 E0.01
G1 Y49.156 E0.01
G1 X115.59 Y49.444 E0.009
G1 X115.678 Y49.722 E0.01
G1 X115.818 Y49.998 E0.01
G1 X115.974 Y50.22 E0.009
G1 X116.175 Y50.43 E0.01
G1 X116.408 Y50.607 E0.01
G1 X116.682 Y50.752 E0.01
G1 X116.937 Y50.843 E0.009
G1 X117.223 Y50.899 E0.01
G1 X117.515 Y50.909 E0.01
G1 X117.822 Y50.872 E0.01
G1 X118.083 Y50.8 E0.009
G1 X118.349 Y50.68 E0.01
G1 X118.593 Y50.523 E0.009
G1 X118.81 Y50.329 E0.01
G1 X118.995 Y50.104 E0.01
G1 X119.144 Y49.854 E0.009
G1 X119.252 Y49.585 E0.01
G1 X119.319 Y49.3 E0.01
G1 X119.341 Y49.011 E0.009
;rapid-leaky
G0 X119.702 F7200
;bead-perimeter_inner
G1 X119.676 Y48.665 F960 E0.012
G1 X119.596 Y48.328 E0.011
G1 X119.466 Y48.004 E0.012
G1 X119.276 Y47.692 E0.012
G1 X119.069 Y47.442 E0.011
G1 X118.812 Y47.213 E0.011
G1 X118.521 Y47.024 E0.012
G1 X118.204 Y46.882 E0.011
G1 X117.871 Y46.791 E0.012
G1 X117.528 Y46.751 E0.011
G1 X117.182 Y46.764 E0.012
G1 X116.842 Y46.829 E0.011
G1 X116.515 Y46.947 E0.012
G1 X116.21 Y47.113 E0.012
G1 X115.935 Y47.323 E0.011
G1 X115.696 Y47.572 E0.011
G1 X115.496 Y47.855 E0.012
G1 X115.343 Y48.165 E0.012
G1 X115.238 Y48.494 E0.011
G1 X115.185 Y48.838 E0.012
G1 Y49.184 E0.011
G1 X115.238 Y49.527 E0.012
G1 X115.344 Y49.859 E0.011
G1 X115.509 Y50.184 E0.012
G1 X115.696 Y50.449 E0.011
G1 X115.935 Y50.699 E0.012
G1 X116.213 Y50.911 E0.011
G1 X116.537 Y51.083 E0.012
G1 X116.841 Y51.192 E0.011
G1 X117.182 Y51.258 E0.012
G1 X117.531 Y51.27 E0.011
G1 X117.892 Y51.226 E0.012
G1 X118.205 Y51.139 E0.011
G1 X118.521 Y50.997 E0.012
G1 X118.811 Y50.81 E0.011
G1 X119.07 Y50.58 E0.012
G1 X119.29 Y50.312 E0.011
G1 X119.467 Y50.014 E0.012
G1 X119.596 Y49.694 E0.011
G1 X119.676 Y49.355 E0.012
G1 X119.702 Y49.011 E0.011
G1 F2100 E-0.5
;rapid-dry
G0 X107.341 F7200
G1 F2100 E0.5
;bead-perimeter_outer
G1 X107.319 Y48.72 F720 E0.01
G1 X107.252 Y48.437 E0.01
G1 X107.143 Y48.166 E0.01
G1 X106.982 Y47.902 E0.01
G1 X106.809 Y47.693 E0.009
G1 X106.593 Y47.5 E0.009
G1 X106.349 Y47.341 E0.01
G1 X106.083 Y47.222 E0.01
G1 X105.802 Y47.145 E0.01
G1 X105.514 Y47.112 E0.009
G1 X105.223 Y47.123 E0.01
G1 X104.937 Y47.178 E0.01
G1 X104.663 Y47.276 E0.009
G1 X104.407 Y47.416 E0.01
G1 X104.176 Y47.592 E0.01
G1 X103.974 Y47.801 E0.009
G1 X103.807 Y48.04 E0.01
G1 X103.678 Y48.3 E0.01
G1 X103.59 Y48.577 E0.009
G1 X103.545 Y48.866 E0.01
G1 Y49.156 E0.01
G1 X103.59 Y49.444 E0.009
G1 X103.678 Y49.722 E0.01
G1 X103.818 Y49.998 E0.01
G1 X103.974 Y50.22 E0.009
G1 X104.175 Y50.43 E0.01
G1 X104.408 Y50.607 E0.01
G1 X104.682 Y50.752 E0.01
G1 X104.937 Y50.843 E0.009
G1 X105.223 Y50.899 E0.01
G1 X105.515 Y50.909 E0.009
G1 X105.822 Y50.872 E0.011
G1 X106.083 Y50.8 E0.009
G1 X106.349 Y50.68 E0.009
G1 X106.593 Y50.523 E0.01
G1 X106.81 Y50.329 E0.01
G1 X106.995 Y50.104 E0.009
G1 X107.144 Y49.854 E0.01
G1 X107.252 Y49.585 E0.01
G1 X107.319 Y49.3 E0.01
G1 X107.341 Y49.011 E0.009
;rapid-leaky
G0 X107.702 F7200
;bead-perimeter_inner
G1 X107.676 Y48.665 F960 E0.012
G1 X107.596 Y48.328 E0.011
G1 X107.466 Y48.004 E0.012
G1 X107.276 Y47.692 E0.012
G1 X107.069 Y47.442 E0.011
G1 X106.812 Y47.213 E0.011
G1 X106.521 Y47.024 E0.012
G1 X106.204 Y46.882 E0.011
G1 X105.871 Y46.791 E0.012
G1 X105.528 Y46.751 E0.011
G1 X105.182 Y46.764 E0.012
G1 X104.842 Y46.829 E0.011
G1 X104.515 Y46.947 E0.012
G1 X104.21 Y47.113 E0.011
G1 X103.935 Y47.323 E0.012
G1 X103.696 Y47.572 E0.011
G1 X103.496 Y47.855 E0.012
G1 X103.343 Y48.165 E0.011
G1 X103.238 Y48.494 E0.012
G1 X103.185 Y48.838 E0.012
G1 Y49.184 E0.011
G1 X103.238 Y49.527 E0.012
G1 X103.344 Y49.859 E0.011
G1 X103.509 Y50.184 E0.012
G1 X103.696 Y50.449 E0.011
G1 X103.935 Y50.699 E0.012
G1 X104.213 Y50.911 E0.011
G1 X104.537 Y51.083 E0.012
G1 X104.841 Y51.192 E0.011
G1 X105.182 Y51.258 E0.012
G1 X105.531 Y51.27 E0.011
G1 X105.892 Y51.226 E0.012
G1 X106.205 Y51.139 E0.011
G1 X106.521 Y50.997 E0.012
G1 X106.811 Y50.81 E0.011
G1 X107.07 Y50.58 E0.012
G1 X107.29 Y50.312 E0.011
G1 X107.467 Y50.014 E0.012
G1 X107.596 Y49.694 E0.011
G1 X107.676 Y49.355 E0.012
G1 X107.702 Y49.011 E0.011
G1 F2100 E-0.5
;rapid-dry
G0 X98.341 F7200
G1 F2100 E0.5
;bead-perimeter_outer
G1 X98.319 Y48.72 F720 E0.01
G1 X98.252 Y48.437 E0.01
G1 X98.143 Y48.166 E0.009
G1 X97.982 Y47.902 E0.011
G1 X97.809 Y47.693 E0.009
G1 X97.593 Y47.5 E0.009
G1 X97.349 Y47.341 E0.01
G1 X97.083 Y47.222 E0.01
G1 X96.802 Y47.145 E0.009
G1 X96.514 Y47.112 E0.01
G1 X96.223 Y47.123 E0.01
G1 X95.937 Y47.178 E0.009
G1 X95.663 Y47.276 E0.01
G1 X95.407 Y47.416 E0.01
G1 X95.176 Y47.592 E0.01
G1 X94.974 Y47.801 E0.009
G1 X94.807 Y48.04 E0.01
G1 X94.678 Y48.3 E0.01
G1 X94.59 Y48.577 E0.009
G1 X94.545 Y48.866 E0.01
G1 Y49.156 E0.01
G1 X94.59 Y49.444 E0.009
G1 X94.678 Y49.722 E0.01
G1 X94.818 Y49.998 E0.01
G1 X94.974 Y50.22 E0.009
G1 X95.175 Y50.43 E0.01
G1 X95.408 Y50.607 E0.01
G1 X95.682 Y50.752 E0.01
G1 X95.937 Y50.843 E0.009
G1 X96.223 Y50.899 E0.01
G1 X96.515 Y50.909 E0.009
G1 X96.822 Y50.872 E0.011
G1 X97.083 Y50.8 E0.009
G1 X97.349 Y50.68 E0.009
G1 X97.593 Y50.523 E0.01
G1 X97.81 Y50.329 E0.01
G1 X97.995 Y50.104 E0.009
G1 X98.144 Y49.854 E0.01
G1 X98.252 Y49.585 E0.01
G1 X98.319 Y49.3 E0.01
G1 X98.341 Y49.011 E0.009
;rapid-leaky
G0 X98.702 F7200
;bead-perimeter_inner
G1 X98.676 Y48.665 F960 E0.012
G1 X98.596 Y48.328 E0.011
G1 X98.466 Y48.004 E0.012
G1 X98.276 Y47.692 E0.012
G1 X98.069 Y47.442 E0.011
G1 X97.812 Y47.213 E0.011
G1 X97.521 Y47.024 E0.012
G1 X97.204 Y46.882 E0.011
G1 X96.871 Y46.791 E0.012
G1 X96.528 Y46.751 E0.011
G1 X96.182 Y46.764 E0.012
G1 X95.842 Y46.829 E0.011
G1 X95.515 Y46.947 E0.012
G1 X95.21 Y47.113 E0.011
G1 X94.935 Y47.323 E0.012
G1 X94.696 Y47.572 E0.011
G1 X94.496 Y47.855 E0.012
G1 X94.343 Y48.165 E0.011
G1 X94.238 Y48.494 E0.012
G1 X94.185 Y48.838 E0.012
G1 Y49.184 E0.011
G1 X94.238 Y49.527 E0.012
G1 X94.344 Y49.859 E0.011
G1 X94.509 Y50.184 E0.012
G1 X94.696 Y50.449 E0.011
G1 X94.935 Y50.699 E0.012
G1 X95.213 Y50.911 E0.011
G1 X95.537 Y51.083 E0.012
G1 X95.841 Y51.192 E0.011
G1 X96.182 Y51.258 E0.012
G1 X96.531 Y51.27 E0.011
G1 X96.892 Y51.226 E0.012
G1 X97.205 Y51.139 E0.011
G1 X97.521 Y50.997 E0.012
G1 X97.811 Y50.81 E0.011
G1 X98.07 Y50.58 E0.012
G1 X98.29 Y50.312 E0.011
G1 X98.467 Y50.014 E0.012
G1 X98.596 Y49.694 E0.011
G1 X98.676 Y49.355 E0.012
G1 X98.702 Y49.011 E0.011
G1 F2100 E-0.5
;rapid-dry
G0 X88.318 Y48.989 F7200
G1 F2100 E0.5
;bead-perimeter_outer
G1 X88.298 Y48.701 F720 E0.01
G1 X88.235 Y48.397 E0.01
G1 X88.131 Y48.104 E0.011
G1 X87.988 Y47.829 E0.01
G1 X87.809 Y47.575 E0.01
G1 X87.597 Y47.347 E0.011
G1 X87.356 Y47.152 E0.01
G1 X87.09 Y46.99 E0.01
G1 X86.806 Y46.867 E0.011
G1 X86.507 Y46.783 E0.01
G1 X86.198 Y46.741 E0.01
G1 X85.888 E0.011
G1 X85.581 Y46.783 E0.01
G1 X85.282 Y46.867 E0.01
G1 X84.997 Y46.99 E0.011
G1 X84.731 Y47.152 E0.01
G1 X84.49 Y47.348 E0.01
G1 X84.266 Y47.592 E0.011
G1 X84.1 Y47.829 E0.01
G1 X83.957 Y48.104 E0.01
G1 X83.853 Y48.398 E0.011
G1 X83.788 Y48.723 E0.011
G1 X83.769 Y49.011 E0.009
G1 X83.789 Y49.32 E0.01
G1 X83.853 Y49.625 E0.011
G1 X83.957 Y49.917 E0.01
G1 X84.1 Y50.193 E0.01
G1 X84.278 Y50.446 E0.011
G1 X84.49 Y50.673 E0.01
G1 X84.731 Y50.87 E0.01
G1 X84.997 Y51.031 E0.011
G1 X85.303 Y51.161 E0.011
G1 X85.581 Y51.238 E0.009
G1 X85.888 Y51.281 E0.011
G1 X86.199 E0.01
G1 X86.507 Y51.238 E0.01
G1 X86.806 Y51.155 E0.011
G1 X87.09 Y51.031 E0.01
G1 X87.356 Y50.87 E0.01
G1 X87.597 Y50.673 E0.011
G1 X87.809 Y50.446 E0.01
G1 X87.999 Y50.173 E0.011
G1 X88.131 Y49.917 E0.01
G1 X88.235 Y49.625 E0.01
G1 X88.298 Y49.319 E0.01
G1 X88.318 Y48.989 E0.011
;rapid-leaky
G0 X88.679 Y48.987 F7200
;bead-perimeter_inner
G1 X88.655 Y48.651 F960 E0.012
G1 X88.583 Y48.3 E0.012
G1 X88.462 Y47.96 E0.012
G1 X88.297 Y47.641 E0.012
G1 X88.088 Y47.347 E0.012
G1 X87.843 Y47.083 E0.011
G1 X87.564 Y46.857 E0.012
G1 X87.257 Y46.67 E0.012
G1 X86.927 Y46.527 E0.012
G1 X86.58 Y46.429 E0.012
G1 X86.223 Y46.381 E0.012
G1 X85.864 E0.012
G1 X85.508 Y46.429 E0.012
G1 X85.161 Y46.527 E0.012
G1 X84.831 Y46.669 E0.012
G1 X84.523 Y46.857 E0.012
G1 X84.242 Y47.085 E0.012
G1 X83.984 Y47.367 E0.013
G1 X83.791 Y47.642 E0.011
G1 X83.626 Y47.96 E0.012
G1 X83.505 Y48.302 E0.012
G1 X83.431 Y48.675 E0.013
G1 X83.408 Y49.011 E0.011
G1 X83.432 Y49.369 E0.012
G1 X83.506 Y49.723 E0.012
G1 X83.626 Y50.061 E0.012
G1 X83.791 Y50.38 E0.012
G1 X83.998 Y50.674 E0.012
G1 X84.244 Y50.937 E0.012
G1 X84.523 Y51.165 E0.012
G1 X84.833 Y51.353 E0.012
G1 X85.184 Y51.502 E0.012
G1 X85.508 Y51.592 E0.012
G1 X85.863 Y51.641 E0.011
G1 X86.224 E0.012
G1 X86.58 Y51.592 E0.012
G1 X86.927 Y51.495 E0.012
G1 X87.257 Y51.351 E0.012
G1 X87.564 Y51.165 E0.012
G1 X87.843 Y50.937 E0.012
G1 X88.09 Y50.673 E0.012
G1 X88.308 Y50.359 E0.013
G1 X88.462 Y50.06 E0.011
G1 X88.583 Y49.722 E0.012
G1 X88.655 Y49.367 E0.012
G1 X88.679 Y48.987 E0.013
G1 F2100 E-0.5
;rapid-dry
G0 X110.254 Y85.442 F7200
G1 F2100 E0.5
;bead-perimeter_outer
G1 X110.017 Y85.296 F720 E0.009
G1 X109.759 Y85.189 E0.009
G1 X109.488 Y85.124 E0.01
G1 X109.211 Y85.102 E0.009
G1 X108.933 Y85.124 E0.009
G1 X108.662 Y85.189 E0.01
G1 X108.405 Y85.296 E0.009
G1 X108.167 Y85.442 E0.009
G1 X107.955 Y85.622 E0.009
G1 X107.774 Y85.834 E0.01
G1 X107.628 Y86.072 E0.009
G1 X107.522 Y86.329 E0.009
G1 X107.457 Y86.6 E0.009
G1 X107.435 Y86.878 E0.01
G1 X107.457 Y87.155 E0.009
G1 X107.522 Y87.427 E0.009
G1 X107.628 Y87.684 E0.009
G1 X107.774 Y87.923 E0.01
G1 X107.97 Y88.147 E0.01
G1 X108.167 Y88.314 E0.008
G1 X108.405 Y88.46 E0.01
G1 X108.662 Y88.567 E0.009
G1 X108.933 Y88.631 E0.009
G1 X109.211 Y88.654 E0.009
G1 X109.488 Y88.631 E0.01
G1 X109.759 Y88.567 E0.009
G1 X110.017 Y88.46 E0.009
G1 X110.254 Y88.314 E0.009
G1 X110.466 Y88.134 E0.01
G1 X110.647 Y87.922 E0.009
G1 X110.793 Y87.684 E0.009
G1 X110.899 Y87.427 E0.009
G1 X110.964 Y87.156 E0.01
G1 X110.987 Y86.878 E0.009
G1 X110.964 Y86.599 E0.009
G1 X110.899 Y86.329 E0.01
G1 X110.793 Y86.072 E0.009
G1 X110.647 Y85.833 E0.009
G1 X110.451 Y85.609 E0.01
G1 X110.254 Y85.442 E0.009
;rapid-leaky
G0 X110.466 Y85.149 F7200
;bead-perimeter_inner
G1 X110.181 Y84.975 F960 E0.011
G1 X109.871 Y84.846 E0.011
G1 X109.545 Y84.767 E0.011
G1 X109.211 Y84.741 E0.011
G1 X108.876 Y84.767 E0.011
G1 X108.549 Y84.846 E0.011
G1 X108.241 Y84.975 E0.012
G1 X107.955 Y85.149 E0.011
G1 X107.7 Y85.366 E0.011
G1 X107.482 Y85.622 E0.011
G1 X107.306 Y85.909 E0.011
G1 X107.179 Y86.217 E0.011
G1 X107.1 Y86.543 E0.012
G1 X107.074 Y86.878 E0.011
G1 X107.1 Y87.212 E0.011
G1 X107.179 Y87.538 E0.011
G1 X107.306 Y87.847 E0.011
G1 X107.483 Y88.137 E0.011
G1 X107.717 Y88.404 E0.012
G1 X107.956 Y88.607 E0.011
G1 X108.241 Y88.781 E0.011
G1 X108.55 Y88.91 E0.011
G1 X108.876 Y88.988 E0.011
G1 X109.211 Y89.015 E0.011
G1 X109.545 Y88.988 E0.011
G1 X109.87 Y88.91 E0.011
G1 X110.181 Y88.781 E0.012
G1 X110.466 Y88.606 E0.011
G1 X110.721 Y88.39 E0.011
G1 X110.939 Y88.134 E0.011
G1 X111.115 Y87.847 E0.011
G1 X111.242 Y87.538 E0.011
G1 X111.321 Y87.213 E0.012
G1 X111.348 Y86.878 E0.011
G1 X111.321 Y86.542 E0.011
G1 X111.242 Y86.217 E0.011
G1 X111.115 Y85.909 E0.011
G1 X110.938 Y85.619 E0.011
G1 X110.704 Y85.352 E0.012
G1 X110.466 Y85.149 E0.011
G1 F2100 E-0.5
;rapid-dry
G0 X106.349 Y109.06 F7200
G1 F2100 E0.5
;bead-perimeter_outer
G1 X106.083 Y108.94 F720 E0.009
G1 X105.802 Y108.863 E0.01
G1 X105.514 Y108.831 E0.01
G1 X105.223 Y108.841 E0.009
G1 X104.937 Y108.897 E0.01
G1 X104.663 Y108.995 E0.01
G1 X104.407 Y109.134 E0.009
G1 X104.175 Y109.31 E0.01
G1 X103.974 Y109.521 E0.01
G1 X103.807 Y109.759 E0.009
G1 X103.678 Y110.019 E0.01
G1 X103.59 Y110.296 E0.01
G1 X103.545 Y110.584 E0.009
G1 Y110.874 E0.01
G1 X103.59 Y111.163 E0.01
G1 X103.678 Y111.441 E0.01
G1 X103.818 Y111.717 E0.01
G1 X103.974 Y111.939 E0.009
G1 X104.176 Y112.148 E0.01
G1 X104.407 Y112.324 E0.009
G1 X104.663 Y112.464 E0.01
G1 X104.937 Y112.561 E0.01
G1 X105.223 Y112.617 E0.009
G1 X105.515 Y112.628 E0.01
G1 X105.822 Y112.59 E0.01
G1 X106.083 Y112.518 E0.009
G1 X106.349 Y112.399 E0.01
G1 X106.593 Y112.24 E0.01
G1 X106.81 Y112.047 E0.009
G1 X106.995 Y111.823 E0.01
G1 X107.144 Y111.573 E0.01
G1 X107.252 Y111.303 E0.009
G1 X107.319 Y111.02 E0.01
G1 X107.341 Y110.729 E0.01
G1 X107.319 Y110.44 E0.009
G1 X107.252 Y110.155 E0.01
G1 X107.143 Y109.885 E0.01
G1 X106.982 Y109.62 E0.01
G1 X106.809 Y109.411 E0.009
G1 X106.593 Y109.217 E0.01
G1 X106.349 Y109.06 E0.009
;rapid-leaky
G0 X106.521 Y108.743 F7200
;bead-perimeter_inner
G1 X106.205 Y108.601 F960 E0.012
G1 X105.87 Y108.508 E0.011
G1 X105.528 Y108.47 E0.012
G1 X105.182 Y108.482 E0.011
G1 X104.841 Y108.549 E0.012
G1 X104.516 Y108.665 E0.012
G1 X104.211 Y108.83 E0.011
G1 X103.935 Y109.041 E0.012
G1 X103.695 Y109.291 E0.011
G1 X103.496 Y109.574 E0.012
G1 X103.343 Y109.884 E0.011
G1 X103.238 Y110.213 E0.012
G1 X103.185 Y110.556 E0.011
G1 Y110.902 E0.012
G1 X103.238 Y111.246 E0.011
G1 X103.344 Y111.578 E0.012
G1 X103.509 Y111.903 E0.012
G1 X103.696 Y112.169 E0.011
G1 X103.935 Y112.417 E0.011
G1 X104.21 Y112.627 E0.012
G1 X104.516 Y112.794 E0.011
G1 X104.842 Y112.91 E0.012
G1 X105.181 Y112.976 E0.011
G1 X105.531 Y112.989 E0.012
G1 X105.893 Y112.944 E0.012
G1 X106.204 Y112.858 E0.011
G1 X106.521 Y112.716 E0.011
G1 X106.812 Y112.527 E0.012
G1 X107.07 Y112.298 E0.011
G1 X107.29 Y112.031 E0.012
G1 X107.467 Y111.733 E0.011
G1 X107.596 Y111.412 E0.012
G1 X107.676 Y111.075 E0.011
G1 X107.702 Y110.729 E0.012
G1 X107.676 Y110.385 E0.011
G1 X107.596 Y110.046 E0.012
G1 X107.466 Y109.724 E0.012
G1 X107.277 Y109.41 E0.012
G1 X107.069 Y109.16 E0.011
G1 X106.811 Y108.93 E0.011
G1 X106.521 Y108.743 E0.012
G1 F2100 E-0.5
;rapid-dry
G0 X97.593 Y109.217 F7200
G1 F2100 E0.5
;bead-perimeter_outer
G1 X97.349 Y109.06 F720 E0.009
G1 X97.083 Y108.94 E0.01
G1 X96.802 Y108.863 E0.01
G1 X96.514 Y108.831 E0.009
G1 X96.223 Y108.841 E0.01
G1 X95.937 Y108.897 E0.01
G1 X95.663 Y108.995 E0.009
G1 X95.407 Y109.134 E0.01
G1 X95.175 Y109.31 E0.01
G1 X94.974 Y109.521 E0.009
G1 X94.807 Y109.759 E0.01
G1 X94.678 Y110.019 E0.01
G1 X94.59 Y110.296 E0.009
G1 X94.545 Y110.584 E0.01
G1 Y110.874 E0.01
G1 X94.59 Y111.163 E0.009
G1 X94.678 Y111.441 E0.01
G1 X94.818 Y111.717 E0.01
G1 X94.974 Y111.939 E0.009
G1 X95.176 Y112.148 E0.01
G1 X95.407 Y112.324 E0.01
G1 X95.663 Y112.464 E0.009
G1 X95.937 Y112.561 E0.01
G1 X96.223 Y112.617 E0.01
G1 X96.515 Y112.628 E0.01
G1 X96.822 Y112.59 E0.01
G1 X97.083 Y112.518 E0.009
G1 X97.349 Y112.399 E0.01
G1 X97.593 Y112.24 E0.009
G1 X97.81 Y112.047 E0.01
G1 X97.995 Y111.823 E0.01
G1 X98.144 Y111.573 E0.009
G1 X98.252 Y111.303 E0.01
G1 X98.319 Y111.02 E0.01
G1 X98.341 Y110.729 E0.009
G1 X98.319 Y110.44 E0.01
G1 X98.252 Y110.155 E0.01
G1 X98.143 Y109.885 E0.009
G1 X97.982 Y109.62 E0.011
G1 X97.809 Y109.411 E0.009
G1 X97.593 Y109.217 E0.009
;rapid-leaky
G0 X97.811 Y108.93 F7200
;bead-perimeter_inner
G1 X97.521 Y108.743 F960 E0.012
G1 X97.205 Y108.601 E0.011
G1 X96.87 Y108.508 E0.012
G1 X96.528 Y108.47 E0.011
G1 X96.182 Y108.482 E0.012
G1 X95.841 Y108.549 E0.011
G1 X95.516 Y108.665 E0.012
G1 X95.211 Y108.83 E0.011
G1 X94.935 Y109.041 E0.012
G1 X94.695 Y109.291 E0.012
G1 X94.496 Y109.574 E0.011
G1 X94.343 Y109.884 E0.012
G1 X94.238 Y110.213 E0.011
G1 X94.185 Y110.556 E0.012
G1 Y110.902 E0.011
G1 X94.238 Y111.246 E0.012
G1 X94.344 Y111.578 E0.011
G1 X94.509 Y111.903 E0.012
G1 X94.696 Y112.169 E0.011
G1 X94.935 Y112.417 E0.012
G1 X95.21 Y112.627 E0.011
G1 X95.516 Y112.794 E0.012
G1 X95.842 Y112.91 E0.011
G1 X96.181 Y112.976 E0.012
G1 X96.531 Y112.989 E0.011
G1 X96.893 Y112.944 E0.013
G1 X97.204 Y112.858 E0.01
G1 X97.521 Y112.716 E0.012
G1 X97.812 Y112.527 E0.011
G1 X98.07 Y112.298 E0.012
G1 X98.29 Y112.031 E0.011
G1 X98.467 Y111.733 E0.012
G1 X98.596 Y111.412 E0.011
G1 X98.676 Y111.075 E0.012
G1 X98.702 Y110.729 E0.011
G1 X98.676 Y110.385 E0.012
G1 X98.596 Y110.046 E0.011
G1 X98.466 Y109.724 E0.012
G1 X98.277 Y109.41 E0.012
G1 X98.069 Y109.16 E0.011
G1 X97.811 Y108.93 E0.012
G1 F2100 E-0.5
;rapid-dry
G0 X94.64 Y115.029 F7200
G1 F2100 E0.5
;bead-perimeter_outer
G1 X82.24 F720 E0.412
G1 Y138.429 E0.778
G1 X94.64 E0.413
G1 Y115.029 E0.778
;rapid-leaky
G0 X95 Y114.669 F7200
;bead-perimeter_inner
G1 X81.88 F960 E0.436
G1 Y138.789 E0.803
G1 X95 E0.436
G1 Y114.669 E0.802
G1 F2100 E-0.5
;rapid-dry
G0 X89.115 Y111.923 F7200
G1 F2100 E0.5
;bead-perimeter_outer
G1 X88.954 Y111.813 F720 E0.007
G1 X88.8 Y111.742 E0.005
G1 X88.623 Y111.694 E0.006
G1 X88.44 Y111.678 E0.007
G1 X88.258 Y111.694 E0.006
G1 X88.081 Y111.742 E0.006
G1 X87.915 Y111.819 E0.006
G1 X87.765 Y111.924 E0.006
G1 X87.635 Y112.055 E0.006
G1 X87.524 Y112.215 E0.006
G1 X87.453 Y112.371 E0.006
G1 X87.405 Y112.547 E0.006
G1 X87.389 Y112.729 E0.006
G1 X87.405 Y112.912 E0.006
G1 X87.453 Y113.089 E0.007
G1 X87.53 Y113.254 E0.006
G1 X87.635 Y113.405 E0.006
G1 X87.766 Y113.535 E0.006
G1 X87.926 Y113.644 E0.006
G1 X88.082 Y113.717 E0.006
G1 X88.258 Y113.764 E0.006
G1 X88.44 Y113.78 E0.006
G1 X88.623 Y113.764 E0.006
G1 X88.8 Y113.717 E0.006
G1 X88.965 Y113.639 E0.006
G1 X89.116 Y113.534 E0.006
G1 X89.246 Y113.405 E0.007
G1 X89.357 Y113.243 E0.006
G1 X89.428 Y113.087 E0.006
G1 X89.477 Y112.899 E0.006
G1 X89.491 Y112.729 E0.006
G1 X89.476 Y112.547 E0.006
G1 X89.428 Y112.37 E0.006
G1 X89.351 Y112.204 E0.006
G1 X89.246 Y112.054 E0.006
G1 X89.115 Y111.923 E0.006
;rapid-leaky
G0 X89.346 Y111.645 F7200
;bead-perimeter_inner
G1 X89.132 Y111.499 F960 E0.009
G1 X88.923 Y111.403 E0.008
G1 X88.687 Y111.339 E0.008
G1 X88.44 Y111.317 E0.008
G1 X88.194 Y111.339 E0.008
G1 X87.958 Y111.403 E0.008
G1 X87.735 Y111.505 E0.009
G1 X87.532 Y111.648 E0.008
G1 X87.357 Y111.823 E0.008
G1 X87.21 Y112.037 E0.009
G1 X87.114 Y112.248 E0.007
G1 X87.05 Y112.483 E0.009
G1 X87.028 Y112.729 E0.008
G1 X87.05 Y112.976 E0.008
G1 X87.114 Y113.213 E0.008
G1 X87.216 Y113.434 E0.008
G1 X87.359 Y113.638 E0.009
G1 X87.536 Y113.813 E0.008
G1 X87.747 Y113.958 E0.008
G1 X87.959 Y114.057 E0.008
G1 X88.196 Y114.12 E0.008
G1 X88.44 Y114.141 E0.008
G1 X88.685 Y114.12 E0.009
G1 X88.924 Y114.056 E0.008
G1 X89.146 Y113.952 E0.008
G1 X89.347 Y113.812 E0.008
G1 X89.524 Y113.636 E0.008
G1 X89.671 Y113.421 E0.009
G1 X89.769 Y113.209 E0.008
G1 X89.833 Y112.959 E0.008
G1 X89.852 Y112.729 E0.008
G1 X89.832 Y112.485 E0.008
G1 X89.767 Y112.247 E0.008
G1 X89.665 Y112.024 E0.009
G1 X89.522 Y111.821 E0.008
G1 X89.346 Y111.645 E0.008
G1 F2100 E-0.5
;rapid-dry
G0 X113.8 Y116.802 F7200
G1 F2100 E0.5
;bead-perimeter_outer
G1 X113.623 Y116.754 F720 E0.006
G1 X113.44 Y116.738 E0.006
G1 X113.258 Y116.754 E0.006
G1 X113.081 Y116.802 E0.007
G1 X112.915 Y116.879 E0.006
G1 X112.765 Y116.984 E0.006
G1 X112.635 Y117.115 E0.006
G1 X112.524 Y117.275 E0.006
G1 X112.453 Y117.431 E0.006
G1 X112.405 Y117.607 E0.006
G1 X112.389 Y117.789 E0.006
G1 X112.405 Y117.972 E0.006
G1 X112.453 Y118.149 E0.006
G1 X112.53 Y118.314 E0.006
G1 X112.635 Y118.465 E0.007
G1 X112.766 Y118.595 E0.006
G1 X112.926 Y118.704 E0.006
G1 X113.082 Y118.777 E0.006
G1 X113.258 Y118.824 E0.006
G1 X113.44 Y118.84 E0.006
G1 X113.623 Y118.824 E0.006
G1 X113.8 Y118.777 E0.006
G1 X113.965 Y118.699 E0.006
G1 X114.116 Y118.594 E0.006
G1 X114.246 Y118.465 E0.007
G1 X114.357 Y118.303 E0.006
G1 X114.428 Y118.147 E0.006
G1 X114.477 Y117.959 E0.006
G1 X114.491 Y117.789 E0.006
G1 X114.476 Y117.607 E0.006
G1 X114.428 Y117.43 E0.006
G1 X114.351 Y117.264 E0.006
G1 X114.246 Y117.114 E0.006
G1 X114.115 Y116.983 E0.006
G1 X113.954 Y116.873 E0.007
G1 X113.8 Y116.802 E0.005
;rapid-leaky
G0 X113.923 Y116.463 F7200
;bead-perimeter_inner
G1 X113.687 Y116.399 F960 E0.009
G1 X113.44 Y116.377 E0.008
G1 X113.194 Y116.399 E0.008
G1 X112.958 Y116.463 E0.008
G1 X112.735 Y116.565 E0.008
G1 X112.532 Y116.708 E0.009
G1 X112.357 Y116.883 E0.008
G1 X112.21 Y117.097 E0.009
G1 X112.114 Y117.308 E0.007
G1 X112.05 Y117.543 E0.008
G1 X112.028 Y117.789 E0.009
G1 X112.05 Y118.036 E0.008
G1 X112.114 Y118.273 E0.008
G1 X112.216 Y118.494 E0.008
G1 X112.359 Y118.698 E0.008
G1 X112.536 Y118.873 E0.009
G1 X112.747 Y119.018 E0.008
G1 X112.959 Y119.117 E0.008
G1 X113.196 Y119.18 E0.008
G1 X113.44 Y119.201 E0.008
G1 X113.685 Y119.18 E0.008
G1 X113.924 Y119.116 E0.009
G1 X114.146 Y119.012 E0.008
G1 X114.347 Y118.872 E0.008
G1 X114.524 Y118.696 E0.008
G1 X114.671 Y118.481 E0.009
G1 X114.769 Y118.269 E0.008
G1 X114.833 Y118.02 E0.008
G1 X114.852 Y117.789 E0.008
G1 X114.832 Y117.545 E0.008
G1 X114.767 Y117.307 E0.008
G1 X114.665 Y117.084 E0.008
G1 X114.522 Y116.881 E0.009
G1 X114.346 Y116.705 E0.008
G1 X114.132 Y116.559 E0.009
G1 X113.923 Y116.463 E0.007
G1 F2100 E-0.5
;rapid-dry
G0 X119.64 Y120.089 F7200
G1 F2100 E0.5
;bead-perimeter_outer
G1 X107.24 F720 E0.413
G1 Y143.489 E0.778
G1 X119.64 E0.412
G1 Y120.089 E0.779
;rapid-leaky
G0 X120 Y119.729 F7200
;bead-perimeter_inner
G1 X106.88 F960 E0.436
G1 Y143.849 E0.802
G1 X120 E0.437
G1 Y119.729 E0.802
G1 F2100 E-0.5
;rapid-dry
G0 X118.083 Y108.94 F7200
G1 F2100 E0.5
;bead-perimeter_outer
G1 X117.802 Y108.863 F720 E0.01
G1 X117.514 Y108.831 E0.009
G1 X117.223 Y108.841 E0.01
G1 X116.937 Y108.897 E0.01
G1 X116.663 Y108.995 E0.009
G1 X116.407 Y109.134 E0.01
G1 X116.175 Y109.31 E0.01
G1 X115.974 Y109.521 E0.009
G1 X115.807 Y109.759 E0.01
G1 X115.678 Y110.019 E0.01
G1 X115.59 Y110.296 E0.009
G1 X115.545 Y110.584 E0.01
G1 Y110.874 E0.01
G1 X115.59 Y111.163 E0.009
G1 X115.678 Y111.441 E0.01
G1 X115.818 Y111.717 E0.01
G1 X115.974 Y111.939 E0.009
G1 X116.176 Y112.148 E0.01
G1 X116.407 Y112.324 E0.01
G1 X116.663 Y112.464 E0.009
G1 X116.937 Y112.561 E0.01
G1 X117.223 Y112.617 E0.01
G1 X117.515 Y112.628 E0.009
G1 X117.822 Y112.59 E0.011
G1 X118.083 Y112.518 E0.009
G1 X118.349 Y112.399 E0.009
G1 X118.593 Y112.24 E0.01
G1 X118.81 Y112.047 E0.01
G1 X118.995 Y111.823 E0.01
G1 X119.144 Y111.573 E0.009
G1 X119.252 Y111.303 E0.01
G1 X119.319 Y111.02 E0.01
G1 X119.341 Y110.729 E0.009
G1 X119.319 Y110.44 E0.01
G1 X119.252 Y110.155 E0.01
G1 X119.143 Y109.885 E0.009
G1 X118.982 Y109.62 E0.011
G1 X118.809 Y109.411 E0.009
G1 X118.593 Y109.217 E0.009
G1 X118.349 Y109.06 E0.01
G1 X118.083 Y108.94 E0.01
;rapid-leaky
G0 X118.205 Y108.601 F7200
;bead-perimeter_inner
G1 X117.87 Y108.508 F960 E0.011
G1 X117.528 Y108.47 E0.012
G1 X117.182 Y108.482 E0.011
G1 X116.841 Y108.549 E0.012
G1 X116.516 Y108.665 E0.011
G1 X116.211 Y108.83 E0.012
G1 X115.935 Y109.041 E0.011
G1 X115.695 Y109.291 E0.012
G1 X115.496 Y109.574 E0.011
G1 X115.343 Y109.884 E0.012
G1 X115.238 Y110.213 E0.011
G1 X115.185 Y110.556 E0.012
G1 Y110.902 E0.011
G1 X115.238 Y111.246 E0.012
G1 X115.344 Y111.578 E0.012
G1 X115.509 Y111.903 E0.012
G1 X115.696 Y112.169 E0.01
G1 X115.935 Y112.417 E0.012
G1 X116.21 Y112.627 E0.011
G1 X116.516 Y112.794 E0.012
G1 X116.842 Y112.91 E0.012
G1 X117.181 Y112.976 E0.011
G1 X117.531 Y112.989 E0.012
G1 X117.893 Y112.944 E0.012
G1 X118.204 Y112.858 E0.011
G1 X118.521 Y112.716 E0.011
G1 X118.812 Y112.527 E0.012
G1 X119.07 Y112.298 E0.011
G1 X119.29 Y112.031 E0.012
G1 X119.467 Y111.733 E0.011
G1 X119.596 Y111.412 E0.012
G1 X119.676 Y111.075 E0.011
G1 X119.702 Y110.729 E0.012
G1 X119.676 Y110.385 E0.011
G1 X119.596 Y110.046 E0.012
G1 X119.466 Y109.724 E0.011
G1 X119.277 Y109.41 E0.012
G1 X119.069 Y109.16 E0.011
G1 X118.811 Y108.93 E0.012
G1 X118.521 Y108.743 E0.011
G1 X118.205 Y108.601 E0.012
G1 F2100 E-0.5
;rapid-dry
G0 X125.802 Y108.863 F7200
G1 F2100 E0.5
;bead-perimeter_outer
G1 X125.514 Y108.831 F720 E0.009
G1 X125.223 Y108.841 E0.01
G1 X124.937 Y108.897 E0.01
G1 X124.663 Y108.995 E0.01
G1 X124.407 Y109.134 E0.009
G1 X124.175 Y109.31 E0.01
G1 X123.974 Y109.521 E0.01
G1 X123.807 Y109.759 E0.009
G1 X123.678 Y110.019 E0.01
G1 X123.59 Y110.296 E0.01
G1 X123.545 Y110.584 E0.009
G1 Y110.874 E0.01
G1 X123.59 Y111.163 E0.01
G1 X123.678 Y111.441 E0.009
G1 X123.818 Y111.717 E0.011
G1 X123.974 Y111.939 E0.009
G1 X124.176 Y112.148 E0.009
G1 X124.407 Y112.324 E0.01
G1 X124.663 Y112.464 E0.01
G1 X124.937 Y112.561 E0.009
G1 X125.223 Y112.617 E0.01
G1 X125.515 Y112.628 E0.01
G1 X125.822 Y112.59 E0.01
G1 X126.083 Y112.518 E0.009
G1 X126.349 Y112.399 E0.01
G1 X126.593 Y112.24 E0.009
G1 X126.81 Y112.047 E0.01
G1 X126.995 Y111.823 E0.01
G1 X127.144 Y111.573 E0.009
G1 X127.252 Y111.303 E0.01
G1 X127.319 Y111.02 E0.01
G1 X127.341 Y110.729 E0.009
G1 X127.319 Y110.44 E0.01
G1 X127.252 Y110.155 E0.01
G1 X127.143 Y109.885 E0.01
G1 X126.982 Y109.62 E0.01
G1 X126.809 Y109.411 E0.009
G1 X126.593 Y109.217 E0.01
G1 X126.349 Y109.06 E0.009
G1 X126.083 Y108.94 E0.01
G1 X125.802 Y108.863 E0.01
;rapid-leaky
G0 X125.87 Y108.508 F7200
;bead-perimeter_inner
G1 X125.528 Y108.47 F960 E0.011
G1 X125.182 Y108.482 E0.012
G1 X124.841 Y108.549 E0.011
G1 X124.516 Y108.665 E0.012
G1 X124.211 Y108.83 E0.011
G1 X123.935 Y109.041 E0.012
G1 X123.695 Y109.291 E0.011
G1 X123.496 Y109.574 E0.012
G1 X123.343 Y109.884 E0.011
G1 X123.238 Y110.213 E0.012
G1 X123.185 Y110.556 E0.011
G1 Y110.902 E0.012
G1 X123.238 Y111.246 E0.011
G1 X123.344 Y111.578 E0.012
G1 X123.509 Y111.903 E0.012
G1 X123.696 Y112.169 E0.011
G1 X123.935 Y112.417 E0.011
G1 X124.21 Y112.627 E0.012
G1 X124.516 Y112.794 E0.011
G1 X124.842 Y112.91 E0.012
G1 X125.181 Y112.976 E0.011
G1 X125.531 Y112.989 E0.012
G1 X125.893 Y112.944 E0.012
G1 X126.204 Y112.858 E0.011
G1 X126.521 Y112.716 E0.011
G1 X126.812 Y112.527 E0.012
G1 X127.07 Y112.298 E0.011
G1 X127.29 Y112.031 E0.012
G1 X127.467 Y111.733 E0.012
G1 X127.596 Y111.412 E0.011
G1 X127.676 Y111.075 E0.012
G1 X127.701 Y110.729 E0.011
G1 X127.676 Y110.385 E0.012
G1 X127.596 Y110.046 E0.011
G1 X127.466 Y109.724 E0.012
G1 X127.277 Y109.41 E0.012
G1 X127.069 Y109.16 E0.011
G1 X126.811 Y108.93 E0.011
G1 X126.521 Y108.743 E0.012
G1 X126.205 Y108.601 E0.011
G1 X125.87 Y108.508 E0.012
G1 F2100 E-0.5
;rapid-dry
G0 X132.24 Y122.539 F7200
G1 F2100 E0.5
;bead-perimeter_outer
G1 Y145.939 F720 E0.778
G1 X144.64 E0.412
G1 Y122.539 E0.779
G1 X132.24 E0.412
;rapid-leaky
G0 X131.88 Y122.179 F7200
;bead-perimeter_inner
G1 Y146.299 F960 E0.802
G1 X145 E0.437
G1 Y122.179 E0.802
G1 X131.88 E0.436
G1 F2100 E-0.5
;rapid-dry
G0 X138.44 Y119.188 F7200
G1 F2100 E0.5
;bead-perimeter_outer
G1 X138.258 Y119.204 F720 E0.006
G1 X138.081 Y119.252 E0.007
G1 X137.915 Y119.329 E0.006
G1 X137.765 Y119.434 E0.006
G1 X137.635 Y119.565 E0.006
G1 X137.524 Y119.725 E0.006
G1 X137.453 Y119.881 E0.006
G1 X137.405 Y120.057 E0.006
G1 X137.389 Y120.239 E0.006
G1 X137.405 Y120.422 E0.006
G1 X137.453 Y120.599 E0.006
G1 X137.53 Y120.764 E0.006
G1 X137.635 Y120.915 E0.007
G1 X137.766 Y121.045 E0.006
G1 X137.926 Y121.154 E0.006
G1 X138.082 Y121.227 E0.006
G1 X138.258 Y121.274 E0.006
G1 X138.44 Y121.29 E0.006
G1 X138.623 Y121.274 E0.006
G1 X138.8 Y121.227 E0.006
G1 X138.965 Y121.149 E0.006
G1 X139.115 Y121.044 E0.006
G1 X139.246 Y120.915 E0.007
G1 X139.357 Y120.753 E0.006
G1 X139.428 Y120.597 E0.006
G1 X139.477 Y120.409 E0.006
G1 X139.491 Y120.239 E0.006
G1 X139.476 Y120.057 E0.006
G1 X139.428 Y119.881 E0.006
G1 X139.351 Y119.714 E0.006
G1 X139.246 Y119.564 E0.006
G1 X139.115 Y119.433 E0.006
G1 X138.954 Y119.323 E0.007
G1 X138.8 Y119.252 E0.006
G1 X138.623 Y119.204 E0.006
G1 X138.44 Y119.188 E0.006
;rapid-leaky
G0 Y118.827 F7200
;bead-perimeter_inner
G1 X138.194 Y118.849 F960 E0.008
G1 X137.958 Y118.913 E0.008
G1 X137.735 Y119.015 E0.008
G1 X137.532 Y119.158 E0.008
G1 X137.357 Y119.333 E0.009
G1 X137.21 Y119.547 E0.008
G1 X137.114 Y119.758 E0.008
G1 X137.05 Y119.993 E0.008
G1 X137.028 Y120.239 E0.008
G1 X137.05 Y120.486 E0.009
G1 X137.114 Y120.723 E0.008
G1 X137.216 Y120.944 E0.008
G1 X137.359 Y121.148 E0.008
G1 X137.536 Y121.323 E0.008
G1 X137.747 Y121.468 E0.009
G1 X137.959 Y121.567 E0.008
G1 X138.196 Y121.63 E0.008
G1 X138.44 Y121.651 E0.008
G1 X138.685 Y121.63 E0.008
G1 X138.924 Y121.566 E0.008
G1 X139.146 Y121.462 E0.009
G1 X139.347 Y121.322 E0.008
G1 X139.524 Y121.146 E0.008
G1 X139.671 Y120.931 E0.009
G1 X139.769 Y120.719 E0.007
G1 X139.833 Y120.47 E0.009
G1 X139.852 Y120.239 E0.008
G1 X139.832 Y119.995 E0.008
G1 X139.767 Y119.757 E0.008
G1 X139.665 Y119.534 E0.008
G1 X139.522 Y119.331 E0.008
G1 X139.346 Y119.155 E0.009
G1 X139.132 Y119.009 E0.008
G1 X138.923 Y118.913 E0.008
G1 X138.687 Y118.849 E0.008
G1 X138.44 Y118.827 E0.008
G1 F2100 E-0.5
;rapid-dry
G0 X150.223 Y120.901 F7200
G1 F2100 E0.5
;bead-perimeter_outer
G1 X149.937 Y120.957 F720 E0.01
G1 X149.663 Y121.055 E0.01
G1 X149.407 Y121.194 E0.009
G1 X149.175 Y121.37 E0.01
G1 X148.974 Y121.581 E0.01
G1 X148.807 Y121.819 E0.01
G1 X148.678 Y122.079 E0.009
G1 X148.59 Y122.356 E0.01
G1 X148.545 Y122.644 E0.01
G1 Y122.934 E0.009
G1 X148.59 Y123.223 E0.01
G1 X148.678 Y123.501 E0.01
G1 X148.818 Y123.777 E0.01
G1 X148.974 Y123.999 E0.009
G1 X149.176 Y124.208 E0.01
G1 X149.407 Y124.384 E0.009
G1 X149.663 Y124.524 E0.01
G1 X149.937 Y124.621 E0.01
G1 X150.223 Y124.677 E0.009
G1 X150.515 Y124.688 E0.01
G1 X150.822 Y124.65 E0.01
G1 X151.083 Y124.578 E0.009
G1 X151.349 Y124.459 E0.01
G1 X151.593 Y124.3 E0.01
G1 X151.809 Y124.107 E0.009
G1 X151.995 Y123.883 E0.01
G1 X152.144 Y123.633 E0.01
G1 X152.252 Y123.363 E0.009
G1 X152.319 Y123.08 E0.01
G1 X152.341 Y122.789 E0.01
G1 X152.319 Y122.5 E0.009
G1 X152.252 Y122.215 E0.01
G1 X152.143 Y121.945 E0.01
G1 X151.982 Y121.68 E0.01
G1 X151.809 Y121.471 E0.009
G1 X151.593 Y121.277 E0.01
G1 X151.349 Y121.12 E0.01
G1 X151.083 Y121 E0.009
G1 X150.802 Y120.923 E0.01
G1 X150.514 Y120.891 E0.01
G1 X150.223 Y120.901 E0.009
;rapid-leaky
G0 X150.182 Y120.542 F7200
;bead-perimeter_inner
G1 X149.841 Y120.609 F960 E0.012
G1 X149.516 Y120.725 E0.011
G1 X149.211 Y120.89 E0.012
G1 X148.935 Y121.101 E0.011
G1 X148.695 Y121.351 E0.012
G1 X148.496 Y121.634 E0.011
G1 X148.343 Y121.944 E0.012
G1 X148.238 Y122.273 E0.011
G1 X148.185 Y122.616 E0.012
G1 Y122.962 E0.011
G1 X148.238 Y123.306 E0.012
G1 X148.344 Y123.638 E0.012
G1 X148.509 Y123.963 E0.012
G1 X148.696 Y124.229 E0.011
G1 X148.935 Y124.477 E0.011
G1 X149.21 Y124.687 E0.011
G1 X149.516 Y124.854 E0.012
G1 X149.842 Y124.97 E0.012
G1 X150.181 Y125.036 E0.011
G1 X150.531 Y125.049 E0.012
G1 X150.893 Y125.004 E0.012
G1 X151.204 Y124.918 E0.011
G1 X151.521 Y124.776 E0.011
G1 X151.812 Y124.587 E0.012
G1 X152.07 Y124.358 E0.011
G1 X152.29 Y124.091 E0.012
G1 X152.467 Y123.793 E0.011
G1 X152.596 Y123.472 E0.012
G1 X152.676 Y123.135 E0.011
G1 X152.702 Y122.789 E0.012
G1 X152.676 Y122.445 E0.011
G1 X152.596 Y122.106 E0.012
G1 X152.466 Y121.784 E0.011
G1 X152.277 Y121.47 E0.013
G1 X152.069 Y121.22 E0.01
G1 X151.811 Y120.99 E0.012
G1 X151.521 Y120.803 E0.011
G1 X151.205 Y120.66 E0.012
G1 X150.87 Y120.568 E0.011
G1 X150.528 Y120.53 E0.012
G1 X150.182 Y120.542 E0.011
G1 F2100 E-0.5
;rapid-dry
G0 X163.081 Y116.802 F7200
G1 F2100 E0.5
;bead-perimeter_outer
G1 X162.915 Y116.879 F720 E0.006
G1 X162.765 Y116.984 E0.007
G1 X162.635 Y117.115 E0.006
G1 X162.524 Y117.275 E0.006
G1 X162.453 Y117.431 E0.006
G1 X162.405 Y117.607 E0.006
G1 X162.389 Y117.789 E0.006
G1 X162.405 Y117.972 E0.006
G1 X162.453 Y118.149 E0.006
G1 X162.53 Y118.314 E0.006
G1 X162.635 Y118.465 E0.006
G1 X162.766 Y118.595 E0.007
G1 X162.926 Y118.704 E0.006
G1 X163.082 Y118.777 E0.006
G1 X163.258 Y118.824 E0.006
G1 X163.44 Y118.84 E0.006
G1 X163.623 Y118.824 E0.006
G1 X163.8 Y118.777 E0.006
G1 X163.965 Y118.699 E0.006
G1 X164.115 Y118.594 E0.006
G1 X164.246 Y118.465 E0.006
G1 X164.357 Y118.303 E0.007
G1 X164.428 Y118.147 E0.006
G1 X164.477 Y117.959 E0.006
G1 X164.491 Y117.789 E0.006
G1 X164.476 Y117.607 E0.006
G1 X164.428 Y117.43 E0.006
G1 X164.351 Y117.264 E0.006
G1 X164.246 Y117.114 E0.006
G1 X164.115 Y116.983 E0.006
G1 X163.954 Y116.873 E0.007
G1 X163.8 Y116.802 E0.005
G1 X163.623 Y116.754 E0.006
G1 X163.44 Y116.738 E0.007
G1 X163.258 Y116.754 E0.006
G1 X163.081 Y116.802 E0.006
;rapid-leaky
G0 X162.958 Y116.463 F7200
;bead-perimeter_inner
G1 X162.735 Y116.565 F960 E0.008
G1 X162.532 Y116.708 E0.008
G1 X162.357 Y116.883 E0.008
G1 X162.21 Y117.097 E0.009
G1 X162.114 Y117.308 E0.008
G1 X162.05 Y117.543 E0.008
G1 X162.028 Y117.789 E0.008
G1 X162.05 Y118.036 E0.008
G1 X162.114 Y118.273 E0.008
G1 X162.216 Y118.494 E0.009
G1 X162.359 Y118.698 E0.008
G1 X162.536 Y118.873 E0.008
G1 X162.747 Y119.018 E0.009
G1 X162.959 Y119.117 E0.007
G1 X163.196 Y119.18 E0.009
G1 X163.44 Y119.201 E0.008
G1 X163.685 Y119.18 E0.008
G1 X163.924 Y119.116 E0.008
G1 X164.146 Y119.012 E0.008
G1 X164.347 Y118.872 E0.008
G1 X164.524 Y118.696 E0.009
G1 X164.671 Y118.481 E0.008
G1 X164.769 Y118.269 E0.008
G1 X164.833 Y118.02 E0.009
G1 X164.852 Y117.789 E0.007
G1 X164.832 Y117.545 E0.009
G1 X164.767 Y117.307 E0.008
G1 X164.665 Y117.084 E0.008
G1 X164.522 Y116.881 E0.008
G1 X164.346 Y116.705 E0.008
G1 X164.132 Y116.559 E0.009
G1 X163.923 Y116.463 E0.008
G1 X163.687 Y116.399 E0.008
G1 X163.44 Y116.377 E0.008
G1 X163.194 Y116.399 E0.008
G1 X162.958 Y116.463 E0.008
G1 F2100 E-0.5
;rapid-dry
G0 X163.081 Y144.802 F7200
G1 F2100 E0.5
;bead-perimeter_outer
G1 X162.915 Y144.879 F720 E0.006
G1 X162.765 Y144.984 E0.007
G1 X162.635 Y145.115 E0.006
G1 X162.524 Y145.275 E0.006
G1 X162.453 Y145.431 E0.006
G1 X162.405 Y145.607 E0.006
G1 X162.389 Y145.789 E0.006
G1 X162.405 Y145.972 E0.006
G1 X162.453 Y146.149 E0.006
G1 X162.53 Y146.314 E0.006
G1 X162.635 Y146.465 E0.006
G1 X162.766 Y146.595 E0.007
G1 X162.926 Y146.704 E0.006
G1 X163.082 Y146.777 E0.006
G1 X163.258 Y146.824 E0.006
G1 X163.44 Y146.84 E0.006
G1 X163.623 Y146.824 E0.006
G1 X163.8 Y146.777 E0.006
G1 X163.965 Y146.699 E0.006
G1 X164.115 Y146.594 E0.006
G1 X164.246 Y146.465 E0.006
G1 X164.357 Y146.303 E0.007
G1 X164.428 Y146.147 E0.006
G1 X164.477 Y145.959 E0.006
G1 X164.491 Y145.789 E0.006
G1 X164.476 Y145.607 E0.006
G1 X164.428 Y145.43 E0.006
G1 X164.351 Y145.264 E0.006
G1 X164.246 Y145.114 E0.006
G1 X164.115 Y144.983 E0.006
G1 X163.954 Y144.873 E0.007
G1 X163.8 Y144.802 E0.005
G1 X163.623 Y144.754 E0.006
G1 X163.44 Y144.738 E0.007
G1 X163.258 Y144.754 E0.006
G1 X163.081 Y144.802 E0.006
;rapid-leaky
G0 X162.958 Y144.463 F7200
;bead-perimeter_inner
G1 X162.735 Y144.565 F960 E0.008
G1 X162.532 Y144.708 E0.008
G1 X162.357 Y144.883 E0.008
