;baza2
;Printer name: Prusa i3 MK3
;TIME:7657
;Print time: 2h:7m:37s
;Extruder 1 material used: 5199mm
;Extruder 1 material name: 
;Extruder 1 filament diameter: 1.75mm
;Extruder 1 nozzle diameter: 0.4mm
;Extruder 1 offset x: 0mm
;Extruder 1 offset y: 0mm
;Extruder 1 offset z: 0mm
;Extruder 1 max temp: 200
;Bed temp: 70
;Layer count: 13
;Width: 250mm
;Depth: 210mm
;Height: 210mm
;Center x: 125mm
;Center y: 105mm
;Center z: 0mm
;Count of bodies: 1
;Fusion version: 2.0.19440
G21
M115 U3.0.10 ;tell printer latest fw version
G28 W ;home all without mesh bed level
;--------------------------------
;Selected Profile: PLA Direct Drive
;--------------------------------
;Selected Printer: Prusa, i3 MK3
;--------------------------------
T0
M140 S70
M104 S200 T0
M190 S70
M109 S200 T0
G80 ;mesh bed leveling
G92 E0
G90
M83
G0 X10 Y10 Z10 F7200
G92 E0
;--------------------------------
;Part 1
;LAYER_COUNT:13
;LAYER:1
M107
;rapid-leaky
G0 X20 Y20.5 Z0.2 F7200
;bead-prime
G1 X120 F720 E8.315
G1 F2100 E-0.5
;rapid-dry
G0 X156.738 Y35.211 F7200
G1 F2100 E0.5
;bead-skirt/brim
G1 X157.392 Y35.248 F960 E0.022
G1 X158.143 Y35.375 E0.025
G1 X158.893 Y35.591 E0.026
G1 X159.623 Y35.9 E0.026
G1 X160.25 Y36.248 E0.024
G1 X160.87 Y36.685 E0.026
G1 X161.444 Y37.198 E0.025
G1 X161.954 Y37.769 E0.026
G1 X162.403 Y38.403 E0.025
G1 X162.779 Y39.096 E0.027
G1 X163.056 Y39.765 E0.024
G1 X163.267 Y40.499 E0.025
G1 X163.394 Y41.25 E0.026
G1 X163.431 Y41.904 E0.021
G1 Y80.463 E1.283
G1 X163.385 Y81.138 E0.022
G1 X163.215 Y81.938 E0.027
G1 X162.936 Y82.7 E0.027
G1 X162.557 Y83.411 E0.027
G1 X162.085 Y84.061 E0.027
G1 X161.524 Y84.646 E0.027
G1 X160.877 Y85.151 E0.027
G1 X160.176 Y85.554 E0.027
G1 X159.426 Y85.858 E0.027
G1 X158.767 Y86.022 E0.023
G1 X132.836 Y90.594 E0.875
G1 X133.181 Y90.975 E0.017
G1 X133.623 Y91.613 E0.026
G1 X133.973 Y92.306 E0.026
G1 X134.233 Y93.043 E0.026
G1 X134.388 Y93.812 E0.026
G1 X134.431 Y94.457 E0.022
G1 Y108.933 E0.481
G1 X166.083 Y103.352 E1.069
G1 X166.739 Y103.286 E0.022
G1 X167.455 Y103.304 E0.024
G1 X168.207 Y103.417 E0.025
G1 X168.941 Y103.634 E0.026
G1 X169.631 Y103.937 E0.025
G1 X170.278 Y104.33 E0.025
G1 X170.883 Y104.813 E0.026
G1 X171.42 Y105.384 E0.026
G1 X171.849 Y105.969 E0.024
G1 X172.218 Y106.641 E0.025
G1 X172.488 Y107.343 E0.025
G1 X172.64 Y107.954 E0.021
G1 X173.24 Y111.364 E0.116
G1 Y117.405 E0.2
G1 X173.198 Y118.09 E0.023
G1 X173.074 Y118.809 E0.025
G1 X172.864 Y119.538 E0.025
G1 X172.573 Y120.241 E0.025
G1 X172.205 Y120.907 E0.025
G1 X171.763 Y121.531 E0.026
G1 X171.253 Y122.102 E0.025
G1 X170.681 Y122.613 E0.026
G1 X170.06 Y123.053 E0.025
G1 X169.381 Y123.428 E0.026
G1 X168.65 Y123.724 E0.026
G1 X167.952 Y123.925 E0.024
G1 X167.201 Y124.052 E0.026
G1 X166.548 Y124.089 E0.021
G1 X161.24 E0.177
G1 Y139.489 E0.512
G1 X168.025 E0.226
G1 X168.649 Y139.524 E0.021
G1 X169.37 Y139.64 E0.024
G1 X170.076 Y139.835 E0.024
G1 X170.754 Y140.102 E0.024
G1 X171.402 Y140.443 E0.025
G1 X172.006 Y140.848 E0.024
G1 X172.566 Y141.317 E0.024
G1 X173.073 Y141.844 E0.025
G1 X173.519 Y142.422 E0.024
G1 X173.901 Y143.044 E0.024
G1 X174.2 Y143.672 E0.023
G1 X174.453 Y144.383 E0.025
G1 X174.598 Y145.006 E0.022
G1 X177.672 Y162.441 E0.589
G1 X177.75 Y163.105 E0.022
G1 X177.753 Y163.88 E0.026
G1 X177.665 Y164.669 E0.026
G1 X177.479 Y165.451 E0.027
G1 X177.233 Y166.144 E0.024
G1 X176.895 Y166.838 E0.026
G1 X176.477 Y167.495 E0.026
G1 X175.978 Y168.109 E0.026
G1 X175.398 Y168.669 E0.027
G1 X174.813 Y169.121 E0.024
G1 X174.151 Y169.523 E0.026
G1 X173.446 Y169.847 E0.026
G1 X172.814 Y170.056 E0.022
G1 X164.399 Y172.299 E0.29
G1 X163.445 Y172.341 E0.032
G1 X162.786 Y172.315 E0.021
G1 X162.096 Y172.226 E0.024
G1 X161.417 Y172.076 E0.023
G1 X160.722 Y171.852 E0.024
G1 X160.048 Y171.757 E0.023
G1 X158.762 Y171.604 E0.043
G1 X157.582 Y171.5 E0.039
G1 X156.402 Y171.428 E0.039
G1 X155.231 Y171.391 E0.039
G1 X154.082 Y171.39 E0.039
G1 X152.359 Y171.456 E0.057
G1 X151.157 Y171.551 E0.04
G1 X149.488 Y171.754 E0.056
G1 X148.285 Y171.949 E0.041
G1 X147.127 Y172.173 E0.039
G1 X145.962 Y172.436 E0.04
G1 X144.791 Y172.734 E0.04
G1 X143.618 Y173.066 E0.04
G1 X143.124 Y173.22 E0.017
G1 X142.785 Y173.471 E0.015
G1 X142.183 Y173.838 E0.023
G1 X141.516 Y174.162 E0.025
G1 X140.814 Y174.424 E0.025
G1 X140.066 Y174.621 E0.025
G1 X139.374 Y174.737 E0.024
G1 X138.63 Y174.792 E0.024
G1 X137.854 Y174.771 E0.026
G1 X137.156 Y174.687 E0.024
G1 X136.435 Y174.532 E0.024
G1 X135.728 Y174.307 E0.025
G1 X135.043 Y174.015 E0.025
G1 X134.335 Y173.623 E0.027
G1 X133.594 Y173.364 E0.026
G1 X132.437 Y172.993 E0.04
G1 X131.372 Y172.684 E0.037
G1 X130.123 Y172.358 E0.043
G1 X128.958 Y172.094 E0.04
G1 X127.243 Y171.777 E0.058
G1 X126.089 Y171.613 E0.038
G1 X124.93 Y171.489 E0.039
G1 X123.766 Y171.405 E0.039
G1 X122.594 Y171.36 E0.039
G1 X121.426 Y171.353 E0.039
G1 X119.601 Y171.414 E0.061
G1 X118.406 Y171.497 E0.039
G1 X117.185 Y171.616 E0.041
G1 X116.54 Y171.696 E0.022
G1 X115.965 Y171.924 E0.02
G1 X115.239 Y172.134 E0.026
G1 X114.478 Y172.275 E0.025
G1 X113.692 Y172.338 E0.026
G1 X112.982 Y172.33 E0.024
G1 X112.229 Y172.25 E0.025
G1 X111.482 Y172.094 E0.026
G1 X110.759 Y171.868 E0.025
G1 X110.05 Y171.569 E0.025
G1 X109.361 Y171.19 E0.027
G1 X108.703 Y170.736 E0.026
G1 X107.939 Y170.379 E0.028
G1 X106.78 Y169.877 E0.042
G1 X105.052 Y169.198 E0.062
G1 X103.357 Y168.619 E0.06
G1 X102.131 Y168.255 E0.042
G1 X100.965 Y167.954 E0.04
G1 X99.791 Y167.695 E0.04
G1 X98.606 Y167.477 E0.04
G1 X97.396 Y167.298 E0.041
G1 X95.646 Y167.115 E0.058
G1 X94.352 Y167.033 E0.044
G1 X92.501 Y166.986 E0.061
G1 X91.238 Y166.999 E0.042
G1 X90.399 Y167.03 E0.028
G1 X89.591 Y167.199 E0.028
G1 X88.842 Y167.274 E0.025
G1 X88.095 Y167.275 E0.024
G1 X87.356 Y167.208 E0.025
G1 X86.617 Y167.068 E0.025
G1 X85.896 Y166.857 E0.025
G1 X85.203 Y166.58 E0.025
G1 X84.893 Y166.42 E0.012
G1 X76.529 Y163.257 E0.297
G1 X75.918 Y162.982 E0.022
G1 X75.303 Y162.623 E0.024
G1 X74.703 Y162.18 E0.025
G1 X74.155 Y161.672 E0.025
G1 X73.665 Y161.107 E0.024
G1 X73.242 Y160.494 E0.025
G1 X72.881 Y159.828 E0.025
G1 X72.592 Y159.103 E0.026
G1 X72.401 Y158.416 E0.024
G1 X72.279 Y157.683 E0.025
G1 X72.244 Y157.042 E0.021
G1 Y41.904 E3.83
G1 X72.281 Y41.25 E0.021
G1 X72.408 Y40.499 E0.026
G1 X72.624 Y39.749 E0.026
G1 X72.933 Y39.019 E0.026
G1 X73.281 Y38.392 E0.024
G1 X73.718 Y37.772 E0.025
G1 X74.231 Y37.198 E0.026
G1 X74.805 Y36.685 E0.025
G1 X75.426 Y36.247 E0.026
G1 X76.1 Y35.873 E0.025
G1 X76.834 Y35.576 E0.027
G1 X77.532 Y35.375 E0.024
G1 X78.283 Y35.248 E0.025
G1 X78.937 Y35.211 E0.022
G1 X156.738 E2.588
;rapid-leaky
G0 X156.727 Y35.611 F7200
;bead-skirt/brim
G1 X157.347 Y35.646 F960 E0.02
G1 X158.054 Y35.765 E0.024
G1 X158.759 Y35.968 E0.024
G1 X159.447 Y36.26 E0.025
G1 X160.037 Y36.587 E0.023
G1 X160.621 Y36.999 E0.024
G1 X161.161 Y37.481 E0.024
G1 X161.641 Y38.018 E0.024
G1 X162.063 Y38.615 E0.024
G1 X162.418 Y39.268 E0.025
G1 X162.678 Y39.897 E0.022
G1 X162.877 Y40.588 E0.024
G1 X162.996 Y41.295 E0.024
G1 X163.031 Y41.915 E0.021
G1 Y80.449 E1.281
G1 X162.988 Y81.083 E0.021
G1 X162.83 Y81.827 E0.026
G1 X162.57 Y82.536 E0.025
G1 X162.217 Y83.198 E0.025
G1 X161.777 Y83.804 E0.025
G1 X161.255 Y84.349 E0.025
G1 X160.653 Y84.819 E0.025
G1 X160 Y85.194 E0.025
G1 X159.302 Y85.477 E0.025
G1 X158.684 Y85.63 E0.021
G1 X131.967 Y90.341 E0.903
G1 X132.379 Y90.685 E0.018
G1 X132.867 Y91.224 E0.024
G1 X133.278 Y91.818 E0.024
G1 X133.605 Y92.463 E0.024
G1 X133.846 Y93.15 E0.024
G1 X133.99 Y93.865 E0.024
G1 X134.031 Y94.471 E0.021
G1 Y109.41 E0.496
G1 X166.137 Y103.749 E1.085
G1 X166.754 Y103.687 E0.02
G1 X167.42 Y103.703 E0.023
G1 X168.12 Y103.809 E0.023
G1 X168.803 Y104.01 E0.024
G1 X169.446 Y104.292 E0.023
G1 X170.048 Y104.658 E0.024
G1 X170.612 Y105.108 E0.024
G1 X171.112 Y105.64 E0.024
G1 X171.511 Y106.184 E0.022
G1 X171.854 Y106.81 E0.024
G1 X172.106 Y107.464 E0.023
G1 X172.248 Y108.037 E0.02
G1 X172.84 Y111.399 E0.114
G1 Y117.392 E0.199
G1 X172.8 Y118.044 E0.022
G1 X172.684 Y118.719 E0.022
G1 X172.486 Y119.405 E0.024
G1 X172.212 Y120.067 E0.024
G1 X171.866 Y120.695 E0.024
G1 X171.449 Y121.282 E0.024
G1 X170.97 Y121.819 E0.024
G1 X170.432 Y122.299 E0.024
G1 X169.847 Y122.713 E0.024
G1 X169.209 Y123.066 E0.024
G1 X168.519 Y123.346 E0.025
G1 X167.863 Y123.535 E0.022
G1 X167.156 Y123.654 E0.024
G1 X166.536 Y123.689 E0.021
G1 X160.84 E0.189
G1 Y139.889 E0.539
G1 X168.014 E0.239
G1 X168.606 Y139.922 E0.019
G1 X169.285 Y140.031 E0.023
G1 X169.949 Y140.215 E0.023
G1 X170.587 Y140.466 E0.023
G1 X171.197 Y140.787 E0.023
G1 X171.766 Y141.168 E0.023
G1 X172.292 Y141.61 E0.022
G1 X172.769 Y142.106 E0.023
G1 X173.19 Y142.65 E0.023
G1 X173.549 Y143.235 E0.023
G1 X173.83 Y143.825 E0.022
G1 X174.069 Y144.496 E0.023
G1 X174.206 Y145.086 E0.021
G1 X177.276 Y162.499 E0.588
G1 X177.35 Y163.129 E0.021
G1 X177.353 Y163.859 E0.024
G1 X177.27 Y164.6 E0.025
G1 X177.094 Y165.337 E0.025
G1 X176.864 Y165.989 E0.023
G1 X176.545 Y166.643 E0.024
G1 X176.152 Y167.26 E0.025
G1 X175.683 Y167.838 E0.024
G1 X175.136 Y168.366 E0.026
G1 X174.586 Y168.791 E0.023
G1 X173.963 Y169.169 E0.024
G1 X173.3 Y169.474 E0.024
G1 X172.699 Y169.672 E0.021
G1 X164.338 Y171.901 E0.288
G1 X163.444 Y171.941 E0.03
G1 X162.819 Y171.916 E0.021
G1 X162.165 Y171.831 E0.022
G1 X161.52 Y171.689 E0.022
G1 X160.829 Y171.463 E0.024
G1 X160.1 Y171.36 E0.024
G1 X158.803 Y171.206 E0.044
G1 X157.612 Y171.101 E0.039
G1 X156.421 Y171.029 E0.04
G1 X155.238 Y170.991 E0.04
G1 X154.074 Y170.99 E0.038
G1 X152.335 Y171.057 E0.058
G1 X151.12 Y171.153 E0.041
G1 X149.431 Y171.358 E0.056
G1 X148.215 Y171.555 E0.041
G1 X147.044 Y171.782 E0.04
G1 X145.869 Y172.047 E0.04
G1 X144.687 Y172.348 E0.041
G1 X143.504 Y172.683 E0.04
G1 X142.941 Y172.858 E0.02
G1 X142.561 Y173.139 E0.016
G1 X141.991 Y173.486 E0.022
G1 X141.358 Y173.794 E0.023
G1 X140.692 Y174.043 E0.024
G1 X139.982 Y174.23 E0.024
G1 X139.326 Y174.339 E0.023
G1 X138.621 Y174.391 E0.023
G1 X137.883 Y174.371 E0.025
G1 X137.222 Y174.292 E0.022
G1 X136.538 Y174.145 E0.023
G1 X135.867 Y173.932 E0.023
G1 X135.217 Y173.655 E0.024
G1 X134.516 Y173.262 E0.027
G1 X133.721 Y172.984 E0.028
G1 X132.553 Y172.61 E0.04
G1 X131.478 Y172.298 E0.038
G1 X130.218 Y171.97 E0.043
G1 X129.042 Y171.703 E0.04
G1 X127.306 Y171.382 E0.059
G1 X126.138 Y171.216 E0.039
G1 X124.966 Y171.091 E0.039
G1 X123.788 Y171.005 E0.04
G1 X122.603 Y170.96 E0.039
G1 X121.42 Y170.953 E0.039
G1 X119.581 Y171.014 E0.062
G1 X118.373 Y171.098 E0.04
G1 X117.141 Y171.219 E0.041
G1 X116.44 Y171.305 E0.024
G1 X115.835 Y171.545 E0.021
G1 X115.146 Y171.744 E0.024
G1 X114.425 Y171.878 E0.024
G1 X113.679 Y171.938 E0.025
G1 X113.005 Y171.93 E0.023
G1 X112.291 Y171.854 E0.024
G1 X111.583 Y171.707 E0.024
G1 X110.896 Y171.492 E0.024
G1 X110.224 Y171.209 E0.024
G1 X109.57 Y170.848 E0.025
G1 X108.918 Y170.395 E0.026
G1 X108.103 Y170.015 E0.03
G1 X106.935 Y169.508 E0.042
G1 X105.189 Y168.822 E0.063
G1 X103.475 Y168.237 E0.06
G1 X102.238 Y167.87 E0.043
G1 X101.059 Y167.565 E0.04
G1 X99.87 Y167.303 E0.041
G1 X98.672 Y167.083 E0.04
G1 X97.449 Y166.902 E0.042
G1 X95.678 Y166.717 E0.059
G1 X94.373 Y166.634 E0.043
G1 X92.502 Y166.586 E0.062
G1 X91.228 Y166.599 E0.043
G1 X90.333 Y166.633 E0.03
G1 X89.532 Y166.803 E0.027
G1 X88.821 Y166.874 E0.024
G1 X88.112 Y166.875 E0.023
G1 X87.412 Y166.811 E0.024
G1 X86.711 Y166.679 E0.023
G1 X86.027 Y166.478 E0.024
G1 X85.369 Y166.216 E0.024
G1 X85.056 Y166.054 E0.011
G1 X76.682 Y162.887 E0.298
G1 X76.101 Y162.626 E0.021
G1 X75.523 Y162.289 E0.023
G1 X74.959 Y161.871 E0.023
G1 X74.443 Y161.394 E0.023
G1 X73.981 Y160.862 E0.024
G1 X73.583 Y160.285 E0.023
G1 X73.244 Y159.658 E0.024
G1 X72.972 Y158.975 E0.024
G1 X72.792 Y158.33 E0.022
G1 X72.677 Y157.64 E0.024
G1 X72.644 Y157.031 E0.02
G1 Y41.915 E3.829
G1 X72.679 Y41.295 E0.02
G1 X72.798 Y40.588 E0.024
G1 X73.001 Y39.883 E0.025
G1 X73.293 Y39.195 E0.025
G1 X73.62 Y38.605 E0.022
G1 X74.032 Y38.021 E0.024
G1 X74.514 Y37.481 E0.024
G1 X75.054 Y36.999 E0.024
G1 X75.638 Y36.587 E0.024
G1 X76.273 Y36.235 E0.024
G1 X76.964 Y35.954 E0.025
G1 X77.621 Y35.765 E0.022
G1 X78.328 Y35.646 E0.024
G1 X78.948 Y35.611 E0.021
G1 X156.727 E2.587
;rapid-leaky
G0 X156.716 Y36.011 F7200
;bead-skirt/brim
G1 X157.302 Y36.044 F960 E0.019
G1 X157.966 Y36.156 E0.023
G1 X158.626 Y36.346 E0.023
G1 X159.272 Y36.62 E0.023
G1 X159.824 Y36.926 E0.021
G1 X160.371 Y37.312 E0.022
G1 X160.878 Y37.764 E0.023
G1 X161.327 Y38.268 E0.022
G1 X161.723 Y38.826 E0.023
G1 X162.056 Y39.44 E0.023
G1 X162.3 Y40.029 E0.021
G1 X162.486 Y40.676 E0.023
G1 X162.598 Y41.34 E0.022
G1 X162.631 Y41.926 E0.02
G1 Y80.435 E1.281
G1 X162.591 Y81.027 E0.019
G1 X162.444 Y81.716 E0.024
G1 X162.204 Y82.373 E0.023
G1 X161.877 Y82.986 E0.023
G1 X161.47 Y83.547 E0.023
G1 X160.986 Y84.051 E0.023
G1 X160.43 Y84.486 E0.024
G1 X159.825 Y84.833 E0.023
G1 X159.178 Y85.095 E0.023
G1 X158.601 Y85.239 E0.02
G1 X130.888 Y90.125 E0.936
G1 X131.018 Y90.184 E0.005
G1 X131.58 Y90.539 E0.022
G1 X132.101 Y90.974 E0.022
G1 X132.553 Y91.473 E0.023
G1 X132.934 Y92.023 E0.022
G1 X133.236 Y92.621 E0.022
G1 X133.46 Y93.256 E0.023
G1 X133.593 Y93.918 E0.022
G1 X133.631 Y94.484 E0.019
G1 Y109.887 E0.512
G1 X166.192 Y104.145 E1.1
G1 X166.769 Y104.087 E0.019
G1 X167.385 Y104.103 E0.021
G1 X168.034 Y104.2 E0.022
G1 X168.666 Y104.387 E0.022
G1 X169.261 Y104.648 E0.021
G1 X169.819 Y104.987 E0.022
G1 X170.34 Y105.403 E0.022
G1 X170.804 Y105.897 E0.023
G1 X171.173 Y106.399 E0.02
G1 X171.49 Y106.978 E0.022
G1 X171.724 Y107.584 E0.022
G1 X171.857 Y108.12 E0.018
G1 X172.44 Y111.434 E0.112
G1 Y117.38 E0.198
G1 X172.402 Y117.997 E0.02
G1 X172.293 Y118.629 E0.022
G1 X172.108 Y119.273 E0.022
G1 X171.851 Y119.894 E0.022
G1 X171.526 Y120.482 E0.023
G1 X171.136 Y121.032 E0.022
G1 X170.687 Y121.536 E0.023
G1 X170.182 Y121.986 E0.022
G1 X169.634 Y122.374 E0.022
G1 X169.036 Y122.704 E0.023
G1 X168.389 Y122.967 E0.023
G1 X167.774 Y123.144 E0.022
G1 X167.111 Y123.256 E0.022
G1 X166.525 Y123.289 E0.02
G1 X160.44 E0.202
G1 Y140.289 E0.565
G1 X168.003 E0.252
G1 X168.563 Y140.32 E0.019
G1 X169.199 Y140.422 E0.021
G1 X169.822 Y140.595 E0.022
G1 X170.42 Y140.831 E0.021
G1 X170.992 Y141.131 E0.021
G1 X171.525 Y141.489 E0.022
G1 X172.019 Y141.903 E0.021
G1 X172.466 Y142.368 E0.022
G1 X172.86 Y142.878 E0.021
G1 X173.197 Y143.426 E0.022
G1 X173.46 Y143.979 E0.02
G1 X173.684 Y144.609 E0.022
G1 X173.814 Y145.166 E0.019
G1 X176.88 Y162.557 E0.587
G1 X176.95 Y163.153 E0.02
G1 X176.953 Y163.837 E0.023
G1 X176.875 Y164.531 E0.023
G1 X176.71 Y165.224 E0.024
G1 X176.494 Y165.834 E0.022
G1 X176.195 Y166.447 E0.022
G1 X175.827 Y167.026 E0.023
G1 X175.388 Y167.567 E0.023
G1 X174.874 Y168.063 E0.024
G1 X174.359 Y168.461 E0.022
G1 X173.775 Y168.816 E0.022
G1 X173.153 Y169.102 E0.023
G1 X172.585 Y169.289 E0.02
G1 X164.277 Y171.504 E0.286
G1 X163.443 Y171.541 E0.028
G1 X162.853 Y171.517 E0.019
G1 X162.234 Y171.437 E0.021
G1 X161.624 Y171.302 E0.021
G1 X160.935 Y171.074 E0.024
G1 X160.151 Y170.963 E0.026
G1 X158.844 Y170.808 E0.044
G1 X157.642 Y170.702 E0.04
G1 X156.439 Y170.629 E0.04
G1 X155.244 Y170.591 E0.04
G1 X154.066 Y170.59 E0.039
G1 X152.312 Y170.657 E0.059
G1 X151.084 Y170.755 E0.041
G1 X149.373 Y170.962 E0.057
G1 X148.144 Y171.161 E0.042
G1 X146.962 Y171.39 E0.04
G1 X145.775 Y171.658 E0.04
G1 X144.583 Y171.962 E0.041
G1 X143.39 Y172.299 E0.041
G1 X142.757 Y172.496 E0.022
G1 X142.337 Y172.807 E0.018
G1 X141.799 Y173.135 E0.021
G1 X141.201 Y173.426 E0.022
G1 X140.571 Y173.661 E0.022
G1 X139.898 Y173.838 E0.023
G1 X139.279 Y173.942 E0.021
G1 X138.611 Y173.991 E0.022
G1 X137.913 Y173.972 E0.024
G1 X137.288 Y173.897 E0.021
G1 X136.641 Y173.758 E0.022
G1 X136.006 Y173.556 E0.022
G1 X135.392 Y173.295 E0.022
G1 X134.807 Y172.976 E0.022
G1 X134.696 Y172.901 E0.004
G1 X133.848 Y172.605 E0.03
G1 X132.67 Y172.228 E0.042
G1 X131.585 Y171.913 E0.037
G1 X130.313 Y171.581 E0.044
G1 X129.126 Y171.312 E0.04
G1 X127.369 Y170.987 E0.06
G1 X126.187 Y170.819 E0.039
G1 X125.001 Y170.692 E0.04
G1 X123.811 Y170.606 E0.04
G1 X122.611 Y170.56 E0.04
G1 X121.415 Y170.553 E0.04
G1 X119.56 Y170.615 E0.061
G1 X118.339 Y170.7 E0.041
G1 X117.097 Y170.821 E0.041
G1 X116.34 Y170.915 E0.026
G1 X115.706 Y171.166 E0.023
G1 X115.054 Y171.355 E0.022
G1 X114.373 Y171.481 E0.023
G1 X113.665 Y171.537 E0.024
G1 X113.028 Y171.53 E0.021
G1 X112.353 Y171.458 E0.023
G1 X111.683 Y171.319 E0.022
G1 X111.034 Y171.116 E0.023
G1 X110.399 Y170.848 E0.023
G1 X109.778 Y170.507 E0.023
G1 X109.25 Y170.15 E0.022
G1 X109.133 Y170.054 E0.005
G1 X108.267 Y169.65 E0.031
G1 X107.089 Y169.139 E0.043
G1 X105.325 Y168.446 E0.063
G1 X103.594 Y167.855 E0.061
G1 X102.345 Y167.484 E0.043
G1 X101.152 Y167.176 E0.041
G1 X99.95 Y166.911 E0.041
G1 X98.737 Y166.688 E0.041
G1 X97.502 Y166.505 E0.042
G1 X95.71 Y166.318 E0.06
G1 X94.394 Y166.234 E0.044
G1 X92.504 Y166.186 E0.062
G1 X91.219 Y166.199 E0.043
G1 X90.267 Y166.235 E0.032
G1 X90.132 Y166.275 E0.005
G1 X89.473 Y166.407 E0.022
G1 X88.801 Y166.474 E0.022
G1 X88.13 Y166.475 E0.023
G1 X87.467 Y166.414 E0.022
G1 X86.804 Y166.29 E0.022
G1 X86.158 Y166.1 E0.023
G1 X85.535 Y165.852 E0.022
G1 X85.219 Y165.688 E0.012
G1 X76.835 Y162.517 E0.298
G1 X76.285 Y162.27 E0.02
G1 X75.743 Y161.954 E0.021
G1 X75.214 Y161.563 E0.022
G1 X74.73 Y161.115 E0.022
G1 X74.298 Y160.616 E0.022
G1 X73.925 Y160.076 E0.021
G1 X73.607 Y159.488 E0.023
G1 X73.351 Y158.847 E0.023
G1 X73.183 Y158.243 E0.02
G1 X73.075 Y157.596 E0.022
G1 X73.044 Y157.02 E0.019
G1 Y41.926 E3.829
G1 X73.077 Y41.34 E0.019
G1 X73.189 Y40.676 E0.022
G1 X73.379 Y40.017 E0.023
G1 X73.653 Y39.37 E0.024
G1 X73.96 Y38.818 E0.021
G1 X74.346 Y38.27 E0.022
G1 X74.797 Y37.764 E0.022
G1 X75.304 Y37.312 E0.023
G1 X75.851 Y36.926 E0.022
G1 X76.446 Y36.596 E0.023
G1 X77.095 Y36.333 E0.023
G1 X77.71 Y36.156 E0.022
G1 X78.373 Y36.044 E0.022
G1 X78.959 Y36.011 E0.019
G1 X156.716 E2.587
;rapid-leaky
G0 X156.705 Y36.411 F7200
;bead-skirt/brim
G1 X157.257 Y36.442 F960 E0.018
G1 X157.877 Y36.547 E0.021
G1 X158.492 Y36.724 E0.021
G1 X159.096 Y36.98 E0.022
G1 X159.611 Y37.266 E0.02
G1 X160.122 Y37.626 E0.02
G1 X160.594 Y38.048 E0.021
G1 X161.014 Y38.517 E0.021
G1 X161.383 Y39.038 E0.022
G1 X161.695 Y39.612 E0.021
G1 X161.921 Y40.161 E0.02
G1 X162.095 Y40.765 E0.021
G1 X162.2 Y41.385 E0.021
G1 X162.231 Y41.937 E0.018
G1 Y80.422 E1.28
G1 X162.193 Y80.972 E0.019
G1 X162.059 Y81.605 E0.021
G1 X161.837 Y82.209 E0.022
G1 X161.537 Y82.773 E0.021
G1 X161.162 Y83.29 E0.021
G1 X160.717 Y83.753 E0.021
G1 X160.206 Y84.153 E0.022
G1 X159.649 Y84.473 E0.021
G1 X159.054 Y84.714 E0.022
G1 X158.518 Y84.847 E0.018
G1 X129.184 Y90.019 E0.991
G1 X129.672 Y90.098 E0.016
G1 X130.267 Y90.279 E0.021
G1 X130.826 Y90.537 E0.02
G1 X131.344 Y90.863 E0.021
G1 X131.823 Y91.263 E0.021
G1 X132.239 Y91.722 E0.02
G1 X132.589 Y92.229 E0.021
G1 X132.867 Y92.778 E0.02
G1 X133.073 Y93.363 E0.021
G1 X133.196 Y93.972 E0.02
G1 X133.231 Y94.498 E0.018
G1 Y110.363 E0.528
G1 X166.247 Y104.542 E1.115
G1 X166.784 Y104.488 E0.018
G1 X167.351 Y104.502 E0.019
G1 X167.947 Y104.592 E0.02
G1 X168.528 Y104.763 E0.02
G1 X169.076 Y105.004 E0.02
G1 X169.589 Y105.315 E0.02
G1 X170.068 Y105.698 E0.02
G1 X170.496 Y106.153 E0.021
G1 X170.835 Y106.615 E0.019
G1 X171.127 Y107.147 E0.02
G1 X171.341 Y107.705 E0.02
G1 X171.465 Y108.203 E0.017
G1 X172.04 Y111.469 E0.11
G1 Y117.368 E0.196
G1 X172.004 Y117.951 E0.02
G1 X171.903 Y118.54 E0.02
G1 X171.73 Y119.14 E0.021
G1 X171.49 Y119.72 E0.02
G1 X171.187 Y120.269 E0.021
G1 X170.823 Y120.783 E0.021
G1 X170.403 Y121.252 E0.021
G1 X169.933 Y121.672 E0.021
G1 X169.421 Y122.035 E0.021
G1 X168.864 Y122.343 E0.021
G1 X168.258 Y122.589 E0.022
G1 X167.685 Y122.753 E0.02
G1 X167.067 Y122.858 E0.021
G1 X166.514 Y122.889 E0.018
G1 X160.04 E0.215
G1 Y140.689 E0.592
G1 X167.992 E0.265
G1 X168.52 Y140.719 E0.017
G1 X169.114 Y140.814 E0.02
G1 X169.695 Y140.975 E0.02
G1 X170.254 Y141.195 E0.02
G1 X170.787 Y141.475 E0.021
G1 X171.284 Y141.809 E0.019
G1 X171.745 Y142.195 E0.02
G1 X172.163 Y142.629 E0.02
G1 X172.53 Y143.105 E0.02
G1 X172.845 Y143.617 E0.02
G1 X173.09 Y144.132 E0.019
G1 X173.3 Y144.722 E0.021
G1 X173.422 Y145.247 E0.018
G1 X176.484 Y162.615 E0.587
G1 X176.551 Y163.177 E0.019
G1 X176.552 Y163.816 E0.021
G1 X176.48 Y164.463 E0.021
G1 X176.326 Y165.11 E0.023
G1 X176.125 Y165.679 E0.02
G1 X175.846 Y166.252 E0.021
G1 X175.502 Y166.792 E0.021
G1 X175.092 Y167.296 E0.022
G1 X174.612 Y167.76 E0.022
G1 X174.133 Y168.13 E0.02
G1 X173.587 Y168.462 E0.021
G1 X173.007 Y168.729 E0.022
G1 X172.471 Y168.905 E0.018
G1 X164.216 Y171.106 E0.284
G1 X163.442 Y171.14 E0.026
G1 X162.887 Y171.118 E0.019
G1 X162.303 Y171.043 E0.019
G1 X161.728 Y170.916 E0.02
G1 X161.041 Y170.685 E0.024
G1 X160.203 Y170.566 E0.028
G1 X158.885 Y170.41 E0.044
G1 X157.672 Y170.303 E0.041
G1 X156.458 Y170.229 E0.04
G1 X155.251 Y170.191 E0.04
G1 X154.059 Y170.19 E0.04
G1 X152.288 Y170.258 E0.059
G1 X151.047 Y170.356 E0.041
G1 X149.316 Y170.566 E0.058
G1 X148.074 Y170.767 E0.042
G1 X146.88 Y170.999 E0.041
G1 X145.682 Y171.269 E0.041
G1 X144.479 Y171.575 E0.041
G1 X143.276 Y171.916 E0.041
G1 X142.574 Y172.134 E0.025
G1 X142.114 Y172.475 E0.019
G1 X141.607 Y172.784 E0.02
G1 X141.043 Y173.058 E0.021
G1 X140.45 Y173.279 E0.021
G1 X139.814 Y173.447 E0.021
G1 X139.231 Y173.544 E0.02
G1 X138.602 Y173.591 E0.021
G1 X137.942 Y173.573 E0.022
G1 X137.354 Y173.502 E0.02
G1 X136.744 Y173.371 E0.021
G1 X136.145 Y173.181 E0.02
G1 X135.566 Y172.934 E0.021
G1 X135.015 Y172.634 E0.021
G1 X134.877 Y172.541 E0.006
G1 X133.975 Y172.226 E0.032
G1 X132.787 Y171.845 E0.041
G1 X131.691 Y171.527 E0.038
G1 X130.407 Y171.192 E0.044
G1 X129.21 Y170.921 E0.041
G1 X127.432 Y170.592 E0.06
G1 X126.237 Y170.422 E0.04
G1 X125.037 Y170.294 E0.04
G1 X123.833 Y170.206 E0.041
G1 X122.62 Y170.16 E0.04
G1 X121.409 Y170.153 E0.04
G1 X119.54 Y170.215 E0.062
G1 X118.306 Y170.301 E0.042
G1 X117.053 Y170.423 E0.041
G1 X116.22 Y170.526 E0.028
G1 X115.576 Y170.787 E0.023
G1 X114.962 Y170.965 E0.022
G1 X114.32 Y171.084 E0.021
G1 X113.652 Y171.137 E0.023
G1 X113.052 Y171.13 E0.02
G1 X112.415 Y171.063 E0.021
G1 X111.784 Y170.932 E0.021
G1 X111.172 Y170.74 E0.022
G1 X110.574 Y170.488 E0.021
G1 X109.987 Y170.165 E0.023
G1 X109.489 Y169.829 E0.02
G1 X109.348 Y169.713 E0.006
G1 X108.432 Y169.285 E0.033
G1 X107.243 Y168.769 E0.043
G1 X105.462 Y168.07 E0.064
G1 X103.712 Y167.473 E0.061
G1 X102.452 Y167.099 E0.044
G1 X101.245 Y166.787 E0.042
G1 X100.029 Y166.519 E0.041
G1 X98.803 Y166.293 E0.042
G1 X97.556 Y166.109 E0.041
G1 X96.955 Y166.036 E0.021
G1 X95.742 Y165.919 E0.04
G1 X94.415 Y165.835 E0.044
G1 X92.505 Y165.786 E0.064
G1 X91.21 Y165.8 E0.043
G1 X90.201 Y165.837 E0.034
G1 X90.035 Y165.887 E0.005
G1 X89.414 Y166.011 E0.021
G1 X88.78 Y166.074 E0.022
G1 X88.148 Y166.075 E0.021
G1 X87.523 Y166.018 E0.02
G1 X86.898 Y165.9 E0.022
G1 X86.288 Y165.721 E0.021
G1 X85.702 Y165.487 E0.021
G1 X85.382 Y165.322 E0.012
G1 X76.988 Y162.148 E0.298
G1 X76.468 Y161.914 E0.019
G1 X75.964 Y161.62 E0.02
G1 X75.47 Y161.254 E0.02
G1 X75.018 Y160.836 E0.021
G1 X74.615 Y160.371 E0.02
G1 X74.266 Y159.866 E0.02
G1 X73.97 Y159.319 E0.021
G1 X73.731 Y158.719 E0.022
G1 X73.574 Y158.156 E0.019
G1 X73.474 Y157.552 E0.02
G1 X73.444 Y157.009 E0.018
G1 Y41.938 E3.828
G1 X73.475 Y41.385 E0.018
G1 X73.58 Y40.765 E0.021
G1 X73.757 Y40.15 E0.021
G1 X74.013 Y39.546 E0.022
G1 X74.299 Y39.031 E0.02
G1 X74.659 Y38.52 E0.021
G1 X75.081 Y38.048 E0.021
G1 X75.553 Y37.626 E0.021
G1 X76.064 Y37.265 E0.02
G1 X76.619 Y36.958 E0.022
G1 X77.226 Y36.711 E0.021
G1 X77.799 Y36.547 E0.02
G1 X78.418 Y36.442 E0.021
G1 X78.97 Y36.411 E0.018
G1 X156.705 E2.586
;rapid-leaky
G0 X156.693 Y36.811 F7200
;bead-skirt/brim
G1 X157.213 Y36.84 F960 E0.017
G1 X157.788 Y36.937 E0.02
G1 X158.358 Y37.102 E0.019
G1 X158.921 Y37.34 E0.021
G1 X159.398 Y37.605 E0.018
G1 X159.873 Y37.94 E0.019
G1 X160.311 Y38.331 E0.02
G1 X160.7 Y38.767 E0.019
G1 X161.043 Y39.25 E0.02
G1 X161.333 Y39.785 E0.02
G1 X161.543 Y40.293 E0.018
G1 X161.705 Y40.854 E0.02
G1 X161.802 Y41.429 E0.019
G1 X161.831 Y41.949 E0.018
G1 Y80.408 E1.279
G1 X161.796 Y80.916 E0.017
G1 X161.673 Y81.494 E0.019
G1 X161.471 Y82.046 E0.02
G1 X161.197 Y82.561 E0.019
G1 X160.855 Y83.033 E0.02
G1 X160.448 Y83.456 E0.019
G1 X159.982 Y83.821 E0.02
G1 X159.474 Y84.112 E0.019
G1 X158.931 Y84.333 E0.02
G1 X158.435 Y84.455 E0.017
G1 X123.332 Y90.645 E1.185
G1 X123.436 Y91.236 E0.02
G1 X127.974 Y90.436 E0.154
G1 X128.465 Y90.382 E0.016
G1 X129.029 Y90.399 E0.019
G1 X129.582 Y90.489 E0.018
G1 X130.125 Y90.654 E0.019
G1 X130.635 Y90.889 E0.019
G1 X131.108 Y91.187 E0.018
G1 X131.545 Y91.552 E0.019
G1 X131.924 Y91.971 E0.019
G1 X132.245 Y92.434 E0.019
G1 X132.499 Y92.935 E0.019
G1 X132.686 Y93.469 E0.018
G1 X132.798 Y94.025 E0.019
G1 X132.831 Y94.511 E0.017
G1 Y110.84 E0.543
G1 X166.302 Y104.938 E1.13
G1 X166.799 Y104.888 E0.017
G1 X167.316 Y104.901 E0.017
G1 X167.86 Y104.983 E0.018
G1 X168.391 Y105.139 E0.019
G1 X168.891 Y105.359 E0.018
G1 X169.36 Y105.644 E0.018
G1 X169.796 Y105.993 E0.019
G1 X170.188 Y106.409 E0.019
G1 X170.497 Y106.83 E0.017
G1 X170.763 Y107.316 E0.018
G1 X170.959 Y107.825 E0.019
G1 X171.074 Y108.286 E0.015
G1 X171.64 Y111.504 E0.109
G1 Y117.356 E0.195
G1 X171.607 Y117.905 E0.018
G1 X171.512 Y118.45 E0.018
G1 X171.352 Y119.008 E0.02
G1 X171.129 Y119.546 E0.019
G1 X170.848 Y120.056 E0.019
G1 X170.509 Y120.533 E0.02
G1 X170.12 Y120.969 E0.019
G1 X169.683 Y121.359 E0.02
G1 X169.208 Y121.695 E0.019
G1 X168.691 Y121.981 E0.02
G1 X168.127 Y122.21 E0.02
G1 X167.597 Y122.363 E0.018
G1 X167.022 Y122.46 E0.02
G1 X166.502 Y122.489 E0.017
G1 X159.64 E0.228
G1 Y141.089 E0.619
G1 X167.98 E0.277
G1 X168.477 Y141.117 E0.017
G1 X169.029 Y141.205 E0.018
G1 X169.568 Y141.355 E0.019
G1 X170.087 Y141.559 E0.019
G1 X170.582 Y141.82 E0.018
G1 X171.044 Y142.129 E0.019
G1 X171.472 Y142.488 E0.018
G1 X171.859 Y142.891 E0.019
G1 X172.201 Y143.333 E0.018
G1 X172.493 Y143.808 E0.019
G1 X172.72 Y144.285 E0.018
G1 X172.915 Y144.834 E0.019
G1 X173.03 Y145.327 E0.017
G1 X176.089 Y162.673 E0.586
G1 X176.151 Y163.201 E0.017
G1 X176.152 Y163.794 E0.02
G1 X176.085 Y164.394 E0.02
G1 X175.942 Y164.997 E0.021
G1 X175.755 Y165.524 E0.018
G1 X175.496 Y166.056 E0.02
G1 X175.177 Y166.557 E0.02
G1 X174.797 Y167.025 E0.02
G1 X174.35 Y167.457 E0.02
G1 X173.906 Y167.8 E0.019
G1 X173.399 Y168.108 E0.02
G1 X172.86 Y168.356 E0.02
G1 X172.357 Y168.521 E0.017
G1 X164.155 Y170.708 E0.283
G1 X163.441 Y170.74 E0.023
G1 X162.921 Y170.719 E0.018
G1 X162.372 Y170.648 E0.018
G1 X161.832 Y170.529 E0.018
G1 X161.307 Y170.362 E0.019
G1 X161.148 Y170.296 E0.006
G1 X160.255 Y170.17 E0.03
G1 X158.927 Y170.013 E0.044
G1 X157.701 Y169.904 E0.041
G1 X156.476 Y169.83 E0.041
G1 X155.257 Y169.791 E0.04
G1 X154.051 Y169.79 E0.04
G1 X152.265 Y169.859 E0.06
G1 X151.01 Y169.958 E0.042
G1 X149.258 Y170.17 E0.058
G1 X148.004 Y170.373 E0.043
G1 X146.798 Y170.607 E0.041
G1 X145.589 Y170.88 E0.041
G1 X144.376 Y171.189 E0.041
G1 X143.162 Y171.532 E0.042
G1 X142.389 Y171.773 E0.027
G1 X141.89 Y172.143 E0.021
G1 X141.416 Y172.432 E0.018
G1 X140.885 Y172.69 E0.02
G1 X140.329 Y172.897 E0.02
G1 X139.729 Y173.055 E0.02
G1 X139.183 Y173.147 E0.019
G1 X138.592 Y173.19 E0.02
G1 X137.972 Y173.173 E0.02
G1 X137.421 Y173.107 E0.019
G1 X136.846 Y172.984 E0.019
G1 X136.284 Y172.805 E0.02
G1 X135.741 Y172.574 E0.019
G1 X135.223 Y172.292 E0.02
G1 X135.058 Y172.18 E0.007
G1 X134.102 Y171.846 E0.033
G1 X132.904 Y171.462 E0.042
G1 X131.797 Y171.141 E0.039
G1 X130.502 Y170.804 E0.044
G1 X129.293 Y170.529 E0.041
G1 X127.495 Y170.197 E0.061
G1 X126.286 Y170.025 E0.041
G1 X125.073 Y169.895 E0.04
G1 X123.855 Y169.807 E0.041
G1 X122.629 Y169.76 E0.041
G1 X121.404 Y169.753 E0.04
G1 X119.519 Y169.815 E0.063
G1 X118.272 Y169.903 E0.042
G1 X117.009 Y170.026 E0.042
G1 X116.1 Y170.138 E0.03
G1 X115.447 Y170.408 E0.024
G1 X114.869 Y170.575 E0.02
G1 X114.268 Y170.687 E0.02
G1 X113.638 Y170.737 E0.021
G1 X113.075 Y170.731 E0.019
G1 X112.477 Y170.667 E0.02
G1 X111.884 Y170.544 E0.02
G1 X111.31 Y170.364 E0.02
G1 X110.748 Y170.127 E0.02
G1 X110.196 Y169.823 E0.021
G1 X109.729 Y169.508 E0.019
G1 X109.563 Y169.372 E0.007
G1 X108.596 Y168.92 E0.036
G1 X107.397 Y168.4 E0.043
G1 X105.598 Y167.694 E0.065
G1 X104.42 Y167.281 E0.041
G1 X103.83 Y167.09 E0.021
G1 X102.559 Y166.713 E0.044
G1 X101.338 Y166.398 E0.042
G1 X100.108 Y166.127 E0.042
G1 X98.868 Y165.899 E0.042
G1 X97.609 Y165.712 E0.042
G1 X96.999 Y165.638 E0.02
G1 X95.774 Y165.52 E0.041
G1 X94.436 Y165.435 E0.045
G1 X93.81 Y165.409 E0.021
G1 X92.507 Y165.386 E0.043
G1 X91.2 Y165.4 E0.043
G1 X90.135 Y165.439 E0.036
G1 X89.938 Y165.498 E0.007
G1 X89.355 Y165.615 E0.02
G1 X88.76 Y165.674 E0.019
G1 X88.166 Y165.675 E0.02
G1 X87.578 Y165.621 E0.02
G1 X86.991 Y165.511 E0.02
G1 X86.419 Y165.343 E0.02
G1 X85.868 Y165.123 E0.019
G1 X85.545 Y164.956 E0.012
G1 X77.141 Y161.778 E0.299
G1 X76.651 Y161.558 E0.018
G1 X76.184 Y161.285 E0.018
G1 X75.725 Y160.946 E0.019
G1 X75.306 Y160.558 E0.019
G1 X74.931 Y160.126 E0.019
G1 X74.608 Y159.657 E0.019
G1 X74.333 Y159.149 E0.019
G1 X74.111 Y158.59 E0.02
G1 X73.965 Y158.069 E0.018
G1 X73.872 Y157.508 E0.019
G1 X73.844 Y156.998 E0.017
G1 Y41.949 E3.827
G1 X73.873 Y41.429 E0.017
G1 X73.97 Y40.854 E0.019
G1 X74.134 Y40.284 E0.02
G1 X74.373 Y39.721 E0.02
G1 X74.638 Y39.244 E0.019
G1 X74.973 Y38.769 E0.019
G1 X75.364 Y38.331 E0.019
G1 X75.802 Y37.94 E0.02
G1 X76.277 Y37.605 E0.019
G1 X76.791 Y37.32 E0.02
G1 X77.357 Y37.09 E0.02
G1 X77.887 Y36.937 E0.019
G1 X78.462 Y36.84 E0.019
G1 X78.982 Y36.811 E0.017
G1 X156.693 E2.585
;rapid-leaky
G0 X156.682 Y37.211 F7200
;bead-skirt/brim
G1 X157.168 Y37.239 F960 E0.016
G1 X157.699 Y37.328 E0.018
G1 X158.224 Y37.479 E0.018
G1 X158.745 Y37.7 E0.019
G1 X159.185 Y37.944 E0.017
G1 X159.624 Y38.253 E0.018
G1 X160.028 Y38.614 E0.018
G1 X160.387 Y39.017 E0.018
G1 X160.703 Y39.462 E0.018
G1 X160.971 Y39.957 E0.018
G1 X161.165 Y40.425 E0.017
G1 X161.314 Y40.943 E0.018
G1 X161.403 Y41.474 E0.018
G1 X161.431 Y41.96 E0.016
G1 Y80.394 E1.279
G1 X161.399 Y80.861 E0.015
G1 X161.288 Y81.383 E0.018
G1 X161.105 Y81.882 E0.018
G1 X160.857 Y82.348 E0.017
G1 X160.547 Y82.775 E0.018
G1 X160.18 Y83.158 E0.017
G1 X159.758 Y83.488 E0.018
G1 X159.298 Y83.752 E0.018
G1 X158.807 Y83.951 E0.017
G1 X158.352 Y84.064 E0.016
G1 X123.126 Y90.275 E1.19
G1 X123.016 Y90.306 E0.004
G1 X122.956 Y90.35 E0.002
G1 X122.92 Y90.408 E0.002
G1 X122.904 Y90.491 E0.003
G1 X123.085 Y91.52 E0.035
G1 X123.142 Y91.612 E0.003
G1 X123.205 Y91.651 E0.003
G1 X123.259 Y91.663 E0.002
G1 X128.03 Y90.832 E0.161
G1 X128.48 Y90.783 E0.015
G1 X128.991 Y90.798 E0.017
G1 X129.491 Y90.88 E0.017
G1 X129.982 Y91.029 E0.017
G1 X130.444 Y91.241 E0.017
G1 X130.872 Y91.511 E0.017
G1 X131.267 Y91.841 E0.017
G1 X131.61 Y92.22 E0.017
G1 X131.9 Y92.639 E0.017
G1 X132.13 Y93.093 E0.017
G1 X132.3 Y93.575 E0.017
G1 X132.401 Y94.078 E0.017
G1 X132.431 Y94.525 E0.015
G1 Y111.019 E0.548
G1 X132.437 Y111.103 E0.003
G1 X132.464 Y111.18 E0.003
G1 X132.516 Y111.237 E0.002
G1 X132.562 Y111.262 E0.002
G1 X132.638 Y111.274 E0.003
G1 X132.725 Y111.265 E0.002
G1 X166.357 Y105.335 E1.136
G1 X166.814 Y105.289 E0.016
G1 X167.281 Y105.3 E0.015
G1 X167.773 Y105.374 E0.017
G1 X168.253 Y105.516 E0.016
G1 X168.706 Y105.715 E0.017
G1 X169.13 Y105.972 E0.016
G1 X169.524 Y106.287 E0.017
G1 X169.88 Y106.666 E0.017
G1 X170.159 Y107.045 E0.016
G1 X170.399 Y107.485 E0.017
G1 X170.577 Y107.946 E0.016
G1 X170.682 Y108.369 E0.015
G1 X171.24 Y111.539 E0.107
G1 Y117.344 E0.193
G1 X171.209 Y117.858 E0.017
G1 X171.122 Y118.36 E0.017
G1 X170.974 Y118.876 E0.018
G1 X170.768 Y119.373 E0.018
G1 X170.508 Y119.843 E0.017
G1 X170.196 Y120.283 E0.018
G1 X169.837 Y120.686 E0.018
G1 X169.434 Y121.045 E0.018
G1 X168.995 Y121.356 E0.018
G1 X168.519 Y121.619 E0.018
G1 X167.996 Y121.832 E0.019
G1 X167.508 Y121.972 E0.017
G1 X166.977 Y122.061 E0.018
G1 X166.491 Y122.089 E0.016
G1 X159.24 E0.241
G1 Y141.489 E0.645
G1 X167.969 E0.291
G1 X168.434 Y141.515 E0.015
G1 X168.943 Y141.597 E0.017
G1 X169.441 Y141.735 E0.018
G1 X169.92 Y141.923 E0.017
G1 X170.377 Y142.164 E0.017
G1 X170.803 Y142.45 E0.017
G1 X171.199 Y142.781 E0.017
G1 X171.556 Y143.153 E0.017
G1 X171.871 Y143.561 E0.017
G1 X172.141 Y144 E0.018
G1 X172.35 Y144.439 E0.016
G1 X172.531 Y144.947 E0.018
G1 X172.638 Y145.407 E0.015
G1 X175.693 Y162.731 E0.585
G1 X175.751 Y163.225 E0.017
G1 X175.752 Y163.772 E0.018
G1 X175.691 Y164.325 E0.019
G1 X175.558 Y164.884 E0.019
G1 X175.386 Y165.369 E0.017
G1 X175.146 Y165.86 E0.018
G1 X174.852 Y166.323 E0.018
G1 X174.502 Y166.754 E0.019
G1 X174.088 Y167.154 E0.019
G1 X173.679 Y167.47 E0.017
G1 X173.211 Y167.754 E0.018
G1 X172.714 Y167.983 E0.019
G1 X172.243 Y168.138 E0.016
G1 X164.094 Y170.311 E0.281
G1 X163.44 Y170.34 E0.021
G1 X162.954 Y170.32 E0.016
G1 X162.441 Y170.254 E0.018
G1 X161.936 Y170.142 E0.017
G1 X161.444 Y169.986 E0.017
G1 X161.254 Y169.907 E0.007
G1 X160.306 Y169.773 E0.032
G1 X158.968 Y169.615 E0.045
G1 X157.731 Y169.505 E0.041
G1 X156.495 Y169.43 E0.041
G1 X155.264 Y169.391 E0.041
G1 X154.044 Y169.39 E0.041
G1 X152.242 Y169.459 E0.06
G1 X150.974 Y169.56 E0.042
G1 X149.2 Y169.774 E0.059
G1 X147.934 Y169.979 E0.043
G1 X146.716 Y170.216 E0.041
G1 X145.495 Y170.491 E0.042
G1 X144.272 Y170.803 E0.042
G1 X143.048 Y171.149 E0.042
G1 X142.186 Y171.417 E0.03
G1 X141.666 Y171.811 E0.022
G1 X141.224 Y172.081 E0.017
G1 X140.728 Y172.321 E0.018
G1 X140.207 Y172.516 E0.019
G1 X139.645 Y172.664 E0.019
G1 X139.135 Y172.749 E0.017
G1 X138.583 Y172.79 E0.019
G1 X138.001 Y172.774 E0.019
G1 X137.487 Y172.712 E0.017
G1 X136.949 Y172.597 E0.019
G1 X136.424 Y172.43 E0.018
G1 X135.915 Y172.213 E0.018
G1 X135.431 Y171.949 E0.019
G1 X135.238 Y171.82 E0.008
G1 X134.229 Y171.467 E0.035
G1 X133.021 Y171.08 E0.042
G1 X131.903 Y170.756 E0.039
G1 X130.597 Y170.415 E0.045
G1 X129.377 Y170.138 E0.041
G1 X127.558 Y169.802 E0.062
G1 X126.336 Y169.628 E0.041
G1 X125.109 Y169.497 E0.041
G1 X123.877 Y169.407 E0.041
G1 X122.638 Y169.36 E0.041
G1 X121.398 Y169.353 E0.042
G1 X119.499 Y169.416 E0.063
G1 X118.239 Y169.504 E0.042
G1 X116.965 Y169.628 E0.042
G1 X115.98 Y169.75 E0.033
G1 X115.841 Y169.822 E0.006
G1 X115.317 Y170.029 E0.018
G1 X114.777 Y170.186 E0.019
G1 X114.215 Y170.29 E0.019
G1 X113.624 Y170.337 E0.02
G1 X113.099 Y170.331 E0.017
G1 X112.539 Y170.271 E0.019
G1 X111.985 Y170.156 E0.019
G1 X111.447 Y169.988 E0.019
G1 X110.923 Y169.767 E0.019
G1 X110.405 Y169.482 E0.019
G1 X109.968 Y169.187 E0.018
G1 X109.778 Y169.031 E0.008
G1 X108.76 Y168.556 E0.037
G1 X107.551 Y168.031 E0.044
G1 X105.735 Y167.318 E0.065
G1 X104.547 Y166.902 E0.042
G1 X103.949 Y166.708 E0.021
G1 X102.666 Y166.328 E0.044
G1 X101.431 Y166.009 E0.043
G1 X100.187 Y165.735 E0.042
G1 X98.933 Y165.504 E0.042
G1 X97.663 Y165.316 E0.043
G1 X97.042 Y165.241 E0.021
G1 X95.806 Y165.122 E0.041
G1 X94.457 Y165.036 E0.045
G1 X93.822 Y165.009 E0.021
G1 X92.508 Y164.986 E0.044
G1 X91.191 Y165 E0.044
G1 X90.07 Y165.041 E0.037
G1 X89.841 Y165.11 E0.008
G1 X89.296 Y165.218 E0.019
G1 X88.74 Y165.274 E0.018
G1 X88.184 Y165.275 E0.019
G1 X87.633 Y165.225 E0.018
G1 X87.085 Y165.121 E0.019
G1 X86.55 Y164.964 E0.018
G1 X86.034 Y164.759 E0.019
G1 X85.708 Y164.59 E0.012
G1 X77.294 Y161.408 E0.299
G1 X76.835 Y161.201 E0.017
G1 X76.404 Y160.95 E0.016
G1 X75.981 Y160.637 E0.018
G1 X75.594 Y160.279 E0.017
G1 X75.248 Y159.88 E0.018
G1 X74.949 Y159.447 E0.018
G1 X74.696 Y158.979 E0.017
G1 X74.49 Y158.462 E0.019
G1 X74.356 Y157.982 E0.016
G1 X74.27 Y157.464 E0.018
G1 X74.244 Y156.987 E0.016
G1 Y41.96 E3.825
G1 X74.272 Y41.474 E0.017
G1 X74.361 Y40.943 E0.018
G1 X74.512 Y40.418 E0.018
G1 X74.733 Y39.897 E0.019
G1 X74.977 Y39.457 E0.016
G1 X75.287 Y39.018 E0.018
G1 X75.647 Y38.614 E0.018
G1 X76.051 Y38.253 E0.018
G1 X76.49 Y37.944 E0.018
G1 X76.964 Y37.681 E0.018
G1 X77.488 Y37.468 E0.019
G1 X77.976 Y37.328 E0.017
G1 X78.507 Y37.239 E0.018
G1 X78.993 Y37.211 E0.016
G1 X156.682 E2.584
;rapid-leaky
G0 X156.671 Y37.611 F7200
;bead-skirt/brim
G1 X157.123 Y37.637 F960 E0.015
G1 X157.61 Y37.719 E0.016
G1 X158.09 Y37.857 E0.017
G1 X158.569 Y38.06 E0.017
G1 X158.972 Y38.284 E0.016
G1 X159.374 Y38.567 E0.016
G1 X159.745 Y38.897 E0.016
G1 X160.074 Y39.266 E0.017
G1 X160.363 Y39.674 E0.016
G1 X160.61 Y40.129 E0.018
G1 X160.787 Y40.558 E0.015
G1 X160.923 Y41.032 E0.017
G1 X161.005 Y41.519 E0.016
G1 X161.031 Y41.971 E0.015
G1 Y80.381 E1.278
G1 X161.002 Y80.805 E0.014
G1 X160.903 Y81.272 E0.016
G1 X160.739 Y81.719 E0.015
G1 X160.517 Y82.136 E0.016
G1 X160.239 Y82.518 E0.016
G1 X159.911 Y82.861 E0.016
G1 X159.534 Y83.155 E0.016
G1 X159.122 Y83.392 E0.015
G1 X158.683 Y83.57 E0.016
G1 X158.269 Y83.672 E0.014
G1 X123.043 Y89.883 E1.19
G1 X122.847 Y89.942 E0.007
G1 X122.661 Y90.079 E0.007
G1 X122.611 Y90.141 E0.003
G1 X122.542 Y90.272 E0.005
G1 X122.516 Y90.366 E0.003
G1 X122.504 Y90.508 E0.005
G1 X122.703 Y91.642 E0.038
G1 X122.738 Y91.73 E0.003
G1 X122.816 Y91.851 E0.005
G1 X122.933 Y91.958 E0.006
G1 X123.068 Y92.028 E0.005
G1 X123.224 Y92.063 E0.005
G1 X123.422 Y92.051 E0.006
G1 X128.087 Y91.228 E0.158
G1 X128.496 Y91.184 E0.014
G1 X128.953 Y91.197 E0.015
G1 X129.401 Y91.27 E0.015
G1 X129.84 Y91.403 E0.015
G1 X130.253 Y91.594 E0.015
G1 X130.636 Y91.835 E0.015
G1 X130.989 Y92.13 E0.016
G1 X131.296 Y92.469 E0.015
G1 X131.556 Y92.844 E0.015
G1 X131.761 Y93.25 E0.015
G1 X131.913 Y93.682 E0.016
G1 X132.004 Y94.131 E0.015
G1 X132.031 Y94.538 E0.013
G1 Y111.032 E0.549
G1 X132.056 Y111.237 E0.007
G1 X132.119 Y111.385 E0.005
G1 X132.164 Y111.45 E0.003
G1 X132.28 Y111.561 E0.005
G1 X132.42 Y111.637 E0.005
G1 X132.575 Y111.673 E0.006
G1 X132.782 Y111.661 E0.007
G1 X166.411 Y105.731 E1.135
G1 X166.829 Y105.689 E0.014
G1 X167.246 Y105.7 E0.014
G1 X167.687 Y105.766 E0.015
G1 X168.115 Y105.892 E0.015
G1 X168.521 Y106.07 E0.015
G1 X168.901 Y106.301 E0.014
G1 X169.252 Y106.582 E0.015
G1 X169.572 Y106.922 E0.016
G1 X169.821 Y107.261 E0.014
G1 X170.036 Y107.653 E0.015
G1 X170.195 Y108.066 E0.014
G1 X170.29 Y108.452 E0.014
G1 X170.84 Y111.574 E0.105
G1 Y117.332 E0.192
G1 X170.811 Y117.812 E0.016
G1 X170.732 Y118.271 E0.015
G1 X170.595 Y118.743 E0.016
G1 X170.407 Y119.199 E0.017
G1 X170.169 Y119.63 E0.016
G1 X169.883 Y120.034 E0.017
G1 X169.554 Y120.403 E0.016
G1 X169.184 Y120.732 E0.017
G1 X168.782 Y121.017 E0.016
G1 X168.346 Y121.258 E0.017
G1 X167.865 Y121.453 E0.017
G1 X167.419 Y121.581 E0.015
G1 X166.932 Y121.663 E0.017
G1 X166.48 Y121.689 E0.015
G1 X158.84 E0.254
G1 Y141.889 E0.672
G1 X167.958 E0.303
G1 X168.391 Y141.913 E0.014
G1 X168.858 Y141.988 E0.016
G1 X169.314 Y142.114 E0.016
G1 X169.753 Y142.287 E0.016
G1 X170.172 Y142.508 E0.015
G1 X170.563 Y142.77 E0.016
G1 X170.925 Y143.073 E0.016
G1 X171.253 Y143.414 E0.015
G1 X171.542 Y143.788 E0.016
G1 X171.789 Y144.191 E0.016
G1 X171.98 Y144.592 E0.015
G1 X172.146 Y145.06 E0.016
G1 X172.246 Y145.487 E0.015
G1 X175.297 Y162.79 E0.584
G1 X175.351 Y163.249 E0.015
G1 X175.352 Y163.751 E0.017
G1 X175.296 Y164.257 E0.017
G1 X175.174 Y164.77 E0.018
G1 X175.016 Y165.214 E0.015
G1 X174.797 Y165.665 E0.017
G1 X174.527 Y166.089 E0.017
G1 X174.206 Y166.483 E0.017
G1 X173.826 Y166.851 E0.017
G1 X173.452 Y167.14 E0.016
G1 X173.023 Y167.4 E0.017
G1 X172.567 Y167.61 E0.016
G1 X172.129 Y167.754 E0.016
G1 X164.033 Y169.913 E0.278
G1 X163.439 Y169.939 E0.02
G1 X162.988 Y169.921 E0.015
G1 X162.51 Y169.859 E0.016
G1 X162.04 Y169.755 E0.016
G1 X161.582 Y169.61 E0.016
G1 X161.361 Y169.518 E0.008
G1 X160.358 Y169.376 E0.034
G1 X159.009 Y169.217 E0.045
G1 X157.761 Y169.106 E0.042
G1 X156.513 Y169.031 E0.041
G1 X155.27 Y168.991 E0.042
G1 X154.036 Y168.99 E0.041
G1 X152.218 Y169.06 E0.06
G1 X150.937 Y169.161 E0.043
G1 X149.143 Y169.379 E0.06
G1 X147.864 Y169.586 E0.043
G1 X146.634 Y169.824 E0.042
G1 X145.402 Y170.102 E0.042
G1 X144.168 Y170.416 E0.042
G1 X142.934 Y170.765 E0.043
G1 X141.982 Y171.061 E0.033
G1 X141.878 Y171.156 E0.005
G1 X141.443 Y171.478 E0.018
G1 X141.032 Y171.729 E0.016
G1 X140.57 Y171.953 E0.017
G1 X140.086 Y172.134 E0.017
G1 X139.561 Y172.272 E0.018
G1 X139.087 Y172.351 E0.016
G1 X138.574 Y172.389 E0.017
G1 X138.03 Y172.375 E0.018
G1 X137.553 Y172.317 E0.016
G1 X137.052 Y172.21 E0.017
G1 X136.563 Y172.054 E0.017
G1 X136.089 Y171.853 E0.017
G1 X135.639 Y171.607 E0.017
G1 X135.419 Y171.459 E0.009
G1 X134.356 Y171.088 E0.038
G1 X133.137 Y170.697 E0.042
G1 X132.009 Y170.37 E0.039
G1 X130.691 Y170.026 E0.046
G1 X129.461 Y169.747 E0.042
G1 X127.621 Y169.407 E0.062
G1 X126.385 Y169.231 E0.041
G1 X125.145 Y169.099 E0.042
G1 X123.899 Y169.008 E0.041
G1 X122.646 Y168.96 E0.042
G1 X121.392 Y168.953 E0.042
G1 X119.478 Y169.016 E0.063
G1 X118.206 Y169.105 E0.043
G1 X116.921 Y169.231 E0.043
G1 X115.86 Y169.362 E0.035
G1 X115.675 Y169.457 E0.007
G1 X115.188 Y169.65 E0.018
G1 X114.684 Y169.796 E0.017
G1 X114.163 Y169.893 E0.018
G1 X113.611 Y169.937 E0.018
G1 X113.122 Y169.931 E0.016
G1 X112.601 Y169.876 E0.018
G1 X112.086 Y169.769 E0.017
G1 X111.585 Y169.612 E0.018
G1 X111.098 Y169.407 E0.017
G1 X110.613 Y169.14 E0.019
G1 X110.208 Y168.866 E0.016
G1 X109.993 Y168.69 E0.009
G1 X108.924 Y168.191 E0.04
G1 X107.705 Y167.662 E0.044
G1 X106.523 Y167.187 E0.042
G1 X105.871 Y166.942 E0.023
G1 X104.675 Y166.523 E0.042
G1 X104.067 Y166.326 E0.022
G1 X102.773 Y165.942 E0.045
G1 X101.524 Y165.62 E0.043
G1 X100.267 Y165.342 E0.042
G1 X98.999 Y165.109 E0.043
G1 X97.716 Y164.92 E0.043
G1 X97.085 Y164.843 E0.021
G1 X95.837 Y164.723 E0.042
G1 X94.478 Y164.636 E0.046
G1 X93.834 Y164.609 E0.021
G1 X92.51 Y164.586 E0.044
G1 X91.181 Y164.6 E0.044
G1 X90.004 Y164.643 E0.039
G1 X89.745 Y164.721 E0.009
G1 X89.237 Y164.822 E0.018
G1 X88.719 Y164.874 E0.017
G1 X88.202 Y164.875 E0.017
G1 X87.689 Y164.828 E0.017
G1 X87.178 Y164.732 E0.017
G1 X86.681 Y164.586 E0.018
G1 X86.2 Y164.394 E0.017
G1 X85.87 Y164.224 E0.012
G1 X77.447 Y161.038 E0.3
G1 X77.018 Y160.845 E0.015
G1 X76.625 Y160.616 E0.016
G1 X76.237 Y160.329 E0.016
G1 X75.882 Y160 E0.016
G1 X75.565 Y159.635 E0.016
G1 X75.291 Y159.238 E0.016
G1 X75.059 Y158.809 E0.016
G1 X74.87 Y158.334 E0.017
G1 X74.747 Y157.896 E0.015
G1 X74.668 Y157.42 E0.016
G1 X74.644 Y156.976 E0.015
G1 Y41.971 E3.825
G1 X74.67 Y41.519 E0.015
G1 X74.752 Y41.032 E0.017
G1 X74.89 Y40.552 E0.016
G1 X75.093 Y40.073 E0.018
G1 X75.317 Y39.67 E0.015
G1 X75.6 Y39.268 E0.016
G1 X75.93 Y38.897 E0.017
G1 X76.301 Y38.567 E0.016
G1 X76.703 Y38.283 E0.017
G1 X77.137 Y38.043 E0.016
G1 X77.619 Y37.847 E0.017
G1 X78.065 Y37.719 E0.016
G1 X78.552 Y37.637 E0.016
G1 X79.004 Y37.611 E0.015
G1 X156.671 E2.584
;rapid-leaky
G0 X156.659 Y38.011 F7200
;bead-skirt/brim
G1 X157.079 Y38.035 F960 E0.014
G1 X157.521 Y38.109 E0.014
G1 X157.957 Y38.235 E0.016
G1 X158.394 Y38.42 E0.015
G1 X158.759 Y38.623 E0.014
G1 X159.125 Y38.881 E0.015
G1 X159.461 Y39.181 E0.015
G1 X159.76 Y39.516 E0.015
G1 X160.022 Y39.885 E0.015
G1 X160.248 Y40.301 E0.016
G1 X160.409 Y40.69 E0.014
G1 X160.533 Y41.121 E0.015
G1 X160.607 Y41.563 E0.015
G1 X160.631 Y41.983 E0.014
G1 Y80.367 E1.276
G1 X160.605 Y80.75 E0.013
G1 X160.517 Y81.161 E0.014
G1 X160.373 Y81.555 E0.014
G1 X160.177 Y81.923 E0.014
G1 X159.932 Y82.261 E0.014
G1 X159.642 Y82.563 E0.014
G1 X159.31 Y82.823 E0.014
G1 X158.947 Y83.031 E0.014
G1 X158.559 Y83.188 E0.014
G1 X158.186 Y83.281 E0.012
G1 X122.96 Y89.492 E1.19
G1 X122.678 Y89.579 E0.01
G1 X122.569 Y89.639 E0.004
G1 X122.365 Y89.809 E0.009
G1 X122.283 Y89.911 E0.004
G1 X122.165 Y90.137 E0.009
G1 X122.124 Y90.281 E0.005
G1 X122.103 Y90.526 E0.008
G1 X122.283 Y91.61 E0.036
G1 X122.321 Y91.764 E0.006
G1 X122.376 Y91.902 E0.005
G1 X122.509 Y92.108 E0.008
G1 X122.6 Y92.203 E0.004
G1 X122.813 Y92.353 E0.009
G1 X122.931 Y92.405 E0.004
G1 X123.188 Y92.462 E0.009
G1 X123.479 Y92.447 E0.01
G1 X128.143 Y91.624 E0.157
G1 X128.512 Y91.584 E0.012
G1 X128.914 Y91.596 E0.014
G1 X129.31 Y91.661 E0.013
G1 X129.697 Y91.778 E0.014
G1 X130.062 Y91.946 E0.013
G1 X130.401 Y92.16 E0.013
G1 X130.712 Y92.419 E0.014
G1 X130.982 Y92.718 E0.013
G1 X131.211 Y93.049 E0.013
G1 X131.393 Y93.408 E0.014
G1 X131.527 Y93.788 E0.013
G1 X131.606 Y94.184 E0.014
G1 X131.631 Y94.551 E0.012
G1 Y111.045 E0.549
G1 X131.642 Y111.211 E0.005
G1 X131.669 Y111.343 E0.005
G1 X131.774 Y111.59 E0.008
G1 X131.939 Y111.797 E0.009
G1 X132.157 Y111.956 E0.009
G1 X132.277 Y112.012 E0.005
G1 X132.538 Y112.072 E0.009
G1 X132.838 Y112.057 E0.01
G1 X166.466 Y106.128 E1.135
G1 X166.844 Y106.09 E0.013
G1 X167.211 Y106.099 E0.012
G1 X167.6 Y106.157 E0.013
G1 X167.978 Y106.269 E0.013
G1 X168.336 Y106.426 E0.013
G1 X168.671 Y106.63 E0.013
G1 X168.981 Y106.877 E0.014
G1 X169.264 Y107.178 E0.013
G1 X169.482 Y107.476 E0.013
G1 X169.672 Y107.822 E0.013
G1 X169.813 Y108.187 E0.013
G1 X169.899 Y108.535 E0.012
G1 X170.44 Y111.609 E0.103
G1 Y117.319 E0.19
G1 X170.413 Y117.766 E0.015
G1 X170.341 Y118.181 E0.014
G1 X170.217 Y118.611 E0.015
G1 X170.046 Y119.025 E0.015
G1 X169.829 Y119.417 E0.015
G1 X169.569 Y119.784 E0.015
G1 X169.27 Y120.119 E0.015
G1 X168.935 Y120.419 E0.015
G1 X168.569 Y120.677 E0.015
G1 X168.173 Y120.896 E0.015
G1 X167.734 Y121.074 E0.016
G1 X167.33 Y121.191 E0.013
G1 X166.888 Y121.265 E0.015
G1 X166.468 Y121.289 E0.014
G1 X158.44 E0.267
G1 Y142.289 E0.699
G1 X167.947 E0.316
G1 X168.348 Y142.311 E0.013
G1 X168.772 Y142.379 E0.015
G1 X169.187 Y142.494 E0.014
G1 X169.586 Y142.652 E0.014
G1 X169.967 Y142.852 E0.015
G1 X170.322 Y143.09 E0.014
G1 X170.652 Y143.366 E0.014
G1 X170.949 Y143.676 E0.014
G1 X171.212 Y144.016 E0.015
G1 X171.437 Y144.382 E0.014
G1 X171.61 Y144.746 E0.013
G1 X171.762 Y145.173 E0.015
G1 X171.854 Y145.567 E0.014
G1 X174.901 Y162.848 E0.584
G1 X174.951 Y163.273 E0.014
G1 X174.952 Y163.729 E0.015
G1 X174.901 Y164.188 E0.015
G1 X174.789 Y164.657 E0.016
G1 X174.647 Y165.059 E0.015
G1 X174.447 Y165.469 E0.015
G1 X174.202 Y165.855 E0.015
G1 X173.911 Y166.212 E0.015
G1 X173.564 Y166.548 E0.016
G1 X173.225 Y166.81 E0.015
G1 X172.835 Y167.046 E0.015
G1 X172.42 Y167.237 E0.015
G1 X172.014 Y167.371 E0.014
G1 X163.972 Y169.515 E0.277
G1 X163.438 Y169.539 E0.018
G1 X163.022 Y169.522 E0.014
G1 X162.579 Y169.465 E0.014
G1 X162.143 Y169.369 E0.015
G1 X161.719 Y169.234 E0.015
G1 X161.467 Y169.129 E0.009
G1 X160.409 Y168.98 E0.036
G1 X159.05 Y168.819 E0.045
G1 X157.791 Y168.707 E0.042
G1 X156.532 Y168.631 E0.042
G1 X155.277 Y168.591 E0.042
G1 X154.029 Y168.59 E0.042
G1 X152.195 Y168.66 E0.061
G1 X150.901 Y168.763 E0.043
G1 X149.085 Y168.983 E0.061
G1 X147.794 Y169.192 E0.043
G1 X146.551 Y169.433 E0.042
G1 X145.308 Y169.713 E0.043
G1 X144.064 Y170.03 E0.042
G1 X142.821 Y170.382 E0.043
G1 X141.778 Y170.706 E0.037
G1 X141.624 Y170.846 E0.006
G1 X141.219 Y171.146 E0.017
G1 X140.84 Y171.378 E0.015
G1 X140.412 Y171.585 E0.016
G1 X139.965 Y171.752 E0.016
G1 X139.477 Y171.881 E0.016
G1 X139.04 Y171.954 E0.015
G1 X138.564 Y171.989 E0.016
G1 X138.06 Y171.975 E0.017
G1 X137.619 Y171.922 E0.015
G1 X137.155 Y171.823 E0.015
G1 X136.702 Y171.679 E0.016
G1 X136.264 Y171.492 E0.016
G1 X135.846 Y171.265 E0.016
G1 X135.599 Y171.098 E0.01
G1 X134.483 Y170.708 E0.039
G1 X133.254 Y170.315 E0.043
G1 X132.116 Y169.984 E0.039
G1 X130.786 Y169.638 E0.046
G1 X129.545 Y169.356 E0.043
G1 X127.684 Y169.012 E0.062
G1 X126.434 Y168.834 E0.042
G1 X125.18 Y168.7 E0.042
G1 X123.922 Y168.609 E0.042
G1 X122.655 Y168.56 E0.042
G1 X121.387 Y168.553 E0.043
G1 X119.457 Y168.617 E0.064
G1 X118.172 Y168.707 E0.043
G1 X116.877 Y168.833 E0.043
G1 X115.74 Y168.974 E0.038
G1 X115.509 Y169.092 E0.009
G1 X115.058 Y169.271 E0.016
G1 X114.592 Y169.406 E0.016
G1 X114.11 Y169.496 E0.016
G1 X113.597 Y169.536 E0.017
G1 X113.145 Y169.531 E0.015
G1 X112.663 Y169.48 E0.017
G1 X112.186 Y169.381 E0.016
G1 X111.723 Y169.236 E0.016
G1 X111.272 Y169.046 E0.016
G1 X110.822 Y168.798 E0.017
G1 X110.447 Y168.545 E0.015
G1 X110.208 Y168.349 E0.011
G1 X109.089 Y167.826 E0.041
G1 X107.86 Y167.293 E0.044
G1 X106.668 Y166.814 E0.043
G1 X106.008 Y166.566 E0.023
G1 X104.803 Y166.144 E0.043
G1 X104.186 Y165.944 E0.022
G1 X102.88 Y165.557 E0.045
G1 X101.617 Y165.231 E0.043
G1 X100.346 Y164.95 E0.043
G1 X99.064 Y164.715 E0.044
G1 X97.769 Y164.523 E0.043
G1 X97.129 Y164.445 E0.022
G1 X95.869 Y164.324 E0.042
G1 X94.499 Y164.237 E0.046
G1 X93.846 Y164.21 E0.021
G1 X92.511 Y164.186 E0.045
G1 X91.172 Y164.2 E0.044
G1 X89.938 Y164.246 E0.041
G1 X89.648 Y164.332 E0.01
G1 X89.178 Y164.426 E0.016
G1 X88.699 Y164.474 E0.016
G1 X88.219 Y164.475 E0.016
G1 X87.744 Y164.431 E0.016
G1 X87.272 Y164.342 E0.016
G1 X86.811 Y164.207 E0.016
G1 X86.367 Y164.03 E0.016
G1 X86.034 Y163.858 E0.013
G1 X77.6 Y160.668 E0.299
G1 X77.202 Y160.489 E0.015
G1 X76.845 Y160.281 E0.014
G1 X76.492 Y160.02 E0.014
G1 X76.169 Y159.722 E0.015
G1 X75.881 Y159.389 E0.015
G1 X75.632 Y159.029 E0.014
G1 X75.422 Y158.639 E0.015
G1 X75.249 Y158.206 E0.015
G1 X75.138 Y157.809 E0.014
G1 X75.066 Y157.377 E0.015
G1 X75.044 Y156.965 E0.013
G1 Y41.983 E3.825
G1 X75.068 Y41.563 E0.014
G1 X75.142 Y41.121 E0.015
G1 X75.268 Y40.686 E0.015
G1 X75.453 Y40.248 E0.015
G1 X75.656 Y39.883 E0.014
G1 X75.914 Y39.517 E0.015
G1 X76.214 Y39.181 E0.015
G1 X76.55 Y38.881 E0.015
G1 X76.916 Y38.623 E0.015
G1 X77.31 Y38.404 E0.015
G1 X77.75 Y38.226 E0.016
G1 X78.154 Y38.109 E0.014
G1 X78.596 Y38.035 E0.015
G1 X79.016 Y38.011 E0.014
G1 X156.659 E2.582
;rapid-leaky
G0 X156.648 Y38.411 F7200
;bead-skirt/brim
G1 X157.034 Y38.433 F960 E0.013
G1 X157.432 Y38.5 E0.013
G1 X157.823 Y38.612 E0.014
G1 X158.218 Y38.78 E0.014
G1 X158.546 Y38.962 E0.013
G1 X158.876 Y39.194 E0.013
G1 X159.178 Y39.464 E0.014
G1 X159.447 Y39.766 E0.013
G1 X159.682 Y40.097 E0.014
G1 X159.886 Y40.474 E0.014
G1 X160.03 Y40.822 E0.012
G1 X160.142 Y41.21 E0.014
G1 X160.209 Y41.608 E0.013
G1 X160.231 Y41.994 E0.013
G1 Y80.353 E1.276
G1 X160.208 Y80.694 E0.011
G1 X160.132 Y81.05 E0.012
G1 X160.007 Y81.391 E0.012
G1 X159.837 Y81.711 E0.013
G1 X159.624 Y82.004 E0.012
G1 X159.373 Y82.265 E0.012
G1 X159.086 Y82.49 E0.012
G1 X158.771 Y82.671 E0.012
G1 X158.435 Y82.807 E0.012
G1 X158.103 Y82.889 E0.011
G1 X122.878 Y89.1 E1.19
G1 X122.68 Y89.149 E0.007
G1 X122.509 Y89.215 E0.006
G1 X122.352 Y89.302 E0.006
G1 X122.19 Y89.423 E0.006
G1 X122.069 Y89.538 E0.006
G1 X121.954 Y89.681 E0.006
G1 X121.859 Y89.838 E0.006
G1 X121.787 Y90.002 E0.006
G1 X121.732 Y90.196 E0.007
G1 X121.707 Y90.362 E0.005
G1 X121.703 Y90.544 E0.007
G1 X121.725 Y90.745 E0.006
G1 X121.892 Y91.692 E0.032
G1 X121.939 Y91.886 E0.007
G1 X122.014 Y92.073 E0.007
G1 X122.094 Y92.218 E0.005
G1 X122.202 Y92.366 E0.006
G1 X122.329 Y92.499 E0.006
G1 X122.473 Y92.614 E0.006
G1 X122.628 Y92.709 E0.006
G1 X122.795 Y92.782 E0.007
G1 X122.971 Y92.833 E0.006
G1 X123.153 Y92.861 E0.006
G1 X123.334 Y92.865 E0.006
G1 X123.536 Y92.843 E0.007
G1 X128.199 Y92.021 E0.157
G1 X128.527 Y91.985 E0.011
G1 X128.876 Y91.995 E0.012
G1 X129.22 Y92.051 E0.011
G1 X129.555 Y92.153 E0.012
G1 X129.871 Y92.298 E0.011
G1 X130.165 Y92.484 E0.012
G1 X130.434 Y92.708 E0.012
G1 X130.668 Y92.967 E0.011
G1 X130.867 Y93.254 E0.012
G1 X131.024 Y93.565 E0.011
G1 X131.14 Y93.894 E0.012
G1 X131.209 Y94.237 E0.012
G1 X131.231 Y94.565 E0.011
G1 Y111.059 E0.548
G1 X131.245 Y111.265 E0.007
G1 X131.283 Y111.449 E0.006
G1 X131.344 Y111.626 E0.007
G1 X131.43 Y111.795 E0.006
G1 X131.536 Y111.949 E0.006
G1 X131.662 Y112.087 E0.006
G1 X131.806 Y112.208 E0.007
G1 X131.965 Y112.309 E0.006
G1 X132.135 Y112.387 E0.006
G1 X132.315 Y112.441 E0.006
G1 X132.5 Y112.471 E0.007
G1 X132.687 Y112.476 E0.006
G1 X132.894 Y112.454 E0.007
G1 X166.521 Y106.524 E1.135
G1 X166.859 Y106.49 E0.012
G1 X167.176 Y106.498 E0.01
G1 X167.513 Y106.549 E0.012
G1 X167.84 Y106.645 E0.011
G1 X168.151 Y106.782 E0.011
G1 X168.441 Y106.958 E0.011
G1 X168.709 Y107.172 E0.012
G1 X168.956 Y107.435 E0.012
G1 X169.144 Y107.691 E0.01
G1 X169.308 Y107.991 E0.012
G1 X169.43 Y108.307 E0.011
G1 X169.507 Y108.618 E0.011
G1 X170.04 Y111.644 E0.102
G1 Y117.307 E0.188
G1 X170.015 Y117.719 E0.014
G1 X169.951 Y118.091 E0.013
G1 X169.839 Y118.479 E0.013
G1 X169.685 Y118.852 E0.013
G1 X169.49 Y119.204 E0.014
G1 X169.256 Y119.534 E0.013
G1 X168.987 Y119.836 E0.014
G1 X168.685 Y120.105 E0.013
G1 X168.356 Y120.338 E0.014
G1 X168.001 Y120.534 E0.013
G1 X167.603 Y120.696 E0.014
G1 X167.241 Y120.8 E0.013
G1 X166.843 Y120.867 E0.013
G1 X166.457 Y120.889 E0.013
G1 X158.04 E0.28
G1 Y142.689 E0.725
G1 X167.936 E0.329
G1 X168.305 Y142.71 E0.013
G1 X168.687 Y142.771 E0.012
G1 X169.06 Y142.874 E0.013
G1 X169.419 Y143.016 E0.013
G1 X169.762 Y143.196 E0.013
G1 X170.082 Y143.411 E0.013
G1 X170.378 Y143.659 E0.013
G1 X170.646 Y143.938 E0.013
G1 X170.882 Y144.244 E0.012
G1 X171.085 Y144.573 E0.013
G1 X171.24 Y144.899 E0.012
G1 X171.378 Y145.286 E0.014
G1 X171.462 Y145.648 E0.012
G1 X174.505 Y162.906 E0.583
G1 X174.551 Y163.297 E0.013
G1 X174.552 Y163.707 E0.014
G1 X174.506 Y164.119 E0.014
G1 X174.405 Y164.543 E0.014
G1 X174.277 Y164.904 E0.013
G1 X174.097 Y165.273 E0.014
G1 X173.877 Y165.62 E0.013
G1 X173.616 Y165.941 E0.014
G1 X173.302 Y166.245 E0.015
G1 X172.998 Y166.479 E0.012
G1 X172.647 Y166.693 E0.014
G1 X172.274 Y166.864 E0.014
G1 X171.9 Y166.987 E0.013
G1 X163.911 Y169.118 E0.275
G1 X163.438 Y169.139 E0.016
G1 X163.055 Y169.123 E0.012
G1 X162.648 Y169.071 E0.014
G1 X162.247 Y168.982 E0.014
G1 X161.857 Y168.858 E0.013
G1 X161.573 Y168.74 E0.01
G1 X160.461 Y168.583 E0.038
G1 X159.091 Y168.421 E0.046
G1 X157.82 Y168.308 E0.042
G1 X156.55 Y168.231 E0.042
G1 X155.283 Y168.191 E0.043
G1 X154.021 Y168.19 E0.042
G1 X152.171 Y168.261 E0.061
G1 X150.864 Y168.365 E0.044
G1 X150.24 Y168.43 E0.021
G1 X149.027 Y168.587 E0.04
G1 X147.724 Y168.798 E0.044
G1 X146.469 Y169.041 E0.043
G1 X145.215 Y169.324 E0.042
G1 X143.961 Y169.644 E0.044
G1 X142.707 Y169.998 E0.043
G1 X141.575 Y170.35 E0.039
G1 X141.37 Y170.537 E0.01
G1 X140.995 Y170.814 E0.015
G1 X140.648 Y171.026 E0.014
G1 X140.255 Y171.217 E0.014
G1 X139.844 Y171.371 E0.015
G1 X139.393 Y171.489 E0.015
G1 X138.992 Y171.556 E0.014
G1 X138.555 Y171.589 E0.014
G1 X138.089 Y171.576 E0.016
G1 X137.685 Y171.527 E0.013
G1 X137.258 Y171.436 E0.015
G1 X136.841 Y171.303 E0.014
G1 X136.438 Y171.132 E0.015
G1 X136.054 Y170.922 E0.014
G1 X135.78 Y170.738 E0.011
G1 X134.611 Y170.329 E0.042
G1 X133.371 Y169.932 E0.043
G1 X132.222 Y169.599 E0.04
G1 X130.881 Y169.249 E0.046
G1 X129.628 Y168.965 E0.043
G1 X127.746 Y168.617 E0.063
G1 X126.484 Y168.437 E0.043
G1 X125.216 Y168.302 E0.042
G1 X123.944 Y168.209 E0.042
G1 X122.664 Y168.16 E0.043
G1 X121.381 Y168.153 E0.043
G1 X119.437 Y168.217 E0.064
G1 X118.139 Y168.308 E0.044
G1 X116.833 Y168.435 E0.043
G1 X115.62 Y168.585 E0.041
G1 X115.344 Y168.728 E0.01
G1 X114.928 Y168.892 E0.015
G1 X114.5 Y169.017 E0.015
G1 X114.058 Y169.099 E0.015
G1 X113.583 Y169.136 E0.016
G1 X113.169 Y169.132 E0.014
G1 X112.725 Y169.085 E0.014
G1 X112.287 Y168.993 E0.015
G1 X111.86 Y168.86 E0.015
G1 X111.447 Y168.686 E0.015
G1 X111.031 Y168.457 E0.016
G1 X110.687 Y168.224 E0.014
G1 X110.423 Y168.008 E0.011
G1 X109.253 Y167.461 E0.043
G1 X108.014 Y166.924 E0.045
G1 X106.813 Y166.441 E0.043
G1 X106.144 Y166.19 E0.024
G1 X104.93 Y165.765 E0.043
G1 X104.304 Y165.562 E0.021
G1 X102.987 Y165.171 E0.046
G1 X101.71 Y164.842 E0.044
G1 X100.425 Y164.558 E0.044
G1 X99.13 Y164.32 E0.044
G1 X97.823 Y164.127 E0.044
G1 X97.172 Y164.048 E0.021
G1 X95.901 Y163.925 E0.043
G1 X94.519 Y163.837 E0.046
G1 X93.857 Y163.81 E0.022
G1 X92.513 Y163.786 E0.045
G1 X91.162 Y163.8 E0.045
G1 X89.872 Y163.848 E0.042
G1 X89.551 Y163.944 E0.012
G1 X89.119 Y164.03 E0.014
G1 X88.679 Y164.074 E0.015
G1 X88.237 Y164.075 E0.015
G1 X87.8 Y164.035 E0.014
G1 X87.366 Y163.953 E0.015
G1 X86.942 Y163.829 E0.015
G1 X86.533 Y163.666 E0.014
G1 X86.196 Y163.492 E0.013
G1 X77.753 Y160.299 E0.3
G1 X77.385 Y160.133 E0.014
G1 X77.065 Y159.947 E0.012
G1 X76.748 Y159.712 E0.013
G1 X76.457 Y159.443 E0.013
G1 X76.198 Y159.144 E0.013
G1 X75.974 Y158.819 E0.013
G1 X75.785 Y158.47 E0.014
G1 X75.629 Y158.078 E0.014
G1 X75.529 Y157.722 E0.012
G1 X75.465 Y157.333 E0.013
G1 X75.444 Y156.954 E0.013
G1 Y41.994 E3.823
G1 X75.466 Y41.608 E0.013
G1 X75.533 Y41.21 E0.014
G1 X75.645 Y40.819 E0.013
G1 X75.813 Y40.424 E0.014
G1 X75.995 Y40.096 E0.013
G1 X76.228 Y39.766 E0.013
G1 X76.497 Y39.464 E0.014
G1 X76.799 Y39.195 E0.013
G1 X77.129 Y38.962 E0.014
G1 X77.483 Y38.766 E0.013
G1 X77.881 Y38.604 E0.014
G1 X78.243 Y38.5 E0.013
G1 X78.641 Y38.433 E0.013
G1 X79.027 Y38.411 E0.013
G1 X156.648 E2.582
;rapid-leaky
G0 X156.637 Y38.811 F7200
;bead-skirt/brim
G1 X156.989 Y38.831 F960 E0.012
G1 X157.343 Y38.891 E0.012
G1 X157.689 Y38.99 E0.012
G1 X158.043 Y39.14 E0.012
G1 X158.333 Y39.301 E0.011
G1 X158.627 Y39.508 E0.012
G1 X158.895 Y39.747 E0.012
G1 X159.134 Y40.015 E0.012
G1 X159.342 Y40.309 E0.012
G1 X159.525 Y40.646 E0.013
G1 X159.652 Y40.954 E0.011
G1 X159.751 Y41.299 E0.012
G1 X159.811 Y41.653 E0.012
G1 X159.831 Y42.005 E0.012
G1 Y80.34 E1.275
G1 X159.811 Y80.639 E0.01
G1 X159.747 Y80.939 E0.01
G1 X159.641 Y81.228 E0.01
G1 X159.497 Y81.498 E0.01
G1 X159.317 Y81.747 E0.01
G1 X159.104 Y81.968 E0.011
G1 X158.862 Y82.157 E0.01
G1 X158.596 Y82.31 E0.01
G1 X158.311 Y82.426 E0.01
G1 X158.02 Y82.498 E0.01
G1 X122.795 Y88.709 E1.19
G1 X122.559 Y88.767 E0.008
G1 X122.34 Y88.852 E0.008
G1 X122.135 Y88.965 E0.008
G1 X121.931 Y89.117 E0.008
G1 X121.774 Y89.267 E0.007
G1 X121.626 Y89.451 E0.008
G1 X121.504 Y89.653 E0.008
G1 X121.41 Y89.867 E0.008
G1 X121.341 Y90.112 E0.008
G1 X121.308 Y90.327 E0.008
G1 X121.302 Y90.561 E0.007
G1 X121.329 Y90.802 E0.008
G1 X121.5 Y91.774 E0.033
G1 X121.557 Y92.008 E0.008
G1 X121.651 Y92.244 E0.009
G1 X121.756 Y92.434 E0.007
G1 X121.895 Y92.624 E0.008
G1 X122.058 Y92.794 E0.008
G1 X122.242 Y92.942 E0.007
G1 X122.443 Y93.064 E0.008
G1 X122.658 Y93.159 E0.008
G1 X122.884 Y93.224 E0.008
G1 X123.118 Y93.26 E0.008
G1 X123.352 Y93.266 E0.008
G1 X123.593 Y93.239 E0.008
G1 X128.256 Y92.417 E0.157
G1 X128.543 Y92.386 E0.01
G1 X128.838 Y92.394 E0.009
G1 X129.129 Y92.442 E0.01
G1 X129.412 Y92.528 E0.01
G1 X129.68 Y92.651 E0.01
G1 X129.929 Y92.808 E0.01
G1 X130.156 Y92.997 E0.01
G1 X130.354 Y93.216 E0.009
G1 X130.522 Y93.459 E0.01
G1 X130.655 Y93.722 E0.01
G1 X130.753 Y94.001 E0.01
G1 X130.812 Y94.29 E0.01
G1 X130.831 Y94.578 E0.009
G1 Y111.072 E0.549
G1 X130.848 Y111.319 E0.008
G1 X130.896 Y111.556 E0.008
G1 X130.975 Y111.783 E0.008
G1 X131.085 Y112 E0.008
G1 X131.222 Y112.198 E0.008
G1 X131.385 Y112.376 E0.008
G1 X131.569 Y112.531 E0.008
G1 X131.774 Y112.661 E0.008
G1 X131.993 Y112.762 E0.008
G1 X132.224 Y112.832 E0.008
G1 X132.463 Y112.87 E0.008
G1 X132.704 Y112.877 E0.008
G1 X132.951 Y112.85 E0.009
G1 X166.576 Y106.921 E1.135
G1 X166.874 Y106.891 E0.01
G1 X167.141 Y106.897 E0.009
G1 X167.426 Y106.94 E0.01
G1 X167.703 Y107.022 E0.009
G1 X167.966 Y107.137 E0.01
G1 X168.212 Y107.287 E0.009
G1 X168.437 Y107.467 E0.01
G1 X168.648 Y107.691 E0.01
G1 X168.806 Y107.906 E0.009
G1 X168.945 Y108.16 E0.01
G1 X169.048 Y108.428 E0.009
G1 X169.116 Y108.701 E0.01
G1 X169.64 Y111.679 E0.1
G1 Y117.295 E0.187
G1 X169.617 Y117.673 E0.013
G1 X169.56 Y118.002 E0.011
G1 X169.461 Y118.346 E0.012
G1 X169.324 Y118.678 E0.012
G1 X169.151 Y118.991 E0.012
G1 X168.943 Y119.285 E0.011
G1 X168.704 Y119.553 E0.012
G1 X168.436 Y119.792 E0.012
G1 X168.143 Y119.999 E0.012
G1 X167.828 Y120.173 E0.012
G1 X167.472 Y120.317 E0.013
G1 X167.152 Y120.409 E0.011
G1 X166.798 Y120.469 E0.012
G1 X166.446 Y120.489 E0.012
G1 X157.64 E0.293
G1 Y143.089 E0.751
G1 X167.925 E0.342
G1 X168.262 Y143.108 E0.012
G1 X168.602 Y143.162 E0.011
G1 X168.933 Y143.254 E0.012
G1 X169.252 Y143.38 E0.011
G1 X169.557 Y143.54 E0.011
G1 X169.841 Y143.731 E0.012
G1 X170.105 Y143.952 E0.011
G1 X170.343 Y144.199 E0.012
G1 X170.553 Y144.471 E0.011
G1 X170.733 Y144.764 E0.012
G1 X170.87 Y145.052 E0.01
G1 X170.993 Y145.399 E0.012
G1 X171.07 Y145.728 E0.012
G1 X174.109 Y162.964 E0.582
G1 X174.151 Y163.321 E0.012
G1 X174.152 Y163.686 E0.012
G1 X174.111 Y164.05 E0.012
G1 X174.021 Y164.43 E0.013
G1 X173.908 Y164.749 E0.011
G1 X173.748 Y165.078 E0.012
G1 X173.552 Y165.386 E0.013
G1 X173.321 Y165.67 E0.012
G1 X173.04 Y165.942 E0.013
G1 X172.771 Y166.149 E0.011
G1 X172.459 Y166.339 E0.012
G1 X172.127 Y166.491 E0.012
G1 X171.786 Y166.604 E0.012
G1 X163.85 Y168.72 E0.273
G1 X163.436 Y168.738 E0.014
G1 X163.089 Y168.725 E0.012
G1 X162.717 Y168.676 E0.012
G1 X162.351 Y168.595 E0.013
G1 X161.994 Y168.482 E0.012
G1 X161.68 Y168.351 E0.012
G1 X160.512 Y168.186 E0.039
G1 X159.132 Y168.023 E0.046
G1 X157.85 Y167.909 E0.043
G1 X156.569 Y167.832 E0.042
G1 X155.29 Y167.791 E0.043
G1 X154.014 Y167.79 E0.042
G1 X152.148 Y167.862 E0.063
G1 X150.827 Y167.966 E0.044
G1 X150.193 Y168.033 E0.021
G1 X148.97 Y168.191 E0.041
G1 X147.654 Y168.404 E0.044
G1 X146.387 Y168.65 E0.043
G1 X145.122 Y168.936 E0.043
G1 X143.857 Y169.257 E0.044
G1 X142.593 Y169.615 E0.043
G1 X141.371 Y169.995 E0.043
G1 X141.115 Y170.228 E0.011
G1 X140.772 Y170.482 E0.015
G1 X140.456 Y170.675 E0.012
G1 X140.097 Y170.849 E0.013
G1 X139.723 Y170.989 E0.013
G1 X139.309 Y171.098 E0.015
G1 X138.944 Y171.159 E0.012
G1 X138.546 Y171.188 E0.013
G1 X138.118 Y171.177 E0.015
G1 X137.751 Y171.132 E0.012
G1 X137.361 Y171.049 E0.013
G1 X136.98 Y170.928 E0.013
G1 X136.613 Y170.771 E0.014
G1 X136.262 Y170.58 E0.013
G1 X135.961 Y170.377 E0.012
G1 X134.738 Y169.95 E0.043
G1 X133.488 Y169.549 E0.044
G1 X132.328 Y169.213 E0.04
G1 X130.976 Y168.86 E0.046
G1 X129.712 Y168.574 E0.044
G1 X129.081 Y168.447 E0.021
G1 X127.809 Y168.222 E0.043
G1 X126.533 Y168.04 E0.043
G1 X125.252 Y167.903 E0.043
G1 X123.966 Y167.81 E0.043
G1 X122.673 Y167.76 E0.043
G1 X121.376 Y167.753 E0.043
G1 X119.416 Y167.818 E0.065
G1 X118.106 Y167.909 E0.044
G1 X116.789 Y168.038 E0.044
G1 X115.5 Y168.197 E0.043
G1 X115.178 Y168.363 E0.012
G1 X114.799 Y168.513 E0.013
G1 X114.407 Y168.627 E0.014
G1 X114.005 Y168.702 E0.014
G1 X113.57 Y168.736 E0.014
G1 X113.192 Y168.732 E0.013
G1 X112.787 Y168.689 E0.013
G1 X112.388 Y168.606 E0.014
G1 X111.998 Y168.484 E0.013
G1 X111.622 Y168.325 E0.014
G1 X111.24 Y168.115 E0.014
G1 X110.926 Y167.903 E0.013
G1 X110.638 Y167.667 E0.012
G1 X109.417 Y167.096 E0.045
G1 X108.168 Y166.555 E0.046
G1 X106.958 Y166.068 E0.043
G1 X106.281 Y165.814 E0.024
G1 X105.058 Y165.386 E0.043
G1 X104.423 Y165.18 E0.022
G1 X103.093 Y164.786 E0.046
G1 X101.803 Y164.453 E0.045
G1 X100.504 Y164.166 E0.044
G1 X99.195 Y163.925 E0.044
G1 X97.876 Y163.73 E0.045
G1 X97.215 Y163.65 E0.022
G1 X95.933 Y163.526 E0.043
G1 X94.54 Y163.438 E0.046
G1 X93.869 Y163.41 E0.022
G1 X92.514 Y163.386 E0.045
G1 X91.153 Y163.4 E0.046
G1 X89.806 Y163.45 E0.045
G1 X89.454 Y163.555 E0.012
G1 X89.06 Y163.634 E0.013
G1 X88.658 Y163.674 E0.014
G1 X88.255 Y163.675 E0.013
G1 X87.855 Y163.638 E0.013
G1 X87.459 Y163.564 E0.014
G1 X87.073 Y163.45 E0.013
G1 X86.699 Y163.301 E0.013
G1 X86.359 Y163.126 E0.013
G1 X77.906 Y159.929 E0.301
G1 X77.568 Y159.777 E0.012
G1 X77.286 Y159.612 E0.011
G1 X77.003 Y159.403 E0.012
G1 X76.745 Y159.164 E0.011
G1 X76.515 Y158.899 E0.012
G1 X76.315 Y158.61 E0.012
G1 X76.148 Y158.3 E0.011
G1 X76.008 Y157.95 E0.013
G1 X75.92 Y157.635 E0.011
G1 X75.863 Y157.289 E0.012
G1 X75.844 Y156.943 E0.011
G1 Y42.005 E3.823
G1 X75.864 Y41.653 E0.012
G1 X75.924 Y41.299 E0.012
G1 X76.023 Y40.953 E0.012
G1 X76.173 Y40.599 E0.012
G1 X76.334 Y40.309 E0.011
G1 X76.541 Y40.015 E0.012
G1 X76.78 Y39.747 E0.012
G1 X77.048 Y39.508 E0.012
G1 X77.342 Y39.301 E0.012
G1 X77.656 Y39.127 E0.012
G1 X78.012 Y38.983 E0.013
G1 X78.332 Y38.891 E0.011
G1 X78.686 Y38.831 E0.012
G1 X79.038 Y38.811 E0.012
G1 X156.637 E2.581
G1 F2100 E-0.5
;rapid-dry
G0 X156.625 Y39.211 F7200
G1 F2100 E0.5
;bead-perimeter_outer
G1 X156.945 Y39.229 F720 E0.01
G1 X157.255 Y39.281 E0.011
G1 X157.555 Y39.368 E0.01
G1 X157.867 Y39.5 E0.011
G1 X158.121 Y39.641 E0.01
G1 X158.377 Y39.822 E0.01
G1 X158.611 Y40.031 E0.011
G1 X158.82 Y40.265 E0.01
G1 X159.002 Y40.521 E0.011
G1 X159.163 Y40.818 E0.011
G1 X159.274 Y41.086 E0.01
G1 X159.361 Y41.387 E0.01
G1 X159.413 Y41.697 E0.01
G1 X159.431 Y42.017 E0.011
G1 Y80.326 E1.274
G1 X159.413 Y80.583 E0.009
G1 X159.361 Y80.829 E0.008
G1 X159.275 Y81.064 E0.009
G1 X159.157 Y81.286 E0.008
G1 X159.009 Y81.489 E0.008
G1 X158.836 Y81.67 E0.009
G1 X158.638 Y81.825 E0.008
G1 X158.42 Y81.95 E0.008
G1 X158.187 Y82.044 E0.009
G1 X157.937 Y82.106 E0.008
G1 X122.712 Y88.317 E1.19
G1 X122.439 Y88.385 E0.009
G1 X122.17 Y88.488 E0.01
G1 X121.917 Y88.627 E0.009
G1 X121.671 Y88.811 E0.011
G1 X121.478 Y88.997 E0.009
G1 X121.298 Y89.221 E0.009
G1 X121.148 Y89.467 E0.01
G1 X121.032 Y89.731 E0.009
G1 X120.949 Y90.027 E0.011
G1 X120.908 Y90.291 E0.008
G1 X120.902 Y90.579 E0.01
G1 X120.933 Y90.858 E0.009
G1 X121.108 Y91.856 E0.034
G1 X121.175 Y92.13 E0.009
G1 X121.289 Y92.416 E0.011
G1 X121.418 Y92.65 E0.009
G1 X121.589 Y92.882 E0.009
G1 X121.788 Y93.09 E0.01
G1 X122.012 Y93.27 E0.009
G1 X122.257 Y93.42 E0.01
G1 X122.522 Y93.535 E0.009
G1 X122.798 Y93.616 E0.01
G1 X123.082 Y93.66 E0.01
G1 X123.37 Y93.666 E0.009
G1 X123.649 Y93.635 E0.009
G1 X128.312 Y92.813 E0.158
G1 X128.559 Y92.786 E0.008
G1 X128.8 Y92.794 E0.008
G1 X129.039 Y92.832 E0.008
G1 X129.27 Y92.902 E0.008
G1 X129.488 Y93.003 E0.008
G1 X129.693 Y93.132 E0.008
G1 X129.878 Y93.287 E0.008
G1 X130.04 Y93.466 E0.008
G1 X130.178 Y93.665 E0.008
G1 X130.287 Y93.88 E0.008
G1 X130.367 Y94.107 E0.008
G1 X130.414 Y94.344 E0.009
G1 X130.431 Y94.592 E0.008
G1 Y111.086 E0.548
G1 X130.45 Y111.373 E0.01
G1 X130.51 Y111.662 E0.01
G1 X130.607 Y111.941 E0.01
G1 X130.741 Y112.204 E0.009
G1 X130.908 Y112.448 E0.01
G1 X131.107 Y112.666 E0.01
G1 X131.333 Y112.855 E0.01
G1 X131.582 Y113.013 E0.01
G1 X131.851 Y113.136 E0.01
G1 X132.134 Y113.222 E0.009
G1 X132.425 Y113.27 E0.01
G1 X132.72 Y113.277 E0.01
G1 X133.007 Y113.246 E0.01
G1 X166.63 Y107.317 E1.135
G1 X166.89 Y107.291 E0.009
G1 X167.107 Y107.297 E0.007
G1 X167.34 Y107.332 E0.008
G1 X167.565 Y107.398 E0.008
G1 X167.78 Y107.493 E0.008
G1 X167.982 Y107.615 E0.007
G1 X168.165 Y107.761 E0.008
G1 X168.34 Y107.947 E0.009
G1 X168.468 Y108.122 E0.007
G1 X168.581 Y108.328 E0.008
G1 X168.666 Y108.548 E0.008
G1 X168.724 Y108.783 E0.008
G1 X169.24 Y111.713 E0.099
G1 Y117.283 E0.185
G1 X169.219 Y117.627 E0.011
G1 X169.17 Y117.912 E0.01
G1 X169.083 Y118.214 E0.01
G1 X168.963 Y118.504 E0.011
G1 X168.811 Y118.779 E0.01
G1 X168.629 Y119.035 E0.011
G1 X168.42 Y119.269 E0.01
G1 X168.186 Y119.478 E0.01
G1 X167.931 Y119.659 E0.011
G1 X167.656 Y119.811 E0.01
G1 X167.342 Y119.939 E0.012
G1 X167.064 Y120.019 E0.009
G1 X166.754 Y120.071 E0.011
G1 X166.434 Y120.089 E0.01
G1 X157.24 E0.306
G1 Y143.489 E0.778
G1 X167.913 E0.355
G1 X168.22 Y143.506 E0.011
G1 X168.516 Y143.554 E0.01
G1 X168.805 Y143.634 E0.01
G1 X169.086 Y143.744 E0.01
G1 X169.351 Y143.884 E0.01
G1 X169.601 Y144.051 E0.01
G1 X169.831 Y144.244 E0.01
G1 X170.039 Y144.461 E0.01
G1 X170.223 Y144.699 E0.01
G1 X170.381 Y144.956 E0.01
G1 X170.5 Y145.206 E0.009
G1 X170.609 Y145.511 E0.011
G1 X170.678 Y145.808 E0.01
G1 X173.713 Y163.022 E0.581
G1 X173.751 Y163.345 E0.011
G1 X173.752 Y163.664 E0.011
G1 X173.717 Y163.982 E0.01
G1 X173.637 Y164.316 E0.012
G1 X173.538 Y164.595 E0.009
G1 X173.398 Y164.882 E0.011
G1 X173.226 Y165.152 E0.011
G1 X173.025 Y165.4 E0.01
G1 X172.778 Y165.639 E0.012
G1 X172.545 Y165.819 E0.01
G1 X172.271 Y165.985 E0.01
G1 X171.981 Y166.119 E0.011
G1 X171.672 Y166.22 E0.011
G1 X163.788 Y168.322 E0.271
G1 X163.436 Y168.338 E0.012
G1 X163.123 Y168.326 E0.01
G1 X162.787 Y168.282 E0.011
G1 X162.455 Y168.209 E0.012
G1 X162.132 Y168.106 E0.011
G1 X161.786 Y167.963 E0.012
G1 X160.564 Y167.79 E0.042
G1 X159.174 Y167.625 E0.046
G1 X157.88 Y167.511 E0.043
G1 X156.587 Y167.432 E0.043
G1 X155.296 Y167.391 E0.043
G1 X154.008 Y167.39 E0.043
G1 X152.124 Y167.462 E0.063
G1 X150.79 Y167.568 E0.044
G1 X150.147 Y167.635 E0.022
G1 X148.912 Y167.795 E0.041
G1 X147.583 Y168.01 E0.045
G1 X146.305 Y168.258 E0.043
G1 X145.028 Y168.547 E0.044
G1 X143.753 Y168.871 E0.044
G1 X142.479 Y169.231 E0.044
G1 X141.167 Y169.639 E0.045
G1 X140.861 Y169.918 E0.014
G1 X140.548 Y170.15 E0.013
G1 X140.264 Y170.323 E0.011
G1 X139.939 Y170.481 E0.012
G1 X139.601 Y170.607 E0.012
G1 X139.225 Y170.706 E0.013
G1 X138.896 Y170.761 E0.011
G1 X138.536 Y170.788 E0.012
G1 X138.148 Y170.777 E0.013
G1 X137.817 Y170.738 E0.011
G1 X137.463 Y170.661 E0.012
G1 X137.12 Y170.552 E0.012
G1 X136.787 Y170.411 E0.012
G1 X136.47 Y170.238 E0.012
G1 X136.141 Y170.017 E0.014
G1 X134.865 Y169.57 E0.045
G1 X133.604 Y169.167 E0.044
G1 X132.434 Y168.827 E0.04
G1 X131.07 Y168.472 E0.047
G1 X129.796 Y168.182 E0.043
G1 X129.156 Y168.054 E0.022
G1 X127.872 Y167.826 E0.043
G1 X126.583 Y167.644 E0.044
G1 X125.288 Y167.505 E0.043
G1 X123.988 Y167.41 E0.043
G1 X122.681 Y167.36 E0.044
G1 X121.371 Y167.353 E0.044
G1 X119.395 Y167.418 E0.065
G1 X118.072 Y167.511 E0.044
G1 X116.745 Y167.64 E0.045
G1 X115.38 Y167.809 E0.045
G1 X115.012 Y167.999 E0.014
G1 X114.669 Y168.135 E0.012
G1 X114.315 Y168.237 E0.013
G1 X113.953 Y168.304 E0.012
G1 X113.556 Y168.336 E0.013
G1 X113.216 Y168.332 E0.012
G1 X112.849 Y168.293 E0.012
G1 X112.488 Y168.218 E0.012
G1 X112.136 Y168.108 E0.012
G1 X111.796 Y167.965 E0.013
G1 X111.448 Y167.773 E0.013
G1 X111.166 Y167.583 E0.011
G1 X110.854 Y167.325 E0.014
G1 X109.581 Y166.732 E0.046
G1 X108.322 Y166.185 E0.046
G1 X107.102 Y165.696 E0.044
G1 X106.417 Y165.438 E0.024
G1 X105.186 Y165.006 E0.043
G1 X104.542 Y164.798 E0.023
G1 X103.2 Y164.4 E0.046
G1 X101.897 Y164.064 E0.045
G1 X100.584 Y163.774 E0.045
G1 X99.261 Y163.531 E0.045
G1 X97.929 Y163.334 E0.045
G1 X97.259 Y163.252 E0.022
G1 X95.966 Y163.128 E0.043
G1 X94.561 Y163.038 E0.047
G1 X93.882 Y163.01 E0.023
G1 X92.515 Y162.986 E0.045
G1 X91.143 Y163 E0.046
G1 X89.74 Y163.052 E0.046
G1 X89.358 Y163.167 E0.014
G1 X89 Y163.238 E0.012
G1 X88.638 Y163.274 E0.012
G1 X88.273 Y163.275 E0.012
G1 X87.911 Y163.242 E0.012
G1 X87.553 Y163.174 E0.012
G1 X87.203 Y163.072 E0.012
G1 X86.865 Y162.937 E0.012
G1 X86.522 Y162.76 E0.013
G1 X78.059 Y159.559 E0.301
G1 X77.752 Y159.421 E0.011
G1 X77.506 Y159.278 E0.01
G1 X77.259 Y159.095 E0.01
G1 X77.033 Y158.886 E0.01
G1 X76.831 Y158.653 E0.011
G1 X76.657 Y158.4 E0.01
G1 X76.51 Y158.13 E0.01
G1 X76.388 Y157.822 E0.011
G1 X76.312 Y157.549 E0.01
G1 X76.261 Y157.245 E0.01
G1 X76.244 Y156.933 E0.01
G1 Y42.017 E3.822
G1 X76.262 Y41.697 E0.011
G1 X76.314 Y41.387 E0.01
G1 X76.401 Y41.087 E0.011
G1 X76.533 Y40.775 E0.011
G1 X76.674 Y40.521 E0.01
G1 X76.855 Y40.265 E0.01
G1 X77.064 Y40.031 E0.011
G1 X77.298 Y39.822 E0.01
G1 X77.554 Y39.641 E0.01
G1 X77.828 Y39.489 E0.011
G1 X78.142 Y39.361 E0.011
G1 X78.42 Y39.281 E0.01
G1 X78.73 Y39.229 E0.01
G1 X79.05 Y39.211 E0.011
G1 X156.625 E2.58
;rapid-leaky
G0 X156.615 Y39.571 F7200
;bead-perimeter_inner
G1 X156.904 Y39.587 F960 E0.01
G1 X157.175 Y39.633 E0.009
G1 X157.435 Y39.708 E0.009
G1 X157.709 Y39.824 E0.01
G1 X157.929 Y39.946 E0.008
G1 X158.153 Y40.104 E0.009
G1 X158.356 Y40.286 E0.009
G1 X158.538 Y40.49 E0.009
G1 X158.696 Y40.712 E0.009
G1 X158.838 Y40.973 E0.01
G1 X158.934 Y41.205 E0.009
G1 X159.009 Y41.467 E0.009
G1 X159.055 Y41.738 E0.009
G1 X159.071 Y42.027 E0.009
G1 Y80.314 E1.274
G1 X159.056 Y80.533 E0.007
G1 X159.014 Y80.729 E0.007
G1 X158.946 Y80.917 E0.007
G1 X158.851 Y81.095 E0.006
G1 X158.732 Y81.258 E0.007
G1 X158.594 Y81.402 E0.007
G1 X158.436 Y81.525 E0.006
G1 X158.262 Y81.625 E0.007
G1 X158.076 Y81.701 E0.007
G1 X157.863 Y81.754 E0.007
G1 X122.637 Y87.965 E1.19
G1 X122.33 Y88.041 E0.01
G1 X122.018 Y88.161 E0.011
G1 X121.722 Y88.324 E0.011
G1 X121.438 Y88.536 E0.012
G1 X121.212 Y88.753 E0.011
G1 X121.002 Y89.014 E0.011
G1 X120.828 Y89.301 E0.011
G1 X120.693 Y89.61 E0.011
G1 X120.597 Y89.95 E0.012
G1 X120.549 Y90.26 E0.01
G1 X120.541 Y90.595 E0.012
G1 X120.576 Y90.91 E0.01
G1 X120.756 Y91.93 E0.035
G1 X120.831 Y92.24 E0.01
G1 X120.963 Y92.57 E0.012
G1 X121.114 Y92.844 E0.01
G1 X121.312 Y93.114 E0.012
G1 X121.544 Y93.356 E0.011
G1 X121.804 Y93.565 E0.011
G1 X122.091 Y93.74 E0.011
G1 X122.399 Y93.875 E0.011
G1 X122.72 Y93.968 E0.011
G1 X123.051 Y94.019 E0.011
G1 X123.386 Y94.027 E0.011
G1 X123.701 Y93.992 E0.011
G1 X128.363 Y93.17 E0.157
G1 X128.573 Y93.147 E0.008
G1 X128.766 Y93.153 E0.006
G1 X128.957 Y93.184 E0.006
G1 X129.142 Y93.24 E0.007
G1 X129.316 Y93.32 E0.006
G1 X129.481 Y93.424 E0.007
G1 X129.628 Y93.547 E0.006
G1 X129.757 Y93.69 E0.006
G1 X129.868 Y93.849 E0.007
G1 X129.955 Y94.021 E0.006
G1 X130.019 Y94.203 E0.007
G1 X130.057 Y94.391 E0.006
G1 X130.071 Y94.604 E0.007
G1 Y111.098 E0.549
G1 X130.093 Y111.421 E0.011
G1 X130.162 Y111.758 E0.011
G1 X130.275 Y112.082 E0.011
G1 X130.431 Y112.389 E0.012
G1 X130.626 Y112.672 E0.011
G1 X130.858 Y112.926 E0.012
G1 X131.12 Y113.146 E0.011
G1 X131.41 Y113.33 E0.012
G1 X131.723 Y113.474 E0.011
G1 X132.052 Y113.574 E0.011
G1 X132.392 Y113.629 E0.012
G1 X132.735 Y113.638 E0.011
G1 X133.058 Y113.603 E0.011
G1 X166.68 Y107.674 E1.136
G1 X166.903 Y107.652 E0.007
G1 X167.075 Y107.656 E0.006
G1 X167.262 Y107.684 E0.006
G1 X167.441 Y107.737 E0.006
G1 X167.614 Y107.813 E0.007
G1 X167.776 Y107.911 E0.006
G1 X167.92 Y108.027 E0.006
G1 X168.063 Y108.178 E0.007
G1 X168.164 Y108.315 E0.006
G1 X168.254 Y108.48 E0.006
G1 X168.322 Y108.657 E0.006
G1 X168.372 Y108.858 E0.007
G1 X168.88 Y111.745 E0.098
G1 Y117.272 E0.183
G1 X168.861 Y117.585 E0.011
G1 X168.818 Y117.832 E0.008
G1 X168.743 Y118.095 E0.009
G1 X168.638 Y118.348 E0.009
G1 X168.506 Y118.587 E0.009
G1 X168.347 Y118.811 E0.01
G1 X168.165 Y119.014 E0.009
G1 X167.962 Y119.196 E0.009
G1 X167.739 Y119.354 E0.009
G1 X167.5 Y119.486 E0.009
G1 X167.224 Y119.598 E0.01
G1 X166.984 Y119.667 E0.008
G1 X166.713 Y119.713 E0.009
G1 X166.424 Y119.729 E0.01
G1 X156.88 E0.317
G1 Y143.849 E0.803
G1 X167.903 E0.366
G1 X168.181 Y143.865 E0.009
G1 X168.439 Y143.906 E0.009
G1 X168.691 Y143.976 E0.009
G1 X168.935 Y144.072 E0.009
G1 X169.167 Y144.194 E0.008
G1 X169.384 Y144.339 E0.009
G1 X169.585 Y144.508 E0.009
G1 X169.766 Y144.696 E0.008
G1 X169.927 Y144.904 E0.009
G1 X170.064 Y145.128 E0.009
G1 X170.167 Y145.344 E0.008
G1 X170.263 Y145.613 E0.009
G1 X170.325 Y145.88 E0.009
G1 X173.357 Y163.074 E0.581
G1 X173.391 Y163.367 E0.01
G1 X173.392 Y163.645 E0.009
G1 X173.361 Y163.92 E0.009
G1 X173.291 Y164.214 E0.01
G1 X173.206 Y164.455 E0.009
G1 X173.083 Y164.706 E0.009
G1 X172.934 Y164.941 E0.009
G1 X172.76 Y165.156 E0.01
G1 X172.542 Y165.366 E0.01
G1 X172.34 Y165.522 E0.008
G1 X172.102 Y165.667 E0.01
G1 X171.849 Y165.783 E0.009
G1 X171.569 Y165.875 E0.01
G1 X163.733 Y167.964 E0.269
G1 X163.435 Y167.978 E0.01
G1 X163.153 Y167.966 E0.01
G1 X162.849 Y167.927 E0.01
G1 X162.548 Y167.861 E0.01
G1 X162.255 Y167.768 E0.01
G1 X161.882 Y167.613 E0.014
G1 X160.61 Y167.433 E0.042
G1 X159.211 Y167.267 E0.047
G1 X157.907 Y167.152 E0.044
G1 X156.604 Y167.073 E0.043
G1 X155.302 Y167.031 E0.044
G1 X154.004 Y167.03 E0.043
G1 X152.103 Y167.103 E0.063
G1 X150.755 Y167.21 E0.045
G1 X150.107 Y167.278 E0.022
G1 X148.861 Y167.439 E0.041
G1 X147.518 Y167.656 E0.046
G1 X146.231 Y167.906 E0.043
G1 X144.944 Y168.196 E0.044
G1 X143.66 Y168.523 E0.044
G1 X142.377 Y168.886 E0.045
G1 X140.984 Y169.319 E0.048
G1 X140.632 Y169.64 E0.016
G1 X140.347 Y169.851 E0.012
G1 X140.091 Y170.007 E0.01
G1 X139.797 Y170.15 E0.011
G1 X139.492 Y170.264 E0.01
G1 X139.149 Y170.354 E0.012
G1 X138.853 Y170.403 E0.01
G1 X138.528 Y170.427 E0.011
G1 X138.174 Y170.418 E0.012
G1 X137.877 Y170.382 E0.01
G1 X137.556 Y170.313 E0.011
G1 X137.245 Y170.214 E0.011
G1 X136.944 Y170.086 E0.01
G1 X136.657 Y169.93 E0.011
G1 X136.304 Y169.692 E0.014
G1 X134.979 Y169.229 E0.047
G1 X133.709 Y168.822 E0.044
G1 X132.53 Y168.48 E0.041
G1 X131.156 Y168.122 E0.048
G1 X129.871 Y167.83 E0.043
G1 X129.224 Y167.7 E0.022
G1 X127.929 Y167.471 E0.044
G1 X126.627 Y167.286 E0.044
G1 X125.32 Y167.146 E0.044
G1 X124.008 Y167.051 E0.043
G1 X122.689 Y167 E0.044
G1 X121.367 Y166.993 E0.044
G1 X119.375 Y167.059 E0.066
G1 X118.042 Y167.152 E0.045
G1 X116.705 Y167.282 E0.045
G1 X115.272 Y167.46 E0.048
G1 X114.863 Y167.671 E0.015
G1 X114.553 Y167.794 E0.011
G1 X114.232 Y167.886 E0.011
G1 X113.906 Y167.947 E0.011
G1 X113.544 Y167.976 E0.012
G1 X113.237 Y167.972 E0.01
G1 X112.905 Y167.937 E0.012
G1 X112.579 Y167.869 E0.011
G1 X112.26 Y167.77 E0.011
G1 X111.954 Y167.64 E0.011
G1 X111.636 Y167.466 E0.012
G1 X111.381 Y167.294 E0.01
G1 X111.047 Y167.019 E0.014
G1 X109.729 Y166.403 E0.049
G1 X108.461 Y165.853 E0.046
G1 X107.233 Y165.36 E0.044
G1 X106.54 Y165.1 E0.024
G1 X105.301 Y164.665 E0.044
G1 X104.65 Y164.455 E0.023
G1 X103.297 Y164.053 E0.047
G1 X101.981 Y163.713 E0.045
G1 X100.655 Y163.421 E0.045
G1 X99.32 Y163.176 E0.045
G1 X97.975 Y162.977 E0.046
G1 X97.298 Y162.894 E0.022
G1 X95.996 Y162.769 E0.044
G1 X94.578 Y162.679 E0.047
G1 X93.894 Y162.65 E0.023
G1 X92.515 Y162.626 E0.046
G1 X91.135 Y162.64 E0.046
G1 X89.681 Y162.694 E0.048
G1 X89.271 Y162.817 E0.014
G1 X88.947 Y162.881 E0.011
G1 X88.619 Y162.914 E0.011
G1 X88.289 Y162.915 E0.011
G1 X87.961 Y162.885 E0.011
G1 X87.637 Y162.824 E0.011
G1 X87.321 Y162.731 E0.011
G1 X87.015 Y162.609 E0.011
G1 X86.669 Y162.431 E0.013
G1 X78.196 Y159.226 E0.301
G1 X77.917 Y159.1 E0.01
G1 X77.704 Y158.977 E0.009
G1 X77.489 Y158.817 E0.008
G1 X77.292 Y158.635 E0.009
G1 X77.116 Y158.432 E0.009
G1 X76.964 Y158.212 E0.009
G1 X76.837 Y157.977 E0.009
G1 X76.729 Y157.707 E0.01
G1 X76.663 Y157.471 E0.008
G1 X76.619 Y157.206 E0.009
G1 X76.604 Y156.923 E0.009
G1 Y42.027 E3.822
G1 X76.62 Y41.738 E0.009
G1 X76.666 Y41.467 E0.009
G1 X76.741 Y41.207 E0.009
G1 X76.857 Y40.933 E0.01
G1 X76.979 Y40.713 E0.009
G1 X77.137 Y40.489 E0.009
G1 X77.319 Y40.286 E0.009
G1 X77.522 Y40.104 E0.009
G1 X77.746 Y39.946 E0.009
G1 X77.984 Y39.814 E0.009
G1 X78.26 Y39.702 E0.01
G1 X78.5 Y39.633 E0.008
G1 X78.771 Y39.587 E0.01
G1 X79.06 Y39.571 E0.009
G1 X156.615 E2.58
G1 F2100 E-0.5
;rapid-dry
G0 X147.357 Y49.033 F7200
G1 F2100 E0.5
;bead-perimeter_outer
G1 X147.377 Y49.32 F720 E0.009
G1 X147.44 Y49.625 E0.011
G1 X147.544 Y49.917 E0.01
G1 X147.687 Y50.193 E0.01
G1 X147.867 Y50.447 E0.011
G1 X148.078 Y50.673 E0.01
G1 X148.319 Y50.87 E0.01
G1 X148.585 Y51.031 E0.011
G1 X148.89 Y51.161 E0.011
G1 X149.168 Y51.238 E0.009
G1 X149.476 Y51.281 E0.011
G1 X149.787 E0.01
G1 X150.095 Y51.238 E0.01
G1 X150.393 Y51.155 E0.011
G1 X150.678 Y51.031 E0.01
G1 X150.944 Y50.87 E0.01
G1 X151.186 Y50.673 E0.011
G1 X151.409 Y50.429 E0.011
G1 X151.575 Y50.193 E0.009
G1 X151.719 Y49.917 E0.011
G1 X151.822 Y49.625 E0.01
G1 X151.886 Y49.32 E0.01
G1 X151.906 Y49.011 E0.01
G1 X151.886 Y48.701 E0.011
G1 X151.822 Y48.397 E0.01
G1 X151.719 Y48.104 E0.01
G1 X151.575 Y47.829 E0.011
G1 X151.397 Y47.575 E0.01
G1 X151.185 Y47.347 E0.01
G1 X150.944 Y47.152 E0.011
G1 X150.678 Y46.99 E0.01
G1 X150.392 Y46.867 E0.01
G1 X150.073 Y46.78 E0.011
G1 X149.786 Y46.741 E0.01
G1 X149.477 E0.01
G1 X149.168 Y46.783 E0.011
G1 X148.869 Y46.867 E0.01
G1 X148.585 Y46.99 E0.01
G1 X148.319 Y47.152 E0.011
G1 X148.078 Y47.347 E0.01
G1 X147.866 Y47.575 E0.01
G1 X147.687 Y47.829 E0.011
G1 X147.544 Y48.104 E0.01
G1 X147.44 Y48.397 E0.01
G1 X147.377 Y48.701 E0.011
G1 X147.357 Y49.033 E0.011
;rapid-leaky
G0 X146.996 Y49.035 F7200
;bead-perimeter_inner
G1 X147.02 Y49.37 F960 E0.011
G1 X147.092 Y49.722 E0.012
G1 X147.213 Y50.061 E0.012
G1 X147.378 Y50.381 E0.012
G1 X147.587 Y50.675 E0.012
G1 X147.832 Y50.937 E0.012
G1 X148.111 Y51.165 E0.012
G1 X148.42 Y51.352 E0.012
G1 X148.771 Y51.502 E0.012
G1 X149.095 Y51.592 E0.012
G1 X149.451 Y51.641 E0.012
G1 X149.812 E0.012
G1 X150.168 Y51.591 E0.012
G1 X150.514 Y51.495 E0.011
G1 X150.844 Y51.351 E0.012
G1 X151.152 Y51.165 E0.012
G1 X151.433 Y50.935 E0.013
G1 X151.69 Y50.655 E0.012
G1 X151.883 Y50.381 E0.011
G1 X152.05 Y50.061 E0.012
G1 X152.17 Y49.722 E0.012
G1 X152.243 Y49.369 E0.012
G1 X152.267 Y49.011 E0.012
G1 X152.243 Y48.651 E0.012
G1 X152.17 Y48.3 E0.012
G1 X152.05 Y47.96 E0.012
G1 X151.883 Y47.641 E0.012
G1 X151.677 Y47.347 E0.012
G1 X151.431 Y47.083 E0.012
G1 X151.152 Y46.857 E0.012
G1 X150.844 Y46.669 E0.012
G1 X150.511 Y46.526 E0.012
G1 X150.145 Y46.426 E0.013
G1 X149.811 Y46.381 E0.011
G1 X149.452 E0.012
G1 X149.095 Y46.429 E0.012
G1 X148.748 Y46.527 E0.012
G1 X148.419 Y46.67 E0.012
G1 X148.111 Y46.857 E0.012
G1 X147.832 Y47.083 E0.012
G1 X147.587 Y47.347 E0.012
G1 X147.378 Y47.641 E0.012
G1 X147.213 Y47.96 E0.012
G1 X147.092 Y48.3 E0.012
G1 X147.02 Y48.654 E0.012
G1 X146.996 Y49.035 E0.012
G1 F2100 E-0.5
;rapid-dry
G0 X124.682 Y50.752 F7200
G1 F2100 E0.5
;bead-perimeter_outer
G1 X124.937 Y50.843 F720 E0.009
G1 X125.223 Y50.899 E0.01
G1 X125.515 Y50.909 E0.01
G1 X125.822 Y50.872 E0.01
G1 X126.083 Y50.8 E0.009
G1 X126.349 Y50.68 E0.01
G1 X126.593 Y50.523 E0.009
G1 X126.81 Y50.329 E0.01
G1 X126.995 Y50.104 E0.01
G1 X127.144 Y49.854 E0.009
G1 X127.252 Y49.585 E0.01
G1 X127.319 Y49.3 E0.01
G1 X127.341 Y49.011 E0.009
G1 X127.319 Y48.72 E0.01
G1 X127.252 Y48.437 E0.01
G1 X127.143 Y48.166 E0.009
G1 X126.982 Y47.902 E0.011
G1 X126.809 Y47.693 E0.009
G1 X126.593 Y47.5 E0.009
G1 X126.349 Y47.341 E0.01
G1 X126.083 Y47.222 E0.01
G1 X125.802 Y47.145 E0.009
G1 X125.514 Y47.112 E0.01
G1 X125.223 Y47.123 E0.01
G1 X124.937 Y47.178 E0.01
G1 X124.663 Y47.276 E0.009
G1 X124.407 Y47.416 E0.01
G1 X124.176 Y47.592 E0.01
G1 X123.974 Y47.801 E0.009
G1 X123.807 Y48.04 E0.01
G1 X123.678 Y48.3 E0.01
G1 X123.59 Y48.577 E0.009
G1 X123.545 Y48.866 E0.01
G1 Y49.156 E0.01
G1 X123.59 Y49.444 E0.009
G1 X123.678 Y49.722 E0.01
G1 X123.818 Y49.998 E0.01
G1 X123.974 Y50.22 E0.009
G1 X124.175 Y50.43 E0.01
G1 X124.408 Y50.607 E0.01
G1 X124.682 Y50.752 E0.01
;rapid-leaky
G0 X124.537 Y51.083 F7200
;bead-perimeter_inner
G1 X124.841 Y51.192 F960 E0.011
G1 X125.182 Y51.258 E0.011
G1 X125.531 Y51.27 E0.012
G1 X125.892 Y51.226 E0.012
G1 X126.205 Y51.139 E0.011
G1 X126.521 Y50.997 E0.011
G1 X126.811 Y50.81 E0.012
G1 X127.07 Y50.58 E0.011
G1 X127.29 Y50.312 E0.012
G1 X127.467 Y50.014 E0.011
G1 X127.596 Y49.694 E0.012
G1 X127.676 Y49.355 E0.012
G1 X127.701 Y49.011 E0.011
G1 X127.676 Y48.665 E0.012
G1 X127.596 Y48.328 E0.011
G1 X127.466 Y48.004 E0.012
G1 X127.276 Y47.692 E0.012
G1 X127.069 Y47.442 E0.011
G1 X126.812 Y47.213 E0.011
G1 X126.521 Y47.024 E0.012
G1 X126.204 Y46.882 E0.011
G1 X125.871 Y46.791 E0.012
G1 X125.528 Y46.751 E0.011
G1 X125.182 Y46.764 E0.012
G1 X124.842 Y46.829 E0.011
G1 X124.515 Y46.947 E0.012
G1 X124.21 Y47.113 E0.011
G1 X123.935 Y47.323 E0.012
G1 X123.696 Y47.572 E0.011
G1 X123.496 Y47.855 E0.012
G1 X123.343 Y48.165 E0.011
G1 X123.238 Y48.494 E0.012
G1 X123.185 Y48.838 E0.011
G1 Y49.184 E0.012
G1 X123.238 Y49.527 E0.011
G1 X123.344 Y49.859 E0.012
G1 X123.509 Y50.184 E0.012
G1 X123.696 Y50.449 E0.011
G1 X123.935 Y50.699 E0.011
G1 X124.213 Y50.911 E0.012
G1 X124.537 Y51.083 E0.012
G1 F2100 E-0.5
;rapid-dry
G0 X119.252 Y49.585 F7200
G1 F2100 E0.5
;bead-perimeter_outer
G1 X119.319 Y49.3 F720 E0.01
G1 X119.341 Y49.011 E0.01
G1 X119.319 Y48.72 E0.009
G1 X119.252 Y48.437 E0.01
G1 X119.143 Y48.166 E0.01
G1 X118.982 Y47.902 E0.01
G1 X118.809 Y47.693 E0.009
G1 X118.593 Y47.5 E0.01
G1 X118.349 Y47.341 E0.009
G1 X118.083 Y47.222 E0.01
G1 X117.802 Y47.145 E0.01
G1 X117.514 Y47.112 E0.009
G1 X117.223 Y47.123 E0.01
G1 X116.937 Y47.178 E0.01
G1 X116.663 Y47.276 E0.009
G1 X116.407 Y47.416 E0.01
G1 X116.176 Y47.592 E0.01
G1 X115.974 Y47.801 E0.009
G1 X115.807 Y48.04 E0.01
G1 X115.678 Y48.3 E0.01
G1 X115.59 Y48.577 E0.009
G1 X115.545 Y48.866 E0.01
G1 Y49.156 E0.01
G1 X115.59 Y49.444 E0.01
G1 X115.678 Y49.722 E0.009
G1 X115.818 Y49.998 E0.011
G1 X115.974 Y50.22 E0.009
G1 X116.175 Y50.43 E0.009
G1 X116.408 Y50.607 E0.01
G1 X116.682 Y50.752 E0.01
G1 X116.937 Y50.843 E0.009
G1 X117.223 Y50.899 E0.01
G1 X117.515 Y50.909 E0.01
G1 X117.822 Y50.872 E0.01
G1 X118.083 Y50.8 E0.009
G1 X118.349 Y50.68 E0.01
G1 X118.593 Y50.523 E0.009
G1 X118.81 Y50.329 E0.01
G1 X118.995 Y50.104 E0.01
G1 X119.144 Y49.854 E0.009
G1 X119.252 Y49.585 E0.01
;rapid-leaky
G0 X119.596 Y49.694 F7200
;bead-perimeter_inner
G1 X119.676 Y49.355 F960 E0.012
G1 X119.702 Y49.011 E0.011
G1 X119.676 Y48.665 E0.012
G1 X119.596 Y48.328 E0.011
G1 X119.466 Y48.004 E0.012
G1 X119.276 Y47.692 E0.012
G1 X119.069 Y47.442 E0.011
G1 X118.812 Y47.213 E0.011
G1 X118.521 Y47.024 E0.012
G1 X118.204 Y46.882 E0.011
G1 X117.871 Y46.791 E0.012
G1 X117.528 Y46.751 E0.011
G1 X117.182 Y46.764 E0.012
G1 X116.842 Y46.829 E0.011
G1 X116.515 Y46.947 E0.012
G1 X116.21 Y47.113 E0.011
G1 X115.935 Y47.323 E0.012
G1 X115.696 Y47.572 E0.011
G1 X115.496 Y47.855 E0.012
G1 X115.343 Y48.165 E0.011
G1 X115.238 Y48.494 E0.012
G1 X115.185 Y48.838 E0.011
G1 Y49.184 E0.012
G1 X115.238 Y49.527 E0.011
G1 X115.344 Y49.859 E0.012
G1 X115.509 Y50.184 E0.012
G1 X115.696 Y50.449 E0.011
G1 X115.935 Y50.699 E0.011
G1 X116.213 Y50.911 E0.012
G1 X116.537 Y51.083 E0.012
G1 X116.841 Y51.192 E0.011
G1 X117.182 Y51.258 E0.012
G1 X117.531 Y51.27 E0.011
G1 X117.892 Y51.226 E0.012
G1 X118.205 Y51.139 E0.011
G1 X118.521 Y50.997 E0.012
G1 X118.811 Y50.81 E0.011
G1 X119.07 Y50.58 E0.012
G1 X119.29 Y50.312 E0.011
G1 X119.467 Y50.014 E0.012
G1 X119.596 Y49.694 E0.011
G1 F2100 E-0.5
;rapid-dry
G0 X107.319 Y49.3 F7200
G1 F2100 E0.5
;bead-perimeter_outer
G1 X107.341 Y49.011 F720 E0.01
G1 X107.319 Y48.72 E0.01
G1 X107.252 Y48.437 E0.009
G1 X107.143 Y48.166 E0.01
G1 X106.982 Y47.902 E0.01
G1 X106.809 Y47.693 E0.009
G1 X106.593 Y47.5 E0.01
G1 X106.349 Y47.341 E0.01
G1 X106.083 Y47.222 E0.009
G1 X105.802 Y47.145 E0.01
G1 X105.514 Y47.112 E0.01
G1 X105.223 Y47.123 E0.009
G1 X104.937 Y47.178 E0.01
G1 X104.663 Y47.276 E0.01
G1 X104.407 Y47.416 E0.009
G1 X104.176 Y47.592 E0.01
G1 X103.974 Y47.801 E0.01
G1 X103.807 Y48.04 E0.009
G1 X103.678 Y48.3 E0.01
G1 X103.59 Y48.577 E0.01
G1 X103.545 Y48.866 E0.009
G1 Y49.156 E0.01
G1 X103.59 Y49.444 E0.01
G1 X103.678 Y49.722 E0.009
G1 X103.818 Y49.998 E0.011
G1 X103.974 Y50.22 E0.009
G1 X104.175 Y50.43 E0.009
G1 X104.408 Y50.607 E0.01
G1 X104.682 Y50.752 E0.01
G1 X104.937 Y50.843 E0.01
G1 X105.223 Y50.899 E0.009
G1 X105.515 Y50.909 E0.01
G1 X105.822 Y50.872 E0.01
G1 X106.083 Y50.8 E0.009
G1 X106.349 Y50.68 E0.01
G1 X106.593 Y50.523 E0.01
G1 X106.81 Y50.329 E0.009
G1 X106.995 Y50.104 E0.01
G1 X107.144 Y49.854 E0.01
G1 X107.252 Y49.585 E0.009
G1 X107.319 Y49.3 E0.01
;rapid-leaky
G0 X107.676 Y49.355 F7200
;bead-perimeter_inner
G1 X107.702 Y49.011 F960 E0.011
G1 X107.676 Y48.665 E0.012
G1 X107.596 Y48.328 E0.012
G1 X107.466 Y48.004 E0.011
G1 X107.276 Y47.692 E0.012
G1 X107.069 Y47.442 E0.011
G1 X106.812 Y47.213 E0.012
G1 X106.521 Y47.024 E0.011
G1 X106.204 Y46.882 E0.012
G1 X105.871 Y46.791 E0.011
G1 X105.528 Y46.751 E0.012
G1 X105.182 Y46.764 E0.011
G1 X104.842 Y46.829 E0.012
G1 X104.515 Y46.947 E0.011
G1 X104.21 Y47.113 E0.012
G1 X103.935 Y47.323 E0.011
G1 X103.696 Y47.572 E0.012
G1 X103.496 Y47.855 E0.011
G1 X103.343 Y48.165 E0.012
G1 X103.238 Y48.494 E0.011
G1 X103.185 Y48.838 E0.012
G1 Y49.184 E0.011
G1 X103.238 Y49.527 E0.012
G1 X103.344 Y49.859 E0.011
G1 X103.509 Y50.184 E0.013
G1 X103.696 Y50.449 E0.01
G1 X103.935 Y50.699 E0.012
G1 X104.213 Y50.911 E0.011
G1 X104.537 Y51.083 E0.013
G1 X104.841 Y51.192 E0.01
G1 X105.182 Y51.258 E0.012
G1 X105.531 Y51.27 E0.012
G1 X105.892 Y51.226 E0.012
G1 X106.205 Y51.139 E0.011
G1 X106.521 Y50.997 E0.011
G1 X106.811 Y50.81 E0.012
G1 X107.07 Y50.58 E0.011
G1 X107.29 Y50.312 E0.012
G1 X107.467 Y50.014 E0.011
G1 X107.596 Y49.694 E0.012
G1 X107.676 Y49.355 E0.011
G1 F2100 E-0.5
;rapid-dry
G0 X98.341 Y49.011 F7200
G1 F2100 E0.5
;bead-perimeter_outer
G1 X98.319 Y48.72 F720 E0.01
G1 X98.252 Y48.437 E0.01
G1 X98.143 Y48.166 E0.009
G1 X97.982 Y47.902 E0.011
G1 X97.809 Y47.693 E0.009
G1 X97.593 Y47.5 E0.009
G1 X97.349 Y47.341 E0.01
G1 X97.083 Y47.222 E0.01
G1 X96.802 Y47.145 E0.009
G1 X96.514 Y47.112 E0.01
G1 X96.223 Y47.123 E0.01
G1 X95.937 Y47.178 E0.009
G1 X95.663 Y47.276 E0.01
G1 X95.407 Y47.416 E0.01
G1 X95.176 Y47.592 E0.009
G1 X94.974 Y47.801 E0.01
G1 X94.807 Y48.04 E0.01
G1 X94.678 Y48.3 E0.009
G1 X94.59 Y48.577 E0.01
G1 X94.545 Y48.866 E0.01
G1 Y49.156 E0.009
G1 X94.59 Y49.444 E0.01
G1 X94.678 Y49.722 E0.01
G1 X94.818 Y49.998 E0.01
G1 X94.974 Y50.22 E0.009
G1 X95.175 Y50.43 E0.01
G1 X95.408 Y50.607 E0.009
G1 X95.682 Y50.752 E0.011
G1 X95.937 Y50.843 E0.009
G1 X96.223 Y50.899 E0.01
G1 X96.515 Y50.909 E0.009
G1 X96.822 Y50.872 E0.011
G1 X97.083 Y50.8 E0.009
G1 X97.349 Y50.68 E0.009
G1 X97.593 Y50.523 E0.01
G1 X97.81 Y50.329 E0.01
G1 X97.995 Y50.104 E0.009
G1 X98.144 Y49.854 E0.01
G1 X98.252 Y49.585 E0.01
G1 X98.319 Y49.3 E0.009
G1 X98.341 Y49.011 E0.01
;rapid-leaky
G0 X98.702 F7200
;bead-perimeter_inner
G1 X98.676 Y48.665 F960 E0.011
G1 X98.596 Y48.328 E0.012
G1 X98.466 Y48.004 E0.012
G1 X98.276 Y47.692 E0.012
G1 X98.069 Y47.442 E0.011
G1 X97.812 Y47.213 E0.011
G1 X97.521 Y47.024 E0.012
G1 X97.204 Y46.882 E0.011
G1 X96.871 Y46.791 E0.012
G1 X96.528 Y46.751 E0.011
G1 X96.182 Y46.764 E0.012
G1 X95.842 Y46.829 E0.011
G1 X95.515 Y46.947 E0.012
G1 X95.21 Y47.113 E0.011
G1 X94.935 Y47.323 E0.012
G1 X94.696 Y47.572 E0.011
G1 X94.496 Y47.855 E0.012
G1 X94.343 Y48.165 E0.011
G1 X94.238 Y48.494 E0.012
G1 X94.185 Y48.838 E0.011
G1 Y49.184 E0.012
G1 X94.238 Y49.527 E0.011
G1 X94.344 Y49.859 E0.012
G1 X94.509 Y50.184 E0.012
G1 X94.696 Y50.449 E0.011
G1 X94.935 Y50.699 E0.011
G1 X95.213 Y50.911 E0.012
G1 X95.537 Y51.083 E0.012
G1 X95.841 Y51.192 E0.011
G1 X96.182 Y51.258 E0.011
G1 X96.531 Y51.27 E0.012
G1 X96.892 Y51.226 E0.012
G1 X97.205 Y51.139 E0.011
G1 X97.521 Y50.997 E0.012
G1 X97.811 Y50.81 E0.011
G1 X98.07 Y50.58 E0.012
G1 X98.29 Y50.312 E0.011
G1 X98.467 Y50.014 E0.012
G1 X98.596 Y49.694 E0.011
G1 X98.676 Y49.355 E0.012
G1 X98.702 Y49.011 E0.011
G1 F2100 E-0.5
;rapid-dry
G0 X88.318 Y48.989 F7200
G1 F2100 E0.5
;bead-perimeter_outer
G1 X88.298 Y48.701 F720 E0.01
G1 X88.235 Y48.397 E0.01
G1 X88.131 Y48.104 E0.01
G1 X87.988 Y47.829 E0.011
G1 X87.809 Y47.575 E0.01
G1 X87.597 Y47.347 E0.01
G1 X87.356 Y47.152 E0.011
G1 X87.09 Y46.99 E0.01
G1 X86.805 Y46.867 E0.01
G1 X86.485 Y46.78 E0.011
G1 X86.198 Y46.741 E0.01
G1 X85.888 E0.01
G1 X85.581 Y46.783 E0.011
G1 X85.282 Y46.867 E0.01
G1 X84.997 Y46.99 E0.01
G1 X84.731 Y47.152 E0.011
G1 X84.49 Y47.347 E0.01
G1 X84.278 Y47.575 E0.01
G1 X84.1 Y47.829 E0.011
G1 X83.957 Y48.104 E0.01
G1 X83.853 Y48.397 E0.01
G1 X83.789 Y48.701 E0.011
G1 X83.77 Y49.033 E0.011
G1 X83.789 Y49.32 E0.009
G1 X83.853 Y49.625 E0.011
G1 X83.957 Y49.917 E0.01
G1 X84.1 Y50.193 E0.01
G1 X84.278 Y50.446 E0.011
G1 X84.49 Y50.673 E0.01
G1 X84.731 Y50.87 E0.01
G1 X84.997 Y51.031 E0.011
G1 X85.303 Y51.161 E0.011
G1 X85.581 Y51.238 E0.009
G1 X85.888 Y51.281 E0.011
G1 X86.199 E0.01
G1 X86.507 Y51.238 E0.01
G1 X86.806 Y51.155 E0.011
G1 X87.09 Y51.031 E0.01
G1 X87.356 Y50.87 E0.01
G1 X87.597 Y50.673 E0.011
G1 X87.809 Y50.446 E0.01
G1 X87.999 Y50.173 E0.011
G1 X88.131 Y49.917 E0.01
G1 X88.235 Y49.625 E0.01
G1 X88.298 Y49.319 E0.01
G1 X88.318 Y48.989 E0.011
;rapid-leaky
G0 X88.679 Y48.987 F7200
;bead-perimeter_inner
G1 X88.655 Y48.651 F960 E0.011
G1 X88.583 Y48.3 E0.012
G1 X88.462 Y47.96 E0.012
G1 X88.297 Y47.641 E0.012
G1 X88.088 Y47.347 E0.012
G1 X87.843 Y47.083 E0.012
G1 X87.564 Y46.857 E0.012
G1 X87.256 Y46.67 E0.012
G1 X86.925 Y46.526 E0.012
G1 X86.556 Y46.426 E0.013
G1 X86.223 Y46.381 E0.011
G1 X85.864 E0.012
G1 X85.508 Y46.429 E0.012
G1 X85.161 Y46.527 E0.012
G1 X84.831 Y46.669 E0.012
G1 X84.523 Y46.857 E0.012
G1 X84.244 Y47.083 E0.012
G1 X83.998 Y47.347 E0.012
G1 X83.791 Y47.642 E0.012
G1 X83.626 Y47.96 E0.012
G1 X83.506 Y48.299 E0.012
G1 X83.431 Y48.654 E0.012
G1 X83.409 Y49.035 E0.012
G1 X83.432 Y49.37 E0.012
G1 X83.506 Y49.723 E0.012
G1 X83.626 Y50.061 E0.012
G1 X83.791 Y50.38 E0.012
G1 X83.998 Y50.674 E0.011
G1 X84.244 Y50.937 E0.012
G1 X84.523 Y51.165 E0.012
G1 X84.833 Y51.353 E0.012
G1 X85.184 Y51.502 E0.013
G1 X85.508 Y51.592 E0.011
G1 X85.863 Y51.641 E0.012
G1 X86.224 E0.012
G1 X86.58 Y51.592 E0.012
G1 X86.927 Y51.495 E0.012
G1 X87.257 Y51.351 E0.012
G1 X87.564 Y51.165 E0.012
G1 X87.843 Y50.937 E0.012
G1 X88.09 Y50.673 E0.012
G1 X88.308 Y50.359 E0.013
G1 X88.462 Y50.06 E0.011
G1 X88.583 Y49.722 E0.012
G1 X88.655 Y49.367 E0.012
G1 X88.679 Y48.987 E0.013
G1 F2100 E-0.5
;rapid-dry
G0 X110.017 Y85.296 F7200
G1 F2100 E0.5
;bead-perimeter_outer
G1 X109.759 Y85.189 F720 E0.009
G1 X109.488 Y85.124 E0.009
G1 X109.211 Y85.102 E0.009
G1 X108.933 Y85.124 E0.01
G1 X108.662 Y85.189 E0.009
G1 X108.405 Y85.296 E0.009
G1 X108.167 Y85.442 E0.01
G1 X107.955 Y85.622 E0.009
G1 X107.774 Y85.834 E0.009
G1 X107.628 Y86.072 E0.009
G1 X107.522 Y86.329 E0.01
G1 X107.457 Y86.6 E0.009
G1 X107.435 Y86.878 E0.009
G1 X107.457 Y87.155 E0.009
G1 X107.522 Y87.427 E0.01
G1 X107.628 Y87.684 E0.009
G1 X107.774 Y87.923 E0.009
G1 X107.97 Y88.147 E0.01
G1 X108.167 Y88.314 E0.009
G1 X108.405 Y88.46 E0.009
G1 X108.662 Y88.567 E0.009
G1 X108.933 Y88.631 E0.01
G1 X109.211 Y88.654 E0.009
G1 X109.488 Y88.631 E0.009
G1 X109.759 Y88.567 E0.009
G1 X110.017 Y88.46 E0.01
G1 X110.254 Y88.314 E0.009
G1 X110.466 Y88.134 E0.009
G1 X110.647 Y87.922 E0.009
G1 X110.793 Y87.684 E0.01
G1 X110.899 Y87.427 E0.009
G1 X110.964 Y87.156 E0.009
G1 X110.987 Y86.878 E0.009
G1 X110.964 Y86.599 E0.01
G1 X110.899 Y86.329 E0.009
G1 X110.793 Y86.072 E0.009
G1 X110.647 Y85.833 E0.01
G1 X110.451 Y85.609 E0.01
G1 X110.254 Y85.442 E0.008
G1 X110.017 Y85.296 E0.009
;rapid-leaky
G0 X110.181 Y84.975 F7200
;bead-perimeter_inner
G1 X109.871 Y84.846 F960 E0.012
G1 X109.545 Y84.767 E0.011
G1 X109.211 Y84.741 E0.011
G1 X108.876 Y84.767 E0.011
G1 X108.549 Y84.846 E0.011
G1 X108.241 Y84.975 E0.011
G1 X107.955 Y85.149 E0.011
G1 X107.7 Y85.366 E0.012
G1 X107.482 Y85.622 E0.011
G1 X107.306 Y85.909 E0.011
G1 X107.179 Y86.217 E0.011
G1 X107.1 Y86.543 E0.011
G1 X107.074 Y86.878 E0.011
G1 X107.1 Y87.212 E0.011
G1 X107.179 Y87.538 E0.012
G1 X107.306 Y87.847 E0.011
G1 X107.483 Y88.137 E0.011
G1 X107.717 Y88.404 E0.012
G1 X107.956 Y88.607 E0.01
G1 X108.241 Y88.781 E0.011
G1 X108.55 Y88.91 E0.012
G1 X108.876 Y88.988 E0.011
G1 X109.211 Y89.015 E0.011
G1 X109.545 Y88.988 E0.011
G1 X109.87 Y88.91 E0.011
G1 X110.181 Y88.781 E0.011
G1 X110.466 Y88.606 E0.011
G1 X110.721 Y88.39 E0.012
G1 X110.939 Y88.134 E0.011
G1 X111.115 Y87.847 E0.011
G1 X111.242 Y87.538 E0.011
G1 X111.321 Y87.213 E0.011
G1 X111.348 Y86.878 E0.011
G1 X111.321 Y86.542 E0.012
G1 X111.242 Y86.217 E0.011
G1 X111.115 Y85.909 E0.011
G1 X110.938 Y85.619 E0.011
G1 X110.704 Y85.352 E0.012
G1 X110.466 Y85.149 E0.01
G1 X110.181 Y84.975 E0.011
G1 F2100 E-0.5
;rapid-dry
G0 X106.083 Y108.94 F7200
G1 F2100 E0.5
;bead-perimeter_outer
G1 X105.802 Y108.863 F720 E0.01
G1 X105.514 Y108.831 E0.01
G1 X105.223 Y108.841 E0.009
G1 X104.937 Y108.897 E0.01
G1 X104.663 Y108.995 E0.01
G1 X104.407 Y109.134 E0.009
G1 X104.175 Y109.31 E0.01
G1 X103.974 Y109.521 E0.01
G1 X103.807 Y109.759 E0.01
G1 X103.678 Y110.019 E0.009
G1 X103.59 Y110.296 E0.01
G1 X103.545 Y110.584 E0.01
G1 Y110.874 E0.009
G1 X103.59 Y111.163 E0.01
G1 X103.678 Y111.441 E0.01
G1 X103.818 Y111.717 E0.01
G1 X103.974 Y111.939 E0.009
G1 X104.176 Y112.148 E0.01
G1 X104.407 Y112.324 E0.009
G1 X104.663 Y112.464 E0.01
G1 X104.937 Y112.561 E0.01
G1 X105.223 Y112.617 E0.009
G1 X105.515 Y112.628 E0.01
G1 X105.822 Y112.59 E0.01
G1 X106.083 Y112.518 E0.009
G1 X106.349 Y112.399 E0.01
G1 X106.593 Y112.24 E0.01
G1 X106.81 Y112.047 E0.009
G1 X106.995 Y111.823 E0.01
G1 X107.144 Y111.573 E0.01
G1 X107.252 Y111.303 E0.009
G1 X107.319 Y111.02 E0.01
G1 X107.341 Y110.729 E0.01
G1 X107.319 Y110.44 E0.009
G1 X107.252 Y110.155 E0.01
G1 X107.143 Y109.885 E0.01
G1 X106.982 Y109.62 E0.01
G1 X106.809 Y109.411 E0.009
G1 X106.593 Y109.217 E0.01
G1 X106.349 Y109.06 E0.009
G1 X106.083 Y108.94 E0.01
;rapid-leaky
G0 X106.205 Y108.601 F7200
;bead-perimeter_inner
G1 X105.87 Y108.508 F960 E0.012
G1 X105.528 Y108.47 E0.011
G1 X105.182 Y108.482 E0.012
G1 X104.841 Y108.549 E0.011
G1 X104.516 Y108.665 E0.012
G1 X104.211 Y108.83 E0.011
G1 X103.935 Y109.041 E0.012
G1 X103.695 Y109.291 E0.011
G1 X103.496 Y109.574 E0.012
G1 X103.343 Y109.884 E0.011
G1 X103.238 Y110.213 E0.012
G1 X103.185 Y110.556 E0.011
G1 Y110.902 E0.012
G1 X103.238 Y111.246 E0.011
G1 X103.344 Y111.578 E0.012
G1 X103.509 Y111.903 E0.012
G1 X103.696 Y112.169 E0.011
G1 X103.935 Y112.417 E0.011
G1 X104.21 Y112.627 E0.012
G1 X104.516 Y112.794 E0.012
G1 X104.842 Y112.91 E0.011
G1 X105.181 Y112.976 E0.012
G1 X105.531 Y112.989 E0.011
G1 X105.893 Y112.944 E0.012
G1 X106.204 Y112.858 E0.011
G1 X106.521 Y112.716 E0.012
G1 X106.812 Y112.527 E0.011
G1 X107.07 Y112.298 E0.012
G1 X107.29 Y112.031 E0.011
G1 X107.467 Y111.733 E0.012
G1 X107.596 Y111.412 E0.011
G1 X107.676 Y111.075 E0.012
G1 X107.702 Y110.729 E0.011
G1 X107.676 Y110.385 E0.012
G1 X107.596 Y110.046 E0.011
G1 X107.466 Y109.724 E0.012
G1 X107.277 Y109.41 E0.012
G1 X107.069 Y109.16 E0.011
G1 X106.811 Y108.93 E0.011
G1 X106.521 Y108.743 E0.012
G1 X106.205 Y108.601 E0.011
G1 F2100 E-0.5
;rapid-dry
G0 X97.349 Y109.06 F7200
G1 F2100 E0.5
;bead-perimeter_outer
G1 X97.083 Y108.94 F720 E0.01
G1 X96.802 Y108.863 E0.01
G1 X96.514 Y108.831 E0.009
G1 X96.223 Y108.841 E0.01
G1 X95.937 Y108.897 E0.01
G1 X95.663 Y108.995 E0.009
G1 X95.407 Y109.134 E0.01
G1 X95.175 Y109.31 E0.01
G1 X94.974 Y109.521 E0.009
G1 X94.807 Y109.759 E0.01
G1 X94.678 Y110.019 E0.01
G1 X94.59 Y110.296 E0.009
G1 X94.545 Y110.584 E0.01
G1 Y110.874 E0.01
G1 X94.59 Y111.163 E0.01
G1 X94.678 Y111.441 E0.009
G1 X94.818 Y111.717 E0.011
G1 X94.974 Y111.939 E0.009
G1 X95.176 Y112.148 E0.009
G1 X95.407 Y112.324 E0.01
G1 X95.663 Y112.464 E0.01
G1 X95.937 Y112.561 E0.009
G1 X96.223 Y112.617 E0.01
G1 X96.515 Y112.628 E0.01
G1 X96.822 Y112.59 E0.01
G1 X97.083 Y112.518 E0.009
G1 X97.349 Y112.399 E0.01
G1 X97.593 Y112.24 E0.009
G1 X97.81 Y112.047 E0.01
G1 X97.995 Y111.823 E0.01
G1 X98.144 Y111.573 E0.009
G1 X98.252 Y111.303 E0.01
G1 X98.319 Y111.02 E0.01
G1 X98.341 Y110.729 E0.009
G1 X98.319 Y110.44 E0.01
G1 X98.252 Y110.155 E0.01
G1 X98.143 Y109.885 E0.009
G1 X97.982 Y109.62 E0.011
G1 X97.809 Y109.411 E0.009
G1 X97.593 Y109.217 E0.009
G1 X97.349 Y109.06 E0.01
;rapid-leaky
G0 X97.521 Y108.743 F7200
;bead-perimeter_inner
G1 X97.205 Y108.601 F960 E0.012
G1 X96.87 Y108.508 E0.011
G1 X96.528 Y108.47 E0.012
G1 X96.182 Y108.482 E0.011
G1 X95.841 Y108.549 E0.012
G1 X95.516 Y108.665 E0.011
G1 X95.211 Y108.83 E0.012
G1 X94.935 Y109.041 E0.011
G1 X94.695 Y109.291 E0.012
G1 X94.496 Y109.574 E0.011
G1 X94.343 Y109.884 E0.012
G1 X94.238 Y110.213 E0.011
G1 X94.185 Y110.556 E0.012
G1 Y110.902 E0.011
G1 X94.238 Y111.246 E0.012
G1 X94.344 Y111.578 E0.012
G1 X94.509 Y111.903 E0.012
G1 X94.696 Y112.169 E0.01
G1 X94.935 Y112.417 E0.012
G1 X95.21 Y112.627 E0.011
G1 X95.516 Y112.794 E0.012
G1 X95.842 Y112.91 E0.012
G1 X96.181 Y112.976 E0.011
G1 X96.531 Y112.989 E0.012
G1 X96.893 Y112.944 E0.012
G1 X97.204 Y112.858 E0.011
G1 X97.521 Y112.716 E0.011
G1 X97.812 Y112.527 E0.012
G1 X98.07 Y112.298 E0.011
G1 X98.29 Y112.031 E0.012
G1 X98.467 Y111.733 E0.011
G1 X98.596 Y111.412 E0.012
G1 X98.676 Y111.075 E0.011
G1 X98.702 Y110.729 E0.012
G1 X98.676 Y110.385 E0.011
G1 X98.596 Y110.046 E0.012
G1 X98.466 Y109.724 E0.011
G1 X98.277 Y109.41 E0.013
G1 X98.069 Y109.16 E0.01
G1 X97.811 Y108.93 E0.012
G1 X97.521 Y108.743 E0.011
G1 F2100 E-0.5
;rapid-dry
G0 X94.64 Y115.029 F7200
G1 F2100 E0.5
;bead-perimeter_outer
G1 X82.24 F720 E0.413
G1 Y138.429 E0.778
G1 X94.64 E0.412
G1 Y115.029 E0.779
;rapid-leaky
G0 X95 Y114.669 F7200
;bead-perimeter_inner
G1 X81.88 F960 E0.436
G1 Y138.789 E0.802
G1 X95 E0.437
G1 Y114.669 E0.802
G1 F2100 E-0.5
;rapid-dry
G0 X88.954 Y111.813 F7200
G1 F2100 E0.5
;bead-perimeter_outer
G1 X88.8 Y111.742 F720 E0.006
G1 X88.623 Y111.694 E0.006
G1 X88.44 Y111.678 E0.006
G1 X88.258 Y111.694 E0.006
G1 X88.081 Y111.742 E0.006
G1 X87.915 Y111.819 E0.006
G1 X87.765 Y111.924 E0.006
G1 X87.635 Y112.055 E0.006
G1 X87.524 Y112.215 E0.007
G1 X87.453 Y112.371 E0.005
G1 X87.405 Y112.547 E0.007
G1 X87.389 Y112.729 E0.006
G1 X87.405 Y112.912 E0.006
G1 X87.453 Y113.089 E0.006
G1 X87.53 Y113.254 E0.006
G1 X87.635 Y113.405 E0.006
G1 X87.766 Y113.535 E0.006
G1 X87.926 Y113.644 E0.007
G1 X88.082 Y113.717 E0.005
G1 X88.258 Y113.764 E0.006
G1 X88.44 Y113.78 E0.006
G1 X88.623 Y113.764 E0.007
G1 X88.8 Y113.717 E0.006
G1 X88.965 Y113.639 E0.006
G1 X89.116 Y113.534 E0.006
G1 X89.246 Y113.405 E0.006
G1 X89.357 Y113.243 E0.006
G1 X89.428 Y113.087 E0.006
G1 X89.477 Y112.899 E0.007
G1 X89.491 Y112.729 E0.005
G1 X89.476 Y112.547 E0.006
G1 X89.428 Y112.37 E0.006
G1 X89.351 Y112.204 E0.007
G1 X89.246 Y112.054 E0.006
G1 X89.115 Y111.923 E0.006
G1 X88.954 Y111.813 E0.006
;rapid-leaky
G0 X89.132 Y111.499 F7200
;bead-perimeter_inner
G1 X88.923 Y111.403 F960 E0.008
G1 X88.687 Y111.339 E0.008
G1 X88.44 Y111.317 E0.008
G1 X88.194 Y111.339 E0.008
G1 X87.958 Y111.403 E0.009
G1 X87.735 Y111.505 E0.008
G1 X87.532 Y111.648 E0.008
G1 X87.357 Y111.823 E0.008
G1 X87.21 Y112.037 E0.009
G1 X87.114 Y112.248 E0.008
G1 X87.05 Y112.483 E0.008
G1 X87.028 Y112.729 E0.008
G1 X87.05 Y112.976 E0.008
G1 X87.114 Y113.213 E0.008
G1 X87.216 Y113.434 E0.008
G1 X87.359 Y113.638 E0.009
G1 X87.536 Y113.813 E0.008
G1 X87.747 Y113.958 E0.009
G1 X87.959 Y114.057 E0.007
