;deget mic
;Printer name: Prusa i3 MK3
;TIME:2698
;Print time: 44m:58s
;Extruder 1 material used: 2139mm
;Extruder 1 material name: 
;Extruder 1 filament diameter: 1.75mm
;Extruder 1 nozzle diameter: 0.4mm
;Extruder 1 offset x: 0mm
;Extruder 1 offset y: 0mm
;Extruder 1 offset z: 0mm
;Extruder 1 max temp: 200
;Bed temp: 70
;Layer count: 73
;Width: 250mm
;Depth: 210mm
;Height: 210mm
;Center x: 125mm
;Center y: 105mm
;Center z: 0mm
;Count of bodies: 3
;Fusion version: 2.0.19440
G21
M115 U3.0.10 ;tell printer latest fw version
G28 W ;home all without mesh bed level
;--------------------------------
;Selected Profile: PLA Direct Drive
;--------------------------------
;Selected Printer: Prusa, i3 MK3
;--------------------------------
T0
M140 S70
M104 S200 T0
M190 S70
M109 S200 T0
G80 ;mesh bed leveling
G92 E0
G90
M83
G0 X10 Y10 Z10 F7200
G92 E0
;--------------------------------
;Part 1
;LAYER_COUNT:73
;LAYER:1
M107
;rapid-leaky
G0 X20 Y20.5 Z0.2 F7200
;bead-prime
G1 X120 F720 E8.315
G1 F2100 E-0.5
;rapid-dry
G0 X103.204 Y78.951 F7200
G1 F2100 E0.5
;bead-skirt/brim
G1 X104.103 Y79.349 F960 E0.033
G1 X107.637 Y80.114 E0.12
G1 X111.373 Y80.784 E0.126
G1 X116.046 Y81.413 E0.157
G1 X120.711 Y81.793 E0.156
G1 X124.43 Y81.907 E0.123
G1 X127.212 Y81.878 E0.093
G1 X129.995 Y81.753 E0.093
G1 X134.599 Y81.364 E0.153
G1 X137.845 Y80.907 E0.109
G1 X140.468 Y80.462 E0.089
G1 X142.347 Y80.107 E0.063
G1 X144.228 Y79.717 E0.064
G1 X145.837 Y79.354 E0.055
G1 X146.126 Y79.213 E0.011
G1 X146.794 Y78.949 E0.024
G1 X147.482 Y78.733 E0.024
G1 X148.183 Y78.571 E0.024
G1 X148.893 Y78.462 E0.024
G1 X149.609 Y78.405 E0.024
G1 X150.33 Y78.403 E0.024
G1 X151.049 Y78.455 E0.023
G1 X151.76 Y78.56 E0.024
G1 X152.459 Y78.718 E0.024
G1 X153.149 Y78.928 E0.024
G1 X153.825 Y79.192 E0.024
G1 X154.51 Y79.523 E0.026
G1 X155.094 Y79.861 E0.022
G1 X155.687 Y80.262 E0.024
G1 X156.251 Y80.712 E0.024
G1 X156.779 Y81.2 E0.024
G1 X157.268 Y81.725 E0.024
G1 X157.717 Y82.286 E0.024
G1 X158.124 Y82.881 E0.024
G1 X158.485 Y83.504 E0.024
G1 X158.798 Y84.153 E0.023
G1 X159.061 Y84.822 E0.024
G1 X159.274 Y85.511 E0.024
G1 X159.435 Y86.217 E0.024
G1 X159.545 Y86.967 E0.026
G1 X159.595 Y87.64 E0.022
G1 Y88.358 E0.024
G1 X159.541 Y89.077 E0.024
G1 X159.433 Y89.787 E0.024
G1 X159.274 Y90.487 E0.024
G1 X159.061 Y91.175 E0.024
G1 X158.798 Y91.846 E0.024
G1 X158.485 Y92.495 E0.024
G1 X158.124 Y93.117 E0.024
G1 X157.718 Y93.711 E0.023
G1 X157.269 Y94.273 E0.024
G1 X156.779 Y94.799 E0.024
G1 X156.25 Y95.289 E0.024
G1 X155.687 Y95.735 E0.024
G1 X155.093 Y96.139 E0.024
G1 X154.468 Y96.498 E0.024
G1 X153.82 Y96.808 E0.024
G1 X153.149 Y97.07 E0.024
G1 X152.462 Y97.28 E0.024
G1 X151.76 Y97.439 E0.024
G1 X151.047 Y97.543 E0.024
G1 X150.33 Y97.595 E0.024
G1 X149.609 Y97.593 E0.024
G1 X148.895 Y97.537 E0.023
G1 X148.183 Y97.428 E0.024
G1 X147.482 Y97.265 E0.024
G1 X146.794 Y97.051 E0.024
G1 X146.126 Y96.784 E0.024
G1 X145.839 Y96.645 E0.011
G1 X144.227 Y96.281 E0.055
G1 X142.347 Y95.891 E0.064
G1 X140.468 Y95.537 E0.063
G1 X138.176 Y95.149 E0.078
G1 X134.65 Y94.638 E0.118
G1 X129.995 Y94.245 E0.155
G1 X127.212 Y94.12 E0.093
G1 X124.43 Y94.091 E0.093
G1 X120.711 Y94.205 E0.123
G1 X116.046 Y94.585 E0.156
G1 X111.373 Y95.214 E0.157
G1 X107.637 Y95.884 E0.126
G1 X104.104 Y96.65 E0.12
G1 X103.288 Y97.01 E0.03
G1 X104.882 Y97.733 E0.058
G1 X106.101 Y98.591 E0.05
G1 X106.478 Y98.95 E0.017
G1 X108.672 Y99.427 E0.075
G1 X111.519 Y99.744 E0.095
G1 X114.449 Y99.896 E0.098
G1 X118.402 Y99.928 E0.131
G1 X119.855 Y99.859 E0.048
G1 X120.435 Y99.371 E0.026
G1 X121.46 Y99 E0.036
G1 X125.034 Y98.993 E0.119
G1 X125.311 Y98.795 E0.011
G1 X125.875 Y98.457 E0.022
G1 X126.5 Y98.148 E0.023
G1 X127.153 Y97.887 E0.024
G1 X127.86 Y97.673 E0.024
G1 X128.501 Y97.534 E0.022
G1 X129.189 Y97.44 E0.023
G1 X129.889 Y97.401 E0.023
G1 X130.587 Y97.421 E0.024
G1 X131.281 Y97.495 E0.023
G1 X131.97 Y97.628 E0.023
G1 X132.643 Y97.816 E0.023
G1 X133.296 Y98.056 E0.024
G1 X133.929 Y98.348 E0.023
G1 X134.541 Y98.693 E0.023
G1 X135.118 Y99.086 E0.023
G1 X135.661 Y99.522 E0.023
G1 X136.17 Y100.004 E0.024
G1 X136.637 Y100.524 E0.023
G1 X137.058 Y101.079 E0.023
G1 X137.435 Y101.668 E0.023
G1 X137.763 Y102.287 E0.024
G1 X138.038 Y102.929 E0.023
G1 X138.263 Y103.595 E0.023
G1 X138.438 Y104.312 E0.025
G1 X138.543 Y104.958 E0.022
G1 X138.6 Y105.652 E0.023
G1 Y106.354 E0.023
G1 X138.543 Y107.047 E0.023
G1 X138.431 Y107.737 E0.024
G1 X138.261 Y108.418 E0.023
G1 X138.038 Y109.077 E0.023
G1 X137.763 Y109.719 E0.023
G1 X137.435 Y110.338 E0.024
G1 X137.058 Y110.927 E0.023
G1 X136.633 Y111.487 E0.023
G1 X136.139 Y112.033 E0.025
G1 X135.66 Y112.485 E0.022
G1 X135.118 Y112.92 E0.023
G1 X134.539 Y113.314 E0.023
G1 X133.929 Y113.657 E0.023
G1 X133.298 Y113.95 E0.023
G1 X132.643 Y114.19 E0.024
G1 X131.967 Y114.379 E0.023
G1 X131.281 Y114.509 E0.023
G1 X130.587 Y114.585 E0.023
G1 X129.889 Y114.604 E0.024
G1 X129.191 Y114.567 E0.023
G1 X128.497 Y114.472 E0.023
G1 X127.815 Y114.321 E0.023
G1 X127.149 Y114.117 E0.024
G1 X126.502 Y113.859 E0.023
G1 X125.872 Y113.548 E0.023
G1 X125.274 Y113.186 E0.023
G1 X125.032 Y113.013 E0.01
G1 X121.444 Y113.004 E0.12
G1 X120.537 Y112.67 E0.032
G1 X119.912 Y112.23 E0.025
G1 X119.844 Y112.15 E0.004
G1 X118.398 Y112.077 E0.048
G1 X114.449 Y112.11 E0.131
G1 X111.519 Y112.262 E0.098
G1 X108.672 Y112.579 E0.095
G1 X106.478 Y113.056 E0.075
G1 X106.101 Y113.415 E0.017
G1 X104.882 Y114.273 E0.05
G1 X103 Y115.125 E0.068
G1 X109.645 Y116.477 E0.226
G1 X111.705 Y116.857 E0.07
G1 X113.054 Y117.057 E0.045
G1 X114.779 Y117.263 E0.058
G1 X117.225 Y117.373 E0.081
G1 X121.605 Y117.441 E0.146
G1 Y128.561 E0.37
G1 X117.236 Y128.629 E0.145
G1 X114.784 Y128.739 E0.082
G1 X113.077 Y128.942 E0.057
G1 X111.716 Y129.143 E0.046
G1 X109.699 Y129.513 E0.068
G1 X105.108 Y130.456 E0.156
G1 X101.902 Y131.094 E0.108
G1 X101.515 Y131.229 E0.014
G1 X100.839 Y131.406 E0.023
G1 X100.154 Y131.526 E0.023
G1 X99.457 Y131.592 E0.024
G1 X98.759 Y131.599 E0.023
G1 X98.064 Y131.552 E0.023
G1 X97.372 Y131.447 E0.023
G1 X96.692 Y131.286 E0.024
G1 X96.031 Y131.072 E0.023
G1 X95.386 Y130.805 E0.023
G1 X94.764 Y130.485 E0.023
G1 X94.17 Y130.116 E0.023
G1 X93.611 Y129.701 E0.024
G1 X93.085 Y129.243 E0.023
G1 X92.586 Y128.729 E0.024
G1 X92.091 Y128.114 E0.026
G1 X91.754 Y127.628 E0.02
G1 X91.404 Y127.028 E0.023
G1 X91.102 Y126.399 E0.023
G1 X90.851 Y125.744 E0.023
G1 X90.656 Y125.074 E0.023
G1 X90.516 Y124.391 E0.024
G1 X90.431 Y123.698 E0.023
G1 X90.403 Y123.001 E0.023
G1 X90.431 Y122.303 E0.023
G1 X90.516 Y121.611 E0.023
G1 X90.656 Y120.928 E0.024
G1 X90.851 Y120.258 E0.023
G1 X91.102 Y119.603 E0.023
G1 X91.404 Y118.974 E0.023
G1 X91.754 Y118.373 E0.023
G1 X92.153 Y117.8 E0.024
G1 X92.597 Y117.261 E0.023
G1 X93.084 Y116.761 E0.023
G1 X93.611 Y116.3 E0.023
G1 X94.172 Y115.884 E0.024
G1 X94.764 Y115.517 E0.023
G1 X95.384 Y115.198 E0.023
G1 X96.029 Y114.93 E0.023
G1 X96.314 Y114.838 E0.01
G1 X95.861 Y114.664 E0.016
G1 X94.061 Y113.55 E0.071
G1 X92.523 Y112.03 E0.072
G1 X91.363 Y110.199 E0.072
G1 X90.643 Y108.159 E0.072
G1 X90.404 Y106.053 E0.07
G1 X90.515 Y104.562 E0.05
G1 X90.849 Y103.109 E0.05
G1 X91.682 Y101.213 E0.068
G1 X92.555 Y99.944 E0.052
G1 X94.026 Y98.49 E0.068
G1 X95.309 Y97.629 E0.052
G1 X96.74 Y97.017 E0.052
G1 X95.534 Y96.494 E0.043
G1 X94.315 Y95.731 E0.048
G1 X93.189 Y94.767 E0.049
G1 X91.902 Y93.158 E0.069
G1 X91.207 Y91.845 E0.049
G1 X90.715 Y90.442 E0.05
G1 X90.408 Y88.407 E0.068
G1 X90.465 Y86.875 E0.051
G1 X90.924 Y84.867 E0.069
G1 X91.538 Y83.462 E0.051
G1 X92.728 Y81.724 E0.07
G1 X94.275 Y80.292 E0.07
G1 X95.534 Y79.504 E0.049
G1 X96.895 Y78.913 E0.05
G1 X98.906 Y78.461 E0.068
G1 X100.39 Y78.41 E0.05
G1 X101.818 Y78.576 E0.047
G1 X103.204 Y78.951 E0.048
;rapid-leaky
G0 X103.07 Y79.329 F7200
;bead-skirt/brim
G1 X103.979 Y79.731 F960 E0.033
G1 X107.559 Y80.506 E0.122
G1 X111.311 Y81.179 E0.127
G1 X116.003 Y81.811 E0.157
G1 X120.689 Y82.193 E0.157
G1 X124.426 Y82.307 E0.124
G1 X127.223 Y82.278 E0.093
G1 X130.021 Y82.152 E0.093
G1 X134.644 Y81.762 E0.155
G1 X137.907 Y81.302 E0.109
G1 X140.538 Y80.855 E0.089
G1 X142.425 Y80.5 E0.064
G1 X144.312 Y80.108 E0.064
G1 X145.971 Y79.734 E0.056
G1 X146.288 Y79.58 E0.012
G1 X146.928 Y79.326 E0.023
G1 X147.587 Y79.119 E0.023
G1 X148.259 Y78.964 E0.023
G1 X148.939 Y78.859 E0.023
G1 X149.626 Y78.805 E0.023
G1 X150.317 Y78.803 E0.023
G1 X151.005 Y78.853 E0.023
G1 X151.686 Y78.954 E0.023
G1 X152.357 Y79.105 E0.022
G1 X153.018 Y79.306 E0.023
G1 X153.665 Y79.559 E0.024
G1 X154.323 Y79.877 E0.024
G1 X154.881 Y80.2 E0.021
G1 X155.45 Y80.585 E0.023
G1 X155.991 Y81.015 E0.023
G1 X156.497 Y81.483 E0.023
G1 X156.965 Y81.987 E0.023
G1 X157.396 Y82.524 E0.023
G1 X157.786 Y83.094 E0.023
G1 X158.132 Y83.691 E0.023
G1 X158.431 Y84.313 E0.023
G1 X158.683 Y84.954 E0.023
G1 X158.888 Y85.615 E0.023
G1 X159.041 Y86.291 E0.023
G1 X159.147 Y87.011 E0.024
G1 X159.195 Y87.655 E0.021
G1 Y88.343 E0.023
G1 X159.144 Y89.032 E0.023
G1 X159.04 Y89.713 E0.023
G1 X158.888 Y90.383 E0.023
G1 X158.684 Y91.043 E0.023
G1 X158.431 Y91.686 E0.023
G1 X158.131 Y92.307 E0.023
G1 X157.786 Y92.904 E0.023
G1 X157.397 Y93.473 E0.023
G1 X156.966 Y94.011 E0.023
G1 X156.497 Y94.516 E0.023
G1 X155.989 Y94.985 E0.023
G1 X155.45 Y95.413 E0.023
G1 X154.88 Y95.8 E0.022
G1 X154.282 Y96.144 E0.023
G1 X153.661 Y96.441 E0.023
G1 X153.018 Y96.692 E0.023
G1 X152.359 Y96.893 E0.023
G1 X151.686 Y97.045 E0.023
G1 X151.003 Y97.145 E0.023
G1 X150.317 Y97.195 E0.023
G1 X149.626 Y97.193 E0.023
G1 X148.941 Y97.139 E0.023
G1 X148.259 Y97.035 E0.023
G1 X147.587 Y96.878 E0.023
G1 X146.928 Y96.673 E0.023
G1 X146.288 Y96.418 E0.023
G1 X145.972 Y96.265 E0.011
G1 X144.312 Y95.89 E0.057
G1 X142.425 Y95.498 E0.064
G1 X140.539 Y95.143 E0.064
G1 X138.238 Y94.753 E0.077
G1 X134.695 Y94.24 E0.119
G1 X130.021 Y93.846 E0.156
G1 X127.223 Y93.721 E0.094
G1 X124.426 Y93.691 E0.093
G1 X120.689 Y93.805 E0.124
G1 X116.003 Y94.187 E0.156
G1 X111.311 Y94.819 E0.158
G1 X107.559 Y95.492 E0.127
G1 X103.979 Y96.268 E0.121
G1 X103.07 Y96.67 E0.034
G1 X101.755 Y97.026 E0.045
G1 X102.829 Y97.241 E0.036
G1 X104.683 Y98.082 E0.068
G1 X105.847 Y98.901 E0.047
G1 X106.284 Y99.317 E0.02
G1 X108.607 Y99.822 E0.079
G1 X111.487 Y100.143 E0.097
G1 X114.437 Y100.295 E0.098
G1 X118.41 Y100.329 E0.132
G1 X120.009 Y100.252 E0.053
G1 X120.638 Y99.723 E0.028
G1 X121.53 Y99.4 E0.031
G1 X125.162 Y99.393 E0.121
G1 X125.531 Y99.13 E0.015
G1 X126.067 Y98.808 E0.021
G1 X126.663 Y98.513 E0.022
G1 X127.285 Y98.265 E0.022
G1 X127.96 Y98.061 E0.024
G1 X128.571 Y97.928 E0.021
G1 X129.227 Y97.838 E0.022
G1 X129.895 Y97.801 E0.022
G1 X130.56 Y97.82 E0.022
G1 X131.222 Y97.891 E0.022
G1 X131.878 Y98.018 E0.022
G1 X132.52 Y98.197 E0.023
G1 X133.143 Y98.426 E0.022
G1 X133.747 Y98.704 E0.022
G1 X134.329 Y99.033 E0.022
G1 X134.88 Y99.408 E0.022
G1 X135.398 Y99.823 E0.022
G1 X135.883 Y100.283 E0.023
G1 X136.328 Y100.779 E0.022
G1 X136.73 Y101.308 E0.022
G1 X137.09 Y101.87 E0.022
G1 X137.402 Y102.46 E0.022
G1 X137.664 Y103.072 E0.022
G1 X137.879 Y103.707 E0.023
G1 X138.046 Y104.392 E0.023
G1 X138.145 Y105.006 E0.021
G1 X138.2 Y105.669 E0.022
G1 Y106.338 E0.022
G1 X138.145 Y106.999 E0.022
G1 X138.039 Y107.656 E0.022
G1 X137.877 Y108.305 E0.023
G1 X137.664 Y108.934 E0.022
G1 X137.402 Y109.546 E0.022
G1 X137.09 Y110.136 E0.022
G1 X136.73 Y110.698 E0.022
G1 X136.325 Y111.231 E0.022
G1 X135.853 Y111.753 E0.024
G1 X135.397 Y112.183 E0.021
G1 X134.88 Y112.598 E0.022
G1 X134.328 Y112.974 E0.022
G1 X133.747 Y113.301 E0.022
G1 X133.145 Y113.58 E0.022
G1 X132.52 Y113.809 E0.022
G1 X131.876 Y113.989 E0.023
G1 X131.222 Y114.113 E0.022
G1 X130.56 Y114.186 E0.022
G1 X129.895 Y114.204 E0.022
G1 X129.229 Y114.168 E0.022
G1 X128.568 Y114.078 E0.022
G1 X127.917 Y113.934 E0.023
G1 X127.282 Y113.739 E0.022
G1 X126.665 Y113.494 E0.022
G1 X126.065 Y113.197 E0.022
G1 X125.494 Y112.852 E0.022
G1 X125.161 Y112.613 E0.014
G1 X121.516 Y112.604 E0.121
G1 X120.725 Y112.313 E0.028
G1 X120.185 Y111.933 E0.022
G1 X120.038 Y111.759 E0.008
G1 X118.407 Y111.676 E0.054
G1 X114.437 Y111.71 E0.132
G1 X111.487 Y111.863 E0.098
G1 X108.607 Y112.184 E0.097
G1 X106.284 Y112.689 E0.079
G1 X105.847 Y113.105 E0.02
G1 X104.682 Y113.925 E0.047
G1 X102.868 Y114.746 E0.066
G1 X101.445 Y115.089 E0.049
G1 X101.19 Y115.102 E0.009
G1 X101.398 Y115.156 E0.007
G1 X101.795 Y115.295 E0.014
G1 X104.26 Y115.781 E0.083
G1 X109.569 Y116.869 E0.18
G1 X111.639 Y117.251 E0.071
G1 X113.001 Y117.453 E0.045
G1 X114.746 Y117.662 E0.059
G1 X117.213 Y117.773 E0.082
G1 X121.205 Y117.835 E0.133
G1 Y128.167 E0.343
G1 X117.224 Y128.229 E0.133
G1 X114.752 Y128.34 E0.082
G1 X113.024 Y128.546 E0.058
G1 X111.65 Y128.749 E0.046
G1 X109.623 Y129.121 E0.069
G1 X105.029 Y130.064 E0.156
G1 X101.797 Y130.707 E0.109
G1 X101.398 Y130.846 E0.014
G1 X100.754 Y131.014 E0.022
G1 X100.1 Y131.129 E0.023
G1 X99.436 Y131.192 E0.022
G1 X98.771 Y131.199 E0.022
G1 X98.108 Y131.154 E0.022
G1 X97.448 Y131.054 E0.022
G1 X96.8 Y130.9 E0.022
G1 X96.17 Y130.696 E0.022
G1 X95.555 Y130.442 E0.022
G1 X94.961 Y130.137 E0.023
G1 X94.395 Y129.785 E0.022
G1 X93.862 Y129.389 E0.022
G1 X93.36 Y128.952 E0.022
G1 X92.886 Y128.464 E0.023
G1 X92.412 Y127.874 E0.025
G1 X92.091 Y127.413 E0.019
G1 X91.758 Y126.84 E0.022
G1 X91.47 Y126.241 E0.022
G1 X91.231 Y125.617 E0.022
G1 X91.045 Y124.978 E0.022
G1 X90.911 Y124.326 E0.022
G1 X90.83 Y123.666 E0.022
G1 X90.803 Y123.001 E0.022
G1 X90.83 Y122.335 E0.023
G1 X90.911 Y121.676 E0.022
G1 X91.045 Y121.024 E0.022
G1 X91.231 Y120.385 E0.022
G1 X91.47 Y119.761 E0.022
G1 X91.758 Y119.162 E0.022
G1 X92.092 Y118.588 E0.022
G1 X92.472 Y118.042 E0.022
G1 X92.896 Y117.528 E0.023
G1 X93.359 Y117.051 E0.022
G1 X93.862 Y116.612 E0.022
G1 X94.397 Y116.216 E0.022
G1 X94.962 Y115.865 E0.022
G1 X95.553 Y115.561 E0.022
G1 X96.168 Y115.305 E0.022
G1 X96.802 Y115.1 E0.023
G1 X97.45 Y114.948 E0.022
G1 X97.789 Y114.897 E0.011
G1 X97.411 Y114.829 E0.013
G1 X96.039 Y114.304 E0.049
G1 X94.31 Y113.234 E0.067
G1 X92.836 Y111.778 E0.069
G1 X91.725 Y110.023 E0.069
G1 X91.035 Y108.068 E0.069
G1 X90.806 Y106.045 E0.068
G1 X90.911 Y104.622 E0.048
G1 X91.231 Y103.236 E0.047
G1 X92.034 Y101.409 E0.066
G1 X92.863 Y100.202 E0.049
G1 X94.28 Y98.801 E0.066
G1 X95.5 Y97.982 E0.049
G1 X97.328 Y97.201 E0.066
G1 X98.296 Y96.99 E0.033
G1 X97.02 Y96.703 E0.044
G1 X95.721 Y96.139 E0.047
G1 X94.552 Y95.407 E0.046
G1 X93.478 Y94.487 E0.047
G1 X92.238 Y92.938 E0.066
G1 X91.575 Y91.685 E0.047
G1 X91.105 Y90.345 E0.047
G1 X90.809 Y88.384 E0.066
G1 X90.863 Y86.927 E0.048
G1 X91.305 Y84.992 E0.067
G1 X91.889 Y83.656 E0.048
G1 X93.032 Y81.987 E0.067
G1 X94.519 Y80.611 E0.068
G1 X95.721 Y79.859 E0.047
G1 X97.02 Y79.295 E0.047
G1 X98.957 Y78.859 E0.066
G1 X100.374 Y78.811 E0.047
G1 X101.742 Y78.97 E0.046
G1 X103.07 Y79.329 E0.046
;rapid-leaky
G0 X102.936 Y79.707 F7200
;bead-skirt/brim
G1 X103.854 Y80.114 F960 E0.033
G1 X107.481 Y80.899 E0.124
G1 X111.249 Y81.574 E0.127
G1 X115.96 Y82.209 E0.158
G1 X120.667 Y82.592 E0.157
G1 X124.422 Y82.707 E0.125
G1 X127.234 Y82.677 E0.094
G1 X130.047 Y82.551 E0.093
G1 X134.689 Y82.16 E0.155
G1 X137.968 Y81.698 E0.11
G1 X140.609 Y81.249 E0.089
G1 X142.502 Y80.892 E0.064
G1 X144.397 Y80.499 E0.065
G1 X146.104 Y80.114 E0.058
G1 X146.449 Y79.946 E0.013
G1 X147.061 Y79.703 E0.022
G1 X147.692 Y79.506 E0.022
G1 X148.335 Y79.357 E0.022
G1 X148.985 Y79.257 E0.021
G1 X149.642 Y79.205 E0.022
G1 X150.303 Y79.203 E0.022
G1 X150.962 Y79.251 E0.022
G1 X151.613 Y79.347 E0.022
G1 X152.255 Y79.492 E0.022
G1 X152.887 Y79.684 E0.022
G1 X153.505 Y79.926 E0.022
G1 X154.136 Y80.23 E0.023
G1 X154.669 Y80.539 E0.021
G1 X155.213 Y80.907 E0.022
G1 X155.73 Y81.319 E0.022
G1 X156.214 Y81.767 E0.022
G1 X156.662 Y82.249 E0.022
G1 X157.074 Y82.762 E0.021
G1 X157.447 Y83.308 E0.022
G1 X157.778 Y83.879 E0.022
G1 X158.065 Y84.474 E0.022
G1 X158.306 Y85.087 E0.022
G1 X158.501 Y85.718 E0.022
G1 X158.648 Y86.364 E0.022
G1 X158.749 Y87.055 E0.024
G1 X158.795 Y87.67 E0.02
G1 Y88.328 E0.022
G1 X158.746 Y88.987 E0.022
G1 X158.647 Y89.638 E0.022
G1 X158.501 Y90.28 E0.022
G1 X158.306 Y90.911 E0.022
G1 X158.064 Y91.525 E0.022
G1 X157.777 Y92.12 E0.022
G1 X157.447 Y92.69 E0.022
G1 X157.075 Y93.235 E0.021
G1 X156.663 Y93.75 E0.022
G1 X156.214 Y94.232 E0.022
G1 X155.729 Y94.681 E0.022
G1 X155.213 Y95.09 E0.022
G1 X154.668 Y95.461 E0.022
G1 X154.096 Y95.79 E0.022
G1 X153.501 Y96.074 E0.022
G1 X152.887 Y96.314 E0.022
G1 X152.256 Y96.506 E0.022
G1 X151.613 Y96.652 E0.022
G1 X150.96 Y96.748 E0.022
G1 X150.303 Y96.795 E0.022
G1 X149.642 Y96.793 E0.022
G1 X148.987 Y96.741 E0.021
G1 X148.335 Y96.642 E0.022
G1 X147.692 Y96.492 E0.022
G1 X147.062 Y96.296 E0.022
G1 X146.449 Y96.052 E0.022
G1 X146.105 Y95.885 E0.013
G1 X144.397 Y95.499 E0.058
G1 X142.502 Y95.106 E0.065
G1 X140.609 Y94.749 E0.064
G1 X138.3 Y94.358 E0.078
G1 X134.741 Y93.843 E0.119
G1 X130.047 Y93.447 E0.157
G1 X127.234 Y93.321 E0.093
G1 X124.422 Y93.291 E0.094
G1 X120.667 Y93.406 E0.125
G1 X115.96 Y93.789 E0.157
G1 X111.249 Y94.424 E0.158
G1 X107.482 Y95.099 E0.127
G1 X103.854 Y95.885 E0.124
G1 X102.936 Y96.292 E0.033
G1 X101.665 Y96.636 E0.044
G1 X100.357 Y96.787 E0.044
G1 X99.009 Y96.74 E0.045
G1 X97.145 Y96.321 E0.063
G1 X95.907 Y95.784 E0.045
G1 X94.79 Y95.084 E0.044
G1 X93.766 Y94.208 E0.045
G1 X92.574 Y92.717 E0.063
G1 X91.942 Y91.524 E0.045
G1 X91.494 Y90.248 E0.045
G1 X91.21 Y88.361 E0.064
G1 X91.262 Y86.98 E0.046
G1 X91.687 Y85.118 E0.063
G1 X92.241 Y83.851 E0.046
G1 X93.337 Y82.25 E0.065
G1 X94.763 Y80.93 E0.064
G1 X95.907 Y80.214 E0.045
G1 X97.145 Y79.677 E0.045
G1 X99.009 Y79.258 E0.064
G1 X100.357 Y79.211 E0.044
G1 X101.666 Y79.364 E0.044
G1 X102.936 Y79.707 E0.044
;rapid-leaky
G0 X102.802 Y80.086 F7200
;bead-skirt/brim
G1 X103.73 Y80.496 F960 E0.034
G1 X107.404 Y81.291 E0.125
G1 X111.187 Y81.97 E0.128
G1 X115.917 Y82.607 E0.158
G1 X120.644 Y82.992 E0.158
G1 X124.418 Y83.107 E0.126
G1 X127.245 Y83.077 E0.094
G1 X130.073 Y82.951 E0.094
G1 X134.733 Y82.557 E0.155
G1 X138.029 Y82.093 E0.111
G1 X140.679 Y81.643 E0.09
G1 X142.58 Y81.285 E0.064
G1 X144.482 Y80.89 E0.065
G1 X146.237 Y80.494 E0.059
G1 X146.611 Y80.312 E0.014
G1 X147.195 Y80.08 E0.021
G1 X147.797 Y79.892 E0.021
G1 X148.41 Y79.75 E0.021
G1 X149.031 Y79.654 E0.021
G1 X149.659 Y79.605 E0.021
G1 X150.289 Y79.603 E0.021
G1 X150.918 Y79.648 E0.021
G1 X151.54 Y79.741 E0.021
G1 X152.152 Y79.879 E0.021
G1 X152.755 Y80.062 E0.021
G1 X153.345 Y80.293 E0.021
G1 X153.948 Y80.584 E0.022
G1 X154.456 Y80.878 E0.019
G1 X154.976 Y81.23 E0.021
G1 X155.469 Y81.623 E0.021
G1 X155.931 Y82.05 E0.021
G1 X156.359 Y82.51 E0.021
G1 X156.753 Y83.001 E0.021
G1 X157.108 Y83.521 E0.021
G1 X157.424 Y84.066 E0.021
G1 X157.698 Y84.634 E0.021
G1 X157.928 Y85.219 E0.021
G1 X158.114 Y85.822 E0.021
G1 X158.254 Y86.438 E0.021
G1 X158.351 Y87.099 E0.022
G1 X158.395 Y87.685 E0.02
G1 Y88.313 E0.02
G1 X158.348 Y88.942 E0.021
G1 X158.253 Y89.564 E0.021
G1 X158.114 Y90.176 E0.021
G1 X157.928 Y90.778 E0.021
G1 X157.698 Y91.365 E0.021
G1 X157.424 Y91.932 E0.021
G1 X157.108 Y92.477 E0.021
G1 X156.753 Y92.996 E0.021
G1 X156.36 Y93.488 E0.021
G1 X155.931 Y93.949 E0.021
G1 X155.469 Y94.377 E0.021
G1 X154.976 Y94.768 E0.021
G1 X154.455 Y95.122 E0.021
G1 X153.91 Y95.435 E0.021
G1 X153.342 Y95.706 E0.021
G1 X152.755 Y95.936 E0.02
G1 X152.154 Y96.119 E0.021
G1 X151.54 Y96.258 E0.021
G1 X150.916 Y96.35 E0.021
G1 X150.289 Y96.395 E0.021
G1 X149.659 Y96.393 E0.021
G1 X149.033 Y96.344 E0.021
G1 X148.41 Y96.249 E0.021
G1 X147.797 Y96.106 E0.021
G1 X147.195 Y95.919 E0.021
G1 X146.611 Y95.686 E0.021
G1 X146.238 Y95.505 E0.014
G1 X144.481 Y95.108 E0.059
G1 X142.58 Y94.713 E0.065
G1 X140.679 Y94.355 E0.064
G1 X138.363 Y93.963 E0.079
G1 X134.786 Y93.445 E0.12
G1 X130.073 Y93.047 E0.157
G1 X127.245 Y92.921 E0.094
G1 X124.418 Y92.891 E0.094
G1 X120.644 Y93.006 E0.126
G1 X115.917 Y93.391 E0.158
G1 X111.187 Y94.028 E0.158
G1 X107.404 Y94.707 E0.128
G1 X103.73 Y95.503 E0.125
G1 X102.802 Y95.913 E0.034
G1 X101.59 Y96.242 E0.042
G1 X100.34 Y96.386 E0.042
G1 X99.06 Y96.342 E0.042
G1 X97.269 Y95.939 E0.061
G1 X96.094 Y95.429 E0.043
G1 X95.028 Y94.761 E0.042
G1 X94.055 Y93.929 E0.042
G1 X92.909 Y92.497 E0.061
G1 X92.31 Y91.363 E0.043
G1 X91.884 Y90.151 E0.043
G1 X91.611 Y88.339 E0.061
G1 X91.66 Y87.032 E0.043
G1 X92.069 Y85.244 E0.061
G1 X92.592 Y84.046 E0.044
G1 X93.642 Y82.513 E0.061
G1 X95.007 Y81.249 E0.062
G1 X96.094 Y80.569 E0.043
G1 X97.269 Y80.059 E0.042
G1 X99.06 Y79.656 E0.062
G1 X100.341 Y79.612 E0.042
G1 X101.59 Y79.757 E0.042
G1 X102.802 Y80.086 E0.042
;rapid-leaky
G0 X102.668 Y80.464 F7200
;bead-skirt/brim
G1 X103.605 Y80.878 F960 E0.034
G1 X107.326 Y81.684 E0.126
G1 X111.125 Y82.365 E0.129
G1 X115.874 Y83.004 E0.159
G1 X120.622 Y83.391 E0.159
G1 X124.414 Y83.507 E0.126
G1 X127.256 Y83.477 E0.094
G1 X130.099 Y83.35 E0.095
G1 X134.95 Y82.941 E0.162
G1 X134.983 Y84.17 E0.041
G1 X135.006 E0.001
G1 X135.026 Y82.92 E0.041
G1 X138.091 Y82.488 E0.103
G1 X140.75 Y82.037 E0.09
G1 X142.658 Y81.677 E0.064
G1 X144.566 Y81.281 E0.065
G1 X146.371 Y80.874 E0.062
G1 X146.772 Y80.678 E0.015
G1 X147.329 Y80.458 E0.02
G1 X147.902 Y80.278 E0.019
G1 X148.486 Y80.143 E0.02
G1 X149.077 Y80.052 E0.02
G1 X149.675 Y80.005 E0.02
G1 X150.275 Y80.003 E0.02
G1 X150.874 Y80.046 E0.02
G1 X151.466 Y80.134 E0.02
G1 X152.05 Y80.266 E0.02
G1 X152.624 Y80.441 E0.02
G1 X153.185 Y80.66 E0.02
G1 X153.761 Y80.938 E0.021
G1 X154.243 Y81.217 E0.019
G1 X154.739 Y81.553 E0.02
G1 X155.209 Y81.927 E0.02
G1 X155.649 Y82.333 E0.02
G1 X156.056 Y82.772 E0.02
G1 X156.431 Y83.239 E0.019
G1 X156.77 Y83.734 E0.02
G1 X157.07 Y84.254 E0.02
G1 X157.331 Y84.794 E0.02
G1 X157.55 Y85.352 E0.02
G1 X157.728 Y85.925 E0.02
G1 X157.861 Y86.511 E0.02
G1 X157.954 Y87.143 E0.021
G1 X157.995 Y87.7 E0.019
G1 Y88.298 E0.02
G1 X157.95 Y88.897 E0.02
G1 X157.86 Y89.489 E0.02
G1 X157.728 Y90.073 E0.02
G1 X157.55 Y90.646 E0.02
G1 X157.331 Y91.205 E0.02
G1 X157.07 Y91.745 E0.02
G1 X156.77 Y92.264 E0.02
G1 X156.431 Y92.758 E0.019
G1 X156.057 Y93.227 E0.02
G1 X155.649 Y93.666 E0.02
G1 X155.208 Y94.073 E0.02
G1 X154.739 Y94.445 E0.02
G1 X154.243 Y94.782 E0.02
G1 X153.723 Y95.081 E0.02
G1 X153.183 Y95.339 E0.02
G1 X152.624 Y95.557 E0.02
G1 X152.051 Y95.732 E0.02
G1 X151.466 Y95.865 E0.02
G1 X150.873 Y95.952 E0.02
G1 X150.275 Y95.995 E0.02
G1 X149.675 Y95.993 E0.02
G1 X149.078 Y95.946 E0.02
G1 X148.486 Y95.856 E0.02
G1 X147.902 Y95.72 E0.019
G1 X147.329 Y95.541 E0.02
G1 X146.772 Y95.32 E0.02
G1 X146.371 Y95.125 E0.015
G1 X144.566 Y94.717 E0.062
G1 X142.658 Y94.321 E0.065
G1 X140.75 Y93.961 E0.064
G1 X138.425 Y93.568 E0.079
G1 X135.026 Y93.076 E0.114
G1 X135.006 Y91.829 E0.041
G1 X134.983 E0.001
G1 X134.95 Y93.057 E0.041
G1 X130.099 Y92.648 E0.162
G1 X127.256 Y92.521 E0.094
G1 X124.414 Y92.491 E0.095
G1 X120.622 Y92.607 E0.126
G1 X115.874 Y92.994 E0.159
G1 X111.125 Y93.633 E0.159
G1 X107.326 Y94.314 E0.128
G1 X103.605 Y95.121 E0.127
G1 X102.668 Y95.535 E0.034
G1 X101.514 Y95.848 E0.04
G1 X100.324 Y95.985 E0.04
G1 X99.111 Y95.943 E0.04
G1 X97.394 Y95.557 E0.059
G1 X96.281 Y95.074 E0.04
G1 X95.265 Y94.438 E0.04
G1 X94.344 Y93.649 E0.04
G1 X93.245 Y92.276 E0.059
G1 X92.677 Y91.203 E0.04
G1 X92.274 Y90.054 E0.04
G1 X92.012 Y88.316 E0.059
G1 X92.058 Y87.085 E0.041
G1 X92.45 Y85.37 E0.058
G1 X92.944 Y84.241 E0.041
G1 X93.946 Y82.776 E0.059
G1 X95.252 Y81.568 E0.06
G1 X96.281 Y80.924 E0.04
G1 X97.394 Y80.441 E0.04
G1 X99.111 Y80.055 E0.059
G1 X100.325 Y80.013 E0.04
G1 X101.514 Y80.151 E0.04
G1 X102.668 Y80.464 E0.04
;rapid-leaky
G0 X102.534 Y80.842 F7200
;bead-skirt/brim
G1 X103.481 Y81.261 F960 E0.034
G1 X107.248 Y82.076 E0.129
G1 X111.063 Y82.76 E0.128
G1 X115.831 Y83.402 E0.16
G1 X120.6 Y83.791 E0.16
G1 X124.41 Y83.907 E0.126
G1 X127.267 Y83.877 E0.095
G1 X130.124 Y83.749 E0.096
G1 X134.562 Y83.375 E0.148
G1 X134.594 Y84.57 E0.039
G1 X135.399 E0.027
G1 X135.42 Y83.268 E0.043
G1 X138.4 Y82.848 E0.101
G1 X140.82 Y82.43 E0.081
G1 X142.736 Y82.069 E0.065
G1 X144.651 Y81.672 E0.065
G1 X146.504 Y81.254 E0.063
G1 X146.934 Y81.045 E0.016
G1 X147.462 Y80.835 E0.019
G1 X148.007 Y80.665 E0.019
G1 X148.562 Y80.536 E0.019
G1 X149.124 Y80.45 E0.019
G1 X149.691 Y80.405 E0.019
G1 X150.262 Y80.403 E0.019
G1 X150.83 Y80.444 E0.019
G1 X151.393 Y80.528 E0.019
G1 X151.948 Y80.653 E0.019
G1 X152.493 Y80.819 E0.019
G1 X153.025 Y81.027 E0.019
G1 X153.573 Y81.292 E0.02
G1 X154.031 Y81.556 E0.017
G1 X154.502 Y81.875 E0.019
G1 X154.948 Y82.23 E0.019
G1 X155.366 Y82.617 E0.019
G1 X155.753 Y83.034 E0.019
G1 X156.109 Y83.478 E0.019
G1 X156.431 Y83.948 E0.019
G1 X156.717 Y84.441 E0.019
G1 X156.964 Y84.955 E0.019
G1 X157.173 Y85.484 E0.019
G1 X157.341 Y86.029 E0.019
G1 X157.467 Y86.585 E0.019
G1 X157.556 Y87.187 E0.02
G1 X157.595 Y87.715 E0.018
G1 Y88.283 E0.019
G1 X157.553 Y88.852 E0.019
G1 X157.467 Y89.415 E0.019
G1 X157.341 Y89.969 E0.018
G1 X157.173 Y90.514 E0.019
G1 X156.964 Y91.044 E0.019
G1 X156.716 Y91.557 E0.019
G1 X156.431 Y92.05 E0.019
G1 X156.11 Y92.52 E0.019
G1 X155.754 Y92.965 E0.019
G1 X155.366 Y93.382 E0.019
G1 X154.948 Y93.769 E0.019
G1 X154.502 Y94.123 E0.019
G1 X154.031 Y94.443 E0.019
G1 X153.537 Y94.727 E0.019
G1 X153.024 Y94.972 E0.019
G1 X152.493 Y95.179 E0.019
G1 X151.948 Y95.345 E0.019
G1 X151.393 Y95.471 E0.019
G1 X150.829 Y95.554 E0.019
G1 X150.262 Y95.595 E0.018
G1 X149.691 Y95.593 E0.019
G1 X149.124 Y95.548 E0.019
G1 X148.562 Y95.463 E0.019
G1 X148.007 Y95.333 E0.019
G1 X147.463 Y95.164 E0.019
G1 X146.934 Y94.953 E0.019
G1 X146.504 Y94.745 E0.016
G1 X144.651 Y94.326 E0.063
G1 X142.735 Y93.929 E0.065
G1 X140.82 Y93.568 E0.065
G1 X138.487 Y93.173 E0.079
G1 X135.42 Y92.729 E0.103
G1 X135.4 Y91.429 E0.043
G1 X134.594 E0.027
G1 X134.562 Y92.623 E0.04
G1 X130.124 Y92.249 E0.148
G1 X127.267 Y92.121 E0.095
G1 X124.41 Y92.091 E0.095
G1 X120.6 Y92.207 E0.127
G1 X115.831 Y92.596 E0.159
G1 X111.063 Y93.238 E0.16
G1 X107.249 Y93.922 E0.129
G1 X103.481 Y94.738 E0.128
G1 X102.534 Y95.157 E0.034
G1 X101.438 Y95.454 E0.038
G1 X100.308 Y95.584 E0.038
G1 X99.162 Y95.545 E0.038
G1 X97.518 Y95.175 E0.056
G1 X96.468 Y94.719 E0.038
G1 X95.503 Y94.115 E0.038
G1 X94.633 Y93.37 E0.038
G1 X93.581 Y92.056 E0.056
G1 X93.045 Y91.042 E0.038
G1 X92.664 Y89.957 E0.039
G1 X92.413 Y88.294 E0.056
G1 X92.457 Y87.137 E0.038
G1 X92.832 Y85.495 E0.056
G1 X93.295 Y84.436 E0.038
G1 X94.251 Y83.039 E0.057
G1 X95.496 Y81.887 E0.056
G1 X96.468 Y81.279 E0.038
G1 X97.518 Y80.823 E0.038
G1 X99.162 Y80.453 E0.056
G1 X100.308 Y80.414 E0.039
G1 X101.439 Y80.545 E0.037
G1 X102.534 Y80.842 E0.038
;rapid-leaky
G0 X102.4 Y81.22 F7200
;bead-skirt/brim
G1 X103.356 Y81.643 F960 E0.035
G1 X107.171 Y82.469 E0.13
G1 X111.001 Y83.155 E0.129
G1 X115.788 Y83.8 E0.161
G1 X120.577 Y84.19 E0.16
G1 X124.406 Y84.307 E0.127
G1 X127.278 Y84.277 E0.096
G1 X130.15 Y84.148 E0.095
G1 X134.173 Y83.809 E0.135
G1 X134.205 Y84.97 E0.038
G1 X135.793 E0.053
G1 X135.815 Y83.617 E0.045
G1 X138.8 Y83.196 E0.1
G1 Y83.179 E0.001
G1 X140.891 Y82.824 E0.07
G1 X142.813 Y82.462 E0.065
G1 X144.736 Y82.063 E0.066
G1 X146.637 Y81.634 E0.065
G1 X147.095 Y81.411 E0.016
G1 X147.596 Y81.212 E0.018
G1 X148.112 Y81.051 E0.018
G1 X148.637 Y80.929 E0.018
G1 X149.17 Y80.847 E0.018
G1 X149.708 Y80.805 E0.018
G1 X150.248 Y80.803 E0.018
G1 X150.786 Y80.842 E0.018
G1 X151.32 Y80.921 E0.018
G1 X151.845 Y81.04 E0.018
G1 X152.362 Y81.197 E0.018
G1 X152.865 Y81.394 E0.018
G1 X153.386 Y81.645 E0.019
G1 X153.818 Y81.895 E0.017
G1 X154.264 Y82.198 E0.018
G1 X154.687 Y82.534 E0.018
G1 X155.083 Y82.9 E0.018
G1 X155.45 Y83.295 E0.018
G1 X155.788 Y83.716 E0.017
G1 X156.092 Y84.161 E0.018
G1 X156.363 Y84.628 E0.018
G1 X156.597 Y85.115 E0.018
G1 X156.795 Y85.617 E0.018
G1 X156.954 Y86.132 E0.018
G1 X157.074 Y86.658 E0.018
G1 X157.158 Y87.231 E0.019
G1 X157.195 Y87.73 E0.017
G1 Y88.268 E0.018
G1 X157.155 Y88.807 E0.018
G1 X157.074 Y89.34 E0.018
G1 X156.954 Y89.866 E0.018
G1 X156.795 Y90.381 E0.018
G1 X156.597 Y90.884 E0.018
G1 X156.363 Y91.37 E0.018
G1 X156.092 Y91.837 E0.018
G1 X155.788 Y92.282 E0.018
G1 X155.451 Y92.704 E0.017
G1 X155.083 Y93.099 E0.018
G1 X154.687 Y93.465 E0.018
G1 X154.265 Y93.8 E0.018
G1 X153.818 Y94.104 E0.018
G1 X153.351 Y94.372 E0.018
G1 X152.865 Y94.605 E0.018
G1 X152.362 Y94.801 E0.018
G1 X151.845 Y94.958 E0.018
G1 X151.32 Y95.078 E0.018
G1 X150.786 Y95.156 E0.018
G1 X150.248 Y95.195 E0.018
G1 X149.708 Y95.193 E0.018
G1 X149.17 Y95.151 E0.018
G1 X148.637 Y95.07 E0.018
G1 X148.112 Y94.947 E0.018
G1 X147.596 Y94.787 E0.018
G1 X147.095 Y94.587 E0.018
G1 X146.637 Y94.365 E0.016
G1 X144.736 Y93.935 E0.065
G1 X142.813 Y93.536 E0.066
G1 X140.891 Y93.174 E0.065
G1 X138.8 Y92.814 E0.07
G1 X135.815 Y92.382 E0.101
G1 X135.793 Y91.029 E0.045
G1 X134.205 E0.052
G1 X134.173 Y92.189 E0.039
G1 X130.15 Y91.85 E0.134
G1 X127.278 Y91.721 E0.096
G1 X124.406 Y91.691 E0.095
G1 X120.577 Y91.808 E0.128
G1 X115.788 Y92.198 E0.16
G1 X111.001 Y92.843 E0.16
G1 X107.171 Y93.529 E0.13
G1 X103.356 Y94.356 E0.13
G1 X102.4 Y94.779 E0.034
G1 X101.363 Y95.06 E0.036
G1 X100.292 Y95.183 E0.036
G1 X99.213 Y95.146 E0.036
G1 X97.643 Y94.793 E0.053
G1 X96.655 Y94.364 E0.036
G1 X95.74 Y93.792 E0.036
G1 X94.922 Y93.091 E0.036
G1 X93.917 Y91.835 E0.053
G1 X93.412 Y90.881 E0.036
G1 X93.054 Y89.86 E0.036
G1 X92.814 Y88.271 E0.054
G1 X92.855 Y87.19 E0.036
G1 X93.213 Y85.621 E0.053
G1 X93.646 Y84.631 E0.036
G1 X94.556 Y83.303 E0.054
G1 X95.74 Y82.206 E0.053
G1 X96.655 Y81.634 E0.036
G1 X97.643 Y81.205 E0.036
G1 X99.213 Y80.852 E0.054
G1 X100.292 Y80.815 E0.036
G1 X101.363 Y80.939 E0.035
G1 X102.4 Y81.22 E0.036
;rapid-leaky
G0 X100.76 Y97.234 F7200
;bead-skirt/brim
G1 X102.706 Y97.625 F960 E0.066
G1 X104.483 Y98.431 E0.065
G1 X105.592 Y99.211 E0.045
G1 X106.089 Y99.684 E0.023
G1 X108.543 Y100.217 E0.083
G1 X111.454 Y100.542 E0.098
G1 X114.425 Y100.695 E0.099
G1 X118.418 Y100.729 E0.133
G1 X120.214 Y100.643 E0.059
G1 X120.284 Y100.543 E0.005
G1 X120.841 Y100.075 E0.024
G1 X121.601 Y99.8 E0.027
G1 X125.29 Y99.792 E0.122
G1 X125.75 Y99.465 E0.019
G1 X126.259 Y99.159 E0.02
G1 X126.826 Y98.879 E0.021
G1 X127.418 Y98.642 E0.021
G1 X128.061 Y98.448 E0.022
G1 X128.64 Y98.322 E0.02
G1 X129.265 Y98.237 E0.021
G1 X129.9 Y98.202 E0.021
G1 X130.533 Y98.22 E0.021
G1 X131.163 Y98.287 E0.021
G1 X131.786 Y98.407 E0.022
G1 X132.397 Y98.578 E0.021
G1 X132.99 Y98.795 E0.021
G1 X133.564 Y99.061 E0.021
G1 X134.118 Y99.373 E0.021
G1 X134.642 Y99.73 E0.021
G1 X135.135 Y100.125 E0.021
G1 X135.596 Y100.562 E0.021
G1 X136.019 Y101.034 E0.021
G1 X136.402 Y101.538 E0.021
G1 X136.744 Y102.072 E0.021
G1 X137.041 Y102.633 E0.021
G1 X137.291 Y103.215 E0.021
G1 X137.494 Y103.818 E0.022
G1 X137.654 Y104.471 E0.022
G1 X137.748 Y105.055 E0.02
G1 X137.8 Y105.685 E0.021
G1 Y106.321 E0.021
G1 X137.748 Y106.95 E0.021
G1 X137.647 Y107.576 E0.021
G1 X137.493 Y108.193 E0.021
G1 X137.291 Y108.791 E0.021
G1 X137.041 Y109.373 E0.021
G1 X136.744 Y109.934 E0.021
G1 X136.402 Y110.468 E0.021
G1 X136.016 Y110.976 E0.022
G1 X135.567 Y111.473 E0.022
G1 X135.134 Y111.881 E0.02
G1 X134.642 Y112.276 E0.021
G1 X134.117 Y112.633 E0.021
G1 X133.564 Y112.944 E0.021
G1 X132.991 Y113.21 E0.021
G1 X132.397 Y113.428 E0.021
G1 X131.785 Y113.599 E0.021
G1 X131.163 Y113.718 E0.021
G1 X130.533 Y113.786 E0.021
G1 X129.9 Y113.803 E0.021
G1 X129.267 Y113.769 E0.021
G1 X128.638 Y113.684 E0.021
G1 X128.019 Y113.547 E0.021
G1 X127.415 Y113.361 E0.021
G1 X126.828 Y113.128 E0.022
G1 X126.257 Y112.846 E0.021
G1 X125.714 Y112.518 E0.021
G1 X125.29 Y112.213 E0.017
G1 X121.587 Y112.204 E0.123
G1 X120.912 Y111.956 E0.024
G1 X120.457 Y111.636 E0.019
G1 X120.232 Y111.368 E0.011
G1 X118.415 Y111.276 E0.061
G1 X114.425 Y111.311 E0.133
G1 X111.454 Y111.464 E0.099
G1 X108.543 Y111.789 E0.097
G1 X106.089 Y112.322 E0.083
G1 X105.592 Y112.795 E0.023
G1 X104.483 Y113.576 E0.045
G1 X102.738 Y114.366 E0.064
G1 X101.388 Y114.692 E0.046
G1 X99.437 Y114.786 E0.065
G1 X97.518 Y114.442 E0.065
G1 X96.218 Y113.944 E0.046
G1 X94.559 Y112.917 E0.065
G1 X93.15 Y111.525 E0.066
G1 X92.087 Y109.847 E0.066
G1 X91.428 Y107.978 E0.066
G1 X91.207 Y106.037 E0.065
G1 X91.308 Y104.682 E0.045
G1 X91.612 Y103.362 E0.045
G1 X92.384 Y101.604 E0.064
G1 X93.171 Y100.46 E0.046
G1 X94.535 Y99.112 E0.064
G1 X95.692 Y98.335 E0.047
G1 X97.45 Y97.584 E0.063
G1 X98.813 Y97.286 E0.047
G1 X100.76 Y97.234 E0.064
;rapid-leaky
G0 X100.726 Y97.635 F7200
;bead-skirt/brim
G1 X102.582 Y98.008 F960 E0.063
G1 X104.284 Y98.779 E0.062
G1 X105.338 Y99.521 E0.043
G1 X105.894 Y100.051 E0.026
G1 X108.478 Y100.613 E0.088
G1 X111.422 Y100.941 E0.098
G1 X114.413 Y101.095 E0.1
G1 X118.425 Y101.129 E0.133
G1 X120.429 Y101.033 E0.067
G1 X120.582 Y100.816 E0.009
G1 X121.044 Y100.426 E0.02
G1 X121.671 Y100.2 E0.022
G1 X125.424 Y100.192 E0.125
G1 X125.969 Y99.8 E0.022
G1 X126.451 Y99.51 E0.019
G1 X126.989 Y99.244 E0.02
G1 X127.55 Y99.02 E0.02
G1 X128.161 Y98.836 E0.021
G1 X128.71 Y98.716 E0.019
G1 X129.303 Y98.635 E0.02
G1 X129.905 Y98.602 E0.02
G1 X130.506 Y98.619 E0.02
G1 X131.103 Y98.683 E0.02
G1 X131.695 Y98.797 E0.02
G1 X132.274 Y98.959 E0.02
G1 X132.837 Y99.165 E0.02
G1 X133.382 Y99.417 E0.02
G1 X133.907 Y99.714 E0.02
G1 X134.404 Y100.051 E0.02
G1 X134.872 Y100.427 E0.02
G1 X135.309 Y100.841 E0.02
G1 X135.71 Y101.289 E0.02
G1 X136.074 Y101.767 E0.02
G1 X136.398 Y102.274 E0.02
G1 X136.68 Y102.805 E0.02
G1 X136.917 Y103.358 E0.02
G1 X137.11 Y103.93 E0.02
G1 X137.261 Y104.551 E0.021
G1 X137.351 Y105.103 E0.019
G1 X137.4 Y105.701 E0.02
G1 Y106.305 E0.02
G1 X137.351 Y106.902 E0.02
G1 X137.255 Y107.495 E0.02
G1 X137.109 Y108.08 E0.02
G1 X136.917 Y108.648 E0.02
G1 X136.68 Y109.201 E0.02
G1 X136.398 Y109.732 E0.02
G1 X136.074 Y110.239 E0.02
G1 X135.708 Y110.72 E0.02
G1 X135.28 Y111.193 E0.021
G1 X134.871 Y111.579 E0.019
G1 X134.404 Y111.955 E0.02
G1 X133.906 Y112.293 E0.02
G1 X133.382 Y112.588 E0.02
G1 X132.838 Y112.84 E0.02
G1 X132.274 Y113.047 E0.02
G1 X131.693 Y113.209 E0.02
G1 X131.103 Y113.322 E0.02
G1 X130.506 Y113.387 E0.02
G1 X129.905 Y113.403 E0.02
G1 X129.305 Y113.371 E0.02
G1 X128.708 Y113.289 E0.02
G1 X128.121 Y113.16 E0.02
G1 X127.548 Y112.984 E0.02
G1 X126.99 Y112.762 E0.02
G1 X126.45 Y112.495 E0.02
G1 X125.935 Y112.184 E0.02
G1 X125.423 Y111.814 E0.021
G1 X121.659 Y111.804 E0.125
G1 X121.099 Y111.599 E0.02
G1 X120.73 Y111.338 E0.015
G1 X120.426 Y110.978 E0.016
G1 X118.424 Y110.876 E0.066
G1 X114.413 Y110.911 E0.134
G1 X111.422 Y111.065 E0.099
G1 X108.478 Y111.393 E0.099
G1 X105.894 Y111.955 E0.088
G1 X105.338 Y112.485 E0.025
G1 X104.284 Y113.227 E0.043
G1 X102.607 Y113.986 E0.061
G1 X101.331 Y114.294 E0.044
G1 X99.463 Y114.384 E0.062
G1 X97.626 Y114.055 E0.062
G1 X96.396 Y113.584 E0.044
G1 X94.808 Y112.601 E0.062
G1 X93.463 Y111.273 E0.063
G1 X92.45 Y109.671 E0.063
G1 X91.82 Y107.888 E0.063
G1 X91.609 Y106.029 E0.062
G1 X91.705 Y104.742 E0.043
G1 X91.993 Y103.488 E0.043
G1 X92.736 Y101.8 E0.061
G1 X93.48 Y100.718 E0.044
G1 X94.789 Y99.423 E0.061
G1 X95.884 Y98.688 E0.044
G1 X97.573 Y97.967 E0.061
G1 X98.861 Y97.685 E0.044
G1 X100.726 Y97.635 E0.062
;rapid-leaky
G0 X100.691 Y98.036 F7200
;bead-skirt/brim
G1 X102.459 Y98.391 F960 E0.06
G1 X104.085 Y99.128 E0.059
G1 X105.083 Y99.831 E0.041
G1 X105.7 Y100.418 E0.028
G1 X108.413 Y101.008 E0.093
G1 X111.389 Y101.34 E0.099
G1 X114.401 Y101.495 E0.101
G1 X118.433 Y101.529 E0.134
G1 X120.661 Y101.423 E0.074
G1 X120.681 Y101.37 E0.002
G1 X120.879 Y101.088 E0.011
G1 X121.247 Y100.778 E0.016
G1 X121.742 Y100.599 E0.018
G1 X125.571 Y100.592 E0.127
G1 X125.696 Y100.486 E0.006
G1 X126.189 Y100.135 E0.02
G1 X126.643 Y99.862 E0.017
G1 X127.152 Y99.61 E0.019
G1 X127.682 Y99.398 E0.019
G1 X128.262 Y99.223 E0.02
G1 X128.78 Y99.111 E0.018
G1 X129.341 Y99.034 E0.019
G1 X129.911 Y99.002 E0.019
G1 X130.479 Y99.019 E0.019
G1 X131.044 Y99.079 E0.019
G1 X131.603 Y99.187 E0.019
G1 X132.151 Y99.34 E0.018
G1 X132.684 Y99.535 E0.019
G1 X133.199 Y99.773 E0.019
G1 X133.696 Y100.054 E0.019
G1 X134.166 Y100.373 E0.019
G1 X134.609 Y100.729 E0.019
G1 X135.022 Y101.12 E0.019
G1 X135.402 Y101.544 E0.019
G1 X135.746 Y101.996 E0.019
G1 X136.052 Y102.475 E0.019
G1 X136.319 Y102.978 E0.019
G1 X136.543 Y103.501 E0.018
G1 X136.725 Y104.041 E0.019
G1 X136.869 Y104.63 E0.021
G1 X136.953 Y105.152 E0.017
G1 X137 Y105.718 E0.019
G1 Y106.288 E0.019
G1 X136.953 Y106.853 E0.019
G1 X136.862 Y107.414 E0.019
G1 X136.724 Y107.967 E0.019
G1 X136.543 Y108.505 E0.019
G1 X136.319 Y109.028 E0.019
G1 X136.052 Y109.531 E0.018
G1 X135.745 Y110.01 E0.019
G1 X135.4 Y110.464 E0.019
G1 X134.994 Y110.913 E0.02
G1 X134.608 Y111.278 E0.018
G1 X134.166 Y111.633 E0.019
G1 X133.695 Y111.953 E0.019
G1 X133.199 Y112.232 E0.019
G1 X132.685 Y112.47 E0.019
G1 X132.151 Y112.666 E0.019
G1 X131.602 Y112.82 E0.019
G1 X131.044 Y112.926 E0.019
G1 X130.479 Y112.988 E0.018
G1 X129.911 Y113.003 E0.019
G1 X129.342 Y112.972 E0.019
G1 X128.778 Y112.895 E0.019
G1 X128.223 Y112.773 E0.019
G1 X127.681 Y112.606 E0.019
G1 X127.153 Y112.396 E0.019
G1 X126.642 Y112.144 E0.019
G1 X126.155 Y111.85 E0.019
G1 X125.695 Y111.519 E0.019
G1 X125.57 Y111.414 E0.005
G1 X121.731 Y111.405 E0.128
G1 X121.287 Y111.241 E0.015
G1 X121.002 Y111.041 E0.012
G1 X120.693 Y110.674 E0.016
G1 X120.662 Y110.589 E0.003
G1 X118.432 Y110.476 E0.074
G1 X114.401 Y110.511 E0.134
G1 X111.389 Y110.666 E0.101
G1 X108.413 Y110.998 E0.099
G1 X105.7 Y111.588 E0.093
G1 X105.083 Y112.175 E0.028
G1 X104.084 Y112.878 E0.041
G1 X102.476 Y113.606 E0.058
G1 X101.274 Y113.896 E0.041
G1 X99.489 Y113.982 E0.06
G1 X97.734 Y113.668 E0.059
G1 X96.574 Y113.224 E0.041
G1 X95.057 Y112.285 E0.06
G1 X93.777 Y111.02 E0.06
G1 X92.812 Y109.495 E0.06
G1 X92.212 Y107.798 E0.06
G1 X92.011 Y106.021 E0.059
G1 X92.101 Y104.802 E0.041
G1 X92.375 Y103.615 E0.04
G1 X93.087 Y101.995 E0.059
G1 X93.788 Y100.975 E0.041
G1 X95.043 Y99.734 E0.059
G1 X96.076 Y99.041 E0.041
G1 X97.695 Y98.349 E0.059
G1 X98.91 Y98.084 E0.041
G1 X100.691 Y98.036 E0.059
;rapid-leaky
G0 X100.657 Y98.437 F7200
;bead-skirt/brim
G1 X102.335 Y98.774 F960 E0.057
G1 X103.885 Y99.477 E0.057
G1 X104.829 Y100.141 E0.038
G1 X105.505 Y100.785 E0.031
G1 X108.348 Y101.403 E0.097
G1 X111.357 Y101.739 E0.101
G1 X114.389 Y101.895 E0.101
G1 X118.441 Y101.929 E0.135
G1 X120.943 Y101.81 E0.083
G1 X121.037 Y101.558 E0.009
G1 X121.176 Y101.361 E0.008
G1 X121.45 Y101.13 E0.012
G1 X121.812 Y100.999 E0.013
G1 X125.718 Y100.991 E0.13
G1 X125.942 Y100.802 E0.009
G1 X126.408 Y100.47 E0.019
G1 X126.835 Y100.213 E0.017
G1 X127.315 Y99.976 E0.018
G1 X127.815 Y99.776 E0.018
G1 X128.362 Y99.611 E0.019
G1 X128.849 Y99.505 E0.016
G1 X129.38 Y99.432 E0.018
G1 X129.916 Y99.403 E0.018
G1 X130.452 Y99.418 E0.018
G1 X130.985 Y99.475 E0.018
G1 X131.511 Y99.576 E0.017
G1 X132.028 Y99.721 E0.018
G1 X132.531 Y99.905 E0.018
G1 X133.017 Y100.13 E0.018
G1 X133.485 Y100.394 E0.018
G1 X133.928 Y100.695 E0.018
G1 X134.346 Y101.03 E0.017
G1 X134.735 Y101.399 E0.018
G1 X135.093 Y101.799 E0.018
G1 X135.417 Y102.225 E0.018
G1 X135.707 Y102.677 E0.018
G1 X135.958 Y103.151 E0.018
G1 X136.169 Y103.644 E0.017
G1 X136.341 Y104.153 E0.018
G1 X136.477 Y104.71 E0.019
G1 X136.556 Y105.2 E0.017
G1 X136.6 Y105.734 E0.018
G1 Y106.272 E0.018
G1 X136.556 Y106.805 E0.017
G1 X136.47 Y107.334 E0.018
G1 X136.34 Y107.855 E0.018
G1 X136.169 Y108.363 E0.018
G1 X135.958 Y108.855 E0.018
G1 X135.707 Y109.329 E0.017
G1 X135.417 Y109.781 E0.018
G1 X135.092 Y110.208 E0.018
G1 X134.708 Y110.633 E0.019
G1 X134.345 Y110.976 E0.017
G1 X133.928 Y111.311 E0.018
G1 X133.484 Y111.612 E0.018
G1 X133.017 Y111.875 E0.017
G1 X132.531 Y112.101 E0.018
G1 X132.028 Y112.285 E0.018
G1 X131.511 Y112.43 E0.018
G1 X130.985 Y112.53 E0.018
G1 X130.452 Y112.588 E0.017
G1 X129.916 Y112.602 E0.018
G1 X129.38 Y112.574 E0.018
G1 X128.849 Y112.501 E0.018
G1 X128.325 Y112.386 E0.018
G1 X127.814 Y112.228 E0.018
G1 X127.316 Y112.031 E0.017
G1 X126.834 Y111.793 E0.018
G1 X126.375 Y111.515 E0.018
G1 X125.941 Y111.203 E0.018
G1 X125.717 Y111.014 E0.01
G1 X121.802 Y111.005 E0.13
G1 X121.474 Y110.884 E0.012
G1 X121.275 Y110.744 E0.008
G1 X121.045 Y110.471 E0.011
G1 X120.947 Y110.203 E0.01
G1 X118.44 Y110.076 E0.083
G1 X114.389 Y110.111 E0.135
G1 X111.357 Y110.267 E0.101
G1 X108.348 Y110.603 E0.101
G1 X105.505 Y111.221 E0.097
G1 X104.829 Y111.865 E0.031
G1 X103.885 Y112.529 E0.038
G1 X102.346 Y113.226 E0.056
G1 X101.217 Y113.499 E0.039
G1 X99.515 Y113.581 E0.057
G1 X97.841 Y113.281 E0.056
G1 X96.753 Y112.864 E0.039
G1 X95.306 Y111.968 E0.057
G1 X94.091 Y110.768 E0.056
G1 X93.174 Y109.32 E0.057
G1 X92.605 Y107.707 E0.057
G1 X92.412 Y106.014 E0.057
G1 X92.498 Y104.862 E0.038
G1 X92.756 Y103.741 E0.039
G1 X93.438 Y102.191 E0.056
G1 X94.096 Y101.233 E0.039
G1 X95.298 Y100.045 E0.056
G1 X96.267 Y99.394 E0.039
G1 X97.817 Y98.732 E0.056
G1 X98.958 Y98.483 E0.038
G1 X100.657 Y98.437 E0.057
;rapid-leaky
G0 X100.622 Y98.838 F7200
;bead-skirt/brim
G1 X102.212 Y99.157 F960 E0.054
G1 X103.686 Y99.826 E0.054
G1 X104.574 Y100.451 E0.036
G1 X105.31 Y101.152 E0.034
G1 X108.283 Y101.798 E0.101
G1 X111.324 Y102.138 E0.102
G1 X114.377 Y102.295 E0.101
G1 X118.449 Y102.329 E0.136
G1 X121.309 Y102.193 E0.095
G1 X121.315 Y101.958 E0.008
G1 X121.394 Y101.747 E0.007
G1 X121.473 Y101.634 E0.005
G1 X121.653 Y101.482 E0.008
G1 X121.883 Y101.399 E0.008
G1 X125.865 Y101.391 E0.132
G1 X126.187 Y101.118 E0.014
G1 X126.627 Y100.805 E0.018
G1 X127.027 Y100.564 E0.016
G1 X127.478 Y100.341 E0.017
G1 X127.947 Y100.154 E0.016
G1 X128.463 Y99.998 E0.018
G1 X128.919 Y99.899 E0.016
G1 X129.418 Y99.831 E0.017
G1 X129.921 Y99.803 E0.016
G1 X130.425 Y99.817 E0.017
G1 X130.926 Y99.871 E0.017
G1 X131.42 Y99.966 E0.017
G1 X131.905 Y100.102 E0.016
G1 X132.378 Y100.275 E0.017
G1 X132.834 Y100.486 E0.017
G1 X133.274 Y100.734 E0.017
G1 X133.69 Y101.017 E0.016
G1 X134.083 Y101.332 E0.017
G1 X134.448 Y101.678 E0.017
G1 X134.784 Y102.054 E0.017
G1 X135.089 Y102.454 E0.016
G1 X135.361 Y102.879 E0.017
G1 X135.597 Y103.324 E0.017
G1 X135.795 Y103.787 E0.017
G1 X135.956 Y104.264 E0.016
G1 X136.084 Y104.789 E0.018
G1 X136.159 Y105.249 E0.016
G1 X136.2 Y105.751 E0.017
G1 Y106.255 E0.016
G1 X136.159 Y106.756 E0.017
G1 X136.078 Y107.253 E0.017
G1 X135.956 Y107.742 E0.017
G1 X135.795 Y108.22 E0.016
G1 X135.597 Y108.682 E0.017
G1 X135.361 Y109.127 E0.017
G1 X135.089 Y109.552 E0.017
G1 X134.784 Y109.953 E0.016
G1 X134.422 Y110.353 E0.018
G1 X134.083 Y110.674 E0.016
G1 X133.69 Y110.989 E0.017
G1 X133.273 Y111.272 E0.016
G1 X132.834 Y111.519 E0.017
G1 X132.378 Y111.731 E0.017
G1 X131.905 Y111.904 E0.017
G1 X131.42 Y112.04 E0.016
G1 X130.926 Y112.134 E0.017
G1 X130.425 Y112.189 E0.017
G1 X129.921 Y112.202 E0.017
G1 X129.418 Y112.175 E0.016
G1 X128.919 Y112.107 E0.017
G1 X128.427 Y111.999 E0.017
G1 X127.947 Y111.851 E0.017
G1 X127.479 Y111.665 E0.016
G1 X127.027 Y111.442 E0.017
G1 X126.596 Y111.181 E0.017
G1 X126.187 Y110.888 E0.017
G1 X125.864 Y110.615 E0.014
G1 X121.874 Y110.605 E0.132
G1 X121.661 Y110.527 E0.008
G1 X121.548 Y110.447 E0.004
G1 X121.396 Y110.267 E0.008
G1 X121.313 Y110.038 E0.008
G1 X121.309 Y109.821 E0.008
G1 X118.449 Y109.676 E0.095
G1 X114.377 Y109.711 E0.135
G1 X111.324 Y109.868 E0.102
G1 X108.283 Y110.208 E0.102
G1 X105.31 Y110.854 E0.101
G1 X104.574 Y111.555 E0.034
G1 X103.686 Y112.18 E0.036
G1 X102.215 Y112.846 E0.054
G1 X101.16 Y113.101 E0.036
G1 X99.541 Y113.179 E0.054
G1 X97.949 Y112.894 E0.053
G1 X96.931 Y112.504 E0.037
G1 X95.555 Y111.652 E0.053
G1 X94.404 Y110.515 E0.054
G1 X93.536 Y109.144 E0.054
G1 X92.997 Y107.617 E0.054
G1 X92.814 Y106.006 E0.054
G1 X92.895 Y104.922 E0.036
G1 X93.137 Y103.868 E0.036
G1 X93.788 Y102.386 E0.054
G1 X94.404 Y101.491 E0.036
G1 X95.552 Y100.356 E0.054
G1 X96.459 Y99.747 E0.036
G1 X97.94 Y99.115 E0.054
G1 X99.007 Y98.882 E0.036
G1 X100.622 Y98.838 E0.054
;rapid-leaky
G0 X99.417 Y115.21 F7200
;bead-skirt/brim
G1 X100.047 Y115.27 F960 E0.021
G1 X100.668 Y115.379 E0.021
G1 X101.282 Y115.539 E0.021
G1 X101.69 Y115.682 E0.014
G1 X104.181 Y116.173 E0.085
G1 X109.492 Y117.262 E0.18
G1 X111.573 Y117.646 E0.07
G1 X112.948 Y117.85 E0.047
G1 X114.713 Y118.06 E0.059
G1 X117.201 Y118.173 E0.083
G1 X120.805 Y118.229 E0.12
G1 Y127.773 E0.317
G1 X117.211 Y127.829 E0.119
G1 X114.719 Y127.941 E0.083
G1 X112.971 Y128.149 E0.059
G1 X111.585 Y128.354 E0.047
G1 X109.547 Y128.728 E0.069
G1 X104.95 Y129.672 E0.156
G1 X101.691 Y130.32 E0.11
G1 X101.282 Y130.463 E0.015
G1 X100.669 Y130.623 E0.021
G1 X100.047 Y130.732 E0.021
G1 X99.415 Y130.792 E0.021
G1 X98.782 Y130.799 E0.021
G1 X98.152 Y130.756 E0.021
G1 X97.524 Y130.661 E0.021
G1 X96.908 Y130.515 E0.021
G1 X96.308 Y130.321 E0.021
G1 X95.723 Y130.079 E0.021
G1 X95.159 Y129.788 E0.021
G1 X94.62 Y129.454 E0.021
G1 X94.113 Y129.077 E0.021
G1 X93.636 Y128.662 E0.021
G1 X93.186 Y128.199 E0.022
G1 X92.732 Y127.634 E0.024
G1 X92.429 Y127.198 E0.017
G1 X92.111 Y126.653 E0.021
G1 X91.837 Y126.083 E0.022
G1 X91.61 Y125.489 E0.021
G1 X91.433 Y124.881 E0.021
G1 X91.306 Y124.262 E0.021
G1 X91.229 Y123.633 E0.021
G1 X91.203 Y123.001 E0.021
G1 X91.229 Y122.368 E0.021
G1 X91.306 Y121.74 E0.021
G1 X91.433 Y121.121 E0.021
G1 X91.61 Y120.513 E0.021
G1 X91.837 Y119.919 E0.021
G1 X92.111 Y119.349 E0.021
G1 X92.429 Y118.803 E0.021
G1 X92.791 Y118.284 E0.021
G1 X93.194 Y117.795 E0.021
G1 X93.635 Y117.341 E0.021
G1 X94.113 Y116.923 E0.022
G1 X94.622 Y116.547 E0.021
G1 X95.159 Y116.214 E0.021
G1 X95.721 Y115.924 E0.021
G1 X96.306 Y115.681 E0.021
G1 X96.91 Y115.486 E0.021
G1 X97.526 Y115.341 E0.021
G1 X98.15 Y115.246 E0.021
G1 X98.782 Y115.202 E0.021
G1 X99.417 Y115.21 E0.021
;rapid-leaky
G0 X99.396 Y115.61 F7200
;bead-skirt/brim
G1 X99.993 Y115.666 F960 E0.02
G1 X100.583 Y115.77 E0.02
G1 X101.165 Y115.922 E0.02
G1 X101.585 Y116.069 E0.015
G1 X104.102 Y116.565 E0.085
G1 X109.416 Y117.655 E0.18
G1 X111.508 Y118.041 E0.071
G1 X112.895 Y118.246 E0.047
G1 X114.681 Y118.459 E0.06
G1 X117.188 Y118.573 E0.083
G1 X120.405 Y118.623 E0.107
G1 Y127.379 E0.291
G1 X117.199 Y127.43 E0.107
G1 X114.686 Y127.542 E0.084
G1 X112.918 Y127.753 E0.059
G1 X111.52 Y127.959 E0.047
G1 X109.47 Y128.335 E0.069
G1 X104.871 Y129.28 E0.156
G1 X101.585 Y129.933 E0.112
G1 X101.165 Y130.08 E0.015
G1 X100.583 Y130.232 E0.02
G1 X99.993 Y130.336 E0.02
G1 X99.394 Y130.392 E0.02
G1 X98.794 Y130.398 E0.02
G1 X98.195 Y130.358 E0.02
G1 X97.601 Y130.268 E0.02
G1 X97.016 Y130.129 E0.02
G1 X96.446 Y129.945 E0.019
G1 X95.891 Y129.715 E0.02
G1 X95.356 Y129.44 E0.02
G1 X94.845 Y129.123 E0.02
G1 X94.364 Y128.766 E0.02
G1 X93.911 Y128.371 E0.02
G1 X93.486 Y127.934 E0.021
G1 X93.053 Y127.395 E0.023
G1 X92.766 Y126.983 E0.016
G1 X92.465 Y126.465 E0.02
G1 X92.205 Y125.924 E0.02
G1 X91.99 Y125.361 E0.02
G1 X91.822 Y124.785 E0.02
G1 X91.701 Y124.197 E0.02
G1 X91.628 Y123.601 E0.02
G1 X91.604 Y123.001 E0.02
G1 X91.628 Y122.4 E0.02
G1 X91.701 Y121.805 E0.02
G1 X91.822 Y121.217 E0.02
G1 X91.99 Y120.641 E0.02
G1 X92.205 Y120.078 E0.02
G1 X92.465 Y119.537 E0.02
G1 X92.767 Y119.018 E0.02
G1 X93.11 Y118.526 E0.02
G1 X93.492 Y118.062 E0.02
G1 X93.91 Y117.632 E0.02
G1 X94.364 Y117.235 E0.02
G1 X94.846 Y116.878 E0.02
G1 X95.356 Y116.562 E0.02
G1 X95.89 Y116.287 E0.02
G1 X96.445 Y116.057 E0.02
G1 X97.017 Y115.871 E0.02
G1 X97.602 Y115.734 E0.02
G1 X98.194 Y115.644 E0.02
G1 X98.794 Y115.602 E0.02
G1 X99.396 Y115.61 E0.02
;rapid-leaky
G0 X99.374 Y116.01 F7200
;bead-skirt/brim
G1 X99.94 Y116.063 F960 E0.019
G1 X100.498 Y116.161 E0.018
G1 X101.048 Y116.305 E0.019
G1 X101.479 Y116.456 E0.016
G1 X104.023 Y116.958 E0.086
G1 X109.339 Y118.047 E0.18
G1 X111.442 Y118.435 E0.071
G1 X112.842 Y118.643 E0.047
G1 X114.505 Y118.841 E0.056
G1 Y118.852
G1 X117.176 Y118.972 E0.089
G1 X120.005 Y119.016 E0.095
G1 Y126.985 E0.265
G1 X117.187 Y127.03 E0.093
G1 X114.505 Y127.15 E0.09
G1 Y127.161
G1 X112.865 Y127.356 E0.055
G1 X111.454 Y127.565 E0.047
G1 X109.394 Y127.943 E0.07
G1 X104.791 Y128.888 E0.156
G1 X101.48 Y129.546 E0.113
G1 X101.048 Y129.697 E0.015
G1 X100.498 Y129.841 E0.019
G1 X99.94 Y129.939 E0.019
G1 X99.373 Y129.993 E0.018
G1 X98.805 Y129.998 E0.019
G1 X98.239 Y129.96 E0.019
G1 X97.677 Y129.875 E0.019
G1 X97.123 Y129.744 E0.019
G1 X96.584 Y129.569 E0.019
G1 X96.059 Y129.352 E0.019
G1 X95.554 Y129.092 E0.019
G1 X95.07 Y128.792 E0.019
G1 X94.615 Y128.454 E0.019
G1 X94.187 Y128.08 E0.018
G1 X93.786 Y127.668 E0.02
G1 X93.373 Y127.155 E0.021
G1 X93.104 Y126.768 E0.016
G1 X92.819 Y126.278 E0.019
G1 X92.573 Y125.766 E0.019
G1 X92.369 Y125.234 E0.019
G1 X92.211 Y124.689 E0.019
G1 X92.096 Y124.132 E0.019
G1 X92.027 Y123.568 E0.018
G1 X92.004 Y123.001 E0.019
G1 X92.027 Y122.433 E0.019
G1 X92.096 Y121.869 E0.019
G1 X92.211 Y121.313 E0.019
G1 X92.369 Y120.768 E0.019
G1 X92.573 Y120.236 E0.019
G1 X92.819 Y119.724 E0.019
G1 X93.104 Y119.234 E0.019
G1 X93.429 Y118.768 E0.019
G1 X93.79 Y118.329 E0.018
G1 X94.186 Y117.922 E0.019
G1 X94.615 Y117.547 E0.019
G1 X95.071 Y117.21 E0.019
G1 X95.554 Y116.91 E0.019
G1 X96.058 Y116.65 E0.019
G1 X96.584 Y116.432 E0.019
G1 X97.124 Y116.257 E0.019
G1 X97.678 Y116.127 E0.019
G1 X98.238 Y116.042 E0.018
G1 X98.805 Y116.003 E0.019
G1 X99.374 Y116.01 E0.019
;rapid-leaky
G0 X99.353 Y116.409 F7200
;bead-skirt/brim
G1 X99.886 Y116.46 F960 E0.018
G1 X100.413 Y116.552 E0.018
G1 X100.931 Y116.688 E0.018
G1 X101.374 Y116.843 E0.015
G1 X103.944 Y117.35 E0.087
G1 X109.263 Y118.44 E0.181
G1 X111.376 Y118.83 E0.072
G1 X112.788 Y119.039 E0.047
G1 X114.105 Y119.196 E0.044
G1 Y121.473 E0.076
G1 X114.905 E0.026
G1 Y119.27 E0.074
G1 X117.164 Y119.372 E0.075
G1 X119.605 Y119.41 E0.081
G1 Y126.592 E0.239
G1 X117.175 Y126.63 E0.081
G1 X114.905 Y126.731 E0.075
G1 Y124.529 E0.074
G1 X114.105 E0.026
G1 Y126.806 E0.076
G1 X112.812 Y126.96 E0.043
G1 X111.389 Y127.17 E0.048
G1 X109.318 Y127.55 E0.07
G1 X104.712 Y128.496 E0.157
G1 X101.374 Y129.159 E0.113
G1 X100.931 Y129.314 E0.015
G1 X100.413 Y129.45 E0.018
G1 X99.886 Y129.542 E0.018
G1 X99.352 Y129.593 E0.018
G1 X98.817 Y129.598 E0.018
G1 X98.283 Y129.562 E0.017
G1 X97.753 Y129.482 E0.018
G1 X97.231 Y129.358 E0.018
G1 X96.723 Y129.194 E0.018
G1 X96.228 Y128.989 E0.018
G1 X95.751 Y128.743 E0.017
G1 X95.296 Y128.461 E0.018
G1 X94.866 Y128.142 E0.018
G1 X94.462 Y127.79 E0.018
G1 X94.086 Y127.403 E0.018
G1 X93.693 Y126.915 E0.021
G1 X93.442 Y126.553 E0.014
G1 X93.172 Y126.09 E0.018
G1 X92.94 Y125.608 E0.018
G1 X92.749 Y125.106 E0.018
G1 X92.599 Y124.592 E0.018
G1 X92.491 Y124.068 E0.017
G1 X92.426 Y123.536 E0.018
G1 X92.405 Y123.001 E0.018
G1 X92.426 Y122.465 E0.018
G1 X92.491 Y121.934 E0.018
G1 X92.599 Y121.41 E0.018
G1 X92.749 Y120.896 E0.017
G1 X92.94 Y120.394 E0.018
G1 X93.172 Y119.912 E0.018
G1 X93.442 Y119.449 E0.018
G1 X93.748 Y119.01 E0.018
G1 X94.089 Y118.596 E0.017
G1 X94.462 Y118.212 E0.018
G1 X94.866 Y117.859 E0.018
G1 X95.296 Y117.541 E0.018
G1 X95.751 Y117.259 E0.018
G1 X96.227 Y117.013 E0.017
G1 X96.722 Y116.808 E0.018
G1 X97.232 Y116.643 E0.018
G1 X97.753 Y116.52 E0.018
G1 X98.282 Y116.44 E0.018
G1 X98.817 Y116.403 E0.018
G1 X99.353 Y116.409 E0.017
;rapid-leaky
G0 X99.332 Y116.809 F7200
;bead-skirt/brim
G1 X99.833 Y116.857 F960 E0.017
G1 X100.328 Y116.943 E0.017
G1 X100.814 Y117.071 E0.017
G1 X101.269 Y117.23 E0.016
G1 X103.865 Y117.742 E0.088
G1 X109.186 Y118.833 E0.18
G1 X111.311 Y119.225 E0.072
G1 X112.735 Y119.436 E0.048
G1 X113.705 Y119.551 E0.033
G1 Y121.873 E0.077
G1 X115.305 E0.053
G1 Y119.689 E0.073
G1 X117.152 Y119.772 E0.061
G1 X119.205 Y119.804 E0.068
G1 Y126.198 E0.213
G1 X117.163 Y126.23 E0.068
G1 X115.305 Y126.313 E0.062
G1 Y124.129 E0.072
G1 X113.705 E0.054
G1 Y126.451 E0.077
G1 X112.759 Y126.563 E0.032
G1 X111.324 Y126.775 E0.048
G1 X109.241 Y127.157 E0.07
G1 X104.633 Y128.104 E0.157
G1 X101.269 Y128.772 E0.114
G1 X100.814 Y128.931 E0.016
G1 X100.328 Y129.059 E0.017
G1 X99.833 Y129.145 E0.016
G1 X99.331 Y129.193 E0.017
G1 X98.828 Y129.198 E0.017
G1 X98.326 Y129.164 E0.016
G1 X97.829 Y129.089 E0.017
G1 X97.339 Y128.973 E0.017
G1 X96.861 Y128.818 E0.017
G1 X96.396 Y128.626 E0.016
G1 X95.948 Y128.395 E0.017
G1 X95.521 Y128.13 E0.017
G1 X95.117 Y127.83 E0.017
G1 X94.737 Y127.499 E0.016
G1 X94.386 Y127.138 E0.017
G1 X94.014 Y126.675 E0.02
G1 X93.779 Y126.338 E0.014
G1 X93.526 Y125.903 E0.016
G1 X93.308 Y125.449 E0.017
G1 X93.128 Y124.979 E0.017
G1 X92.988 Y124.496 E0.017
G1 X92.886 Y124.003 E0.016
G1 X92.826 Y123.503 E0.017
G1 X92.805 Y123.001 E0.017
G1 X92.826 Y122.498 E0.016
G1 X92.886 Y121.999 E0.017
G1 X92.988 Y121.506 E0.017
G1 X93.128 Y121.023 E0.017
G1 X93.308 Y120.553 E0.016
G1 X93.526 Y120.099 E0.017
G1 X93.779 Y119.664 E0.017
G1 X94.067 Y119.252 E0.017
G1 X94.387 Y118.863 E0.016
G1 X94.737 Y118.503 E0.017
G1 X95.116 Y118.171 E0.017
G1 X95.521 Y117.872 E0.017
G1 X95.948 Y117.607 E0.016
G1 X96.396 Y117.376 E0.017
G1 X96.861 Y117.183 E0.017
G1 X97.339 Y117.028 E0.016
G1 X97.829 Y116.913 E0.017
G1 X98.326 Y116.838 E0.017
G1 X98.828 Y116.803 E0.017
G1 X99.332 Y116.809 E0.016
;rapid-leaky
G0 X121.113 Y129.768 F7200
;bead-skirt/brim
G1 X117.272 Y129.829 F960 E0.128
G1 X114.882 Y129.936 E0.08
G1 X113.236 Y130.132 E0.055
G1 X111.912 Y130.328 E0.044
G1 X109.928 Y130.691 E0.067
G1 X105.346 Y131.633 E0.156
G1 X102.219 Y132.254 E0.106
G1 X101.866 Y132.378 E0.013
G1 X101.095 Y132.579 E0.026
G1 X100.314 Y132.716 E0.026
G1 X99.52 Y132.791 E0.027
G1 X98.725 Y132.799 E0.026
G1 X97.934 Y132.746 E0.027
G1 X97.144 Y132.626 E0.026
G1 X96.369 Y132.443 E0.027
G1 X95.617 Y132.199 E0.026
G1 X94.882 Y131.895 E0.027
G1 X94.172 Y131.53 E0.026
G1 X93.495 Y131.11 E0.027
G1 X92.858 Y130.637 E0.026
G1 X92.259 Y130.115 E0.026
G1 X91.686 Y129.525 E0.028
G1 X91.13 Y128.834 E0.029
G1 X90.741 Y128.274 E0.023
G1 X90.343 Y127.59 E0.026
G1 X89.999 Y126.874 E0.027
G1 X89.713 Y126.127 E0.026
G1 X89.491 Y125.363 E0.027
G1 X89.331 Y124.584 E0.026
G1 X89.234 Y123.796 E0.027
G1 X89.202 Y123.001 E0.026
G1 X89.234 Y122.205 E0.027
G1 X89.331 Y121.417 E0.026
G1 X89.491 Y120.639 E0.026
G1 X89.713 Y119.875 E0.027
G1 X89.999 Y119.128 E0.026
G1 X90.343 Y118.412 E0.027
G1 X90.742 Y117.727 E0.026
G1 X91.196 Y117.074 E0.027
G1 X91.702 Y116.46 E0.026
G1 X92.257 Y115.89 E0.027
G1 X92.858 Y115.364 E0.026
G1 X93.498 Y114.891 E0.027
G1 X93.722 Y114.752 E0.008
G1 X93.314 Y114.499 E0.016
G1 X91.582 Y112.787 E0.081
G1 X90.277 Y110.726 E0.082
G1 X89.466 Y108.43 E0.081
G1 X89.199 Y106.076 E0.078
G1 X89.325 Y104.382 E0.057
G1 X89.705 Y102.73 E0.056
G1 X90.629 Y100.627 E0.077
G1 X91.631 Y99.17 E0.058
G1 X93.263 Y97.557 E0.077
G1 X94.087 Y97.004 E0.033
G1 X93.602 Y96.7 E0.019
G1 X92.323 Y95.605 E0.056
G1 X90.894 Y93.819 E0.076
G1 X90.104 Y92.327 E0.056
G1 X89.545 Y90.732 E0.056
G1 X89.204 Y88.474 E0.076
G1 X89.27 Y86.718 E0.059
G1 X89.779 Y84.489 E0.076
G1 X90.484 Y82.877 E0.058
G1 X91.814 Y80.935 E0.078
G1 X93.543 Y79.335 E0.079
G1 X94.973 Y78.439 E0.056
G1 X96.522 Y77.767 E0.056
G1 X98.752 Y77.266 E0.076
G1 X100.439 Y77.207 E0.056
G1 X102.045 Y77.394 E0.054
G1 X103.606 Y77.817 E0.054
G1 X104.477 Y78.202 E0.032
G1 X107.87 Y78.937 E0.115
G1 X111.559 Y79.598 E0.125
G1 X116.175 Y80.22 E0.155
G1 X120.778 Y80.595 E0.153
G1 X124.442 Y80.706 E0.122
G1 X127.179 Y80.678 E0.091
G1 X129.918 Y80.555 E0.091
G1 X134.465 Y80.172 E0.152
G1 X137.661 Y79.721 E0.107
G1 X140.256 Y79.28 E0.088
G1 X142.114 Y78.93 E0.063
G1 X143.974 Y78.544 E0.063
G1 X145.437 Y78.214 E0.05
G1 X145.641 Y78.115 E0.008
G1 X146.393 Y77.817 E0.026
G1 X147.167 Y77.574 E0.027
G1 X147.957 Y77.392 E0.027
G1 X148.754 Y77.269 E0.027
G1 X149.56 Y77.206 E0.027
G1 X150.372 Y77.203 E0.027
G1 X151.181 Y77.261 E0.027
;rapid-leaky
G0 F7200
;bead-skirt/brim
G1 X151.98 Y77.38 F960 E0.027
G1 X152.766 Y77.557 E0.027
G1 X153.543 Y77.794 E0.027
G1 X154.305 Y78.091 E0.027
G1 X155.073 Y78.462 E0.028
G1 X155.732 Y78.843 E0.026
G1 X156.398 Y79.295 E0.026
G1 X157.033 Y79.8 E0.027
G1 X157.627 Y80.35 E0.027
G1 X158.177 Y80.94 E0.027
G1 X158.682 Y81.571 E0.027
G1 X159.14 Y82.241 E0.027
G1 X159.546 Y82.942 E0.027
G1 X159.898 Y83.672 E0.027
G1 X160.194 Y84.424 E0.027
G1 X160.434 Y85.2 E0.027
G1 X160.615 Y85.997 E0.027
G1 X160.738 Y86.835 E0.028
G1 X160.795 Y87.596 E0.026
G1 Y88.403 E0.026
G1 X160.735 Y89.212 E0.027
G1 X160.613 Y90.011 E0.027
G1 X160.434 Y90.798 E0.027
G1 X160.195 Y91.573 E0.027
G1 X159.898 Y92.327 E0.027
G1 X159.546 Y93.057 E0.027
G1 X159.14 Y93.757 E0.027
G1 X158.684 Y94.425 E0.027
G1 X158.178 Y95.057 E0.027
G1 X157.627 Y95.65 E0.027
G1 X157.031 Y96.201 E0.027
G1 X156.398 Y96.703 E0.026
G1 X155.73 Y97.157 E0.027
G1 X155.027 Y97.561 E0.027
G1 X154.297 Y97.91 E0.027
G1 X153.543 Y98.205 E0.027
G1 X152.77 Y98.44 E0.027
G1 X151.98 Y98.619 E0.027
G1 X151.178 Y98.737 E0.027
G1 X150.372 Y98.796 E0.027
G1 X149.56 Y98.792 E0.027
G1 X148.757 Y98.729 E0.027
G1 X147.957 Y98.607 E0.027
G1 X147.167 Y98.423 E0.027
G1 X146.393 Y98.183 E0.026
G1 X145.641 Y97.883 E0.027
G1 X145.439 Y97.785 E0.008
G1 X143.973 Y97.454 E0.05
G1 X142.114 Y97.068 E0.063
G1 X140.257 Y96.718 E0.063
G1 X137.99 Y96.334 E0.076
G1 X134.513 Y95.831 E0.117
G1 X129.918 Y95.443 E0.154
G1 X127.179 Y95.32 E0.091
G1 X124.442 Y95.292 E0.091
G1 X120.778 Y95.403 E0.122
G1 X116.175 Y95.778 E0.153
G1 X111.559 Y96.4 E0.155
G1 X107.87 Y97.061 E0.125
G1 X106.45 Y97.369 E0.048
G1 X106.865 Y97.661 E0.017
G1 X107.062 Y97.849 E0.009
G1 X108.867 Y98.241 E0.062
G1 X111.617 Y98.548 E0.092
G1 X114.485 Y98.696 E0.095
G1 X118.378 Y98.728 E0.13
G1 X119.392 Y98.68 E0.033
G1 X119.825 Y98.315 E0.019
G1 X121.248 Y97.8 E0.051
G1 X124.649 Y97.794 E0.113
G1 X125.299 Y97.403 E0.025
G1 X126.011 Y97.051 E0.026
G1 X126.756 Y96.753 E0.027
G1 X127.558 Y96.511 E0.028
G1 X128.292 Y96.351 E0.025
G1 X129.074 Y96.244 E0.026
G1 X129.873 Y96.2 E0.027
G1 X130.669 Y96.223 E0.026
G1 X131.459 Y96.308 E0.027
G1 X132.245 Y96.459 E0.026
G1 X133.012 Y96.673 E0.027
G1 X133.755 Y96.946 E0.026
G1 X134.476 Y97.279 E0.026
G1 X135.174 Y97.673 E0.027
G1 X135.832 Y98.12 E0.027
G1 X136.45 Y98.616 E0.026
G1 X137.031 Y99.166 E0.027
G1 X137.563 Y99.76 E0.026
G1 X138.043 Y100.391 E0.026
G1 X138.472 Y101.063 E0.027
G1 X138.847 Y101.769 E0.027
G1 X139.16 Y102.5 E0.026
G1 X139.417 Y103.26 E0.027
G1 X139.615 Y104.074 E0.028
G1 X139.735 Y104.812 E0.024
G1 X139.8 Y105.603 E0.027
G1 Y106.403 E0.026
G1 X139.735 Y107.193 E0.027
G1 X139.608 Y107.978 E0.026
G1 X139.414 Y108.756 E0.027
G1 X139.16 Y109.506 E0.026
G1 X138.847 Y110.237 E0.027
G1 X138.472 Y110.943 E0.026
G1 X138.043 Y111.615 E0.027
G1 X137.557 Y112.254 E0.026
G1 X136.997 Y112.873 E0.028
G1 X136.449 Y113.39 E0.025
G1 X135.832 Y113.886 E0.027
G1 X135.171 Y114.335 E0.026
G1 X134.476 Y114.726 E0.027
G1 X133.758 Y115.059 E0.026
G1 X133.012 Y115.333 E0.026
G1 X132.241 Y115.548 E0.027
G1 X131.459 Y115.697 E0.027
G1 X130.669 Y115.783 E0.026
G1 X129.873 Y115.805 E0.026
G1 X129.078 Y115.762 E0.027
G1 X128.287 Y115.654 E0.027
G1 X127.509 Y115.483 E0.026
G1 X126.751 Y115.249 E0.026
G1 X126.014 Y114.957 E0.027
G1 X125.295 Y114.601 E0.026
G1 X124.65 Y114.212 E0.025
G1 X121.229 Y114.203 E0.114
G1 X119.975 Y113.742 E0.045
G1 X119.387 Y113.328 E0.024
G1 X118.373 Y113.277 E0.033
G1 X114.485 Y113.31 E0.13
G1 X111.617 Y113.458 E0.095
G1 X108.867 Y113.765 E0.092
G1 X107.062 Y114.157 E0.062
G1 X106.865 Y114.345 E0.009
G1 X106.494 Y114.606 E0.015
G1 X109.874 Y115.299 E0.115
G1 X111.901 Y115.673 E0.068
G1 X113.213 Y115.867 E0.044
G1 X114.877 Y116.066 E0.056
G1 X117.261 Y116.173 E0.079
G1 X122.805 Y116.26 E0.185
G1 Y128.213 E0.397
;rapid-leaky
G0 X122.405 Y128.58 F7200
;bead-skirt/brim
G1 Y116.654 F960 E0.397
G1 X117.249 Y116.573 E0.172
G1 X114.844 Y116.465 E0.08
G1 X113.16 Y116.264 E0.056
G1 X111.836 Y116.068 E0.045
G1 X109.798 Y115.692 E0.068
G1 X105.507 Y114.812 E0.146
G1 X106.61 Y114.035 E0.045
G1 X106.868 Y113.79 E0.012
G1 X108.802 Y113.37 E0.066
G1 X111.584 Y113.059 E0.093
G1 X114.473 Y112.91 E0.096
G1 X118.382 Y112.877 E0.13
G1 X119.523 Y112.934 E0.038
G1 X120.163 Y113.385 E0.026
G1 X121.301 Y113.803 E0.04
G1 X124.774 Y113.812 E0.116
G1 X125.488 Y114.25 E0.028
G1 X126.177 Y114.591 E0.025
G1 X126.884 Y114.872 E0.026
G1 X127.611 Y115.095 E0.025
G1 X128.357 Y115.26 E0.025
G1 X129.116 Y115.364 E0.026
G1 X129.879 Y115.404 E0.025
G1 X130.641 Y115.384 E0.026
G1 X131.399 Y115.301 E0.025
G1 X132.15 Y115.158 E0.025
G1 X132.889 Y114.952 E0.026
G1 X133.605 Y114.689 E0.025
G1 X134.294 Y114.37 E0.026
G1 X134.96 Y113.995 E0.025
G1 X135.594 Y113.564 E0.025
G1 X136.186 Y113.089 E0.026
G1 X136.711 Y112.593 E0.024
G1 X137.249 Y111.998 E0.026
G1 X137.715 Y111.385 E0.026
G1 X138.127 Y110.742 E0.025
G1 X138.486 Y110.065 E0.026
G1 X138.786 Y109.363 E0.025
G1 X139.029 Y108.643 E0.026
G1 X139.215 Y107.898 E0.025
G1 X139.338 Y107.144 E0.026
G1 X139.4 Y106.387 E0.025
G1 Y105.619 E0.025
G1 X139.338 Y104.861 E0.026
G1 X139.223 Y104.153 E0.023
G1 X139.033 Y103.372 E0.027
G1 X138.786 Y102.643 E0.026
G1 X138.486 Y101.941 E0.025
G1 X138.127 Y101.264 E0.026
G1 X137.715 Y100.621 E0.025
G1 X137.254 Y100.015 E0.025
G1 X136.744 Y99.445 E0.026
G1 X136.187 Y98.918 E0.025
G1 X135.594 Y98.442 E0.026
G1 X134.963 Y98.013 E0.025
G1 X134.294 Y97.635 E0.026
G1 X133.602 Y97.316 E0.025
G1 X132.889 Y97.054 E0.025
G1 X132.153 Y96.849 E0.026
G1 X131.399 Y96.703 E0.025
G1 X130.641 Y96.622 E0.025
G1 X129.879 Y96.6 E0.026
G1 X129.112 Y96.643 E0.025
G1 X128.361 Y96.745 E0.026
G1 X127.659 Y96.898 E0.024
G1 X126.889 Y97.131 E0.026
G1 X126.174 Y97.417 E0.026
G1 X125.491 Y97.754 E0.025
G1 X124.778 Y98.193 E0.028
G1 X121.319 Y98.2 E0.115
G1 X120.028 Y98.667 E0.046
G1 X119.546 Y99.073 E0.021
G1 X118.386 Y99.128 E0.038
G1 X114.473 Y99.096 E0.131
G1 X111.584 Y98.947 E0.096
G1 X108.802 Y98.636 E0.093
G1 X106.868 Y98.216 E0.066
G1 X106.61 Y97.971 E0.012
G1 X105.474 Y97.171 E0.046
G1 X107.792 Y96.669 E0.079
G1 X111.497 Y96.005 E0.125
G1 X116.132 Y95.381 E0.155
G1 X120.756 Y95.004 E0.155
G1 X124.438 Y94.892 E0.122
G1 X127.19 Y94.92 E0.092
G1 X129.944 Y95.044 E0.091
G1 X134.559 Y95.433 E0.154
G1 X138.052 Y95.939 E0.118
G1 X140.327 Y96.324 E0.077
G1 X142.191 Y96.675 E0.063
G1 X144.058 Y97.063 E0.063
G1 X145.572 Y97.405 E0.052
G1 X145.803 Y97.517 E0.008
G1 X146.527 Y97.805 E0.026
G1 X147.272 Y98.037 E0.026
G1 X148.032 Y98.214 E0.026
G1 X148.803 Y98.332 E0.026
G1 X149.576 Y98.392 E0.026
G1 X150.358 Y98.395 E0.026
G1 X151.134 Y98.339 E0.026
G1 X151.907 Y98.226 E0.026
G1 X152.667 Y98.053 E0.026
G1 X153.412 Y97.826 E0.025
G1 X154.138 Y97.543 E0.026
G1 X154.84 Y97.207 E0.026
G1 X155.517 Y96.818 E0.026
G1 X156.161 Y96.381 E0.026
G1 X156.771 Y95.897 E0.026
G1 X157.345 Y95.366 E0.026
G1 X157.875 Y94.796 E0.026
G1 X158.362 Y94.187 E0.026
G1 X158.801 Y93.544 E0.026
G1 X159.192 Y92.87 E0.026
G1 X159.532 Y92.167 E0.026
G1 X159.817 Y91.44 E0.026
G1 X160.048 Y90.694 E0.026
G1 X160.22 Y89.936 E0.025
G1 X160.337 Y89.167 E0.026
G1 X160.395 Y88.388 E0.026
G1 Y87.611 E0.026
G1 X160.341 Y86.879 E0.025
G1 X160.222 Y86.071 E0.027
G1 X160.048 Y85.304 E0.026
G1 X159.816 Y84.557 E0.026
G1 X159.532 Y83.833 E0.026
G1 X159.193 Y83.129 E0.026
G1 X158.801 Y82.454 E0.026
G1 X158.361 Y81.809 E0.026
G1 X157.874 Y81.202 E0.026
G1 X157.345 Y80.633 E0.025
G1 X156.773 Y80.104 E0.026
G1 X156.161 Y79.617 E0.026
G1 X155.519 Y79.182 E0.026
G1 X154.885 Y78.816 E0.024
G1 X154.145 Y78.458 E0.028
G1 X153.412 Y78.172 E0.026
G1 X152.664 Y77.944 E0.026
G1 X151.907 Y77.773 E0.026
G1 X151.137 Y77.659 E0.026
;rapid-leaky
G0 F7200
;bead-skirt/brim
G1 X150.358 Y77.603 F960 E0.026
G1 X149.577 Y77.605 E0.026
G1 X148.8 Y77.666 E0.026
G1 X148.032 Y77.785 E0.025
G1 X147.272 Y77.961 E0.026
G1 X146.527 Y78.194 E0.026
G1 X145.803 Y78.481 E0.026
G1 X145.57 Y78.594 E0.009
G1 X144.058 Y78.935 E0.051
G1 X142.191 Y79.323 E0.064
G1 X140.326 Y79.674 E0.063
G1 X137.722 Y80.116 E0.088
G1 X134.51 Y80.569 E0.108
G1 X129.944 Y80.954 E0.152
G1 X127.19 Y81.078 E0.092
G1 X124.438 Y81.106 E0.091
G1 X120.756 Y80.994 E0.123
G1 X116.132 Y80.617 E0.154
G1 X111.497 Y79.993 E0.156
G1 X107.792 Y79.329 E0.125
G1 X104.352 Y78.584 E0.117
G1 X103.472 Y78.195 E0.032
G1 X101.969 Y77.788 E0.052
G1 X100.423 Y77.608 E0.052
G1 X98.804 Y77.664 E0.053
G1 X96.646 Y78.149 E0.074
G1 X95.16 Y78.794 E0.054
G1 X93.787 Y79.654 E0.054
G1 X92.118 Y81.198 E0.075
G1 X90.835 Y83.072 E0.076
G1 X90.161 Y84.615 E0.056
G1 X89.668 Y86.77 E0.073
G1 X89.605 Y88.452 E0.056
G1 X89.935 Y90.635 E0.074
G1 X90.472 Y92.167 E0.054
G1 X91.23 Y93.599 E0.054
G1 X92.611 Y95.325 E0.073
G1 X93.84 Y96.377 E0.054
G1 X94.822 Y96.992 E0.039
G1 X93.517 Y97.868 E0.052
G1 X91.939 Y99.428 E0.074
G1 X90.98 Y100.822 E0.056
G1 X90.087 Y102.856 E0.074
G1 X89.722 Y104.442 E0.054
G1 X89.601 Y106.068 E0.054
G1 X89.858 Y108.339 E0.076
G1 X90.639 Y110.55 E0.078
G1 X91.896 Y112.535 E0.078
G1 X93.563 Y114.183 E0.078
G1 X94.492 Y114.758 E0.037
G1 X93.723 Y115.222 E0.029
G1 X93.109 Y115.676 E0.026
G1 X92.532 Y116.18 E0.025
G1 X92.001 Y116.727 E0.026
G1 X91.515 Y117.316 E0.025
G1 X91.079 Y117.942 E0.025
G1 X90.697 Y118.599 E0.026
G1 X90.367 Y119.286 E0.025
G1 X90.093 Y120.003 E0.026
G1 X89.879 Y120.735 E0.025
G1 X89.726 Y121.482 E0.025
G1 X89.633 Y122.238 E0.026
G1 X89.602 Y123.001 E0.025
G1 X89.633 Y123.763 E0.025
G1 X89.726 Y124.52 E0.026
G1 X89.879 Y125.267 E0.025
G1 X90.093 Y125.999 E0.026
G1 X90.367 Y126.716 E0.025
G1 X90.697 Y127.403 E0.025
G1 X91.078 Y128.059 E0.026
G1 X91.45 Y128.594 E0.021
G1 X91.986 Y129.26 E0.029
G1 X92.534 Y129.824 E0.026
G1 X93.109 Y130.325 E0.025
G1 X93.72 Y130.779 E0.026
G1 X94.369 Y131.181 E0.025
G1 X95.05 Y131.532 E0.025
G1 X95.755 Y131.823 E0.026
G1 X96.477 Y132.057 E0.025
G1 X97.22 Y132.233 E0.025
G1 X97.977 Y132.348 E0.026
G1 X98.736 Y132.399 E0.025
G1 X99.499 Y132.391 E0.026
G1 X100.261 Y132.319 E0.025
G1 X101.009 Y132.188 E0.025
G1 X101.749 Y131.995 E0.026
G1 X102.113 Y131.867 E0.013
G1 X105.267 Y131.241 E0.107
G1 X109.852 Y130.299 E0.155
G1 X111.846 Y129.933 E0.068
G1 X113.183 Y129.735 E0.045
G1 X114.85 Y129.537 E0.055
G1 X117.26 Y129.429 E0.081
G1 X121.556 Y129.361 E0.143
;rapid-leaky
G0 X121.998 Y128.954 F7200
;bead-skirt/brim
G1 X117.248 Y129.029 F960 E0.158
G1 X114.817 Y129.138 E0.081
G1 X113.13 Y129.339 E0.056
G1 X111.781 Y129.538 E0.045
G1 X109.776 Y129.906 E0.068
G1 X105.187 Y130.849 E0.156
G1 X102.008 Y131.48 E0.108
G1 X101.632 Y131.612 E0.013
G1 X100.924 Y131.797 E0.024
G1 X100.207 Y131.922 E0.025
G1 X99.478 Y131.992 E0.024
G1 X98.748 Y131.999 E0.024
G1 X98.021 Y131.95 E0.024
G1 X97.296 Y131.84 E0.025
G1 X96.584 Y131.672 E0.024
G1 X95.893 Y131.448 E0.024
G1 X95.218 Y131.169 E0.025
G1 X94.567 Y130.833 E0.024
G1 X93.945 Y130.447 E0.024
G1 X93.36 Y130.013 E0.025
G1 X92.81 Y129.533 E0.024
G1 X92.286 Y128.995 E0.025
G1 X91.771 Y128.354 E0.027
G1 X91.416 Y127.843 E0.021
G1 X91.05 Y127.215 E0.024
G1 X90.734 Y126.558 E0.024
G1 X90.472 Y125.872 E0.025
G1 X90.268 Y125.17 E0.024
G1 X90.121 Y124.455 E0.024
G1 X90.032 Y123.731 E0.025
G1 X90.002 Y123.001 E0.024
G1 X90.032 Y122.27 E0.024
G1 X90.121 Y121.546 E0.024
G1 X90.268 Y120.832 E0.025
G1 X90.472 Y120.13 E0.024
G1 X90.734 Y119.444 E0.024
G1 X91.05 Y118.787 E0.025
G1 X91.417 Y118.157 E0.024
G1 X91.834 Y117.558 E0.024
G1 X92.299 Y116.994 E0.025
G1 X92.808 Y116.47 E0.024
G1 X93.36 Y115.988 E0.024
G1 X93.948 Y115.553 E0.025
G1 X94.567 Y115.169 E0.024
G1 X95.312 Y114.795 E0.027
G1 X93.812 Y113.866 E0.059
G1 X92.209 Y112.283 E0.075
G1 X91.001 Y110.374 E0.075
G1 X90.251 Y108.249 E0.075
G1 X90.002 Y106.06 E0.073
G1 X90.118 Y104.502 E0.052
G1 X90.468 Y102.983 E0.052
G1 X91.331 Y101.018 E0.072
G1 X92.247 Y99.686 E0.053
G1 X93.772 Y98.179 E0.072
G1 X95.117 Y97.276 E0.054
G1 X95.728 Y97.015 E0.022
G1 X95.347 Y96.849 E0.014
G1 X94.077 Y96.054 E0.049
G1 X92.9 Y95.046 E0.052
G1 X91.566 Y93.378 E0.071
G1 X90.839 Y92.006 E0.052
G1 X90.325 Y90.539 E0.051
G1 X90.007 Y88.429 E0.071
G1 X90.067 Y86.822 E0.054
G1 X90.542 Y84.741 E0.071
G1 X91.187 Y83.267 E0.053
G1 X92.423 Y81.461 E0.073
G1 X94.031 Y79.973 E0.073
G1 X95.347 Y79.149 E0.052
G1 X96.771 Y78.531 E0.051
G1 X98.855 Y78.062 E0.071
G1 X100.406 Y78.009 E0.052
G1 X101.893 Y78.182 E0.05
G1 X103.338 Y78.573 E0.049
G1 X104.228 Y78.967 E0.033
G1 X107.714 Y79.722 E0.118
G1 X111.435 Y80.389 E0.126
G1 X116.089 Y81.015 E0.156
G1 X120.734 Y81.394 E0.155
G1 X124.434 Y81.507 E0.124
G1 X127.201 Y81.478 E0.092
G1 X129.97 Y81.354 E0.092
G1 X134.554 Y80.967 E0.153
G1 X137.784 Y80.512 E0.108
G1 X140.397 Y80.068 E0.088
G1 X142.269 Y79.715 E0.064
G1 X144.143 Y79.326 E0.063
G1 X145.704 Y78.974 E0.054
G1 X145.965 Y78.847 E0.009
G1 X146.66 Y78.571 E0.025
G1 X147.377 Y78.347 E0.025
G1 X148.108 Y78.178 E0.025
G1 X148.846 Y78.064 E0.025
G1 X149.593 Y78.005 E0.025
G1 X150.344 Y78.003 E0.025
G1 X151.093 Y78.057 E0.025
;rapid-leaky
G0 F7200
;bead-skirt/brim
G1 X151.833 Y78.167 F960 E0.025
G1 X152.562 Y78.331 E0.025
G1 X153.281 Y78.55 E0.025
G1 X153.985 Y78.825 E0.025
G1 X154.698 Y79.169 E0.026
G1 X155.306 Y79.522 E0.023
G1 X155.924 Y79.94 E0.025
G1 X156.512 Y80.408 E0.025
G1 X157.062 Y80.916 E0.025
G1 X157.571 Y81.464 E0.025
G1 X158.039 Y82.047 E0.025
G1 X158.463 Y82.667 E0.025
G1 X158.839 Y83.317 E0.025
G1 X159.165 Y83.993 E0.025
G1 X159.439 Y84.689 E0.025
G1 X159.661 Y85.407 E0.025
G1 X159.828 Y86.144 E0.025
G1 X159.943 Y86.923 E0.026
G1 X159.995 Y87.626 E0.023
G1 Y88.373 E0.025
G1 X159.939 Y89.122 E0.025
G1 X159.827 Y89.862 E0.025
G1 X159.661 Y90.591 E0.025
G1 X159.439 Y91.308 E0.025
G1 X159.165 Y92.006 E0.025
G1 X158.838 Y92.682 E0.025
G1 X158.463 Y93.331 E0.025
G1 X158.04 Y93.949 E0.025
G1 X157.572 Y94.534 E0.025
G1 X157.062 Y95.083 E0.025
G1 X156.51 Y95.593 E0.025
G1 X155.924 Y96.058 E0.024
G1 X155.305 Y96.479 E0.025
G1 X154.654 Y96.853 E0.025
G1 X153.979 Y97.175 E0.025
G1 X153.28 Y97.448 E0.025
G1 X152.564 Y97.666 E0.025
G1 X151.833 Y97.832 E0.025
G1 X151.09 Y97.941 E0.025
G1 X150.344 Y97.995 E0.025
G1 X149.593 Y97.993 E0.025
G1 X148.849 Y97.934 E0.025
G1 X148.108 Y97.821 E0.025
G1 X147.377 Y97.651 E0.025
G1 X146.661 Y97.428 E0.024
G1 X145.964 Y97.151 E0.025
G1 X145.706 Y97.025 E0.01
G1 X144.143 Y96.672 E0.053
G1 X142.269 Y96.283 E0.064
G1 X140.398 Y95.93 E0.063
G1 X138.114 Y95.544 E0.077
G1 X134.604 Y95.035 E0.118
G1 X129.97 Y94.644 E0.155
G1 X127.201 Y94.52 E0.092
G1 X124.434 Y94.491 E0.092
G1 X120.734 Y94.604 E0.123
G1 X116.089 Y94.983 E0.155
G1 X111.435 Y95.609 E0.156
G1 X107.715 Y96.276 E0.126
G1 X104.28 Y97.021 E0.117
G1 X105.082 Y97.384 E0.029
G1 X106.356 Y98.281 E0.052
G1 X106.673 Y98.583 E0.015
G1 X108.737 Y99.032 E0.07
G1 X111.552 Y99.346 E0.094
G1 X114.461 Y99.496 E0.097
G1 X118.394 Y99.528 E0.131
G1 X119.7 Y99.466 E0.043
G1 X120.231 Y99.019 E0.023
G1 X121.389 Y98.6 E0.041
G1 X124.906 Y98.593 E0.117
G1 X125.092 Y98.461 E0.008
G1 X125.683 Y98.105 E0.023
G1 X126.337 Y97.782 E0.024
G1 X127.021 Y97.509 E0.025
G1 X127.759 Y97.286 E0.025
G1 X128.431 Y97.14 E0.023
G1 X129.15 Y97.041 E0.024
G1 X129.884 Y97.001 E0.025
G1 X130.614 Y97.022 E0.024
G1 X131.34 Y97.099 E0.024
G1 X132.061 Y97.238 E0.025
G1 X132.766 Y97.435 E0.024
G1 X133.449 Y97.686 E0.024
G1 X134.111 Y97.992 E0.025
G1 X134.752 Y98.353 E0.024
G1 X135.356 Y98.764 E0.024
G1 X135.924 Y99.22 E0.025
G1 X136.457 Y99.724 E0.024
G1 X136.945 Y100.27 E0.024
G1 X137.387 Y100.85 E0.025
G1 X137.781 Y101.466 E0.024
G1 X138.125 Y102.114 E0.024
G1 X138.412 Y102.786 E0.025
G1 X138.648 Y103.484 E0.024
G1 X138.831 Y104.233 E0.026
G1 X138.94 Y104.909 E0.023
G1 X139 Y105.636 E0.024
G1 Y106.371 E0.024
G1 X138.94 Y107.096 E0.024
G1 X138.823 Y107.817 E0.025
G1 X138.645 Y108.53 E0.024
G1 X138.412 Y109.22 E0.024
G1 X138.125 Y109.892 E0.025
G1 X137.781 Y110.54 E0.024
G1 X137.387 Y111.156 E0.024
G1 X136.941 Y111.743 E0.025
G1 X136.425 Y112.313 E0.026
G1 X135.923 Y112.787 E0.022
G1 X135.356 Y113.242 E0.025
G1 X134.749 Y113.654 E0.024
G1 X134.111 Y114.013 E0.024
G1 X133.452 Y114.319 E0.025
G1 X132.766 Y114.571 E0.024
G1 X132.058 Y114.769 E0.024
G1 X131.34 Y114.905 E0.025
G1 X130.614 Y114.985 E0.024
G1 X129.884 Y115.004 E0.024
G1 X129.153 Y114.965 E0.025
G1 X128.427 Y114.866 E0.024
G1 X127.713 Y114.708 E0.024
G1 X127.017 Y114.494 E0.024
G1 X126.339 Y114.225 E0.025
G1 X125.68 Y113.899 E0.024
G1 X125.053 Y113.521 E0.025
G1 X124.903 Y113.412 E0.006
G1 X121.372 Y113.404 E0.117
G1 X120.35 Y113.028 E0.036
G1 X119.658 Y112.541 E0.028
G1 X118.39 Y112.477 E0.043
G1 X114.461 Y112.51 E0.13
G1 X111.552 Y112.66 E0.097
G1 X108.737 Y112.974 E0.095
G1 X106.673 Y113.423 E0.07
G1 X106.356 Y113.725 E0.014
G1 X105.081 Y114.622 E0.052
G1 X104.303 Y114.974 E0.029
G1 X109.721 Y116.084 E0.184
G1 X111.77 Y116.462 E0.069
G1 X113.107 Y116.66 E0.045
G1 X114.812 Y116.864 E0.057
G1 X117.237 Y116.973 E0.081
G1 X122.005 Y117.047 E0.158
G1 Y128.948 E0.396
G1 F2100 E-0.5
;rapid-dry
G0 X118.805 Y120.199 F7200
G1 F2100 E0.5
;bead-perimeter_outer
G1 Y125.802 F720 E0.186
G1 X117.151 Y125.83 E0.055
G1 X115.705 Y125.893 E0.049
G1 Y123.729 E0.072
G1 X113.305 E0.079
G1 Y126.095 E0.079
G1 X111.981 Y126.267 E0.044
G1 X111.259 Y126.381 E0.025
G1 X109.164 Y126.765 E0.071
G1 X104.553 Y127.712 E0.156
G1 X101.163 Y128.386 E0.115
G1 X100.698 Y128.549 E0.017
G1 X100.242 Y128.667 E0.015
G1 X99.779 Y128.749 E0.016
G1 X99.311 Y128.793 E0.015
G1 X98.84 Y128.798 E0.016
G1 X98.37 Y128.766 E0.016
G1 X97.905 Y128.695 E0.015
G1 X97.447 Y128.587 E0.016
G1 X96.999 Y128.442 E0.016
G1 X96.564 Y128.262 E0.015
G1 X96.146 Y128.047 E0.016
G1 X95.745 Y127.798 E0.016
G1 X95.367 Y127.518 E0.015
G1 X95.013 Y127.209 E0.016
G1 X94.685 Y126.871 E0.016
G1 X94.338 Y126.441 E0.018
G1 X94.117 Y126.122 E0.013
G1 X93.88 Y125.715 E0.016
G1 X93.676 Y125.291 E0.015
G1 X93.508 Y124.851 E0.016
G1 X93.376 Y124.4 E0.016
G1 X93.282 Y123.939 E0.015
G1 X93.224 Y123.47 E0.016
G1 X93.205 Y123.001 E0.016
G1 X93.225 Y122.53 E0.015
G1 X93.282 Y122.063 E0.016
G1 X93.376 Y121.602 E0.016
G1 X93.508 Y121.151 E0.015
G1 X93.676 Y120.711 E0.016
G1 X93.88 Y120.287 E0.016
G1 X94.117 Y119.88 E0.015
G1 X94.385 Y119.494 E0.016
G1 X94.685 Y119.131 E0.015
G1 X95.013 Y118.793 E0.016
G1 X95.367 Y118.483 E0.016
G1 X95.745 Y118.204 E0.015
G1 X96.146 Y117.955 E0.016
G1 X96.564 Y117.74 E0.016
G1 X96.999 Y117.559 E0.015
G1 X97.447 Y117.414 E0.016
G1 X97.905 Y117.307 E0.016
G1 X98.37 Y117.236 E0.015
G1 X98.84 Y117.203 E0.016
G1 X99.31 Y117.209 E0.016
G1 X99.779 Y117.253 E0.015
G1 X100.242 Y117.335 E0.016
G1 X100.698 Y117.453 E0.016
G1 X101.163 Y117.616 E0.016
G1 X103.786 Y118.134 E0.089
G1 X109.109 Y119.225 E0.181
G1 X111.245 Y119.619 E0.072
G1 X111.941 Y119.729 E0.023
G1 X113.305 Y119.907 E0.046
G1 Y122.273 E0.079
G1 X115.705 E0.08
G1 Y120.109 E0.072
G1 X117.14 Y120.172 E0.047
G1 X118.805 Y120.199 E0.056
;rapid-leaky
G0 X118.445 Y120.556 F7200
;bead-perimeter_inner
G1 Y125.445 F960 E0.162
G1 X117.141 Y125.47 E0.044
G1 X116.065 Y125.514 E0.036
G1 Y123.369 E0.071
G1 X112.945 E0.104
G1 Y125.776 E0.08
G1 X111.928 Y125.911 E0.034
G1 X111.2 Y126.025 E0.024
G1 X109.094 Y126.412 E0.072
G1 X104.482 Y127.359 E0.156
G1 X101.068 Y128.037 E0.116
G1 X100.592 Y128.204 E0.017
G1 X100.166 Y128.315 E0.014
G1 X99.731 Y128.392 E0.015
G1 X99.292 Y128.433 E0.015
G1 X98.85 Y128.438 E0.014
G1 X98.409 Y128.408 E0.015
G1 X97.974 Y128.342 E0.015
G1 X97.544 Y128.24 E0.014
G1 X97.124 Y128.104 E0.015
G1 X96.716 Y127.935 E0.015
G1 X96.323 Y127.733 E0.015
G1 X95.948 Y127.5 E0.014
G1 X95.593 Y127.237 E0.015
G1 X95.261 Y126.947 E0.015
G1 X94.954 Y126.631 E0.014
G1 X94.633 Y126.234 E0.017
G1 X94.421 Y125.929 E0.013
G1 X94.198 Y125.546 E0.014
G1 X94.007 Y125.148 E0.015
G1 X93.849 Y124.736 E0.015
G1 X93.726 Y124.313 E0.014
G1 X93.637 Y123.881 E0.015
G1 X93.583 Y123.441 E0.015
G1 X93.565 Y123.001 E0.014
G1 X93.584 Y122.56 E0.015
G1 X93.637 Y122.121 E0.015
G1 X93.726 Y121.689 E0.014
G1 X93.849 Y121.266 E0.015
G1 X94.007 Y120.854 E0.015
G1 X94.198 Y120.456 E0.014
G1 X94.421 Y120.073 E0.015
G1 X94.673 Y119.712 E0.015
G1 X94.954 Y119.371 E0.015
G1 X95.261 Y119.055 E0.014
G1 X95.593 Y118.764 E0.015
G1 X95.948 Y118.502 E0.015
G1 X96.323 Y118.269 E0.014
G1 X96.716 Y118.066 E0.015
G1 X97.124 Y117.897 E0.015
G1 X97.543 Y117.761 E0.014
G1 X97.973 Y117.66 E0.015
G1 X98.41 Y117.594 E0.015
G1 X98.85 Y117.563 E0.014
G1 X99.291 Y117.569 E0.015
G1 X99.731 Y117.61 E0.015
G1 X100.166 Y117.687 E0.014
G1 X100.592 Y117.798 E0.015
G1 X101.069 Y117.965 E0.017
G1 X103.716 Y118.487 E0.09
G1 X109.039 Y119.578 E0.18
G1 X111.187 Y119.975 E0.073
G1 X111.888 Y120.085 E0.024
G1 X112.945 Y120.226 E0.035
G1 Y122.633 E0.08
G1 X116.065 E0.104
G1 Y120.488 E0.071
G1 X117.129 Y120.532 E0.036
G1 X118.445 Y120.556 E0.043
G1 F2100 E-0.5
;rapid-dry
G0 X113.599 Y107.975 F7200
G1 F2100 E0.5
;bead-support
G1 X114.146 Y107.659 F1320 E0.021
G1 X114.404 Y107.817 E0.01
G1 X115.002 Y107.912 E0.021
G1 X115.605 Y107.817 E0.02
G1 X116.354 Y107.36 E0.029
G1 X116.819 Y106.604 E0.03
G1 X116.904 Y106.067 E0.018
G1 X116.982 Y106.021 E0.003
G1 X116.985 Y104.032 E0.066
G1 X115.101 Y104.029 E0.063
G1 X114.98 Y104.099 E0.004
G1 X114.405 Y104.189 E0.02
G1 X113.656 Y104.646 E0.029
G1 X113.449 Y104.982 E0.013
G1 X113.028 Y105.225 E0.016
G1 F2100 E-0.5
G0 X113.449 Y104.982 F2400
G0 X113.656 Y104.646 F2400
G0 X113.758 Y104.584 F2400
G0 X113.656 Y104.646 F2400
G0 X113.449 Y104.982 F2400
G0 X113.028 Y105.225 F2400
;rapid-dry
G0 X117.163 Y102.838 F7200
G1 F2100 E0.5
;bead-support
G1 X116.548 Y103.193 F1320 E0.024
G1 X117.835 E0.042
G1 X117.833 Y105.531 E0.078
G1 X120.935 Y103.739 E0.119
G1 Y106.819 E0.103
G1 X117.829 Y108.612 E0.119
G1 Y108.827 E0.007
G1 X117.456 E0.013
G1 X116.863 Y109.17 E0.022
G1 X114.361 Y109.191 E0.084
G1 X111.282 Y109.35 E0.102
G1 X111.202 Y109.359 E0.003
G1 X112.196 Y108.785 E0.038
G1 X112.184 Y105.713 E0.102
G1 X100.21 Y112.626 E0.46
G1 F2100 E-0.5
G0 X101.076 Y112.126 F2400
G0 X100.21 Y112.626 F2400
;rapid-dry
G0 X102.346 Y120.457 F7200
G1 F2100 E0.5
;bead-perimeter_outer
G1 X102.084 Y120.144 F720 E0.014
G1 X101.785 Y119.852 E0.014
G1 X101.457 Y119.59 E0.013
G1 X101.105 Y119.364 E0.014
G1 X100.732 Y119.173 E0.014
G1 X100.343 Y119.019 E0.014
G1 X99.939 Y118.906 E0.014
G1 X99.527 Y118.833 E0.014
G1 X99.11 Y118.802 E0.014
G1 X98.691 Y118.812 E0.014
G1 X98.275 Y118.865 E0.014
G1 X97.868 Y118.957 E0.014
G1 X97.471 Y119.091 E0.014
G1 X97.089 Y119.263 E0.014
G1 X96.726 Y119.473 E0.014
G1 X96.386 Y119.717 E0.014
G1 X96.072 Y119.994 E0.013
G1 X95.788 Y120.301 E0.014
G1 X95.535 Y120.635 E0.014
G1 X95.316 Y120.992 E0.014
G1 X95.134 Y121.369 E0.014
G1 X94.992 Y121.763 E0.014
G1 X94.888 Y122.169 E0.014
G1 X94.826 Y122.594 E0.014
G1 X94.805 Y123.011 E0.014
G1 X94.827 Y123.429 E0.014
G1 X94.89 Y123.843 E0.014
G1 X94.992 Y124.239 E0.014
G1 X95.134 Y124.633 E0.014
G1 X95.316 Y125.01 E0.013
G1 X95.535 Y125.367 E0.014
G1 X95.788 Y125.701 E0.014
G1 X96.079 Y126.015 E0.015
G1 X96.386 Y126.285 E0.013
G1 X96.726 Y126.529 E0.014
G1 X97.089 Y126.738 E0.014
G1 X97.471 Y126.91 E0.014
G1 X97.868 Y127.044 E0.014
G1 X98.275 Y127.137 E0.014
G1 X98.691 Y127.19 E0.014
G1 X99.11 Y127.2 E0.014
G1 X99.527 Y127.169 E0.014
G1 X99.939 Y127.096 E0.014
G1 X100.343 Y126.983 E0.013
G1 X100.732 Y126.829 E0.014
G1 X101.105 Y126.638 E0.014
G1 X101.457 Y126.412 E0.014
G1 X101.785 Y126.15 E0.014
G1 X102.084 Y125.858 E0.014
G1 X102.353 Y125.537 E0.014
G1 X102.589 Y125.192 E0.014
G1 X102.789 Y124.823 E0.014
G1 X102.952 Y124.437 E0.014
G1 X103.075 Y124.037 E0.014
G1 X103.158 Y123.627 E0.014
G1 X103.2 Y123.21 E0.014
G1 Y122.791 E0.014
G1 X103.158 Y122.375 E0.013
G1 X103.075 Y121.965 E0.014
G1 X102.952 Y121.565 E0.014
G1 X102.789 Y121.178 E0.014
G1 X102.589 Y120.81 E0.014
G1 X102.346 Y120.457 E0.014
;rapid-leaky
G0 X102.634 Y120.239 F7200
;bead-perimeter_inner
G1 X102.348 Y119.899 F960 E0.015
G1 X102.023 Y119.582 E0.015
G1 X101.667 Y119.298 E0.015
G1 X101.285 Y119.051 E0.016
G1 X100.881 Y118.844 E0.015
G1 X100.458 Y118.678 E0.015
G1 X100.02 Y118.554 E0.015
G1 X99.572 Y118.476 E0.015
G1 X99.119 Y118.441 E0.015
G1 X98.664 Y118.453 E0.015
G1 X98.213 Y118.51 E0.015
G1 X97.771 Y118.61 E0.016
G1 X97.339 Y118.755 E0.015
G1 X96.924 Y118.942 E0.015
G1 X96.53 Y119.17 E0.015
G1 X96.162 Y119.435 E0.015
G1 X95.82 Y119.736 E0.015
G1 X95.511 Y120.07 E0.015
G1 X95.237 Y120.432 E0.015
G1 X95 Y120.82 E0.016
G1 X94.802 Y121.229 E0.015
G1 X94.647 Y121.657 E0.015
G1 X94.534 Y122.098 E0.015
G1 X94.467 Y122.558 E0.015
G1 X94.444 Y123.012 E0.015
G1 X94.468 Y123.466 E0.016
G1 X94.537 Y123.915 E0.015
G1 X94.647 Y124.346 E0.015
G1 X94.802 Y124.773 E0.015
G1 X95 Y125.182 E0.015
G1 X95.237 Y125.57 E0.015
G1 X95.512 Y125.933 E0.015
G1 X95.828 Y126.273 E0.015
G1 X96.162 Y126.567 E0.015
G1 X96.531 Y126.832 E0.015
G1 X96.924 Y127.059 E0.015
G1 X97.339 Y127.246 E0.016
G1 X97.77 Y127.391 E0.015
G1 X98.212 Y127.492 E0.015
G1 X98.664 Y127.549 E0.015
G1 X99.119 Y127.561 E0.015
G1 X99.572 Y127.526 E0.015
G1 X100.02 Y127.448 E0.015
G1 X100.458 Y127.324 E0.015
G1 X100.881 Y127.158 E0.016
G1 X101.285 Y126.951 E0.015
G1 X101.667 Y126.704 E0.015
G1 X102.023 Y126.42 E0.015
G1 X102.348 Y126.103 E0.015
G1 X102.64 Y125.755 E0.015
G1 X102.896 Y125.38 E0.015
G1 X103.114 Y124.979 E0.015
G1 X103.291 Y124.561 E0.016
G1 X103.424 Y124.126 E0.015
G1 X103.514 Y123.681 E0.015
G1 X103.56 Y123.228 E0.015
G1 Y122.773 E0.015
G1 X103.514 Y122.321 E0.015
G1 X103.424 Y121.876 E0.015
G1 X103.291 Y121.442 E0.015
G1 X103.114 Y121.022 E0.016
G1 X102.896 Y120.622 E0.015
G1 X102.634 Y120.239 E0.015
G1 F2100 E-0.5
;rapid-dry
G0 X93.481 Y107.273 F7200
G1 F2100 E0.5
;bead-support
G1 X95.674 Y106.007 F1320 E0.084
G1 X95.759 Y106.858 E0.029
G1 X96.014 Y107.688 E0.029
G1 X96.425 Y108.442 E0.028
G1 X96.544 Y108.584 E0.006
G1 X94.532 Y109.745 E0.078
G1 X94.812 Y110.187 E0.017
G1 X95.878 Y111.241 E0.05
G1 X96.552 Y111.658 E0.026
G1 X99.056 Y110.213 E0.096
G1 X99.254 Y110.269 E0.007
G1 X100.11 Y110.334 E0.029
G1 X100.965 Y110.227 E0.029
G1 X101.783 Y109.952 E0.028
G1 X102.535 Y109.519 E0.029
G1 X103.178 Y108.952 E0.029
G1 X103.701 Y108.261 E0.028
G1 X104.079 Y107.48 E0.029
G1 X104.117 Y107.291 E0.007
G1 X112.074 Y102.697 E0.305
G1 X111.282 Y102.656 E0.027
G1 X108.199 Y102.312 E0.103
G1 X107.624 Y102.187 E0.019
G1 X103.968 Y104.298 E0.141
G1 X103.701 Y103.745 E0.02
G1 X103.181 Y103.057 E0.029
G1 X102.535 Y102.487 E0.029
G1 X102.153 Y102.267 E0.014
G1 X104.378 Y100.982 E0.086
G1 X104.243 Y100.854 E0.006
G1 X103.426 Y100.279 E0.033
G1 X102.051 Y99.656 E0.05
G1 X101.525 Y99.55 E0.018
G1 X93.613 Y104.118 E0.304
G1 F2100 E-0.5
G0 X94.479 Y103.618 F2400
G0 X93.613 Y104.118 F2400
;rapid-dry
G0 X94.92 Y92.256 F7200
G1 F2100 E0.5
;bead-support
G1 X93.711 Y90.162 F1320 E0.08
G1 X93.561 Y89.734 E0.015
G1 X93.336 Y88.242 E0.051
G1 X93.338 Y88.183 E0.002
G1 X96.495 Y93.651 E0.21
G1 X96.897 Y93.903 E0.015
G1 X97.582 Y94.2 E0.025
G1 X93.43 Y87.008 E0.276
G1 X93.648 Y86.053 E0.033
G1 X98.497 Y94.452 E0.323
G1 X99.28 Y94.628 E0.026
G1 X99.37 Y94.631 E0.003
G1 X97.634 Y91.625 E0.116
G1 X97.652 Y91.638
G1 X98.417 Y92.031 E0.029
G1 X98.682 Y92.106 E0.009
G1 X100.156 Y94.658 E0.098
G1 X100.271 Y94.662 E0.004
G1 X100.887 Y94.591 E0.021
G1 X99.557 Y92.288 E0.088
G1 X100.113 Y92.33 E0.019
G1 X100.329 Y92.292 E0.007
G1 X101.582 Y94.462 E0.083
G1 X102.226 Y94.287 E0.023
G1 X102.246 Y94.279
G1 X101.028 Y92.17 E0.081
G1 X101.369 Y92.11 E0.012
G1 X101.682 Y91.969 E0.011
G1 X102.859 Y94.007 E0.079
G1 X103.194 Y93.859 E0.012
G1 X103.505 Y93.792 E0.01
G1 X102.279 Y91.669 E0.082
G1 X102.823 Y91.278 E0.022
G1 X104.189 Y93.644 E0.091
G1 X104.873 Y93.495 E0.023
G1 X103.303 Y90.777 E0.105
G1 X103.452 Y90.616 E0.007
G1 X103.724 Y90.172 E0.017
G1 X105.557 Y93.347 E0.122
G1 X106.241 Y93.199 E0.023
G1 X104.066 Y89.43 E0.145
G1 X104.197 Y89.069 E0.013
G1 X104.286 Y88.479 E0.02
G1 X106.925 Y93.05 E0.175
G1 X107.07 Y93.019 E0.005
G1 X107.62 Y92.92 E0.019
G1 X104.186 Y86.972 E0.228
G1 X104.07 Y86.515 E0.016
G1 X103.787 Y85.93 E0.022
G1 X103.696 Y85.741 E0.007
G1 X103.471 Y85.443 E0.012
G1 X103.176 Y85.053 E0.016
G1 X102.977 Y84.877 E0.009
G1 X100.979 Y81.418 E0.133
G1 X100.271 Y81.336 E0.024
G1 X100.164 Y81.339 E0.003
G1 X101.717 Y84.029 E0.104
G1 X101.563 Y83.978 E0.005
G1 X100.961 Y83.775 E0.021
G1 X100.788 Y83.754 E0.006
G1 X99.409 Y81.365 E0.092
G1 X99.28 Y81.37 E0.004
G1 X98.715 Y81.497 E0.019
G1 X99.975 Y83.679 E0.084
G1 X99.249 Y83.733 E0.024
G1 X99.239 Y83.736 E0.001
G1 X98.034 Y81.65 E0.08
G1 X97.805 Y81.702 E0.007
G1 X97.396 Y81.879 E0.015
G1 X98.576 Y83.923 E0.079
G1 X98.417 Y83.968 E0.005
G1 X97.966 Y84.199 E0.017
G1 X96.79 Y82.162 E0.078
G1 X96.225 Y82.516 E0.023
G1 X97.403 Y84.558 E0.078
G1 X96.978 Y84.897 E0.018
G1 X96.89 Y85.001 E0.005
G1 X95.704 Y82.948 E0.078
G1 X95.203 Y83.412 E0.023
G1 X96.433 Y85.544 E0.082
G1 X96.42 Y85.56 E0.001
G1 X96.057 Y86.226 E0.025
G1 X94.743 Y83.95 E0.087
G1 X94.325 Y84.559 E0.025
G1 X95.776 Y87.072 E0.096
G1 X95.754 Y87.143 E0.003
G1 X95.668 Y87.997 E0.028
G1 X95.695 Y88.266 E0.009
G1 X93.948 Y85.239 E0.117
G1 F2100 E-0.5
G0 X94.448 Y86.105 F2400
G0 X93.948 Y85.239 F2400
;rapid-leaky
G0 X101.862 Y81.613 F7200
G1 F2100 E0.5
;bead-support
G1 X108.318 Y92.795 F1320 E0.429
G1 X109.015 Y92.67 E0.024
G1 X102.847 Y81.986 E0.41
G1 X103.194 Y82.14 E0.013
G1 X103.778 Y82.266 E0.02
G1 X109.713 Y92.545 E0.394
G1 X110.411 Y92.42 E0.024
G1 X104.658 Y82.457 E0.383
G1 X105.538 Y82.647 E0.029
G1 X111.113 Y92.303 E0.371
G1 X111.827 Y92.207 E0.024
G1 X106.418 Y82.838 E0.36
G1 X107.07 Y82.979 E0.022
G1 X107.292 Y83.019 E0.008
G1 X112.541 Y92.111 E0.349
G1 X113.256 Y92.014 E0.024
G1 X108.151 Y83.173 E0.34
G1 X109.009 Y83.327 E0.029
G1 X113.97 Y91.918 E0.329
G1 X114.684 Y91.822 E0.024
G1 X109.868 Y83.481 E0.321
G1 X110.727 Y83.635 E0.029
G1 X115.398 Y91.726 E0.311
G1 X115.733 Y91.681 E0.011
G1 X116.124 Y91.649 E0.013
G1 X111.567 Y83.756 E0.303
G1 X112.402 Y83.869 E0.028
G1 X116.859 Y91.589 E0.296
G1 X117.594 Y91.529 E0.025
G1 X113.236 Y83.981 E0.29
G1 X114.071 Y84.093 E0.028
G1 X118.329 Y91.469 E0.283
G1 X119.065 Y91.409 E0.025
G1 X114.906 Y84.206 E0.276
G1 X115.733 Y84.317 E0.028
G1 X115.74 Y84.318
G1 X119.8 Y91.349 E0.27
G1 X120.535 Y91.289 E0.025
G1 X116.548 Y84.384 E0.265
G1 X117.356 Y84.45 E0.027
G1 X121.291 Y91.266 E0.262
G1 X122.048 Y91.243 E0.025
G1 X118.164 Y84.515 E0.258
G1 X118.971 Y84.581 E0.027
G1 X122.189 Y90.154 E0.214
G1 X122.191 Y90.829 E0.023
G1 X122.579 E0.013
G1 X122.804 Y91.22 E0.015
G1 X123.561 Y91.197 E0.025
G1 X123.348 Y90.828 E0.014
G1 X124.117 Y90.827 E0.026
G1 X124.317 Y91.174 E0.013
G1 X124.401 Y91.171 E0.003
G1 X125.09 Y91.178 E0.023
G1 X124.886 Y90.826 E0.013
G1 X125.656 Y90.825 E0.026
G1 X125.864 Y91.186 E0.014
G1 X126.638 Y91.194 E0.025
G1 X126.425 Y90.824 E0.015
G1 X127.194 Y90.823 E0.025
G1 X127.415 Y91.207 E0.015
G1 X128.206 Y91.242 E0.026
G1 X127.824 Y90.581 E0.026
G1 X127.826 Y89.25 E0.044
G1 X128.996 Y91.277 E0.078
G1 X129.786 Y91.313 E0.026
G1 X127.827 Y87.92 E0.13
G1 X127.829 Y86.589 E0.045
G1 X130.586 Y91.365 E0.183
G1 X131.395 Y91.433 E0.027
G1 X127.83 Y85.259 E0.237
G1 Y85.189 E0.002
G1 X127.79 E0.002
G1 X127.557 Y84.785 E0.015
G1 X128.307 Y84.751 E0.025
G1 X132.204 Y91.501 E0.26
G1 X133.013 Y91.569 E0.027
G1 X129.058 Y84.718 E0.263
G1 X129.808 Y84.684 E0.025
G1 X133.675 Y91.382 E0.257
G1 X133.699 Y90.509 E0.029
G1 X133.941 E0.008
G1 X130.55 Y84.636 E0.226
G1 X131.284 Y84.575 E0.024
G1 X134.711 Y90.509 E0.228
G1 X135.48 E0.026
G1 X132.018 Y84.513 E0.23
G1 X132.033 Y84.511
G1 X132.752 Y84.451 E0.024
G1 X136.25 Y90.509 E0.233
G1 X136.305 E0.002
G1 X136.306 Y90.606 E0.003
G1 X137.139 Y92.048 E0.055
G1 X137.979 Y92.169 E0.029
G1 X134.122 Y85.49 E0.256
G1 X134.892 E0.026
G1 X138.43 Y91.618 E0.235
G1 Y90.285 E0.044
G1 X135.662 Y85.49 E0.185
G1 X136.305 E0.021
G1 X136.308 Y85.276 E0.007
G1 X138.43 Y88.951 E0.141
G1 Y87.618 E0.045
G1 X136.377 Y84.063 E0.136
G1 X137.089 Y83.962 E0.024
G1 X138.43 Y86.285 E0.089
G1 Y84.951 E0.045
G1 X137.801 Y83.862 E0.041
G1 F2100 E-0.5
G0 X138.301 Y84.728 F2400
G0 X137.801 Y83.862 F2400
;rapid-dry
G0 X133.678 Y84.72 F7200
G1 F2100 E0.5
;bead-support
G1 X133.486 Y84.389 F1320 E0.013
G1 F2100 E-0.5
G0 X133.678 Y84.72 F2400
G0 X133.486 Y84.389 F2400
;rapid-leaky
G0 X127.02 Y85.189 F7200
G1 F2100 E0.5
;bead-support
G1 X126.797 Y84.802 F1320 E0.015
G1 X126.032 Y84.81 E0.025
G1 X126.25 Y85.189 E0.015
G1 X125.481 E0.026
G1 X125.267 Y84.818 E0.014
G1 X124.501 Y84.826 E0.025
G1 X124.711 Y85.189 E0.014
G1 X123.941 E0.026
G1 X123.72 Y84.806 E0.015
G1 X122.937 Y84.782 E0.026
G1 X123.171 Y85.189 E0.015
G1 X122.401 E0.026
G1 X122.153 Y84.759 E0.016
G1 X121.369 Y84.735 E0.026
G1 X122.172 Y86.126 E0.054
G1 X122.178 Y87.468 E0.045
G1 X120.586 Y84.711 E0.105
G1 X120.548 Y84.71 E0.002
G1 X119.779 Y84.647 E0.025
G1 X122.183 Y88.811 E0.16
G1 F2100 E-0.5
G0 X121.683 Y87.945 F2400
G0 X122.183 Y88.811 F2400
;rapid-dry
G0 X123.099 Y87.73 F7200
G1 F2100 E0.5
;bead-support
G1 X123.023 Y87.599 F1320 E0.005
G1 X123.024 Y86.268 E0.045
G1 X123.094 Y86.388 E0.004
G1 X123.495 Y86.865 E0.021
G1 X123.523 Y86.849 E0.001
G1 X123.651 Y86.642 E0.008
G1 X124.4 Y86.185 E0.029
G1 X124.776 Y86.126 E0.013
G1 X124.952 Y86.024 E0.007
G1 F2100 E-0.5
G0 X124.776 Y86.126 F2400
G0 X124.4 Y86.185 F2400
G0 X124.044 Y86.402 F2400
G0 X124.4 Y86.185 F2400
G0 X124.776 Y86.126 F2400
G0 X124.952 Y86.024 F2400
;rapid-leaky
G0 X126.979 Y86.451 F7200
G1 F2100 E0.5
;bead-support
G1 X126.909 Y86.33 F1320 E0.004
G1 X126.907 Y87.66 E0.045
G1 X126.978 Y87.782 E0.004
G1 X126.976 Y89.113 E0.045
G1 X126.906 Y88.991 E0.004
G1 X126.905 Y89.904 E0.031
G1 X126.663 E0.008
G1 X126.705 Y89.977 E0.002
G1 X125.935 Y89.975 E0.026
G1 X125.894 Y89.905 E0.003
G1 X125.125 Y89.906 E0.025
G1 X125.164 Y89.974 E0.003
G1 X124.393 Y89.972 E0.026
G1 X124.356 Y89.907 E0.002
G1 X123.586 Y89.908 E0.026
G1 X123.623 Y89.971 E0.002
G1 F2100 E-0.5
G0 X123.586 Y89.908 F2400
G0 X124.356 Y89.907 F2400
G0 X124.393 Y89.972 F2400
G0 X124.476 F2400
G0 X124.393 F2400
G0 X124.356 Y89.907 F2400
G0 X123.586 Y89.908 F2400
G0 X123.623 Y89.971 F2400
;rapid-dry
G0 X133.819 Y101.634 F7200
G1 F2100 E0.5
;bead-perimeter_outer
G1 X134.162 Y101.958 F720 E0.016
G1 X134.476 Y102.308 E0.015
G1 X134.761 Y102.684 E0.016
G1 X135.015 Y103.081 E0.016
G1 X135.235 Y103.496 E0.015
G1 X135.421 Y103.93 E0.016
G1 X135.572 Y104.376 E0.016
G1 X135.692 Y104.869 E0.017
G1 X135.761 Y105.297 E0.014
G1 X135.8 Y105.767 E0.016
G1 Y106.239 E0.015
G1 X135.761 Y106.708 E0.016
G1 X135.686 Y107.173 E0.016
G1 X135.572 Y107.63 E0.015
G1 X135.421 Y108.077 E0.016
G1 X135.235 Y108.51 E0.016
G1 X135.015 Y108.925 E0.015
G1 X134.761 Y109.322 E0.016
G1 X134.476 Y109.697 E0.016
G1 X134.136 Y110.073 E0.017
G1 X133.82 Y110.372 E0.014
G1 X133.452 Y110.667 E0.016
G1 X133.063 Y110.932 E0.015
G1 X132.652 Y111.163 E0.016
G1 X132.224 Y111.361 E0.016
G1 X131.783 Y111.523 E0.015
G1 X131.328 Y111.65 E0.016
G1 X130.866 Y111.738 E0.016
G1 X130.397 Y111.789 E0.015
G1 X129.927 Y111.802 E0.016
G1 X129.456 Y111.777 E0.016
G1 X128.989 Y111.713 E0.015
G1 X128.529 Y111.611 E0.016
G1 X128.079 Y111.473 E0.016
G1 X127.641 Y111.299 E0.015
G1 X127.219 Y111.09 E0.016
G1 X126.816 Y110.847 E0.016
G1 X126.433 Y110.572 E0.016
G1 X126.011 Y110.215 E0.018
G1 X122.012 E0.133
G1 X121.903 Y110.195 E0.004
G1 X121.813 Y110.144 E0.003
G1 X121.724 Y110.017 E0.005
G1 X121.705 Y109.91 E0.004
G1 Y102.097 E0.26
G1 X121.711 Y102.033 E0.002
G1 X121.746 Y101.942 E0.003
G1 X121.856 Y101.832 E0.005
G1 X122.011 Y101.791 E0.006
G1 X126.011 E0.133
G1 X126.433 Y101.434 E0.018
G1 X126.847 Y101.139 E0.017
G1 X127.219 Y100.916 E0.014
G1 X127.642 Y100.707 E0.016
G1 X128.079 Y100.532 E0.016
G1 X128.563 Y100.386 E0.017
G1 X128.989 Y100.293 E0.014
G1 X129.456 Y100.229 E0.016
G1 X129.927 Y100.203 E0.015
G1 X130.397 Y100.217 E0.016
G1 X130.866 Y100.267 E0.016
G1 X131.328 Y100.356 E0.015
G1 X131.783 Y100.482 E0.016
G1 X132.224 Y100.645 E0.016
G1 X132.652 Y100.842 E0.015
G1 X133.062 Y101.074 E0.016
G1 X133.452 Y101.339 E0.016
G1 X133.819 Y101.634 E0.015
;rapid-leaky
G0 X133.583 Y101.905 F7200
;bead-perimeter_inner
G1 X133.903 Y102.209 F960 E0.015
G1 X134.198 Y102.538 E0.015
G1 X134.465 Y102.89 E0.014
G1 X134.704 Y103.263 E0.015
G1 X134.91 Y103.652 E0.015
G1 X135.085 Y104.058 E0.015
G1 X135.226 Y104.476 E0.014
G1 X135.339 Y104.94 E0.016
G1 X135.404 Y105.341 E0.014
G1 X135.44 Y105.782 E0.014
G1 Y106.224 E0.015
G1 X135.404 Y106.664 E0.015
G1 X135.333 Y107.1 E0.014
G1 X135.226 Y107.528 E0.015
G1 X135.085 Y107.948 E0.015
G1 X134.91 Y108.354 E0.014
G1 X134.704 Y108.743 E0.015
G1 X134.465 Y109.116 E0.015
G1 X134.199 Y109.467 E0.015
G1 X133.878 Y109.821 E0.015
G1 X133.583 Y110.1 E0.014
G1 X133.238 Y110.377 E0.015
G1 X132.873 Y110.626 E0.014
G1 X132.488 Y110.842 E0.015
G1 X132.086 Y111.028 E0.015
G1 X131.672 Y111.181 E0.014
G1 X131.246 Y111.299 E0.015
G1 X130.813 Y111.382 E0.015
G1 X130.373 Y111.43 E0.015
G1 X129.931 Y111.442 E0.014
G1 X129.49 Y111.418 E0.015
G1 X129.052 Y111.358 E0.015
G1 X128.621 Y111.263 E0.014
G1 X128.199 Y111.133 E0.015
G1 X127.788 Y110.97 E0.015
G1 X127.392 Y110.774 E0.014
G1 X127.014 Y110.546 E0.015
G1 X126.655 Y110.288 E0.015
G1 X126.143 Y109.855 E0.022
G1 X122.065 E0.136
G1 Y102.151 E0.256
G1 X126.143 E0.136
G1 X126.654 Y101.719 E0.022
G1 X127.044 Y101.441 E0.016
G1 X127.392 Y101.232 E0.013
G1 X127.788 Y101.036 E0.015
G1 X128.198 Y100.872 E0.015
G1 X128.654 Y100.734 E0.015
G1 X129.052 Y100.648 E0.014
G1 X129.49 Y100.588 E0.015
G1 X129.931 Y100.563 E0.014
G1 X130.373 Y100.576 E0.015
G1 X130.813 Y100.623 E0.015
G1 X131.246 Y100.707 E0.015
G1 X131.672 Y100.825 E0.014
G1 X132.087 Y100.978 E0.015
G1 X132.488 Y101.163 E0.015
G1 X132.872 Y101.38 E0.014
G1 X133.238 Y101.629 E0.015
G1 X133.583 Y101.905 E0.015
G1 F2100 E-0.5
;rapid-dry
G0 X132.785 Y102.854 F7200
G1 F2100 E0.5
;bead-perimeter_outer
G1 X132.457 Y102.592 F720 E0.014
G1 X132.105 Y102.366 E0.014
G1 X131.732 Y102.175 E0.014
G1 X131.343 Y102.021 E0.013
G1 X130.939 Y101.908 E0.014
G1 X130.527 Y101.835 E0.014
G1 X130.11 Y101.804 E0.014
G1 X129.691 Y101.814 E0.014
G1 X129.275 Y101.867 E0.014
G1 X128.868 Y101.959 E0.014
G1 X128.471 Y102.093 E0.014
G1 X128.089 Y102.265 E0.014
G1 X127.726 Y102.475 E0.014
G1 X127.386 Y102.719 E0.014
G1 X127.072 Y102.996 E0.014
G1 X126.788 Y103.303 E0.014
G1 X126.535 Y103.637 E0.013
G1 X126.316 Y103.994 E0.014
G1 X126.134 Y104.371 E0.014
G1 X125.992 Y104.765 E0.014
G1 X125.888 Y105.17 E0.014
G1 X125.826 Y105.585 E0.014
G1 X125.805 Y106.003 E0.014
G1 X125.826 Y106.421 E0.014
G1 X125.888 Y106.835 E0.014
G1 X125.992 Y107.241 E0.014
G1 X126.134 Y107.635 E0.014
G1 X126.316 Y108.012 E0.014
G1 X126.535 Y108.369 E0.014
G1 X126.788 Y108.703 E0.014
G1 X127.072 Y109.009 E0.013
G1 X127.386 Y109.287 E0.014
G1 X127.726 Y109.531 E0.014
G1 X128.089 Y109.74 E0.014
G1 X128.471 Y109.912 E0.014
G1 X128.868 Y110.046 E0.014
G1 X129.275 Y110.139 E0.014
G1 X129.691 Y110.192 E0.014
G1 X130.11 Y110.202 E0.014
G1 X130.527 Y110.171 E0.014
G1 X130.939 Y110.098 E0.014
G1 X131.343 Y109.985 E0.014
G1 X131.732 Y109.831 E0.014
G1 X132.105 Y109.64 E0.014
G1 X132.457 Y109.414 E0.013
G1 X132.785 Y109.152 E0.014
G1 X133.084 Y108.86 E0.014
G1 X133.353 Y108.539 E0.014
G1 X133.589 Y108.194 E0.014
G1 X133.789 Y107.825 E0.014
G1 X133.952 Y107.439 E0.014
G1 X134.075 Y107.039 E0.014
G1 X134.158 Y106.629 E0.014
G1 X134.2 Y106.212 E0.014
G1 Y105.793 E0.014
G1 X134.158 Y105.377 E0.014
G1 X134.075 Y104.967 E0.014
G1 X133.952 Y104.567 E0.013
G1 X133.789 Y104.18 E0.014
G1 X133.589 Y103.812 E0.014
G1 X133.353 Y103.467 E0.014
G1 X133.084 Y103.146 E0.014
G1 X132.785 Y102.854 E0.014
;rapid-leaky
G0 X133.023 Y102.584 F7200
;bead-perimeter_inner
G1 X132.667 Y102.3 F960 E0.015
G1 X132.285 Y102.053 E0.015
G1 X131.881 Y101.846 E0.015
G1 X131.458 Y101.68 E0.016
G1 X131.02 Y101.556 E0.015
G1 X130.572 Y101.478 E0.015
G1 X130.119 Y101.443 E0.015
G1 X129.664 Y101.455 E0.015
G1 X129.213 Y101.512 E0.015
G1 X128.771 Y101.612 E0.015
G1 X128.339 Y101.757 E0.015
G1 X127.924 Y101.944 E0.016
G1 X127.53 Y102.172 E0.015
G1 X127.162 Y102.437 E0.015
G1 X126.82 Y102.738 E0.015
G1 X126.511 Y103.072 E0.015
G1 X126.237 Y103.434 E0.015
G1 X126 Y103.822 E0.015
G1 X125.802 Y104.231 E0.015
G1 X125.647 Y104.659 E0.016
G1 X125.534 Y105.099 E0.015
G1 X125.467 Y105.549 E0.015
G1 X125.444 Y106.003 E0.015
G1 X125.467 Y106.457 E0.015
G1 X125.534 Y106.906 E0.015
G1 X125.647 Y107.347 E0.015
G1 X125.802 Y107.775 E0.015
G1 X126 Y108.184 E0.016
G1 X126.237 Y108.572 E0.015
G1 X126.512 Y108.935 E0.015
G1 X126.82 Y109.267 E0.015
G1 X127.161 Y109.568 E0.015
G1 X127.531 Y109.834 E0.015
G1 X127.924 Y110.061 E0.015
G1 X128.339 Y110.248 E0.015
G1 X128.77 Y110.393 E0.016
G1 X129.212 Y110.494 E0.015
G1 X129.664 Y110.551 E0.015
G1 X130.119 Y110.563 E0.015
G1 X130.572 Y110.528 E0.015
G1 X131.02 Y110.45 E0.015
G1 X131.458 Y110.326 E0.015
G1 X131.881 Y110.16 E0.015
G1 X132.285 Y109.953 E0.015
G1 X132.667 Y109.706 E0.016
G1 X133.023 Y109.422 E0.015
G1 X133.348 Y109.105 E0.015
G1 X133.64 Y108.757 E0.015
G1 X133.896 Y108.382 E0.015
G1 X134.114 Y107.981 E0.015
G1 X134.291 Y107.563 E0.015
G1 X134.424 Y107.128 E0.015
G1 X134.514 Y106.683 E0.016
G1 X134.56 Y106.23 E0.015
G1 Y105.775 E0.015
G1 X134.514 Y105.323 E0.015
G1 X134.424 Y104.878 E0.015
G1 X134.291 Y104.444 E0.015
G1 X134.114 Y104.024 E0.015
G1 X133.896 Y103.624 E0.015
G1 X133.64 Y103.25 E0.016
G1 X133.348 Y102.901 E0.015
G1 X133.023 Y102.584 E0.015
G1 F2100 E-0.5
;rapid-dry
G0 X148.863 Y83.956 F7200
G1 F2100 E0.5
;bead-perimeter_outer
G1 X148.466 Y84.09 F720 E0.014
G1 X148.084 Y84.262 E0.014
G1 X147.721 Y84.471 E0.014
G1 X147.381 Y84.715 E0.014
G1 X147.067 Y84.993 E0.013
G1 X146.783 Y85.299 E0.014
G1 X146.53 Y85.633 E0.014
G1 X146.311 Y85.99 E0.014
G1 X146.129 Y86.367 E0.014
G1 X145.987 Y86.761 E0.014
G1 X145.883 Y87.167 E0.014
G1 X145.821 Y87.581 E0.014
G1 X145.8 Y87.999 E0.014
G1 X145.821 Y88.417 E0.014
G1 X145.883 Y88.832 E0.014
G1 X145.987 Y89.237 E0.014
G1 X146.129 Y89.631 E0.014
G1 X146.311 Y90.008 E0.013
G1 X146.53 Y90.365 E0.014
G1 X146.783 Y90.699 E0.014
G1 X147.067 Y91.006 E0.014
G1 X147.381 Y91.283 E0.014
G1 X147.721 Y91.527 E0.014
G1 X148.084 Y91.737 E0.014
G1 X148.466 Y91.909 E0.014
G1 X148.863 Y92.043 E0.014
G1 X149.27 Y92.135 E0.014
G1 X149.686 Y92.188 E0.014
G1 X150.105 Y92.198 E0.014
G1 X150.522 Y92.167 E0.014
G1 X150.934 Y92.094 E0.014
G1 X151.338 Y91.981 E0.013
G1 X151.727 Y91.827 E0.014
G1 X152.1 Y91.636 E0.014
G1 X152.452 Y91.41 E0.014
G1 X152.78 Y91.148 E0.014
G1 X153.079 Y90.856 E0.014
G1 X153.349 Y90.535 E0.014
G1 X153.584 Y90.189 E0.014
G1 X153.784 Y89.822 E0.014
G1 X153.947 Y89.435 E0.014
G1 X154.07 Y89.035 E0.014
G1 X154.153 Y88.625 E0.014
G1 X154.195 Y88.209 E0.014
G1 Y87.79 E0.014
G1 X154.153 Y87.373 E0.013
G1 X154.07 Y86.963 E0.014
G1 X153.947 Y86.563 E0.014
G1 X153.784 Y86.177 E0.014
G1 X153.584 Y85.809 E0.014
G1 X153.348 Y85.463 E0.014
G1 X153.057 Y85.12 E0.015
G1 X152.779 Y84.85 E0.013
G1 X152.452 Y84.588 E0.014
G1 X152.1 Y84.362 E0.014
G1 X151.727 Y84.171 E0.014
G1 X151.338 Y84.017 E0.014
G1 X150.934 Y83.904 E0.014
G1 X150.522 Y83.831 E0.014
G1 X150.105 Y83.8 E0.013
G1 X149.686 Y83.81 E0.014
G1 X149.27 Y83.863 E0.014
G1 X148.863 Y83.956 E0.014
;rapid-leaky
G0 X148.765 Y83.609 F7200
;bead-perimeter_inner
G1 X148.334 Y83.754 F960 E0.015
G1 X147.919 Y83.941 E0.015
G1 X147.526 Y84.168 E0.016
G1 X147.156 Y84.434 E0.015
G1 X146.815 Y84.735 E0.015
G1 X146.507 Y85.068 E0.015
G1 X146.232 Y85.43 E0.015
G1 X145.995 Y85.818 E0.015
G1 X145.797 Y86.227 E0.015
G1 X145.642 Y86.655 E0.015
G1 X145.529 Y87.096 E0.016
G1 X145.462 Y87.545 E0.015
G1 X145.439 Y87.999 E0.015
G1 X145.462 Y88.453 E0.015
G1 X145.529 Y88.903 E0.015
G1 X145.642 Y89.343 E0.015
G1 X145.797 Y89.771 E0.015
G1 X145.995 Y90.18 E0.015
G1 X146.232 Y90.568 E0.016
G1 X146.506 Y90.93 E0.015
G1 X146.815 Y91.264 E0.015
G1 X147.157 Y91.565 E0.015
G1 X147.525 Y91.83 E0.015
G1 X147.919 Y92.058 E0.015
G1 X148.334 Y92.245 E0.015
G1 X148.766 Y92.39 E0.015
G1 X149.208 Y92.49 E0.015
G1 X149.659 Y92.547 E0.016
G1 X150.114 Y92.559 E0.015
G1 X150.567 Y92.524 E0.015
G1 X151.015 Y92.446 E0.015
G1 X151.453 Y92.322 E0.015
G1 X151.876 Y92.156 E0.015
G1 X152.28 Y91.949 E0.015
G1 X152.662 Y91.702 E0.015
G1 X153.018 Y91.418 E0.016
G1 X153.343 Y91.101 E0.015
G1 X153.636 Y90.753 E0.015
G1 X153.891 Y90.377 E0.015
G1 X154.109 Y89.978 E0.015
G1 X154.286 Y89.558 E0.015
G1 X154.419 Y89.124 E0.015
G1 X154.509 Y88.679 E0.015
G1 X154.555 Y88.227 E0.016
G1 Y87.772 E0.015
G1 X154.509 Y87.319 E0.015
G1 X154.419 Y86.874 E0.015
G1 X154.286 Y86.439 E0.015
G1 X154.109 Y86.021 E0.015
G1 X153.892 Y85.621 E0.015
G1 X153.635 Y85.244 E0.015
G1 X153.321 Y84.874 E0.017
G1 X153.018 Y84.58 E0.014
G1 X152.662 Y84.296 E0.015
G1 X152.28 Y84.049 E0.015
G1 X151.876 Y83.842 E0.015
G1 X151.453 Y83.676 E0.015
G1 X151.015 Y83.552 E0.015
G1 X150.567 Y83.474 E0.015
G1 X150.114 Y83.439 E0.016
G1 X149.659 Y83.451 E0.015
G1 X149.207 Y83.508 E0.015
G1 X148.765 Y83.609 E0.015
G1 F2100 E-0.5
;rapid-dry
G0 X148.216 Y81.437 F7200
G1 F2100 E0.5
;bead-perimeter_outer
G1 X148.713 Y81.323 F720 E0.017
G1 X149.216 Y81.245 E0.017
G1 X149.724 Y81.205 E0.017
G1 X150.234 Y81.203 E0.017
G1 X150.742 Y81.24 E0.017
G1 X151.246 Y81.315 E0.017
G1 X151.743 Y81.426 E0.017
G1 X152.23 Y81.575 E0.016
G1 X152.705 Y81.76 E0.017
G1 X153.198 Y81.999 E0.019
G1 X153.606 Y82.235 E0.015
G1 X154.027 Y82.52 E0.017
G1 X154.427 Y82.838 E0.017
G1 X154.801 Y83.184 E0.017
G1 X155.148 Y83.557 E0.017
G1 X155.466 Y83.954 E0.017
G1 X155.754 Y84.375 E0.017
G1 X156.009 Y84.816 E0.017
G1 X156.231 Y85.275 E0.017
G1 X156.417 Y85.749 E0.017
