;deget mare
;Printer name: Prusa i3 MK3
;TIME:3042
;Print time: 50m:42s
;Extruder 1 material used: 2520mm
;Extruder 1 material name: 
;Extruder 1 filament diameter: 1.75mm
;Extruder 1 nozzle diameter: 0.4mm
;Extruder 1 offset x: 0mm
;Extruder 1 offset y: 0mm
;Extruder 1 offset z: 0mm
;Extruder 1 max temp: 200
;Bed temp: 70
;Layer count: 112
;Width: 250mm
;Depth: 210mm
;Height: 210mm
;Center x: 125mm
;Center y: 105mm
;Center z: 0mm
;Count of bodies: 2
;Fusion version: 2.0.19440
G21
M115 U3.0.10 ;tell printer latest fw version
G28 W ;home all without mesh bed level
;--------------------------------
;Selected Profile: PLA Direct Drive
;--------------------------------
;Selected Printer: Prusa, i3 MK3
;--------------------------------
T0
M140 S70
M104 S200 T0
M190 S70
M109 S200 T0
G80 ;mesh bed leveling
G92 E0
G90
M83
G0 X10 Y10 Z10 F7200
G92 E0
;--------------------------------
;Part 1
;LAYER_COUNT:112
;LAYER:1
M107
;rapid-leaky
G0 X20 Y20.5 Z0.2 F7200
;bead-prime
G1 X120 F720 E8.315
G1 F2100 E-0.5
;rapid-dry
G0 X138.433 Y82.961 F7200
G1 F2100 E0.5
;bead-skirt/brim
G1 X151.879 Y80.591 F960 E0.454
G1 X151.943 Y80.388 E0.007
G1 X153.359 Y80.408 E0.047
G1 X155.398 Y80.156 E0.069
G1 X155.45 Y80.437 E0.009
G1 X156.487 Y80.452 E0.035
G1 X156.737 Y81.748 E0.044
G1 X158.448 Y82.29 E0.059
G1 X160.117 Y83.23 E0.064
G1 X160.465 Y83.558 E0.016
G1 X160.935 Y83.361 E0.017
G1 X161.653 Y84.677 E0.05
G1 X164.366 Y87.234 E0.124
G1 X162.858 Y87.75 E0.053
G1 X162.934 Y88.079 E0.011
G1 X162.704 Y90.713 E0.088
G1 X162.928 Y90.989 E0.012
G1 X163.534 Y92.149 E0.043
G1 X163.881 Y93.362 E0.042
G1 X163.969 Y94.648 E0.043
G1 X163.793 Y95.923 E0.043
G1 X163.376 Y97.135 E0.042
G1 X162.755 Y98.245 E0.043
G1 X161.962 Y99.244 E0.042
G1 X161.023 Y100.129 E0.043
G1 X159.971 Y100.885 E0.043
G1 X158.791 Y101.533 E0.045
G1 X156.983 Y102.216 E0.064
G1 X155.715 Y102.508 E0.044
G1 X142.341 Y104.866 E0.451
G1 X141.987 Y103.046 E0.062
G1 X137.76 Y103.396 E0.141
G1 X131.796 Y104.206 E0.2
G1 X124.577 Y105.493 E0.244
G1 X124.559 Y105.413 E0.003
G1 X121.379 Y106.12 E0.108
G1 X120.112 Y106.451 E0.044
G1 X120.142 Y106.568 E0.004
G1 X113.801 Y108.411 E0.219
G1 X98.992 Y111.022 E0.501
G1 X100.739 Y111.861 E0.064
G1 X101.663 Y112.597 E0.039
G1 X105.992 Y113.28 E0.146
G1 X109.243 Y113.633 E0.109
G1 X114.172 Y113.902 E0.164
G1 X117.407 Y113.894 E0.108
G1 X122.327 Y113.604 E0.163
G1 X125.03 Y113.279 E0.091
G1 Y111.398 E0.063
G1 X135.721 Y111.399 E0.355
G1 X136.324 Y111.425 E0.02
G1 X137.008 Y111.507 E0.023
G1 X137.689 Y111.645 E0.023
G1 X138.354 Y111.839 E0.023
G1 X139 Y112.083 E0.023
G1 X139.629 Y112.381 E0.023
G1 X140.228 Y112.728 E0.023
G1 X140.798 Y113.12 E0.023
G1 X141.337 Y113.561 E0.024
G1 X141.833 Y114.039 E0.023
G1 X142.293 Y114.557 E0.023
G1 X142.71 Y115.113 E0.023
G1 X143.079 Y115.696 E0.023
G1 X143.402 Y116.31 E0.023
G1 X143.673 Y116.948 E0.023
G1 X143.892 Y117.605 E0.023
G1 X144.059 Y118.278 E0.023
G1 X144.169 Y118.962 E0.023
G1 X144.225 Y119.651 E0.023
G1 Y120.345 E0.023
G1 X144.169 Y121.034 E0.023
G1 X144.058 Y121.724 E0.023
G1 X143.879 Y122.432 E0.025
G1 X143.673 Y123.049 E0.021
G1 X143.402 Y123.686 E0.023
G1 X143.079 Y124.3 E0.023
G1 X142.71 Y124.883 E0.023
G1 X142.293 Y125.439 E0.023
G1 X141.833 Y125.957 E0.023
G1 X141.337 Y126.435 E0.023
G1 X140.798 Y126.875 E0.023
G1 X140.228 Y127.268 E0.023
G1 X139.623 Y127.618 E0.024
G1 X138.959 Y127.928 E0.024
G1 X138.354 Y128.157 E0.022
G1 X137.689 Y128.351 E0.023
G1 X137.011 Y128.488 E0.023
G1 X136.323 Y128.573 E0.023
G1 X135.681 Y128.598 E0.021
G1 X125.03 E0.354
G1 Y126.723 E0.063
G1 X122.324 Y126.392 E0.09
G1 X117.407 Y126.102 E0.164
G1 X114.172 Y126.094 E0.108
G1 X109.243 Y126.363 E0.164
G1 X105.992 Y126.716 E0.109
G1 X101.662 Y127.4 E0.145
G1 X100.739 Y128.135 E0.04
G1 X98.8 Y129.066 E0.071
G1 X96.702 Y129.544 E0.072
G1 X94.557 E0.071
G1 X92.508 Y129.078 E0.07
G1 X91.146 Y128.484 E0.05
G1 X89.93 Y127.719 E0.047
G1 X88.808 Y126.754 E0.05
G1 X87.526 Y125.147 E0.068
G1 X86.81 Y123.791 E0.051
G1 X86.206 Y121.832 E0.068
G1 X86.04 Y120.358 E0.049
G1 X86.095 Y118.877 E0.05
G1 X86.55 Y116.876 E0.068
G1 X87.164 Y115.47 E0.051
G1 X88.348 Y113.733 E0.07
G1 X89.891 Y112.302 E0.07
G1 X91.146 Y111.512 E0.049
G1 X92.508 Y110.918 E0.05
G1 X92.663 Y110.883 E0.005
G1 X91.367 Y110.405 E0.046
G1 X90.061 Y109.621 E0.051
G1 X88.496 Y108.232 E0.069
G1 X87.275 Y106.528 E0.07
G1 X86.635 Y105.146 E0.051
G1 X86.13 Y103.169 E0.067
G1 X86.038 Y101.692 E0.05
G1 X86.161 Y100.268 E0.047
G1 X86.491 Y98.882 E0.048
G1 X87.03 Y97.554 E0.047
G1 X87.754 Y96.326 E0.048
G1 X88.656 Y95.216 E0.047
G1 X89.708 Y94.255 E0.048
G1 X90.896 Y93.458 E0.047
G1 X92.231 Y92.826 E0.049
G1 X94.205 Y92.309 E0.068
G1 X95.681 Y92.207 E0.049
G1 X95.781 Y92.215 E0.004
G1 Y92.172 E0.001
G1 X103.411 Y90.826 E0.258
G1 X103.81 Y92.642 E0.062
G1 X110.047 Y89.409 E0.233
G1 X114.489 Y89.114 E0.148
G1 X120.434 Y88.557 E0.199
G1 X120.477 Y88.69 E0.005
G1 X120.595 Y88.675 E0.004
G1 X120.578 Y88.547 E0.004
G1 X128.177 Y87.349 E0.256
G1 X128.196 Y87.407 E0.002
G1 X128.185 Y87.352 E0.002
G1 X134.299 Y85.988 E0.208
G1 X138.756 Y84.813 E0.153
G1 X138.433 Y82.961 E0.063
;rapid-leaky
G0 X138.896 Y83.286 F7200
;bead-skirt/brim
G1 X151.901 Y80.992 F960 E0.439
G1 X152.182 Y80.957 E0.009
G1 X152.234 Y80.792 E0.006
G1 X153.381 Y80.808 E0.038
G1 X155.073 Y80.599 E0.057
G1 X155.116 Y80.833 E0.008
G1 X156.156 Y80.847 E0.034
G1 X156.395 Y82.081 E0.042
G1 X156.51 Y82.095 E0.004
G1 X158.288 Y82.659 E0.062
G1 X159.878 Y83.555 E0.061
G1 X160.38 Y84.027 E0.023
G1 X160.757 Y83.869 E0.013
G1 X161.332 Y84.925 E0.04
G1 X163.609 Y87.07 E0.104
G1 X162.386 Y87.489 E0.043
G1 X162.53 Y88.107 E0.022
G1 X162.313 Y90.587 E0.082
G1 X162.173 Y90.694 E0.006
G1 X162.592 Y91.21 E0.022
G1 X163.16 Y92.299 E0.041
G1 X163.485 Y93.432 E0.039
G1 X163.567 Y94.635 E0.04
G1 X163.402 Y95.83 E0.041
G1 X163.009 Y96.971 E0.04
G1 X162.421 Y98.022 E0.04
G1 X161.666 Y98.973 E0.04
G1 X160.768 Y99.819 E0.041
G1 X159.757 Y100.546 E0.042
G1 X158.623 Y101.169 E0.043
G1 X156.867 Y101.833 E0.062
G1 X155.636 Y102.116 E0.042
G1 X142.659 Y104.404 E0.438
G1 X142.312 Y102.617 E0.061
G1 X137.716 Y102.998 E0.153
G1 X131.734 Y103.811 E0.201
G1 X124.882 Y105.032 E0.232
G1 X124.861 Y104.936 E0.003
G1 X121.285 Y105.731 E0.122
G1 X119.626 Y106.165 E0.057
G1 X119.659 Y106.292 E0.004
G1 X113.71 Y108.021 E0.206
G1 X98.285 Y110.741 E0.521
G1 X98.249 Y110.572 E0.006
G1 X97.531 Y110.807 E0.025
G1 X96.78 Y110.88 E0.025
G1 X98.664 Y111.309 E0.064
G1 X100.525 Y112.202 E0.069
G1 X101.496 Y112.975 E0.041
G1 X105.939 Y113.677 E0.15
G1 X109.211 Y114.031 E0.109
G1 X114.161 Y114.302 E0.165
G1 X117.42 Y114.294 E0.109
G1 X122.363 Y114.003 E0.164
G1 X125.43 Y113.634 E0.103
G1 Y111.798 E0.061
G1 X135.713 Y111.799 E0.342
G1 X136.292 Y111.824 E0.019
G1 X136.944 Y111.902 E0.022
G1 X137.593 Y112.034 E0.022
G1 X138.228 Y112.219 E0.022
G1 X138.844 Y112.452 E0.022
G1 X139.443 Y112.736 E0.022
G1 X140.014 Y113.066 E0.022
G1 X140.558 Y113.441 E0.022
G1 X141.071 Y113.861 E0.022
G1 X141.544 Y114.316 E0.022
G1 X141.983 Y114.81 E0.022
G1 X142.381 Y115.34 E0.022
G1 X142.732 Y115.896 E0.022
G1 X143.04 Y116.482 E0.022
G1 X143.299 Y117.09 E0.022
G1 X143.508 Y117.716 E0.022
G1 X143.666 Y118.358 E0.022
G1 X143.772 Y119.01 E0.022
G1 X143.825 Y119.667 E0.022
G1 Y120.329 E0.022
G1 X143.772 Y120.986 E0.022
G1 X143.666 Y121.643 E0.022
G1 X143.495 Y122.32 E0.023
G1 X143.299 Y122.907 E0.021
G1 X143.04 Y123.514 E0.022
G1 X142.732 Y124.1 E0.022
G1 X142.381 Y124.655 E0.021
G1 X141.983 Y125.186 E0.022
G1 X141.544 Y125.68 E0.022
G1 X141.071 Y126.136 E0.022
G1 X140.558 Y126.555 E0.022
G1 X140.014 Y126.93 E0.022
G1 X139.438 Y127.263 E0.022
G1 X138.804 Y127.559 E0.024
G1 X138.227 Y127.777 E0.02
G1 X137.593 Y127.962 E0.022
G1 X136.947 Y128.093 E0.022
G1 X136.291 Y128.174 E0.022
G1 X135.673 Y128.198 E0.021
G1 X125.43 E0.34
G1 Y126.369 E0.061
G1 X122.36 Y125.993 E0.103
G1 X117.42 Y125.702 E0.165
G1 X114.161 Y125.694 E0.108
G1 X109.211 Y125.965 E0.165
G1 X105.939 Y126.319 E0.109
G1 X101.496 Y127.022 E0.15
G1 X100.525 Y127.794 E0.041
G1 X98.668 Y128.686 E0.069
G1 X96.657 Y129.144 E0.068
G1 X94.602 E0.069
G1 X92.633 Y128.696 E0.067
G1 X91.334 Y128.129 E0.047
G1 X90.168 Y127.396 E0.046
G1 X89.097 Y126.476 E0.047
G1 X87.862 Y124.927 E0.066
G1 X87.181 Y123.637 E0.048
G1 X86.599 Y121.749 E0.066
G1 X86.44 Y120.343 E0.047
G1 X86.493 Y118.929 E0.047
G1 X86.932 Y117.001 E0.066
G1 X87.515 Y115.664 E0.048
G1 X88.653 Y113.996 E0.067
G1 X90.136 Y112.62 E0.068
G1 X91.334 Y111.867 E0.047
G1 X92.633 Y111.3 E0.047
G1 X94.487 Y110.878 E0.063
G1 X93.43 Y110.739 E0.036
G1 X91.541 Y110.043 E0.067
G1 X90.299 Y109.297 E0.048
G1 X88.795 Y107.963 E0.067
G1 X87.622 Y106.326 E0.067
G1 X87.013 Y105.011 E0.048
G1 X86.527 Y103.107 E0.065
G1 X86.439 Y101.697 E0.047
G1 X86.557 Y100.332 E0.046
G1 X86.873 Y99.004 E0.045
G1 X87.389 Y97.732 E0.046
G1 X88.083 Y96.555 E0.045
G1 X88.948 Y95.492 E0.046
G1 X89.956 Y94.571 E0.045
G1 X91.094 Y93.807 E0.046
G1 X92.368 Y93.204 E0.047
G1 X94.27 Y92.706 E0.065
G1 X95.679 Y92.608 E0.047
G1 X96.181 Y92.648 E0.017
G1 Y92.508 E0.005
G1 X103.102 Y91.287 E0.233
G1 X103.505 Y93.114 E0.063
G1 X103.905 Y93.043 E0.013
G1 X110.157 Y89.802 E0.234
G1 X114.52 Y89.513 E0.146
G1 X120.152 Y88.985 E0.188
G1 X120.199 Y89.131 E0.005
G1 X121.044 Y89.018 E0.028
G1 X121.026 Y88.881 E0.005
G1 X127.901 Y87.797 E0.231
G1 X127.945 Y87.931 E0.005
G1 X128.677 Y87.787 E0.025
G1 X128.652 Y87.658 E0.004
G1 X134.394 Y86.376 E0.196
G1 X139.213 Y85.106 E0.166
G1 X138.896 Y83.286 E0.061
;rapid-leaky
G0 X139.358 Y83.61 F7200
;bead-skirt/brim
G1 X151.96 Y81.387 F960 E0.426
G1 X152.485 Y81.322 E0.017
G1 X152.525 Y81.197 E0.005
G1 X153.403 Y81.209 E0.029
G1 X154.748 Y81.042 E0.045
G1 X154.783 Y81.228 E0.006
G1 X155.825 Y81.243 E0.035
G1 X156.057 Y82.441 E0.041
G1 X156.424 Y82.487 E0.012
G1 X158.127 Y83.027 E0.059
G1 X159.64 Y83.879 E0.058
G1 X160.294 Y84.496 E0.03
G1 X160.578 Y84.378 E0.01
G1 X161.012 Y85.172 E0.03
G1 X162.852 Y86.906 E0.084
G1 X161.915 Y87.227 E0.033
G1 X162.126 Y88.136 E0.031
G1 X161.93 Y90.376 E0.075
G1 X161.603 Y90.626 E0.014
G1 X162.256 Y91.43 E0.034
G1 X162.787 Y92.448 E0.039
G1 X163.089 Y93.501 E0.036
G1 X163.165 Y94.621 E0.037
G1 X163.011 Y95.736 E0.038
G1 X162.643 Y96.807 E0.037
G1 X162.088 Y97.798 E0.038
G1 X161.371 Y98.702 E0.039
G1 X160.513 Y99.51 E0.039
G1 X159.543 Y100.207 E0.04
G1 X158.455 Y100.805 E0.041
G1 X156.751 Y101.449 E0.06
G1 X155.556 Y101.724 E0.041
G1 X142.977 Y103.942 E0.425
G1 X142.636 Y102.189 E0.059
G1 X137.673 Y102.6 E0.166
G1 X131.672 Y103.416 E0.201
G1 X125.188 Y104.571 E0.22
G1 X125.162 Y104.459 E0.003
G1 X121.191 Y105.342 E0.136
G1 X119.14 Y105.878 E0.07
G1 X119.175 Y106.016 E0.005
G1 X113.62 Y107.631 E0.192
G1 X98.595 Y110.28 E0.508
G1 X98.546 Y110.053 E0.007
G1 X97.449 Y110.413 E0.039
G1 X95.476 Y110.604 E0.066
G1 X93.526 Y110.348 E0.065
G1 X91.715 Y109.68 E0.064
G1 X90.536 Y108.973 E0.046
G1 X89.094 Y107.693 E0.064
G1 X87.969 Y106.123 E0.065
G1 X87.392 Y104.877 E0.045
G1 X86.924 Y103.044 E0.063
G1 X86.84 Y101.701 E0.045
G1 X86.953 Y100.396 E0.043
G1 X87.256 Y99.126 E0.044
G1 X87.749 Y97.91 E0.044
G1 X88.412 Y96.784 E0.043
G1 X89.24 Y95.767 E0.044
G1 X90.203 Y94.886 E0.043
G1 X91.293 Y94.156 E0.044
G1 X92.506 Y93.581 E0.044
G1 X94.335 Y93.102 E0.063
G1 X95.677 Y93.009 E0.045
G1 X96.582 Y93.081 E0.03
G1 Y92.843 E0.008
G1 X102.794 Y91.748 E0.21
G1 X103.196 Y93.574 E0.062
G1 X104.035 Y93.426 E0.028
G1 X110.267 Y90.196 E0.234
G1 X114.552 Y89.912 E0.143
G1 X119.87 Y89.413 E0.177
G1 X119.921 Y89.572 E0.006
G1 X121.494 Y89.362 E0.053
G1 X121.474 Y89.216 E0.005
G1 X127.626 Y88.245 E0.207
G1 X127.673 Y88.391 E0.005
G1 X129.145 Y88.103 E0.05
G1 X129.118 Y87.963 E0.004
G1 X134.488 Y86.765 E0.183
G1 X139.67 Y85.4 E0.179
G1 X139.358 Y83.61 E0.06
;rapid-leaky
G0 X139.821 Y83.935 F7200
;bead-skirt/brim
G1 X152.019 Y81.783 F960 E0.412
G1 X152.789 Y81.688 E0.026
G1 X152.816 Y81.601 E0.003
G1 X153.425 Y81.609 E0.02
G1 X154.423 Y81.486 E0.034
G1 X154.449 Y81.623 E0.004
G1 X155.494 Y81.638 E0.035
G1 X155.719 Y82.802 E0.039
G1 X156.338 Y82.88 E0.021
G1 X157.967 Y83.396 E0.057
G1 X159.401 Y84.204 E0.055
G1 X160.209 Y84.966 E0.037
G1 X160.4 Y84.886 E0.007
G1 X160.691 Y85.419 E0.02
G1 X162.095 Y86.743 E0.064
G1 X161.444 Y86.966 E0.023
G1 X161.722 Y88.164 E0.041
G1 X161.547 Y90.166 E0.067
G1 X160.978 Y90.602 E0.023
G1 X161.231 Y90.803 E0.011
G1 X161.92 Y91.651 E0.037
G1 X162.414 Y92.597 E0.035
G1 X162.693 Y93.571 E0.034
G1 X162.764 Y94.607 E0.034
G1 X162.62 Y95.643 E0.035
G1 X162.276 Y96.643 E0.035
G1 X161.755 Y97.575 E0.036
G1 X161.076 Y98.431 E0.036
G1 X160.258 Y99.201 E0.037
G1 X159.329 Y99.868 E0.038
G1 X158.287 Y100.441 E0.04
G1 X156.635 Y101.065 E0.059
G1 X155.477 Y101.331 E0.039
G1 X143.294 Y103.48 E0.412
G1 X142.96 Y101.761 E0.058
G1 X137.629 Y102.202 E0.178
G1 X131.61 Y103.02 E0.202
G1 X125.494 Y104.111 E0.207
G1 X125.464 Y103.982 E0.004
G1 X121.097 Y104.953 E0.149
G1 X118.654 Y105.592 E0.084
G1 X118.692 Y105.74 E0.005
G1 X113.529 Y107.241 E0.179
G1 X98.905 Y109.819 E0.494
G1 X98.844 Y109.535 E0.009
G1 X97.366 Y110.02 E0.052
G1 X95.483 Y110.202 E0.063
G1 X93.623 Y109.958 E0.062
G1 X91.888 Y109.318 E0.062
G1 X90.774 Y108.649 E0.043
G1 X89.393 Y107.424 E0.061
G1 X88.316 Y105.921 E0.062
G1 X87.77 Y104.742 E0.043
G1 X87.321 Y102.982 E0.061
G1 X87.241 Y101.706 E0.042
G1 X87.349 Y100.46 E0.042
G1 X87.638 Y99.248 E0.041
G1 X88.108 Y98.087 E0.042
G1 X88.741 Y97.013 E0.041
G1 X89.531 Y96.042 E0.042
G1 X90.451 Y95.202 E0.041
G1 X91.491 Y94.504 E0.042
G1 X92.643 Y93.959 E0.042
G1 X94.4 Y93.498 E0.061
G1 X95.675 Y93.41 E0.042
G1 X96.982 Y93.52 E0.044
G1 Y93.179 E0.011
G1 X102.486 Y92.208 E0.186
G1 X102.888 Y94.035 E0.062
G1 X104.165 Y93.81 E0.043
G1 X110.376 Y90.589 E0.233
G1 X114.584 Y90.31 E0.14
G1 X119.588 Y89.841 E0.168
G1 X119.643 Y90.012 E0.006
G1 X121.943 Y89.705 E0.077
G1 X121.922 Y89.55 E0.005
G1 X127.351 Y88.694 E0.183
G1 X127.402 Y88.852 E0.005
G1 X129.614 Y88.419 E0.075
G1 X129.585 Y88.269 E0.005
G1 X134.583 Y87.154 E0.171
G1 X140.127 Y85.693 E0.19
G1 X139.821 Y83.935 E0.06
;rapid-leaky
G0 X140.283 Y84.26 F7200
;bead-skirt/brim
G1 X152.079 Y82.179 F960 E0.398
G1 X153.092 Y82.053 E0.034
G1 X153.107 Y82.005 E0.002
G1 X153.447 Y82.009 E0.011
G1 X154.098 Y81.929 E0.022
G1 X154.115 Y82.019 E0.003
G1 X155.163 Y82.033 E0.035
G1 X155.382 Y83.163 E0.038
G1 X156.252 Y83.272 E0.029
G1 X157.807 Y83.765 E0.054
G1 X159.162 Y84.529 E0.052
G1 X160.124 Y85.435 E0.044
G1 X160.222 Y85.394 E0.004
G1 X160.37 Y85.667 E0.01
G1 X161.338 Y86.579 E0.044
G1 X160.942 Y86.715 E0.014
G1 X160.999 Y86.82 E0.004
G1 X161.318 Y88.193 E0.047
G1 X161.164 Y89.955 E0.059
G1 X160.327 Y90.596 E0.035
G1 X160.948 Y91.089 E0.026
G1 X161.584 Y91.872 E0.034
G1 X162.04 Y92.746 E0.033
G1 X162.296 Y93.64 E0.031
G1 X162.362 Y94.593 E0.031
G1 X162.229 Y95.549 E0.032
G1 X161.909 Y96.479 E0.033
G1 X161.421 Y97.352 E0.033
G1 X160.78 Y98.159 E0.035
G1 X160.003 Y98.891 E0.035
G1 X159.115 Y99.529 E0.037
G1 X158.12 Y100.076 E0.037
G1 X156.519 Y100.681 E0.057
G1 X155.397 Y100.939 E0.039
G1 X143.612 Y103.017 E0.398
G1 X143.284 Y101.333 E0.057
G1 X137.586 Y101.805 E0.19
G1 X131.548 Y102.625 E0.203
G1 X125.799 Y103.65 E0.194
G1 X125.766 Y103.505 E0.005
G1 X121.003 Y104.564 E0.162
G1 X118.168 Y105.306 E0.097
G1 X118.209 Y105.464 E0.006
G1 X113.438 Y106.85 E0.165
G1 X99.215 Y109.358 E0.48
G1 X99.132 Y108.972 E0.014
G1 X98.959 Y109.076 E0.006
G1 X97.284 Y109.626 E0.059
G1 X95.49 Y109.799 E0.06
G1 X93.719 Y109.567 E0.059
G1 X92.062 Y108.956 E0.059
G1 X91.012 Y108.326 E0.041
G1 X89.692 Y107.155 E0.058
G1 X88.663 Y105.719 E0.059
G1 X88.149 Y104.608 E0.041
G1 X87.718 Y102.919 E0.058
G1 X87.642 Y101.711 E0.04
G1 X87.745 Y100.524 E0.04
G1 X88.02 Y99.371 E0.039
G1 X88.468 Y98.265 E0.04
G1 X89.071 Y97.242 E0.039
G1 X89.823 Y96.318 E0.04
G1 X90.699 Y95.517 E0.039
G1 X91.689 Y94.853 E0.04
G1 X92.78 Y94.336 E0.04
G1 X94.465 Y93.895 E0.058
G1 X95.673 Y93.811 E0.04
G1 X96.879 Y93.906 E0.041
G1 X97.383 Y94.044 E0.017
G1 X97.382 Y93.514 E0.018
G1 X102.178 Y92.669 E0.162
G1 X102.58 Y94.496 E0.062
G1 X104.295 Y94.193 E0.058
G1 X110.486 Y90.983 E0.232
G1 X114.616 Y90.709 E0.137
G1 X119.306 Y90.27 E0.157
G1 X119.365 Y90.453 E0.007
G1 X122.392 Y90.049 E0.101
G1 X122.37 Y89.884 E0.006
G1 X127.075 Y89.142 E0.158
G1 X127.131 Y89.312 E0.006
G1 X130.083 Y88.735 E0.1
G1 X130.051 Y88.575 E0.005
G1 X134.677 Y87.542 E0.158
G1 X140.312 Y86.058 E0.194
G1 X140.735 Y86.847 E0.03
G1 X140.283 Y84.26 E0.087
;rapid-leaky
G0 X140.746 Y84.584 F7200
;bead-skirt/brim
G1 X152.138 Y82.574 F960 E0.385
G1 X153.773 Y82.372 E0.055
G1 X153.781 Y82.414 E0.001
G1 X154.832 Y82.429 E0.035
G1 X155.044 Y83.524 E0.037
G1 X156.166 Y83.664 E0.038
G1 X157.646 Y84.134 E0.051
G1 X158.923 Y84.853 E0.049
G1 X160.581 Y86.415 E0.076
G1 X160.364 Y86.49 E0.008
G1 X160.622 Y86.964 E0.017
G1 X160.914 Y88.221 E0.043
G1 X160.781 Y89.745 E0.051
G1 X159.676 Y90.59 E0.047
G1 X160.665 Y91.375 E0.042
G1 X161.248 Y92.093 E0.03
G1 X161.667 Y92.895 E0.03
G1 X161.9 Y93.71 E0.029
G1 X161.96 Y94.579 E0.029
G1 X161.838 Y95.456 E0.029
G1 X161.543 Y96.315 E0.03
G1 X161.088 Y97.128 E0.031
G1 X160.485 Y97.888 E0.032
G1 X159.748 Y98.582 E0.034
G1 X158.902 Y99.19 E0.035
G1 X157.952 Y99.712 E0.036
G1 X156.403 Y100.298 E0.055
G1 X155.317 Y100.547 E0.037
G1 X143.93 Y102.555 E0.385
G1 X143.609 Y100.904 E0.056
G1 X137.821 Y101.384 E0.193
G1 X137.816 Y101.37
G1 X131.486 Y102.23 E0.213
G1 X126.105 Y103.189 E0.181
G1 X126.068 Y103.028 E0.006
G1 X120.909 Y104.175 E0.176
G1 X117.682 Y105.019 E0.111
G1 X117.725 Y105.188 E0.005
G1 X113.347 Y106.46 E0.152
G1 X99.525 Y108.898 E0.467
G1 X99.405 Y108.341 E0.019
G1 X98.791 Y108.71 E0.024
G1 X97.201 Y109.232 E0.055
G1 X95.497 Y109.397 E0.057
G1 X93.815 Y109.176 E0.057
G1 X92.236 Y108.593 E0.056
G1 X91.249 Y108.002 E0.038
G1 X89.992 Y106.885 E0.056
G1 X89.01 Y105.517 E0.056
G1 X88.527 Y104.473 E0.038
G1 X88.115 Y102.857 E0.056
G1 X88.043 Y101.716 E0.038
G1 X88.141 Y100.588 E0.037
G1 X88.402 Y99.493 E0.038
G1 X88.828 Y98.443 E0.037
G1 X89.4 Y97.471 E0.038
G1 X90.115 Y96.593 E0.038
G1 X90.946 Y95.833 E0.037
G1 X91.887 Y95.202 E0.038
G1 X92.918 Y94.714 E0.038
G1 X94.53 Y94.291 E0.055
G1 X95.671 Y94.212 E0.038
G1 X96.81 Y94.302 E0.038
G1 X97.784 Y94.567 E0.034
G1 X97.783 Y93.85 E0.024
G1 X101.87 Y93.129 E0.138
G1 X102.2 Y94.627 E0.051
G1 X100.258 Y95.141 E0.066
G1 X100.301 Y95.304 E0.006
G1 X104.424 Y94.576 E0.139
G1 X110.596 Y91.377 E0.231
G1 X114.648 Y91.108 E0.136
G1 X119.024 Y90.698 E0.146
G1 X119.18 Y91.18 E0.017
G1 X119.128 Y90.888 E0.009
G1 X122.841 Y90.393 E0.125
G1 X122.818 Y90.219 E0.006
G1 X126.8 Y89.59 E0.134
G1 X126.963 Y90.095 E0.018
G1 X126.905 Y89.764 E0.011
G1 X130.551 Y89.051 E0.123
G1 X130.518 Y88.88 E0.006
G1 X134.479 Y87.997 E0.135
G1 X134.656 Y88.54 E0.019
G1 X134.558 Y87.987 E0.019
G1 X140.108 Y86.525 E0.191
G1 X141.556 Y89.229 E0.102
G1 X140.746 Y84.584 E0.157
;rapid-leaky
G0 X141.209 Y84.909 F7200
;bead-skirt/brim
G1 X152.197 Y82.97 F960 E0.371
G1 X153.448 Y82.815 E0.042
G1 X153.537 Y83.293 E0.016
G1 X153.689 Y82.813 E0.016
G1 X154.501 Y82.824 E0.027
G1 X154.707 Y83.885 E0.036
G1 X156.08 Y84.057 E0.046
G1 X157.486 Y84.503 E0.049
G1 X158.684 Y85.178 E0.046
G1 X159.824 Y86.252 E0.052
G1 X156.5 Y87.39 E0.117
G1 X155.915 Y86.964 E0.024
G1 X155.153 Y86.614 E0.028
G1 X155.19 Y86.462 E0.005
G1 X154.648 Y86.325 E0.019
G1 X153.515 Y86.258 E0.038
G1 X153.499 Y85.141 E0.037
G1 X153.277 Y86.448 E0.044
G1 X152.011 Y86.742 E0.043
G1 X151.329 Y87.037 E0.025
G1 X150.73 Y87.414 E0.023
G1 X150.024 Y88.111 E0.033
G1 X149.552 Y89.006 E0.034
G1 X149.185 Y89 E0.012
G1 X149.708 Y89.301 E0.02
G1 X148.605 Y89.704 E0.039
G1 X153.272 Y88.884 E0.158
G1 X154.334 Y88.754 E0.036
G1 X155.538 Y88.737 E0.04
G1 X155.782 Y89.964 E0.041
G1 X156.301 Y89.873 E0.018
G1 X157.122 Y89.975 E0.027
G1 X158.079 Y90.245 E0.033
G1 X159.356 Y90.847 E0.047
G1 X160.382 Y91.661 E0.044
G1 X160.912 Y92.314 E0.028
G1 X161.294 Y93.044 E0.027
G1 X161.504 Y93.779 E0.026
G1 X161.558 Y94.565 E0.026
G1 X161.447 Y95.363 E0.027
G1 X161.176 Y96.151 E0.027
G1 X160.755 Y96.905 E0.029
G1 X160.19 Y97.617 E0.03
G1 X159.493 Y98.273 E0.032
G1 X158.688 Y98.851 E0.033
G1 X157.784 Y99.348 E0.034
G1 X156.287 Y99.914 E0.054
G1 X155.238 Y100.155 E0.035
G1 X144.247 Y102.093 E0.372
G1 X143.933 Y100.476 E0.054
G1 X138.092 Y100.96 E0.195
G1 X136.838 Y97.521 E0.122
G1 X137.454 Y101.015 E0.118
G1 X131.424 Y101.835 E0.203
G1 X126.41 Y102.728 E0.169
G1 X126.37 Y102.551 E0.006
G1 X120.815 Y103.786 E0.189
G1 X117.196 Y104.733 E0.125
G1 X117.242 Y104.912 E0.006
G1 X113.256 Y106.07 E0.138
G1 X99.835 Y108.437 E0.453
G1 X99.678 Y107.711 E0.025
G1 X98.624 Y108.344 E0.041
G1 X97.118 Y108.838 E0.052
G1 X95.504 Y108.994 E0.054
G1 X93.912 Y108.785 E0.054
G1 X92.409 Y108.231 E0.053
G1 X91.487 Y107.678 E0.036
G1 X90.291 Y106.616 E0.053
G1 X89.357 Y105.314 E0.053
G1 X88.906 Y104.338 E0.036
G1 X88.512 Y102.794 E0.053
G1 X88.444 Y101.721 E0.036
G1 X88.537 Y100.652 E0.036
G1 X88.784 Y99.615 E0.035
G1 X89.187 Y98.62 E0.036
G1 X89.729 Y97.7 E0.035
G1 X90.406 Y96.868 E0.036
G1 X91.194 Y96.148 E0.035
G1 X92.085 Y95.551 E0.036
G1 X93.055 Y95.091 E0.036
G1 X94.595 Y94.688 E0.053
G1 X95.669 Y94.613 E0.035
G1 X96.741 Y94.698 E0.036
G1 X98.282 Y95.118 E0.053
G1 X99.628 Y95.829 E0.051
G1 X104.554 Y94.959 E0.166
G1 X110.706 Y91.77 E0.231
G1 X114.68 Y91.507 E0.132
G1 X118.742 Y91.126 E0.136
G1 X120.585 Y96.832 E0.199
G1 X119.595 Y91.229 E0.19
G1 X123.29 Y90.736 E0.124
G1 X123.266 Y90.553 E0.006
G1 X126.525 Y90.039 E0.11
G1 X128.353 Y95.689 E0.197
G1 X127.367 Y90.081 E0.189
G1 X131.02 Y89.367 E0.124
G1 X130.985 Y89.186 E0.006
G1 X134.211 Y88.466 E0.11
G1 X136.038 Y94.08 E0.197
G1 X135.016 Y88.28 E0.196
G1 X139.905 Y86.992 E0.168
G1 X142.377 Y91.611 E0.174
G1 X141.209 Y84.909 E0.226
;rapid-leaky
G0 X142.505 Y91.85 F7200
;bead-skirt/brim
G1 X142.601 Y92.029 F960 E0.007
G1 X142.637 Y92.23 E0.007
G1 X143.167 Y92.137 E0.018
G1 X143.196 Y92.183 E0.002
G1 X143.493 Y92.131 E0.01
G1 X143.606 Y92.059 E0.004
G1 X144.293 Y91.938 E0.023
G1 X144.306 Y91.987 E0.002
G1 X146.648 Y91.574 E0.079
G1 X146.864 Y91.485 E0.008
G1 X147.496 Y91.374 E0.021
G1 X147.62 Y91.404 E0.004
G1 X147.658 Y91.397 E0.002
G1 X147.677 Y91.245 E0.005
G1 X148.037 Y91.33 E0.012
G1 X148.108 Y91.317 E0.002
G1 X148.096 Y91.268 E0.002
G1 X155.465 Y89.969 E0.249
G1 X155.058 Y89.893 E0.014
G1 X154.518 Y89.845 E0.018
G1 X153.979 Y89.854 E0.018
G1 X153.451 Y89.921 E0.017
G1 X152.336 Y90.117 E0.038
G1 X152.314 Y90.07 E0.002
G1 X151.97 Y90.13 E0.011
G1 X151.938 Y90.187 E0.003
G1 X150.117 Y90.508 E0.061
G1 X150.096 Y90.462 E0.002
G1 X149.754 Y90.522 E0.011
G1 X149.723 Y90.578 E0.002
G1 X147.899 Y90.899 E0.062
G1 X147.877 Y90.852 E0.002
G1 X145.733 Y91.23 E0.072
G1 X145.621 Y91.25 E0.004
G1 X145.622 Y91.3 E0.002
G1 X144.295 Y91.534 E0.044
G1 X144.25 Y91.492 E0.003
G1 X144.006 Y91.535 E0.008
G1 X143.944 Y91.596 E0.003
G1 X142.505 Y91.85 E0.048
;rapid-leaky
G0 X150.003 Y89.008 F7200
;bead-skirt/brim
G1 X150.061 Y89.042 F960 E0.003
G1 X153.213 Y88.488 E0.106
G1 X154.307 Y88.355 E0.037
G1 X155.865 Y88.332 E0.051
G1 X156.098 Y89.502 E0.04
G1 X156.291 Y89.468 E0.007
G1 X157.201 Y89.582 E0.03
G1 X158.22 Y89.869 E0.035
G1 X158.358 Y89.934 E0.005
G1 X158.089 Y89.644 E0.014
G1 X157.132 Y89.15 E0.035
G1 X156.604 Y88.067 E0.04
G1 X156.663 Y88.041 E0.003
G1 X156.564 Y87.791 E0.009
G1 X156.433 Y87.836 E0.004
G1 X155.712 Y87.311 E0.03
G1 X154.688 Y86.841 E0.037
G1 X154.709 Y86.753 E0.003
G1 X154.587 Y86.722 E0.005
G1 X153.646 Y86.666 E0.031
G1 X153.627 Y86.777 E0.004
G1 X152.137 Y87.123 E0.051
G1 X151.516 Y87.392 E0.022
G1 X150.98 Y87.729 E0.021
G1 X150.349 Y88.352 E0.03
G1 X150.003 Y89.008 E0.024
;rapid-leaky
G0 X150.755 Y88.514 F7200
;bead-skirt/brim
G1 X153.154 Y88.093 F960 E0.081
G1 X154.28 Y87.955 E0.038
G1 X155.885 Y87.931 E0.053
G1 X155.509 Y87.658 E0.016
G1 X154.307 Y87.106 E0.044
G1 X153.98 Y87.087 E0.011
G1 X153.977 Y87.106
G1 X152.263 Y87.505 E0.059
G1 X151.703 Y87.747 E0.02
G1 X151.23 Y88.044 E0.019
G1 X150.755 Y88.514 E0.022
;rapid-leaky
G0 X153.323 Y87.669 F7200
;bead-skirt/brim
G1 X154.325 Y87.554 F960 E0.034
G1 X154.209 Y87.501 E0.004
G1 X154.08 Y87.493 E0.004
G1 X153.323 Y87.669 E0.026
;rapid-leaky
G0 X156.262 Y88.279 F7200
;bead-skirt/brim
G1 X156.422 Y89.082 F960 E0.027
G1 X156.669 Y89.113 E0.008
G1 X156.262 Y88.279 E0.031
;rapid-leaky
G0 X157.144 Y88.262 F7200
;bead-skirt/brim
G1 X157.176 Y88.248 F960 E0.001
G1 X156.933 Y87.637 E0.022
G1 X159.865 Y86.411 E0.106
G1 X160.245 Y87.107 E0.026
G1 X160.51 Y88.25 E0.039
G1 X160.398 Y89.534 E0.043
G1 X159.769 Y90.015 E0.027
G1 X159.677 Y89.844 E0.006
G1 X159.06 Y90.102 E0.022
G1 X158.334 Y89.321 E0.036
G1 X157.433 Y88.855 E0.034
G1 X157.144 Y88.262 E0.021
;rapid-leaky
G0 X163.553 Y84.819 F7200
;bead-skirt/brim
G1 X162.615 Y83.935 F960 E0.043
G1 X161.998 Y82.804 E0.043
;rapid-leaky
G0 X161.124 Y81.981 F7200
;bead-skirt/brim
G1 X160.677 Y82.168 F960 E0.016
G1 X158.929 Y81.183 E0.067
G1 X157.78 Y80.819 E0.04
G1 X157.627 Y80.029 E0.027
;rapid-leaky
G0 X157.172 Y79.782 F7200
;bead-skirt/brim
G1 X157.432 Y81.129 F960 E0.046
G1 X158.769 Y81.552 E0.046
G1 X160.595 Y82.581 E0.07
G1 X160.635 Y82.619 E0.002
G1 X161.292 Y82.345 E0.023
G1 X162.294 Y84.182 E0.07
G1 X164.058 Y85.843 E0.081
;rapid-leaky
G0 X164.221 Y86.547 F7200
;bead-skirt/brim
G1 X161.974 Y84.43 F960 E0.102
G1 X161.113 Y82.853 E0.06
G1 X160.55 Y83.089 E0.02
G1 X160.356 Y82.906 E0.009
G1 X158.608 Y81.921 E0.067
G1 X157.085 Y81.438 E0.053
G1 X156.817 Y80.056 E0.047
G1 X155.784 Y80.042 E0.034
;rapid-leaky
G0 F7200
;bead-skirt/brim
G1 X155.723 Y79.713 F960 E0.011
G1 X153.337 Y80.008 E0.08
G1 X151.652 Y79.984 E0.056
G1 X151.572 Y80.237 E0.009
G1 X137.97 Y82.637 E0.46
G1 X138.299 Y84.52 E0.063
G1 X134.204 Y85.599 E0.141
G1 X128.182 Y86.943 E0.205
G1 X120.589 Y88.14 E0.256
G1 X114.457 Y88.715 E0.205
G1 X109.937 Y89.015 E0.15
G1 X104.089 Y92.047 E0.22
G1 X103.719 Y90.366 E0.057
G1 X95.473 Y91.82 E0.278
G1 X94.14 Y91.913 E0.045
G1 X92.093 Y92.449 E0.07
G1 X90.698 Y93.109 E0.051
G1 X89.46 Y93.94 E0.05
G1 X88.365 Y94.941 E0.049
G1 X87.424 Y96.097 E0.05
G1 X86.67 Y97.377 E0.049
G1 X86.109 Y98.76 E0.05
G1 X85.765 Y100.205 E0.049
G1 X85.637 Y101.687 E0.05
G1 X85.733 Y103.232 E0.051
G1 X86.257 Y105.281 E0.071
G1 X86.928 Y106.73 E0.053
G1 X88.197 Y108.502 E0.072
G1 X89.823 Y109.945 E0.073
G1 X91.194 Y110.767 E0.053
G1 X91.551 Y110.899 E0.012
G1 X90.959 Y111.158 E0.022
G1 X89.646 Y111.983 E0.051
G1 X88.043 Y113.47 E0.073
G1 X86.812 Y115.275 E0.073
G1 X86.168 Y116.75 E0.053
G1 X85.697 Y118.825 E0.071
G1 X85.639 Y120.373 E0.052
G1 X85.812 Y121.914 E0.051
G1 X86.439 Y123.944 E0.071
G1 X87.189 Y125.367 E0.053
G1 X88.519 Y127.033 E0.071
G1 X89.692 Y128.042 E0.052
G1 X90.959 Y128.838 E0.05
G1 X92.382 Y129.46 E0.051
G1 X94.512 Y129.944 E0.073
G1 X96.747 E0.074
G1 X98.933 Y129.446 E0.075
G1 X100.952 Y128.476 E0.074
G1 X101.829 Y127.779 E0.038
G1 X106.045 Y127.113 E0.141
G1 X109.276 Y126.762 E0.109
G1 X114.182 Y126.494 E0.163
G1 X117.395 Y126.502 E0.107
G1 X122.288 Y126.79 E0.163
G1 X124.63 Y127.077 E0.078
G1 Y128.998 E0.064
G1 X135.689 E0.368
G1 X136.355 Y128.972 E0.022
G1 X137.075 Y128.883 E0.024
G1 X137.785 Y128.739 E0.024
G1 X138.481 Y128.537 E0.025
G1 X139.115 Y128.297 E0.022
G1 X139.808 Y127.973 E0.026
G1 X140.442 Y127.607 E0.024
G1 X141.039 Y127.196 E0.024
G1 X141.602 Y126.734 E0.024
G1 X142.121 Y126.235 E0.024
G1 X142.603 Y125.693 E0.024
G1 X143.04 Y125.11 E0.025
G1 X143.426 Y124.5 E0.024
G1 X143.763 Y123.858 E0.024
G1 X144.047 Y123.191 E0.024
G1 X144.263 Y122.545 E0.022
G1 X144.45 Y121.805 E0.026
G1 X144.567 Y121.082 E0.024
G1 X144.625 Y120.361 E0.024
G1 Y119.635 E0.024
G1 X144.567 Y118.914 E0.024
G1 X144.451 Y118.198 E0.025
G1 X144.277 Y117.493 E0.024
G1 X144.048 Y116.806 E0.024
G1 X143.763 Y116.138 E0.024
G1 X143.426 Y115.496 E0.024
G1 X143.04 Y114.886 E0.024
G1 X142.603 Y114.303 E0.024
G1 X142.122 Y113.762 E0.024
G1 X141.602 Y113.262 E0.024
G1 X141.039 Y112.8 E0.025
G1 X140.442 Y112.389 E0.024
G1 X139.815 Y112.027 E0.024
G1 X139.157 Y111.715 E0.024
G1 X138.481 Y111.459 E0.024
G1 X137.785 Y111.257 E0.024
G1 X137.072 Y111.112 E0.024
G1 X136.357 Y111.026 E0.024
G1 X135.73 Y110.999 E0.021
G1 X124.63 Y110.998 E0.369
G1 Y112.924 E0.064
G1 X122.291 Y113.206 E0.079
G1 X117.395 Y113.494 E0.163
G1 X114.182 Y113.502 E0.107
G1 X109.276 Y113.234 E0.163
G1 X106.045 Y112.883 E0.108
G1 X101.829 Y112.218 E0.142
G1 X100.953 Y111.52 E0.038
G1 X100.287 Y111.2 E0.024
G1 X113.892 Y108.801 E0.46
G1 X120.626 Y106.845 E0.233
G1 X120.598 Y106.737 E0.004
G1 X121.473 Y106.508 E0.03
G1 X124.257 Y105.89 E0.094
G1 X124.271 Y105.954 E0.003
G1 X131.858 Y104.601 E0.256
G1 X137.803 Y103.793 E0.199
G1 X141.663 Y103.474 E0.129
G1 X142.024 Y105.328 E0.063
G1 X155.795 Y102.9 E0.465
G1 X157.099 Y102.6 E0.045
G1 X158.959 Y101.897 E0.066
G1 X160.184 Y101.224 E0.046
G1 X161.278 Y100.438 E0.045
G1 X162.257 Y99.516 E0.045
G1 X163.088 Y98.469 E0.044
G1 X163.742 Y97.299 E0.045
G1 X164.184 Y96.016 E0.045
G1 X164.371 Y94.662 E0.046
G1 X164.277 Y93.293 E0.045
G1 X163.907 Y92 E0.045
G1 X163.264 Y90.768 E0.046
G1 X163.116 Y90.587 E0.008
G1 X163.338 Y88.05 E0.085
G1 X163.329 Y88.011 E0.001
G1 X164.46 Y87.624 E0.04
;rapid-leaky
G0 X164.532 Y88.022 F7200
;bead-skirt/brim
G1 X163.718 Y88.301 F960 E0.028
G1 X163.529 Y90.46 E0.072
G1 X163.6 Y90.547 E0.004
G1 X164.281 Y91.851 E0.049
G1 X164.674 Y93.223 E0.048
G1 X164.773 Y94.676 E0.048
G1 X164.575 Y96.11 E0.048
G1 X164.109 Y97.463 E0.048
G1 X163.422 Y98.692 E0.047
G1 X162.552 Y99.787 E0.046
G1 X161.533 Y100.747 E0.047
G1 X160.398 Y101.563 E0.046
G1 X159.127 Y102.262 E0.048
G1 X157.215 Y102.984 E0.068
G1 X155.874 Y103.292 E0.046
G1 X141.706 Y105.791 E0.479
G1 X141.339 Y103.902 E0.064
G1 X137.847 Y104.191 E0.116
G1 X131.921 Y104.997 E0.199
G1 X123.966 Y106.415 E0.269
G1 X123.955 Y106.367 E0.001
G1 X121.567 Y106.897 E0.082
G1 X121.084 Y107.024 E0.016
G1 X121.109 Y107.121 E0.004
G1 X113.983 Y109.191 E0.247
G1 X101.446 Y111.402 E0.423
G1 X101.996 Y111.839 E0.023
G1 X106.098 Y112.487 E0.138
G1 X109.308 Y112.835 E0.108
G1 X114.193 Y113.102 E0.163
G1 X117.383 Y113.094 E0.106
G1 X122.256 Y112.807 E0.162
G1 X124.23 Y112.569 E0.066
G1 Y110.598 E0.066
G1 X135.738 Y110.599 E0.382
G1 X136.39 Y110.627 E0.022
G1 X137.136 Y110.717 E0.025
G1 X137.881 Y110.868 E0.025
G1 X138.608 Y111.08 E0.026
G1 X139.313 Y111.346 E0.025
G1 X140.001 Y111.672 E0.025
G1 X140.655 Y112.051 E0.025
G1 X141.279 Y112.48 E0.025
G1 X141.868 Y112.962 E0.026
G1 X142.41 Y113.484 E0.025
G1 X142.913 Y114.05 E0.025
G1 X143.37 Y114.659 E0.025
G1 X143.772 Y115.296 E0.025
G1 X144.125 Y115.967 E0.025
G1 X144.422 Y116.665 E0.026
G1 X144.661 Y117.382 E0.025
G1 X144.843 Y118.118 E0.025
G1 X144.964 Y118.866 E0.025
G1 X145.025 Y119.618 E0.025
G1 Y120.378 E0.026
G1 X144.964 Y121.13 E0.025
G1 X144.842 Y121.886 E0.025
G1 X144.647 Y122.657 E0.027
G1 X144.422 Y123.332 E0.023
G1 X144.125 Y124.029 E0.026
G1 X143.772 Y124.7 E0.025
G1 X143.37 Y125.337 E0.025
G1 X142.913 Y125.946 E0.025
G1 X142.41 Y126.512 E0.025
G1 X141.868 Y127.034 E0.025
G1 X141.279 Y127.516 E0.026
G1 X140.656 Y127.945 E0.025
G1 X139.993 Y128.328 E0.025
G1 X139.27 Y128.666 E0.027
G1 X138.608 Y128.916 E0.023
G1 X137.88 Y129.128 E0.026
G1 X137.139 Y129.278 E0.025
G1 X136.388 Y129.371 E0.025
G1 X135.697 Y129.398 E0.023
G1 X124.23 E0.381
G1 Y127.431 E0.066
G1 X122.252 Y127.189 E0.066
G1 X117.383 Y126.902 E0.162
G1 X114.193 Y126.894 E0.106
G1 X109.308 Y127.161 E0.163
G1 X106.098 Y127.509 E0.107
G1 X101.995 Y128.158 E0.139
G1 X101.166 Y128.817 E0.035
G1 X99.066 Y129.826 E0.077
G1 X96.792 Y130.344 E0.078
G1 X94.467 E0.077
G1 X92.257 Y129.841 E0.076
G1 X90.771 Y129.193 E0.053
G1 X89.454 Y128.364 E0.052
G1 X88.229 Y127.312 E0.054
G1 X86.853 Y125.587 E0.073
G1 X86.068 Y124.098 E0.056
G1 X85.419 Y121.996 E0.074
G1 X85.238 Y120.388 E0.053
G1 X85.298 Y118.773 E0.054
G1 X85.787 Y116.625 E0.073
G1 X86.46 Y115.081 E0.056
G1 X87.738 Y113.208 E0.076
G1 X89.402 Y111.664 E0.075
G1 X90.627 Y110.894 E0.048
G1 X89.585 Y110.269 E0.041
G1 X87.898 Y108.771 E0.075
G1 X86.58 Y106.933 E0.075
G1 X85.878 Y105.415 E0.056
G1 X85.337 Y103.294 E0.073
G1 X85.236 Y101.682 E0.053
G1 X85.369 Y100.141 E0.052
G1 X85.727 Y98.638 E0.051
G1 X86.31 Y97.199 E0.052
G1 X87.095 Y95.868 E0.051
G1 X88.073 Y94.666 E0.052
G1 X89.212 Y93.624 E0.051
G1 X90.5 Y92.76 E0.052
G1 X91.956 Y92.071 E0.053
G1 X94.075 Y91.516 E0.073
G1 X95.425 Y91.423 E0.045
G1 X104.027 Y89.905 E0.291
G1 X104.367 Y91.452 E0.052
G1 X109.827 Y88.621 E0.205
G1 X114.425 Y88.317 E0.153
G1 X120.54 Y87.743 E0.204
G1 X128.107 Y86.55 E0.255
G1 X134.11 Y85.21 E0.205
G1 X137.842 Y84.227 E0.128
G1 X137.508 Y82.312 E0.065
G1 X151.264 Y79.885 E0.464
G1 X151.361 Y79.58 E0.011
G1 X153.316 Y79.607 E0.065
G1 X156.048 Y79.269 E0.091
G1 X156.118 Y79.647 E0.013
;rapid-leaky
G0 F7200
;bead-skirt/brim
G1 X156.943 Y79.658 F960 E0.028
;rapid-leaky
G0 X155.588 Y78.923 F7200
;bead-skirt/brim
G1 X153.294 Y79.207 F960 E0.077
G1 X151.07 Y79.176 E0.074
G1 X150.956 Y79.533 E0.012
G1 X137.045 Y81.988 E0.47
G1 X137.384 Y83.934 E0.066
G1 X134.015 Y84.821 E0.115
G1 X128.032 Y86.156 E0.204
G1 X120.49 Y87.346 E0.254
G1 X114.393 Y87.918 E0.204
G1 X109.717 Y88.228 E0.156
G1 X104.646 Y90.857 E0.19
G1 X104.335 Y89.445 E0.048
G1 X95.376 Y91.025 E0.302
G1 X94.01 Y91.12 E0.046
G1 X91.818 Y91.694 E0.075
G1 X90.302 Y92.412 E0.056
G1 X88.965 Y93.309 E0.054
G1 X87.781 Y94.39 E0.053
G1 X86.766 Y95.639 E0.054
G1 X85.951 Y97.021 E0.053
G1 X85.345 Y98.515 E0.054
G1 X84.973 Y100.077 E0.053
G1 X84.835 Y101.677 E0.053
G1 X84.94 Y103.357 E0.056
G1 X85.5 Y105.55 E0.076
G1 X86.233 Y107.135 E0.058
G1 X87.599 Y109.041 E0.078
G1 X89.348 Y110.593 E0.077
G1 X89.863 Y110.902 E0.02
G1 X89.157 Y111.346 E0.028
G1 X87.433 Y112.945 E0.078
G1 X86.109 Y114.886 E0.079
G1 X85.405 Y116.499 E0.058
G1 X84.9 Y118.72 E0.076
G1 X84.837 Y120.403 E0.056
G1 X85.026 Y122.078 E0.056
G1 X85.697 Y124.251 E0.076
G1 X86.517 Y125.807 E0.058
G1 X87.94 Y127.591 E0.076
G1 X89.215 Y128.687 E0.056
G1 X90.583 Y129.548 E0.054
G1 X92.131 Y130.223 E0.056
G1 X94.422 Y130.744 E0.078
G1 X96.837 E0.08
G1 X99.199 Y130.206 E0.081
G1 X101.38 Y129.158 E0.08
G1 X102.162 Y128.536 E0.034
G1 X106.151 Y127.906 E0.134
G1 X109.341 Y127.56 E0.107
G1 X114.203 Y127.294 E0.162
G1 X117.371 Y127.302 E0.105
G1 X122.216 Y127.587 E0.161
G1 X123.83 Y127.785 E0.054
G1 Y129.798 E0.067
G1 X135.705 E0.395
G1 X136.42 Y129.77 E0.024
G1 X137.204 Y129.674 E0.026
G1 X137.976 Y129.517 E0.027
G1 X138.734 Y129.296 E0.026
G1 X139.426 Y129.035 E0.024
G1 X140.178 Y128.683 E0.028
G1 X140.87 Y128.283 E0.027
G1 X141.519 Y127.836 E0.026
G1 X142.134 Y127.333 E0.026
G1 X142.699 Y126.789 E0.026
G1 X143.223 Y126.199 E0.027
G1 X143.699 Y125.564 E0.026
G1 X144.119 Y124.901 E0.026
G1 X144.487 Y124.201 E0.026
G1 X144.796 Y123.474 E0.027
G1 X145.031 Y122.77 E0.024
G1 X145.234 Y121.967 E0.028
G1 X145.361 Y121.178 E0.027
G1 X145.425 Y120.394 E0.026
G1 Y119.602 E0.026
G1 X145.361 Y118.818 E0.026
G1 X145.235 Y118.038 E0.026
G1 X145.046 Y117.27 E0.027
G1 X144.797 Y116.523 E0.026
G1 X144.487 Y115.795 E0.026
G1 X144.119 Y115.095 E0.027
G1 X143.699 Y114.432 E0.026
G1 X143.223 Y113.797 E0.026
G1 X142.699 Y113.207 E0.026
G1 X142.134 Y112.663 E0.026
G1 X141.519 Y112.16 E0.027
G1 X140.869 Y111.713 E0.026
G1 X140.187 Y111.318 E0.026
G1 X139.47 Y110.978 E0.027
G1 X138.735 Y110.7 E0.026
G1 X137.976 Y110.479 E0.026
G1 X137.2 Y110.322 E0.026
G1 X136.422 Y110.228 E0.027
G1 X135.747 Y110.199 E0.022
G1 X123.83 Y110.198 E0.396
G1 Y112.215 E0.067
G1 X122.22 Y112.408 E0.054
G1 X117.371 Y112.694 E0.162
G1 X114.203 Y112.702 E0.105
G1 X109.341 Y112.436 E0.162
G1 X106.15 Y112.09 E0.107
G1 X102.824 Y111.565 E0.112
G1 X114.074 Y109.582 E0.38
G1 X121.593 Y107.397 E0.26
G1 X121.57 Y107.31 E0.003
G1 X121.661 Y107.286 E0.003
G1 X123.653 Y106.843 E0.068
G1 X123.66 Y106.875 E0.001
G1 X131.983 Y105.392 E0.282
G1 X137.89 Y104.589 E0.198
G1 X141.015 Y104.33 E0.104
G1 X141.388 Y106.253 E0.065
G1 X155.954 Y103.684 E0.492
G1 X157.331 Y103.368 E0.047
G1 X159.294 Y102.626 E0.07
G1 X160.612 Y101.902 E0.05
G1 X161.788 Y101.057 E0.048
G1 X162.848 Y100.058 E0.049
G1 X163.755 Y98.915 E0.048
G1 X164.476 Y97.627 E0.049
G1 X164.965 Y96.203 E0.05
G1 X165.175 Y94.69 E0.051
G1 X165.07 Y93.154 E0.051
G1 X164.654 Y91.702 E0.051
G1 X163.941 Y90.337 E0.051
G1 X164.094 Y88.595 E0.058
G1 X164.604 Y88.421 E0.018
;rapid-leaky
G0 X159.364 Y90.409 F7200
;bead-skirt/brim
G1 X159.587 Y90.52 F960 E0.008
G1 X159.497 Y90.353 E0.006
G1 X159.364 Y90.409 E0.005
;rapid-leaky
G0 X140.317 Y113.761 F7200
;bead-skirt/brim
G1 X140.805 Y114.16 F960 E0.021
G1 X141.256 Y114.594 E0.021
G1 X141.673 Y115.063 E0.021
G1 X142.051 Y115.568 E0.021
G1 X142.386 Y116.097 E0.021
G1 X142.678 Y116.653 E0.021
G1 X142.925 Y117.232 E0.021
G1 X143.123 Y117.828 E0.02
G1 X143.274 Y118.438 E0.021
G1 X143.374 Y119.059 E0.021
G1 X143.425 Y119.683 E0.021
G1 Y120.313 E0.021
G1 X143.374 Y120.938 E0.021
G1 X143.273 Y121.562 E0.021
G1 X143.111 Y122.207 E0.022
G1 X142.924 Y122.765 E0.02
G1 X142.678 Y123.343 E0.02
G1 X142.386 Y123.899 E0.021
G1 X142.051 Y124.428 E0.021
G1 X141.673 Y124.933 E0.021
G1 X141.256 Y125.402 E0.021
G1 X140.805 Y125.836 E0.021
G1 X140.317 Y126.235 E0.021
G1 X139.8 Y126.592 E0.021
G1 X139.252 Y126.908 E0.021
G1 X138.648 Y127.191 E0.022
G1 X138.101 Y127.398 E0.019
G1 X137.497 Y127.573 E0.021
G1 X136.882 Y127.698 E0.021
G1 X136.258 Y127.775 E0.021
G1 X135.665 Y127.798 E0.02
G1 X125.83 E0.327
G1 Y126.015 E0.059
G1 X122.397 Y125.595 E0.115
G1 X117.432 Y125.302 E0.166
G1 X114.151 Y125.294 E0.109
G1 X109.178 Y125.566 E0.166
G1 X105.887 Y125.923 E0.11
G1 X101.329 Y126.643 E0.153
G1 X100.311 Y127.453 E0.043
G1 X98.535 Y128.306 E0.066
G1 X96.612 Y128.744 E0.065
G1 X94.647 E0.066
G1 X92.759 Y128.315 E0.064
G1 X91.521 Y127.775 E0.045
G1 X90.406 Y127.073 E0.044
G1 X89.386 Y126.197 E0.045
G1 X88.198 Y124.707 E0.063
G1 X87.553 Y123.483 E0.046
G1 X86.992 Y121.667 E0.063
G1 X86.841 Y120.328 E0.045
G1 X86.892 Y118.982 E0.045
G1 X87.313 Y117.127 E0.063
G1 X87.867 Y115.858 E0.046
G1 X88.958 Y114.258 E0.065
G1 X90.38 Y112.939 E0.064
G1 X91.521 Y112.221 E0.045
G1 X92.759 Y111.681 E0.045
G1 X94.647 Y111.252 E0.064
G1 X96.612 E0.066
G1 X98.532 Y111.689 E0.065
G1 X100.311 Y112.543 E0.066
G1 X101.33 Y113.354 E0.043
G1 X105.887 Y114.073 E0.154
G1 X109.178 Y114.43 E0.11
G1 X114.151 Y114.702 E0.165
G1 X117.432 Y114.694 E0.109
G1 X122.398 Y114.401 E0.166
G1 X125.83 Y113.989 E0.115
G1 Y112.198 E0.059
G1 X135.704 Y112.199 E0.329
G1 X136.259 Y112.223 E0.018
G1 X136.88 Y112.298 E0.021
G1 X137.497 Y112.423 E0.021
G1 X138.101 Y112.598 E0.021
G1 X138.687 Y112.82 E0.021
G1 X139.257 Y113.09 E0.021
G1 X139.8 Y113.404 E0.021
G1 X140.317 Y113.761 E0.021
;rapid-leaky
G0 X140.077 Y114.081 F7200
;bead-skirt/brim
G1 X140.539 Y114.459 F960 E0.019
G1 X140.967 Y114.871 E0.02
G1 X141.363 Y115.317 E0.02
G1 X141.722 Y115.795 E0.02
G1 X142.039 Y116.297 E0.02
G1 X142.317 Y116.825 E0.02
G1 X142.55 Y117.374 E0.019
G1 X142.739 Y117.939 E0.02
G1 X142.882 Y118.518 E0.02
G1 X142.977 Y119.107 E0.02
G1 X143.025 Y119.699 E0.02
G1 Y120.297 E0.019
G1 X142.977 Y120.889 E0.02
G1 X142.881 Y121.481 E0.02
G1 X142.727 Y122.095 E0.021
G1 X142.55 Y122.623 E0.019
G1 X142.317 Y123.171 E0.02
G1 X142.039 Y123.699 E0.019
G1 X141.722 Y124.201 E0.02
G1 X141.363 Y124.68 E0.02
G1 X140.967 Y125.125 E0.02
G1 X140.539 Y125.537 E0.02
G1 X140.077 Y125.915 E0.02
G1 X139.586 Y126.253 E0.019
G1 X139.067 Y126.553 E0.02
G1 X138.493 Y126.822 E0.021
G1 X137.974 Y127.018 E0.019
G1 X137.401 Y127.184 E0.02
G1 X136.818 Y127.303 E0.019
G1 X136.226 Y127.376 E0.02
G1 X135.658 Y127.398 E0.019
G1 X126.23 E0.314
G1 Y125.661 E0.058
G1 X122.433 Y125.196 E0.127
G1 X117.444 Y124.902 E0.166
G1 X114.141 Y124.894 E0.11
G1 X109.146 Y125.167 E0.166
G1 X105.834 Y125.526 E0.111
G1 X101.163 Y126.264 E0.157
G1 X100.097 Y127.112 E0.046
G1 X98.402 Y127.926 E0.062
G1 X96.567 Y128.344 E0.063
G1 X94.692 E0.062
G1 X92.884 Y127.933 E0.062
G1 X91.709 Y127.42 E0.042
G1 X90.644 Y126.751 E0.042
G1 X89.676 Y125.918 E0.043
G1 X88.534 Y124.487 E0.061
G1 X87.924 Y123.33 E0.043
G1 X87.386 Y121.585 E0.061
G1 X87.242 Y120.313 E0.042
G1 X87.29 Y119.034 E0.043
G1 X87.695 Y117.252 E0.061
G1 X88.218 Y116.053 E0.043
G1 X89.263 Y114.521 E0.062
G1 X90.625 Y113.258 E0.062
G1 X91.709 Y112.576 E0.042
G1 X92.884 Y112.063 E0.043
G1 X94.692 Y111.652 E0.062
G1 X96.567 E0.062
G1 X98.399 Y112.069 E0.063
G1 X100.097 Y112.884 E0.062
G1 X101.163 Y113.733 E0.045
G1 X105.834 Y114.47 E0.158
G1 X109.146 Y114.829 E0.111
G1 X114.141 Y115.102 E0.166
G1 X117.444 Y115.094 E0.11
G1 X122.434 Y114.8 E0.166
G1 X126.23 Y114.343 E0.127
G1 Y112.598 E0.058
G1 X135.696 Y112.599 E0.315
G1 X136.227 Y112.622 E0.018
G1 X136.817 Y112.693 E0.02
G1 X137.401 Y112.812 E0.019
G1 X137.974 Y112.978 E0.02
G1 X138.53 Y113.189 E0.02
G1 X139.07 Y113.444 E0.02
G1 X139.586 Y113.743 E0.02
G1 X140.077 Y114.081 E0.02
;rapid-leaky
G0 X139.836 Y114.401 F7200
;bead-skirt/brim
G1 X140.273 Y114.759 F960 E0.018
G1 X140.679 Y115.149 E0.019
G1 X141.053 Y115.57 E0.019
G1 X141.392 Y116.022 E0.019
G1 X141.693 Y116.497 E0.018
G1 X141.955 Y116.997 E0.019
G1 X142.176 Y117.515 E0.019
G1 X142.354 Y118.05 E0.019
G1 X142.49 Y118.598 E0.018
G1 X142.58 Y119.155 E0.019
G1 X142.625 Y119.715 E0.019
G1 Y120.28 E0.019
G1 X142.58 Y120.841 E0.018
G1 X142.489 Y121.4 E0.019
G1 X142.342 Y121.982 E0.02
G1 X142.176 Y122.481 E0.018
G1 X141.955 Y122.999 E0.018
G1 X141.693 Y123.499 E0.019
G1 X141.392 Y123.974 E0.019
G1 X141.053 Y124.426 E0.019
G1 X140.678 Y124.848 E0.018
G1 X140.273 Y125.237 E0.019
G1 X139.836 Y125.595 E0.019
G1 X139.372 Y125.915 E0.019
G1 X138.882 Y126.198 E0.018
G1 X138.337 Y126.453 E0.02
G1 X137.847 Y126.638 E0.018
G1 X137.306 Y126.796 E0.019
G1 X136.754 Y126.908 E0.018
G1 X136.194 Y126.977 E0.019
G1 X135.65 Y126.998 E0.018
G1 X126.63 E0.3
G1 Y125.307 E0.056
G1 X122.469 Y124.797 E0.14
G1 X117.456 Y124.502 E0.167
G1 X114.13 Y124.494 E0.11
G1 X109.113 Y124.768 E0.168
G1 X105.781 Y125.13 E0.111
G1 X100.996 Y125.886 E0.161
G1 X99.883 Y126.771 E0.047
G1 X98.27 Y127.546 E0.06
G1 X96.522 Y127.944 E0.06
G1 X94.737 E0.059
G1 X93.009 Y127.551 E0.059
G1 X91.896 Y127.065 E0.04
G1 X90.883 Y126.428 E0.04
G1 X89.965 Y125.639 E0.04
G1 X88.871 Y124.267 E0.059
G1 X88.295 Y123.176 E0.041
G1 X87.779 Y121.503 E0.058
G1 X87.643 Y120.298 E0.04
G1 X87.688 Y119.086 E0.041
G1 X88.077 Y117.377 E0.058
G1 X88.57 Y116.247 E0.041
G1 X89.568 Y114.784 E0.059
G1 X90.869 Y113.576 E0.059
G1 X91.896 Y112.931 E0.04
G1 X93.009 Y112.445 E0.041
G1 X94.737 Y112.052 E0.059
G1 X96.522 E0.059
G1 X98.267 Y112.449 E0.06
G1 X99.884 Y113.225 E0.059
G1 X100.996 Y114.111 E0.048
G1 X105.781 Y114.866 E0.161
G1 X109.113 Y115.228 E0.111
G1 X114.13 Y115.502 E0.167
G1 X117.456 Y115.494 E0.111
G1 X122.47 Y115.199 E0.167
G1 X126.63 Y114.698 E0.139
G1 Y112.998 E0.057
G1 X135.687 Y112.999 E0.301
G1 X136.194 Y113.021 E0.017
G1 X136.753 Y113.088 E0.019
G1 X137.306 Y113.2 E0.018
G1 X137.847 Y113.358 E0.019
G1 X138.374 Y113.557 E0.019
G1 X138.884 Y113.799 E0.019
G1 X139.372 Y114.081 E0.018
G1 X139.836 Y114.401 E0.019
;rapid-leaky
G0 X139.596 Y114.721 F7200
;bead-skirt/brim
G1 X140.008 Y115.058 F960 E0.018
G1 X140.39 Y115.426 E0.017
G1 X140.743 Y115.823 E0.018
G1 X141.062 Y116.249 E0.018
G1 X141.346 Y116.698 E0.018
G1 X141.593 Y117.168 E0.017
G1 X141.802 Y117.657 E0.018
G1 X141.97 Y118.162 E0.018
G1 X142.097 Y118.678 E0.017
G1 X142.182 Y119.203 E0.018
G1 X142.225 Y119.732 E0.018
G1 Y120.264 E0.017
G1 X142.182 Y120.793 E0.018
G1 X142.097 Y121.319 E0.018
G1 X141.958 Y121.87 E0.019
G1 X141.801 Y122.339 E0.016
G1 X141.594 Y122.827 E0.018
G1 X141.346 Y123.298 E0.017
G1 X141.062 Y123.747 E0.018
G1 X140.743 Y124.173 E0.018
G1 X140.39 Y124.57 E0.017
G1 X140.008 Y124.938 E0.018
G1 X139.596 Y125.275 E0.018
G1 X139.158 Y125.576 E0.017
G1 X138.697 Y125.843 E0.018
G1 X138.181 Y126.084 E0.019
G1 X137.72 Y126.259 E0.016
G1 X137.21 Y126.407 E0.018
G1 X136.689 Y126.513 E0.018
G1 X136.161 Y126.578 E0.018
G1 X135.642 Y126.598 E0.017
G1 X127.03 E0.286
G1 Y124.953 E0.055
G1 X122.505 Y124.399 E0.152
G1 X117.469 Y124.102 E0.167
G1 X114.12 Y124.094 E0.112
G1 X109.081 Y124.369 E0.168
G1 X105.728 Y124.733 E0.112
G1 X100.83 Y125.507 E0.165
G1 X99.67 Y126.43 E0.049
G1 X98.137 Y127.166 E0.057
G1 X96.477 Y127.544 E0.056
G1 X94.782 E0.057
G1 X93.135 Y127.17 E0.056
G1 X92.084 Y126.711 E0.038
G1 X91.121 Y126.105 E0.038
G1 X90.254 Y125.36 E0.038
G1 X89.207 Y124.047 E0.056
G1 X88.666 Y123.022 E0.038
G1 X88.172 Y121.421 E0.056
G1 X88.044 Y120.283 E0.038
G1 X88.087 Y119.139 E0.038
G1 X88.458 Y117.503 E0.056
G1 X88.922 Y116.441 E0.038
G1 X89.873 Y115.046 E0.057
G1 X91.114 Y113.895 E0.056
G1 X92.084 Y113.285 E0.038
G1 X93.135 Y112.826 E0.038
G1 X94.782 Y112.452 E0.056
G1 X96.477 E0.057
G1 X98.134 Y112.829 E0.056
G1 X99.67 Y113.566 E0.057
G1 X100.83 Y114.49 E0.049
G1 X105.728 Y115.263 E0.165
G1 X109.081 Y115.627 E0.112
G1 X114.12 Y115.902 E0.168
G1 X117.469 Y115.894 E0.111
G1 X122.506 Y115.597 E0.168
G1 X127.03 Y115.053 E0.152
G1 Y113.398 E0.055
G1 X135.679 Y113.399 E0.288
G1 X136.162 Y113.42 E0.016
G1 X136.689 Y113.483 E0.017
G1 X137.21 Y113.589 E0.018
G1 X137.72 Y113.737 E0.018
G1 X138.217 Y113.925 E0.017
G1 X138.698 Y114.153 E0.018
G1 X139.158 Y114.419 E0.018
G1 X139.596 Y114.721 E0.017
;rapid-leaky
G0 X139.355 Y115.041 F7200
;bead-skirt/brim
G1 X139.742 Y115.357 F960 E0.017
G1 X140.101 Y115.703 E0.017
G1 X140.433 Y116.076 E0.016
G1 X140.733 Y116.476 E0.017
G1 X140.999 Y116.898 E0.016
G1 X141.232 Y117.34 E0.017
G1 X141.427 Y117.799 E0.017
G1 X141.585 Y118.273 E0.016
G1 X141.705 Y118.758 E0.017
G1 X141.785 Y119.251 E0.016
G1 X141.825 Y119.748 E0.017
G1 Y120.248 E0.017
G1 X141.785 Y120.745 E0.016
G1 X141.705 Y121.239 E0.017
G1 X141.574 Y121.757 E0.018
G1 X141.427 Y122.197 E0.015
G1 X141.232 Y122.656 E0.017
G1 X140.999 Y123.098 E0.016
G1 X140.733 Y123.52 E0.017
G1 X140.433 Y123.92 E0.017
G1 X140.101 Y124.293 E0.016
G1 X139.742 Y124.639 E0.017
G1 X139.355 Y124.955 E0.016
G1 X138.944 Y125.238 E0.017
G1 X138.512 Y125.488 E0.017
G1 X138.026 Y125.715 E0.017
G1 X137.593 Y125.879 E0.016
G1 X137.114 Y126.018 E0.016
G1 X136.625 Y126.118 E0.017
G1 X136.129 Y126.179 E0.017
G1 X135.634 Y126.198 E0.016
G1 X127.43 E0.273
G1 Y124.599 E0.053
G1 X122.541 Y124 E0.164
G1 X117.481 Y123.702 E0.169
G1 X114.109 Y123.694 E0.112
G1 X109.048 Y123.97 E0.168
G1 X105.675 Y124.336 E0.113
G1 X100.663 Y125.128 E0.169
G1 X99.456 Y126.089 E0.051
G1 X98.004 Y126.786 E0.054
G1 X96.432 Y127.144 E0.053
G1 X94.827 E0.054
G1 X93.26 Y126.788 E0.053
G1 X92.271 Y126.356 E0.036
G1 X91.359 Y125.782 E0.036
G1 X90.543 Y125.081 E0.036
G1 X89.543 Y123.827 E0.053
G1 X89.037 Y122.869 E0.036
G1 X88.565 Y121.339 E0.053
G1 X88.445 Y120.268 E0.036
G1 X88.485 Y119.191 E0.036
G1 X88.84 Y117.628 E0.053
G1 X89.273 Y116.636 E0.036
G1 X90.178 Y115.309 E0.054
G1 X91.359 Y114.214 E0.053
G1 X92.271 Y113.64 E0.036
G1 X93.26 Y113.208 E0.036
G1 X94.827 Y112.852 E0.054
G1 X96.432 E0.053
G1 X98.001 Y113.209 E0.053
G1 X99.456 Y113.907 E0.054
G1 X100.663 Y114.869 E0.051
G1 X105.675 Y115.66 E0.169
G1 X109.048 Y116.026 E0.113
G1 X114.109 Y116.302 E0.169
G1 X117.481 Y116.294 E0.112
G1 X122.541 Y115.996 E0.168
G1 X127.43 Y115.408 E0.164
G1 Y113.798 E0.054
G1 X135.67 Y113.799 E0.274
G1 X136.129 Y113.819 E0.015
G1 X136.625 Y113.878 E0.017
G1 X137.114 Y113.978 E0.016
G1 X137.593 Y114.117 E0.017
G1 X138.06 Y114.294 E0.016
G1 X138.512 Y114.508 E0.017
G1 X138.944 Y114.758 E0.017
G1 X139.355 Y115.041 E0.016
;rapid-leaky
G0 X99.845 Y95.147 F7200
;bead-skirt/brim
G1 X98.184 Y94.858 F960 E0.056
G1 X98.183 Y94.186 E0.023
G1 X101.561 Y93.59 E0.114
G1 X101.726 Y94.339 E0.025
G1 X99.769 Y94.857 E0.068
G1 X99.845 Y95.147 E0.01
;rapid-leaky
G0 X102.1 Y106.046 F7200
;bead-skirt/brim
G1 X102.077 Y105.928 F960 E0.004
G1 X101.437 Y106.041 E0.021
G1 X100.797 Y106.81 E0.034
G1 X99.99 Y107.523 E0.035
G1 X99.761 Y107.661 E0.009
G1 X100.114 Y107.571 E0.012
G1 X101.219 Y107.043 E0.041
G1 X101.679 Y106.695 E0.019
G1 X102.002 Y106.313 E0.017
G1 X102.1 Y106.046 E0.009
G1 F2100 E-0.5
;rapid-dry
G0 X98.727 Y106.749 F7200
G1 F2100 E0.5
;bead-support
G1 X97.214 Y107.622 F1320 E0.058
G1 F2100 E-0.5
G0 X98.08 Y107.122 F2400
G0 X97.214 Y107.622 F2400
;rapid-dry
G0 X96.599 Y107.977 F7200
G1 F2100 E0.5
;bead-support
G1 X95.79 Y108.444 F1320 E0.032
G1 X95.512 Y108.471 E0.009
G1 X94.037 Y108.277 E0.049
G1 X92.635 Y107.76 E0.05
G1 X92.148 Y107.468 E0.019
G1 X94.673 Y106.01 E0.097
G1 X94.051 Y105.835 E0.021
G1 X93.278 Y105.439 E0.029
G1 X92.319 Y104.593 E0.043
G1 X92.171 Y104.375 E0.009
G1 X90.158 Y105.538 E0.077
G1 X89.809 Y105.051 E0.02
G1 X89.398 Y104.163 E0.032
G1 X89.116 Y103.06 E0.038
G1 X91.325 Y101.784 E0.085
G1 X89.25 Y99.903 E0.093
G1 X97.143 Y95.346 E0.303
G1 X98.09 Y95.604 E0.033
G1 X99.543 Y96.372 E0.055
G1 X101.209 Y96.078 E0.056
G1 X97.797 Y98.048 E0.131
G1 X97.799 Y98.049
G1 X98.813 Y98.858 E0.043
G1 X99.534 Y99.915 E0.043
G1 X99.597 Y100.088 E0.006
G1 X113.412 Y92.112 E0.53
G1 X114.722 Y92.025 E0.044
G1 X118.375 Y91.683 E0.122
G1 X118.55 Y92.224 E0.019
G1 X103.724 Y100.784 E0.569
G1 X102.113 Y100.046 E0.059
G1 X102.371 Y101.565 E0.052
G1 X99.759 Y103.074 E0.1
G1 X99.702 Y103.296 E0.008
G1 X99.092 Y104.415 E0.042
G1 X98.504 Y105.049 E0.029
G1 X98.158 Y105.302 E0.014
G1 X99.332 Y106.399 E0.053
G1 X105.673 Y102.738 E0.244
G1 X105.627 Y102.8 E0.003
G1 X106.025 Y105.042 E0.075
G1 X107.202 Y103.463 E0.066
G1 X106.955 Y101.998 E0.049
G1 X119.389 Y94.82 E0.478
G1 X120.227 Y97.415 E0.09
G1 X103.025 Y107.346 E0.661
G1 X110.704 Y105.992 E0.259
G1 X121.96 Y99.493 E0.433
G1 X124.544 Y101.081 E0.101
G1 X120.758 Y103.266 E0.145
G1 X120.631 Y94.102 E0.305
G1 X126.244 Y90.861 E0.215
G1 X127.084 Y93.456 E0.091
G1 X121.125 Y96.896 E0.229
G1 X121.294 Y97.857 E0.032
G1 X124.717 Y97.902 E0.114
G1 X127.923 Y96.051 E0.123
G1 F2100 E-0.5
G0 X127.057 Y96.551 F2400
G0 X127.923 Y96.051 F2400
;rapid-leaky
G0 X136.778 Y100.176 F7200
G1 F2100 E0.5
;bead-support
G1 X135.857 Y100.707 F1320 E0.036
G1 X127.23 Y99.53 E0.289
G1 X126.781 Y99.789 E0.018
G1 X127.116 Y101.711 E0.064
G1 X126.95 Y102.104 E0.015
G1 X128.621 Y101.806 E0.056
G1 X136.285 Y97.381 E0.294
G1 X135.954 Y95.501 E0.064
G1 X135.678 Y94.653 E0.03
G1 X131.198 Y97.239 E0.172
G1 X131.169 Y97.086 E0.005
G1 X129.072 Y96.775 E0.07
G1 X128.85 Y95.515 E0.043
G1 X134.834 Y92.061 E0.23
G1 X133.99 Y89.468 E0.09
G1 X128.359 Y92.72 E0.217
G1 F2100 E-0.5
G0 X129.225 Y92.22 F2400
G0 X128.359 Y92.72 F2400
;rapid-dry
G0 X136.083 Y91.339 F7200
G1 F2100 E0.5
;bead-support
G1 X140.329 Y88.888 F1320 E0.163
G1 X141.589 Y91.24 E0.089
G1 X136.576 Y94.134 E0.192
G1 X136.843 Y95.65 E0.051
G1 X136.717 Y95.672 E0.004
G1 X137.157 Y96.878 E0.043
G1 X142.791 Y93.625 E0.217
G1 X143.416 Y93.515 E0.021
G1 X143.417 Y93.521
G1 X144.362 Y93.348 E0.032
G1 X147.279 Y92.834 E0.098
G1 X147.487 Y92.746 E0.008
G1 X147.633 Y92.721 E0.005
G1 X147.743 Y92.748 E0.004
G1 X147.975 Y92.712 E0.007
G1 X148.997 Y92.533 E0.035
G1 Y92.532
G1 X150.467 Y92.273 E0.05
G1 X138.085 Y99.421 E0.475
G1 X138.445 Y100.409 E0.035
G1 X142.254 Y100.093 E0.127
G1 X150.08 Y95.575 E0.301
G1 X150.119 Y95.955 E0.012
G1 X150.368 Y96.571 E0.022
G1 X151.031 Y97.341 E0.034
G1 X151.691 Y97.724 E0.026
G1 X145.386 Y101.364 E0.242
G1 X153.065 Y100.01 E0.259
G1 X160.844 Y95.519 E0.299
G1 X160.939 Y95.241 E0.01
G1 X161.035 Y94.547 E0.023
G1 X160.989 Y93.87 E0.023
G1 X160.808 Y93.238 E0.021
G1 X160.496 Y92.641 E0.023
G1 X158.463 Y93.815 E0.078
G1 X158.231 Y93.352 E0.017
G1 X157.801 Y92.853 E0.022
G1 X157.223 Y92.432 E0.024
G1 X156.537 Y92.118 E0.025
G1 X156.213 Y92.034 E0.011
G1 X158.21 Y90.881 E0.077
G1 X156.727 Y90.762 E0.049
G1 X156.532 Y90.426 E0.013
G1 X156.314 Y90.398 E0.007
G1 X155.799 Y90.489 E0.018
G1 X156.028 Y90.886 E0.015
G1 X155.329 Y91.009 E0.024
G1 X155.1 Y90.612 E0.015
G1 X154.935 Y90.641 E0.006
G1 X154.952 Y90.588 E0.001
G1 X154.375 Y90.69 E0.02
G1 X154.631 Y91.132 E0.017
G1 X153.932 Y91.255 E0.023
G1 X153.676 Y90.813 E0.017
G1 X152.978 Y90.936 E0.024
G1 X153.233 Y91.379 E0.017
G1 X152.535 Y91.502 E0.024
G1 X152.279 Y91.059 E0.017
G1 X151.58 Y91.182 E0.023
G1 X151.836 Y91.625 E0.017
G1 X151.137 Y91.748 E0.024
G1 X150.881 Y91.305 E0.017
G1 X150.183 Y91.428 E0.023
G1 X150.439 Y91.871 E0.017
G1 X149.74 Y91.995 E0.024
G1 X149.484 Y91.551 E0.017
G1 X148.785 Y91.674 E0.024
G1 X149.041 Y92.118 E0.017
G1 X148.628 Y92.191 E0.014
G1 Y92.192
G1 X148.343 Y92.241 E0.009
G1 X148.114 Y91.844 E0.016
G1 X148.02 Y91.861 E0.003
G1 X147.695 Y91.918 E0.011
G1 X147.602 Y91.935 E0.003
G1 X147.479 Y91.905 E0.004
G1 X147.388 Y91.921 E0.003
G1 X147.617 Y92.317 E0.015
G1 X147.373 Y92.36 E0.009
G1 X147.165 Y92.448 E0.007
G1 X146.945 Y92.487 E0.008
G1 X146.716 Y92.09 E0.015
G1 X146.017 Y92.213 E0.023
G1 X146.246 Y92.61 E0.016
G1 X145.548 Y92.733 E0.023
G1 X145.318 Y92.336 E0.016
G1 X144.62 Y92.46 E0.023
G1 X144.849 Y92.856 E0.015
G1 X144.292 Y92.955 E0.019
G1 X144.151 Y92.98 E0.005
G1 X143.894 Y92.536 E0.017
G1 X143.798 Y92.553 E0.003
G1 X143.685 Y92.625 E0.005
G1 X143.222 Y92.706 E0.015
G1 X143.451 Y93.103 E0.016
G1 X142.753 Y93.226 E0.023
G1 X142.523 Y92.828 E0.015
G1 X142.446 Y92.842 E0.003
G1 X142.421 Y92.796 E0.002
G1 X142.216 Y92.832 E0.007
G1 X142.103 Y92.202 E0.021
G1 X141.964 Y91.941 E0.01
G1 X141.779 Y91.973 E0.006
G1 X142.007 Y93.268 E0.044
G1 X142.027 Y93.302 E0.001
G1 F2100 E-0.5
G0 X142.007 Y93.268 F2400
G0 X141.84 Y92.322 F2400
G0 X142.007 Y93.268 F2400
G0 X142.027 Y93.302 F2400
;rapid-dry
G0 X142.238 Y87.786 F7200
G1 F2100 E0.5
;bead-support
G1 X148.55 Y84.142 F1320 E0.243
G1 X152.275 Y83.485 E0.125
G1 X153.026 Y83.392 E0.026
G1 X153.152 Y84.074 E0.023
G1 X153.06 Y84.617 E0.018
G1 X145.514 Y88.973 E0.29
G1 X145.5 Y88.965
G1 X145.487 Y88.99 E0.001
G1 X144.75 Y89.414 E0.028
G1 X144.573 Y88.408 E0.034
G1 X143.717 Y88.395 E0.029
G1 X143.974 Y89.863 E0.049
G1 X143.211 Y90.304 E0.03
G1 F2100 E-0.5
G0 X143.974 Y89.863 F2400
G0 X143.953 Y89.746 F2400
G0 X143.974 Y89.863 F2400
G0 X143.211 Y90.304 F2400
;rapid-leaky
G0 X143.103 Y91.166 F7200
G1 F2100 E0.5
;bead-support
G1 X142.874 Y90.77 F1320 E0.015
G1 X143.572 Y90.645 E0.024
G1 X143.802 Y91.043 E0.015
G1 X150.815 Y89.857 E0.236
G1 X150.808 Y89.845 E0.001
G1 X151.507 Y89.722 E0.023
G1 X151.514 Y89.734 E0.001
G1 X152.911 Y89.488 E0.047
G1 X152.905 Y89.476 E0.001
G1 X153.039 Y89.453 E0.004
G1 X153.348 Y89.399 E0.011
G1 X153.611 Y89.366 E0.008
G1 X153.616 Y89.376 E0.001
G1 X153.943 Y89.335 E0.011
G1 X154.358 Y89.328 E0.013
G1 X154.33 Y89.279 E0.002
G1 X154.37 Y89.274 E0.002
G1 X155.091 Y89.263 E0.024
G1 X155.123 Y89.319 E0.002
G1 F2100 E-0.5
G0 X155.091 Y89.263 F2400
G0 X154.37 Y89.274 F2400
G0 X154.33 Y89.279 F2400
G0 X154.358 Y89.328 F2400
G0 X154.241 Y89.33 F2400
G0 X154.358 Y89.328 F2400
G0 X154.33 Y89.279 F2400
G0 X154.37 Y89.274 F2400
G0 X155.091 Y89.263 F2400
G0 X155.123 Y89.319 F2400
;rapid-dry
G0 X154.003 Y84.072 F7200
G1 F2100 E0.5
;bead-support
G1 X154.192 Y83.963 F1320 E0.007
G1 X154.268 Y84.354 E0.013
G1 X155.968 Y84.567 E0.057
G1 X157.278 Y84.982 E0.046
G1 X157.522 Y85.12 E0.009
G1 X155.808 Y86.11 E0.066
G1 F2100 E-0.5
G0 X156.674 Y85.61 F2400
G0 X155.808 Y86.11 F2400
;rapid-dry
G0 X159.059 Y87.312 F7200
G1 F2100 E0.5
;bead-support
G1 X157.681 Y88.108 F1320 E0.053
G1 F2100 E-0.5
G0 X158.547 Y87.608 F2400
G0 X157.681 Y88.108 F2400
;rapid-dry
G0 X153.637 Y93.521 F7200
G1 F2100 E0.5
;bead-support
G1 X152.953 Y93.916 F1320 E0.026
G1 F2100 E-0.5
G0 X153.637 Y93.521 F2400
G0 X152.953 Y93.916 F2400
;rapid-dry
G0 X113.556 Y122.821 F7200
G1 F2100 E0.5
;bead-support
G1 X112.824 Y123.243 F1320 E0.028
G1 X109.006 Y123.452 E0.128
G1 X106.695 Y123.703 E0.077
G1 X112.803 Y120.176 E0.235
G1 F2100 E-0.5
G0 X111.937 Y120.676 F2400
G0 X112.803 Y120.176 F2400
;rapid-dry
G0 X89.196 Y118.41 F7200
G1 F2100 E0.5
;bead-support
G1 X97.484 Y113.625 F1320 E0.318
G1 X97.829 Y113.703 E0.012
G1 X99.178 Y114.351 E0.049
G1 X100.179 Y115.148 E0.043
G1 X98.014 Y116.398 E0.083
G1 X98.16 Y116.482 E0.006
G1 X98.806 Y117.052 E0.028
G1 X99.326 Y117.74 E0.029
G1 X99.696 Y118.506 E0.028
G1 X104.135 Y115.943 E0.171
G1 X105.607 Y116.175 E0.049
G1 X108.519 Y116.491 E0.098
G1 X99.624 Y121.626 E0.341
G1 X99.531 Y121.883 E0.009
G1 X98.809 Y122.941 E0.043
G1 X98.16 Y123.514 E0.029
G1 X97.408 Y123.947 E0.029
G1 X96.59 Y124.222 E0.028
G1 X95.735 Y124.328 E0.029
G1 X95.036 Y124.276 E0.023
G1 X92.379 Y125.81 E0.102
G1 X91.669 Y125.363 E0.028
G1 X90.919 Y124.719 E0.033
G1 X90.294 Y123.934 E0.034
G1 X92.323 Y122.763 E0.078
G1 X92.05 Y122.437 E0.014
G1 X91.639 Y121.683 E0.028
G1 X91.385 Y120.855 E0.029
G1 X91.325 Y120.26 E0.02
G1 X89.162 Y121.509 E0.083
G1 F2100 E-0.5
G0 X90.028 Y121.009 F2400
G0 X89.162 Y121.509 F2400
;rapid-leaky
G0 X96.302 Y126.624 F7200
G1 F2100 E0.5
;bead-support
G1 X113.35 Y116.781 F1320 E0.655
G1 X114.096 Y116.822 E0.025
G1 X117.497 Y116.814 E0.113
G1 X118.755 Y116.74 E0.042
G1 X118.002 Y117.174 E0.029
G1 X118.454 Y117.173 E0.015
G1 X118.457 Y119.991 E0.093
G1 X124.978 Y116.226 E0.251
G1 X127.06 Y115.976 E0.07
G1 Y118.103 E0.07
G1 X118.192 Y123.223 E0.341
G1 X122.588 Y123.482 E0.146
G1 X122.991 Y123.532 E0.014
G1 X127.06 Y121.182 E0.156
G1 F2100 E-0.5
G0 X126.194 Y121.682 F2400
G0 X127.06 Y121.182 F2400
;rapid-dry
G0 X133.011 Y123.282 F7200
G1 F2100 E0.5
;bead-perimeter_outer
G1 X133.351 Y123.526 F720 E0.014
G1 X133.714 Y123.736 E0.014
G1 X134.096 Y123.908 E0.014
G1 X134.493 Y124.042 E0.014
G1 X134.901 Y124.134 E0.014
G1 X135.316 Y124.187 E0.014
G1 X135.735 Y124.197 E0.014
G1 X136.153 Y124.166 E0.014
G1 X136.565 Y124.093 E0.013
G1 X136.968 Y123.98 E0.014
G1 X137.357 Y123.826 E0.014
G1 X137.73 Y123.635 E0.014
G1 X138.082 Y123.409 E0.014
G1 X138.41 Y123.147 E0.014
G1 X138.709 Y122.855 E0.014
G1 X138.979 Y122.534 E0.014
G1 X139.214 Y122.188 E0.014
G1 X139.414 Y121.821 E0.014
G1 X139.577 Y121.435 E0.014
G1 X139.701 Y121.035 E0.014
G1 X139.784 Y120.624 E0.014
G1 X139.825 Y120.207 E0.013
G1 Y119.789 E0.014
G1 X139.784 Y119.372 E0.014
G1 X139.701 Y118.962 E0.014
G1 X139.577 Y118.561 E0.014
G1 X139.414 Y118.176 E0.014
G1 X139.214 Y117.808 E0.014
G1 X138.979 Y117.462 E0.014
G1 X138.709 Y117.141 E0.014
G1 X138.41 Y116.849 E0.014
G1 X138.082 Y116.587 E0.014
G1 X137.73 Y116.361 E0.014
G1 X137.357 Y116.17 E0.014
G1 X136.968 Y116.016 E0.014
G1 X136.565 Y115.903 E0.013
G1 X136.153 Y115.83 E0.014
G1 X135.735 Y115.799 E0.014
G1 X135.316 Y115.809 E0.014
G1 X134.901 Y115.862 E0.014
G1 X134.493 Y115.955 E0.014
G1 X134.096 Y116.089 E0.014
G1 X133.714 Y116.261 E0.014
G1 X133.351 Y116.47 E0.014
G1 X133.011 Y116.714 E0.014
G1 X132.697 Y116.992 E0.014
G1 X132.413 Y117.298 E0.014
G1 X132.16 Y117.632 E0.014
G1 X131.941 Y117.989 E0.014
G1 X131.759 Y118.366 E0.013
G1 X131.617 Y118.76 E0.014
G1 X131.514 Y119.166 E0.014
G1 X131.45 Y119.611 E0.015
G1 X131.43 Y119.998 E0.013
G1 X131.451 Y120.416 E0.014
G1 X131.514 Y120.831 E0.014
G1 X131.617 Y121.236 E0.014
G1 X131.759 Y121.63 E0.014
G1 X131.941 Y122.007 E0.014
G1 X132.16 Y122.364 E0.014
G1 X132.413 Y122.698 E0.014
G1 X132.697 Y123.005 E0.014
G1 X133.011 Y123.282 E0.013
;rapid-leaky
G0 X132.787 Y123.564 F7200
;bead-perimeter_inner
G1 X133.155 Y123.829 F960 E0.016
G1 X133.549 Y124.057 E0.015
G1 X133.964 Y124.244 E0.015
G1 X134.396 Y124.389 E0.015
G1 X134.839 Y124.489 E0.015
G1 X135.289 Y124.546 E0.015
G1 X135.744 Y124.558 E0.015
G1 X136.198 Y124.523 E0.015
G1 X136.645 Y124.445 E0.016
G1 X137.083 Y124.321 E0.015
G1 X137.506 Y124.155 E0.015
G1 X137.91 Y123.948 E0.015
G1 X138.292 Y123.701 E0.015
G1 X138.648 Y123.417 E0.015
G1 X138.973 Y123.1 E0.015
G1 X139.266 Y122.752 E0.015
G1 X139.521 Y122.376 E0.016
G1 X139.739 Y121.977 E0.015
G1 X139.916 Y121.558 E0.015
G1 X140.05 Y121.124 E0.015
G1 X140.141 Y120.677 E0.015
G1 X140.185 Y120.224 E0.015
G1 Y119.772 E0.015
G1 X140.141 Y119.319 E0.015
G1 X140.05 Y118.872 E0.016
G1 X139.916 Y118.438 E0.015
G1 X139.739 Y118.02 E0.015
G1 X139.522 Y117.62 E0.015
G1 X139.266 Y117.244 E0.015
G1 X138.973 Y116.896 E0.015
G1 X138.648 Y116.579 E0.015
G1 X138.292 Y116.295 E0.015
G1 X137.91 Y116.048 E0.016
G1 X137.506 Y115.841 E0.015
G1 X137.083 Y115.675 E0.015
G1 X136.645 Y115.551 E0.015
G1 X136.198 Y115.473 E0.015
G1 X135.744 Y115.438 E0.015
G1 X135.289 Y115.45 E0.015
G1 X134.838 Y115.507 E0.015
G1 X134.395 Y115.608 E0.015
G1 X133.964 Y115.753 E0.016
G1 X133.549 Y115.94 E0.015
G1 X133.156 Y116.167 E0.015
G1 X132.786 Y116.433 E0.015
G1 X132.445 Y116.734 E0.015
G1 X132.137 Y117.067 E0.015
G1 X131.862 Y117.429 E0.015
G1 X131.625 Y117.817 E0.015
G1 X131.427 Y118.226 E0.016
G1 X131.272 Y118.654 E0.015
G1 X131.16 Y119.096 E0.015
G1 X131.091 Y119.576 E0.016
G1 X131.069 Y119.998 E0.014
G1 X131.092 Y120.452 E0.015
G1 X131.16 Y120.902 E0.015
G1 X131.272 Y121.342 E0.015
G1 X131.427 Y121.77 E0.016
G1 X131.625 Y122.179 E0.015
G1 X131.862 Y122.567 E0.015
G1 X132.136 Y122.929 E0.015
G1 X132.445 Y123.263 E0.015
G1 X132.787 Y123.564 E0.015
G1 F2100 E-0.5
;rapid-dry
G0 X135.626 Y125.798 F7200
G1 F2100 E0.5
;bead-perimeter_outer
G1 X127.83 F720 E0.259
G1 Y114.198 E0.386
G1 X135.662 Y114.199 E0.261
G1 X136.097 Y114.217 E0.014
G1 X136.561 Y114.274 E0.016
G1 X137.018 Y114.366 E0.015
G1 X137.467 Y114.497 E0.016
G1 X137.904 Y114.662 E0.015
G1 X138.326 Y114.862 E0.016
G1 X138.73 Y115.096 E0.015
G1 X139.115 Y115.361 E0.016
G1 X139.476 Y115.657 E0.016
G1 X139.813 Y115.981 E0.015
G1 X140.123 Y116.33 E0.016
G1 X140.403 Y116.704 E0.015
G1 X140.653 Y117.098 E0.016
G1 X140.87 Y117.512 E0.015
G1 X141.053 Y117.941 E0.016
G1 X141.201 Y118.385 E0.015
G1 X141.313 Y118.838 E0.016
G1 X141.387 Y119.299 E0.015
G1 X141.425 Y119.764 E0.016
G1 Y120.232 E0.015
G1 X141.387 Y120.697 E0.016
G1 X141.313 Y121.158 E0.015
G1 X141.19 Y121.645 E0.017
G1 X141.053 Y122.055 E0.015
G1 X140.87 Y122.484 E0.015
G1 X140.653 Y122.898 E0.016
G1 X140.403 Y123.292 E0.015
G1 X140.123 Y123.666 E0.016
G1 X139.813 Y124.015 E0.015
G1 X139.476 Y124.339 E0.016
G1 X139.115 Y124.635 E0.015
G1 X138.73 Y124.9 E0.016
G1 X138.326 Y125.134 E0.015
G1 X137.87 Y125.347 E0.017
G1 X137.467 Y125.499 E0.014
G1 X137.018 Y125.63 E0.016
G1 X136.561 Y125.722 E0.015
G1 X136.097 Y125.779 E0.016
G1 X135.626 Y125.798 E0.016
;rapid-leaky
G0 X135.619 Y125.438 F7200
;bead-perimeter_inner
G1 X128.19 F960 E0.247
G1 Y114.558 E0.362
G1 X135.654 Y114.559 E0.248
G1 X136.067 Y114.577 E0.014
G1 X136.504 Y114.629 E0.014
G1 X136.932 Y114.716 E0.015
G1 X137.352 Y114.839 E0.014
G1 X137.763 Y114.994 E0.015
G1 X138.158 Y115.181 E0.015
G1 X138.537 Y115.401 E0.014
G1 X138.898 Y115.649 E0.015
G1 X139.237 Y115.926 E0.014
G1 X139.553 Y116.23 E0.015
G1 X139.844 Y116.558 E0.014
G1 X140.107 Y116.908 E0.015
G1 X140.341 Y117.278 E0.015
G1 X140.545 Y117.666 E0.014
G1 X140.716 Y118.069 E0.015
G1 X140.855 Y118.485 E0.014
G1 X140.96 Y118.91 E0.015
G1 X141.03 Y119.342 E0.014
G1 X141.065 Y119.779 E0.015
G1 Y120.217 E0.015
G1 X141.03 Y120.654 E0.014
G1 X140.96 Y121.085 E0.015
G1 X140.844 Y121.544 E0.015
G1 X140.716 Y121.927 E0.014
G1 X140.545 Y122.33 E0.014
G1 X140.341 Y122.718 E0.015
G1 X140.107 Y123.088 E0.014
G1 X139.844 Y123.438 E0.015
G1 X139.553 Y123.766 E0.015
G1 X139.237 Y124.07 E0.014
G1 X138.898 Y124.347 E0.015
G1 X138.538 Y124.595 E0.014
G1 X138.16 Y124.814 E0.015
G1 X137.73 Y125.015 E0.016
G1 X137.353 Y125.157 E0.013
G1 X136.932 Y125.28 E0.015
G1 X136.503 Y125.367 E0.014
G1 X136.068 Y125.42 E0.015
G1 X135.619 Y125.438 E0.015
G1 F2100 E-0.5
;rapid-dry
G0 X128.51 Y120.448 F7200
G1 F2100 E0.5
;bead-solid_infill
G1 X131.42 Y117.537 F720 E0.137
G1 X131.343 Y117.663 E0.005
G1 X131.132 Y118.102 E0.016
G1 X130.967 Y118.556 E0.016
G1 X128.51 Y121.013 E0.115
G1 Y121.579 E0.019
G1 X130.81 Y119.279 E0.108
G1 X130.772 Y119.545 E0.009
G1 X130.761 Y119.755 E0.007
G1 X130.754 Y119.901 E0.005
G1 X128.51 Y122.145 E0.106
G1 Y122.71 E0.019
G1 X130.772 Y120.449 E0.106
G1 X130.773 Y120.484 E0.001
G1 X130.843 Y120.943 E0.016
G1 X128.51 Y123.276 E0.109
G1 Y123.842 E0.019
G1 X130.956 Y121.396 E0.115
G1 X130.966 Y121.436 E0.001
G1 X131.103 Y121.814 E0.014
G1 X128.51 Y124.408 E0.122
G1 Y124.973 E0.019
G1 X131.281 Y122.203 E0.13
G1 X131.343 Y122.333 E0.005
G1 X131.485 Y122.564 E0.009
G1 X128.931 Y125.118 E0.12
G1 X129.497 E0.019
G1 X131.713 Y122.901 E0.104
G1 X131.891 Y123.135 E0.01
G1 X131.965 Y123.215 E0.003
G1 X130.062 Y125.118 E0.09
G1 X130.628 E0.019
G1 X132.238 Y123.507 E0.075
G1 X132.409 Y123.658 E0.008
G1 X132.539 Y123.772 E0.006
G1 X131.194 Y125.118 E0.063
G1 X131.759 E0.019
G1 X132.864 Y124.013 E0.052
G1 X132.981 Y124.098 E0.005
G1 X133.019 Y124.119 E0.001
G1 X133.212 Y124.231 E0.008
G1 X132.325 Y125.118 E0.041
G1 X132.891 E0.019
G1 X133.585 Y124.424 E0.033
G1 X133.847 Y124.542 E0.009
G1 X133.986 Y124.589 E0.005
G1 X133.456 Y125.118 E0.025
G1 X134.022 E0.019
G1 X134.418 Y124.722 E0.019
G1 X134.783 Y124.805 E0.012
G1 X134.888 Y124.818 E0.003
G1 X134.588 Y125.118 E0.015
G1 X135.153 E0.018
G1 X135.402 Y124.869 E0.012
G1 X135.752 Y124.878 E0.012
G1 X135.976 Y124.861 E0.007
G1 X135.723 Y125.114 E0.012
G1 X135.75 Y125.113 E0.001
G1 X136.042 Y125.101 E0.01
G1 X136.338 Y125.065 E0.01
G1 X136.631 Y124.772 E0.013
G1 X136.716 Y124.757 E0.003
G1 X137.185 Y124.625 E0.016
G1 X137.446 Y124.522 E0.01
G1 X137.059 Y124.91 E0.018
G1 X137.251 Y124.854 E0.007
G1 X137.39 Y124.801 E0.005
G1 X137.606 Y124.72 E0.007
G1 X137.998 Y124.537 E0.015
G1 X140.159 Y122.375 E0.101
G1 X140.255 Y122.192 E0.007
G1 X140.416 Y121.814 E0.014
G1 X140.511 Y121.532 E0.01
G1 X140.537 Y121.453 E0.003
G1 X140.544 Y121.424 E0.001
G1 X140.156 Y121.813 E0.018
G1 X140.164 Y121.794 E0.001
G1 X140.217 Y121.668 E0.004
G1 X140.361 Y121.203 E0.016
G1 X140.402 Y121.001 E0.007
G1 X140.697 Y120.706 E0.014
G1 X140.712 Y120.615 E0.003
G1 X140.745 Y120.204 E0.014
G1 Y120.092 E0.003
G1 X140.495 Y120.342 E0.012
G1 X140.505 Y120.24 E0.004
G1 Y119.766 E0.015
G1 X140.725 Y119.546 E0.011
G1 X140.712 Y119.381 E0.005
G1 X140.658 Y119.048 E0.012
G1 X140.454 Y119.252 E0.009
G1 X140.361 Y118.793 E0.016
G1 X140.357 Y118.783
G1 X140.551 Y118.589 E0.009
G1 X140.547 Y118.574 E0.001
G1 X140.416 Y118.182 E0.013
G1 X140.409 Y118.165 E0.001
G1 X140.224 Y118.351 E0.009
G1 X140.217 Y118.328 E0.001
G1 X140.058 Y117.951 E0.013
G1 X140.238 Y117.771 E0.009
G1 X140.063 Y117.439 E0.012
G1 X140.041 Y117.402 E0.002
G1 X139.864 Y117.579 E0.008
G1 X139.859 Y117.57
G1 X139.795 Y117.453 E0.005
G1 X139.645 Y117.232 E0.009
G1 X139.819 Y117.058 E0.008
G1 X139.596 Y116.76 E0.012
G1 X139.575 Y116.737 E0.001
G1 X139.402 Y116.909 E0.008
G1 X139.208 Y116.678 E0.01
G1 X139.137 Y116.609 E0.004
G1 X139.308 Y116.438 E0.008
G1 X139.024 Y116.166 E0.013
G1 X139.019 Y116.161
G1 X138.85 Y116.33 E0.008
G1 X138.641 Y116.163 E0.009
G1 X138.535 Y116.079 E0.004
G1 X138.708 Y115.907 E0.008
G1 X138.706 Y115.905
G1 X138.693 Y115.896 E0.001
G1 X138.373 Y115.676 E0.013
G1 X138.197 Y115.852 E0.008
G1 X138.07 Y115.771 E0.005
G1 X137.834 Y115.65 E0.009
G1 X138.015 Y115.468 E0.009
G1 X138.009 Y115.465
G1 X137.893 Y115.409 E0.004
G1 X137.637 Y115.288 E0.009
G1 X137.631 Y115.286 E0.001
G1 X137.445 Y115.473 E0.008
G1 X137.185 Y115.371 E0.01
G1 X137.026 Y115.326 E0.005
G1 X137.219 Y115.133 E0.009
G1 X136.855 Y115.027 E0.013
G1 X136.775 Y115.011 E0.003
G1 X136.572 Y115.214 E0.009
G1 X136.238 Y115.155 E0.012
G1 X136.078 Y115.143 E0.005
G1 X136.294 Y114.926 E0.01
G1 X136.041 Y114.896 E0.008
G1 X135.771 Y114.884 E0.01
G1 X135.531 Y115.124 E0.011
G1 X135.265 Y115.13 E0.009
G1 X134.914 Y115.175 E0.011
G1 X135.21 Y114.879 E0.014
G1 X134.645 E0.019
G1 X134.181 Y115.343 E0.022
G1 X133.847 Y115.455 E0.012
G1 X133.403 Y115.655 E0.016
G1 X133.166 Y115.792 E0.009
G1 X134.079 Y114.879 E0.043
G1 X133.513 E0.019
G1 X128.51 Y119.882 E0.235
G1 Y119.316 E0.019
G1 X132.948 Y114.879 E0.209
G1 X132.382 E0.018
G1 X128.51 Y118.751 E0.183
G1 Y118.185 E0.018
G1 X131.816 Y114.879 E0.156
G1 X131.251 Y114.878 E0.019
G1 X128.51 Y117.619 E0.129
G1 Y117.054 E0.018
G1 X130.685 Y114.878 E0.103
G1 X130.12 E0.019
G1 X128.51 Y116.488 E0.075
G1 Y115.922 E0.019
G1 X129.554 Y114.878 E0.049
G1 X128.988 E0.019
G1 X128.51 Y115.357 E0.022
G1 F2100 E-0.5
;LAYER:2
M107
;rapid-dry
G0 X127.06 Y121.182 Z0.35 F7200
G1 F2100 E0.5
;bead-support
G1 X122.991 Y123.532 F3300 E0.118
G1 X122.588 Y123.482 E0.01
G1 X118.192 Y123.223 E0.11
G1 X127.06 Y118.103 E0.255
G1 Y115.976 E0.053
G1 X124.978 Y116.226 E0.052
G1 X118.457 Y119.991 E0.188
G1 X118.454 Y117.173 E0.071
G1 X118.002 Y117.174 E0.011
G1 X118.755 Y116.74 E0.022
G1 X117.497 Y116.814 E0.031
G1 X114.096 Y116.822 E0.085
G1 X113.35 Y116.781 E0.018
G1 X96.302 Y126.624 E0.491
G1 F2100 E-0.5
G0 X97.168 Y126.124 F2400
G0 X96.302 Y126.624 F2400
;rapid-leaky
G0 X89.162 Y121.509 F7200
G1 F2100 E0.5
;bead-support
G1 X91.325 Y120.26 F3300 E0.063
G1 X91.385 Y120.855 E0.015
G1 X91.639 Y121.683 E0.021
G1 X92.05 Y122.437 E0.022
G1 X92.323 Y122.763 E0.01
G1 X90.294 Y123.934 E0.059
G1 X90.919 Y124.719 E0.025
G1 X91.669 Y125.363 E0.024
G1 X92.379 Y125.81 E0.021
G1 X95.036 Y124.276 E0.077
G1 X95.735 Y124.328 E0.017
G1 X96.59 Y124.222 E0.022
G1 X97.408 Y123.947 E0.021
G1 X98.16 Y123.514 E0.022
G1 X98.809 Y122.941 E0.022
G1 X99.531 Y121.883 E0.032
G1 X99.624 Y121.626 E0.006
G1 X108.519 Y116.491 E0.257
G1 X105.607 Y116.175 E0.073
G1 X104.135 Y115.943 E0.037
G1 X99.696 Y118.506 E0.128
G1 X99.326 Y117.74 E0.021
G1 X98.806 Y117.052 E0.021
G1 X98.16 Y116.482 E0.022
G1 X98.014 Y116.398 E0.004
G1 X100.179 Y115.148 E0.063
G1 X99.178 Y114.351 E0.031
G1 X97.829 Y113.703 E0.038
G1 X97.484 Y113.625 E0.009
G1 X89.196 Y118.41 E0.238
G1 F2100 E-0.5
G0 X90.062 Y117.91 F2400
G0 X89.196 Y118.41 F2400
;rapid-dry
G0 X96.599 Y107.977 F7200
G1 F2100 E0.5
;bead-support
G1 X95.79 Y108.444 F3300 E0.024
G1 X95.512 Y108.471 E0.007
G1 X94.037 Y108.277 E0.037
G1 X92.635 Y107.76 E0.037
G1 X92.148 Y107.468 E0.014
G1 X94.673 Y106.01 E0.073
G1 X94.051 Y105.835 E0.016
G1 X93.278 Y105.439 E0.022
G1 X92.319 Y104.593 E0.032
G1 X92.171 Y104.375 E0.006
G1 X90.158 Y105.538 E0.058
G1 X89.809 Y105.051 E0.015
G1 X89.398 Y104.163 E0.024
G1 X89.116 Y103.06 E0.029
G1 X91.325 Y101.784 E0.064
G1 X89.25 Y99.903 E0.069
G1 X97.143 Y95.346 E0.228
G1 X98.09 Y95.604 E0.024
G1 X99.543 Y96.372 E0.041
G1 X101.209 Y96.078 E0.042
G1 X97.797 Y98.048 E0.099
G1 X97.799 Y98.049
G1 X98.813 Y98.858 E0.032
G1 X99.534 Y99.915 E0.032
G1 X99.597 Y100.088 E0.005
G1 X113.412 Y92.112 E0.398
G1 X114.722 Y92.025 E0.032
G1 X118.375 Y91.683 E0.092
G1 X118.55 Y92.224 E0.014
G1 X103.724 Y100.784 E0.427
G1 X102.113 Y100.046 E0.044
G1 X102.371 Y101.565 E0.039
G1 X99.759 Y103.074 E0.075
G1 X99.702 Y103.296 E0.006
G1 X99.092 Y104.415 E0.032
G1 X98.504 Y105.049 E0.021
G1 X98.158 Y105.302 E0.011
G1 X99.332 Y106.399 E0.04
G1 X105.719 Y102.712 E0.184
G1 X105.632 Y102.828 E0.003
G1 X106.02 Y105.014 E0.056
G1 X107.171 Y103.469 E0.048
G1 X106.925 Y102.015 E0.037
G1 X119.389 Y94.82 E0.359
G1 X120.227 Y97.415 E0.068
G1 X103.025 Y107.346 E0.495
G1 X110.704 Y105.992 E0.195
G1 X121.96 Y99.493 E0.324
G1 X124.544 Y101.081 E0.076
G1 X120.758 Y103.266 E0.109
G1 X120.631 Y94.102 E0.228
G1 X126.244 Y90.861 E0.162
G1 X127.084 Y93.456 E0.068
G1 X121.125 Y96.896 E0.172
G1 X121.294 Y97.857 E0.024
G1 X124.717 Y97.902 E0.085
G1 X127.923 Y96.051 E0.093
G1 F2100 E-0.5
G0 X127.057 Y96.551 F2400
G0 X127.923 Y96.051 F2400
;rapid-leaky
G0 X136.778 Y100.176 F7200
G1 F2100 E0.5
;bead-support
G1 X135.857 Y100.707 F3300 E0.026
G1 X127.23 Y99.53 E0.217
G1 X126.781 Y99.789 E0.013
G1 X127.116 Y101.711 E0.049
G1 X126.95 Y102.104 E0.011
G1 X128.621 Y101.806 E0.042
G1 X136.285 Y97.381 E0.221
G1 X135.954 Y95.501 E0.047
G1 X135.678 Y94.653 E0.023
G1 X131.198 Y97.239 E0.129
G1 X131.169 Y97.086 E0.004
G1 X129.072 Y96.775 E0.052
G1 X128.85 Y95.515 E0.032
G1 X134.834 Y92.061 E0.173
G1 X133.99 Y89.468 E0.068
G1 X128.359 Y92.72 E0.162
G1 F2100 E-0.5
G0 X129.225 Y92.22 F2400
G0 X128.359 Y92.72 F2400
;rapid-dry
G0 X136.083 Y91.339 F7200
G1 F2100 E0.5
;bead-support
G1 X140.329 Y88.888 F3300 E0.122
G1 X141.589 Y91.24 E0.067
G1 X136.576 Y94.134 E0.144
G1 X136.843 Y95.65 E0.039
G1 X136.717 Y95.672 E0.003
G1 X137.157 Y96.878 E0.032
G1 X142.406 Y93.847 E0.151
G1 X143.457 Y93.661 E0.027
G1 X147.56 Y92.937 E0.104
G1 X147.755 Y92.858 E0.005
G1 X147.856 Y92.849 E0.002
G1 X147.948 Y92.869 E0.003
G1 X150.086 Y92.492 E0.054
G1 X138.085 Y99.421 E0.345
G1 X138.445 Y100.409 E0.027
G1 X142.254 Y100.093 E0.095
G1 X150.08 Y95.575 E0.225
G1 X150.119 Y95.955 E0.01
G1 X150.368 Y96.571 E0.017
G1 X151.031 Y97.341 E0.025
G1 X151.691 Y97.724 E0.019
G1 X145.386 Y101.364 E0.182
G1 X153.065 Y100.01 E0.194
G1 X160.844 Y95.519 E0.224
G1 X160.939 Y95.241 E0.007
G1 X161.035 Y94.547 E0.018
G1 X160.989 Y93.87 E0.017
G1 X160.802 Y93.216 E0.017
G1 X160.496 Y92.64 E0.016
G1 X158.464 Y93.814 E0.059
G1 X158.251 Y93.375 E0.012
G1 X157.801 Y92.853 E0.017
G1 X157.223 Y92.432 E0.018
G1 X156.537 Y92.118 E0.019
G1 X156.213 Y92.034 E0.008
G1 X157.764 Y91.139 E0.045
G1 X158.056 Y91.087 E0.007
G1 X158.053 Y90.972 E0.003
G1 X158.21 Y90.881 E0.004
G1 X157.399 Y90.594 E0.022
G1 X157.505 Y90.778 E0.005
G1 X156.807 Y90.901 E0.018
G1 X156.578 Y90.504 E0.011
G1 X155.879 Y90.628 E0.018
G1 X156.108 Y91.025 E0.012
G1 X155.409 Y91.148 E0.017
G1 X155.18 Y90.751 E0.012
G1 X155.109 Y90.763 E0.001
G1 X154.825 E0.008
G1 X154.725 Y90.781 E0.002
G1 X154.656 Y90.793 E0.002
G1 X154.652 Y90.844 E0.001
G1 X154.482 Y90.874 E0.004
G1 X154.711 Y91.271 E0.012
G1 X154.012 Y91.394 E0.018
G1 X153.783 Y90.997 E0.011
G1 X153.084 Y91.121 E0.018
G1 X153.313 Y91.517 E0.011
G1 X152.615 Y91.64 E0.018
G1 X152.386 Y91.244 E0.011
G1 X151.687 Y91.367 E0.018
G1 X151.916 Y91.764 E0.011
G1 X151.217 Y91.887 E0.018
G1 X150.988 Y91.49 E0.011
G1 X150.29 Y91.613 E0.018
G1 X150.519 Y92.01 E0.012
G1 X149.82 Y92.133 E0.017
G1 X149.591 Y91.737 E0.012
G1 X148.892 Y91.86 E0.017
G1 X149.121 Y92.256 E0.012
G1 X148.422 Y92.38 E0.017
G1 X148.194 Y91.983 E0.012
G1 X147.813 Y92.05 E0.01
G1 X147.666 Y92.024 E0.003
G1 X147.468 Y92.059 E0.005
G1 X147.7 Y92.461 E0.012
G1 X147.661 Y92.465 E0.001
G1 X147.449 Y92.55 E0.006
G1 X147.025 Y92.625 E0.01
G1 X146.796 Y92.229 E0.012
G1 X146.097 Y92.352 E0.017
G1 X146.326 Y92.748 E0.012
G1 X145.627 Y92.872 E0.018
G1 X145.399 Y92.475 E0.011
G1 X144.7 Y92.598 E0.018
G1 X144.929 Y92.995 E0.011
G1 X144.23 Y93.119 E0.018
G1 X144.001 Y92.722 E0.011
G1 X143.913 Y92.737 E0.002
G1 X143.901 Y92.688 E0.002
G1 X143.899
G1 X143.895 Y92.689
G1 X143.783 Y92.76 E0.003
G1 X143.302 Y92.845 E0.012
G1 X143.532 Y93.242 E0.012
G1 X142.833 Y93.365 E0.017
G1 X142.604 Y92.968 E0.012
G1 X142.521 Y92.982 E0.002
G1 X142.496 Y92.935 E0.001
G1 X142.241 Y92.98 E0.007
G1 X142.103 Y92.202 E0.019
G1 X142.039 Y92.082 E0.004
G1 X141.805 Y92.123 E0.006
G1 X142.007 Y93.267 E0.029
G1 X142.107 Y93.441 E0.005
G1 F2100 E-0.5
G0 X142.007 Y93.267 F2400
G0 X141.868 Y92.48 F2400
G0 X142.007 Y93.267 F2400
G0 X142.107 Y93.441 F2400
;rapid-dry
G0 X143.023 Y91.028 F7200
G1 F2100 E0.5
;bead-support
G1 X142.794 Y90.631 F3300 E0.011
G1 X143.424 Y90.52 E0.016
G1 X143.425 Y90.519
G1 X143.493 Y90.507 E0.002
G1 X143.722 Y90.905 E0.011
G1 X143.59 Y90.084 E0.021
G1 X143.974 Y89.863 E0.011
G1 X143.717 Y88.395 E0.037
G1 X144.573 Y88.408 E0.022
G1 X144.75 Y89.415 E0.025
G1 X153.06 Y84.617 E0.239
G1 X153.152 Y84.074 E0.014
G1 X153.026 Y83.391 E0.018
G1 X152.304 Y83.48 E0.018
G1 X148.549 Y84.142 E0.095
G1 X142.238 Y87.786 E0.182
G1 F2100 E-0.5
G0 X143.104 Y87.286 F2400
G0 X142.238 Y87.786 F2400
;rapid-dry
G0 X154.008 Y84.07 F7200
G1 F2100 E0.5
;bead-support
G1 X154.192 Y83.963 F3300 E0.005
G1 X154.268 Y84.354 E0.01
G1 X155.968 Y84.567 E0.043
G1 X157.278 Y84.982 E0.034
G1 X157.522 Y85.12 E0.007
G1 X155.808 Y86.11 E0.049
G1 F2100 E-0.5
G0 X156.674 Y85.61 F2400
G0 X155.808 Y86.11 F2400
;rapid-dry
G0 X159.059 Y87.312 F7200
G1 F2100 E0.5
;bead-support
G1 X157.681 Y88.108 F3300 E0.04
G1 F2100 E-0.5
G0 X158.547 Y87.608 F2400
G0 X157.681 Y88.108 F2400
;rapid-dry
G0 X154.482 Y89.947 F7200
G1 F2100 E0.5
;bead-perimeter_outer
G1 X154.835 Y89.979 F1800 E0.009
G1 X142.865 Y92.088 E0.303
G1 X142.831 Y91.894 E0.005
G1 X153.462 Y90.02 E0.269
G1 X153.971 Y89.956 E0.013
G1 X154.482 Y89.947 E0.013
G1 F2100 E-0.5
;rapid-dry
G0 X153.637 Y93.521 F7200
G1 F2100 E0.5
;bead-support
G1 X152.953 Y93.917 F3300 E0.019
G1 F2100 E-0.5
G0 X153.637 Y93.521 F2400
G0 X152.953 Y93.917 F2400
;rapid-dry
G0 X138.73 Y115.096 F7200
G1 F2100 E0.5
;bead-perimeter_outer
G1 X139.115 Y115.361 F1800 E0.012
G1 X139.476 Y115.657 E0.012
G1 X139.813 Y115.981 E0.011
G1 X140.122 Y116.329 E0.012
G1 X140.442 Y116.764 E0.013
G1 X140.653 Y117.098 E0.01
G1 X140.87 Y117.512 E0.012
G1 X141.053 Y117.941 E0.012
G1 X141.201 Y118.385 E0.011
G1 X141.313 Y118.838 E0.012
G1 X141.387 Y119.299 E0.012
G1 X141.425 Y119.764 E0.011
G1 Y120.232 E0.012
G1 X141.387 Y120.697 E0.012
G1 X141.313 Y121.158 E0.011
G1 X141.201 Y121.611 E0.012
G1 X141.053 Y122.055 E0.012
G1 X140.87 Y122.484 E0.011
G1 X140.653 Y122.898 E0.012
G1 X140.403 Y123.292 E0.011
G1 X140.123 Y123.666 E0.012
G1 X139.813 Y124.015 E0.012
G1 X139.476 Y124.339 E0.011
G1 X139.115 Y124.635 E0.012
G1 X138.73 Y124.9 E0.012
G1 X138.327 Y125.133 E0.011
G1 X137.837 Y125.359 E0.014
G1 X137.467 Y125.499 E0.01
G1 X137.018 Y125.63 E0.011
G1 X136.561 Y125.722 E0.012
G1 X136.097 Y125.779 E0.012
G1 X135.626 Y125.798 E0.011
G1 X127.83 E0.195
G1 Y114.198 E0.289
G1 X135.698 Y114.201 E0.196
G1 X136.097 Y114.218 E0.01
G1 X136.561 Y114.274 E0.012
G1 X137.018 Y114.366 E0.012
G1 X137.467 Y114.497 E0.011
G1 X137.904 Y114.662 E0.012
G1 X138.326 Y114.862 E0.012
G1 X138.73 Y115.096 E0.011
;rapid-leaky
G0 X138.537 Y115.401 F7200
;bead-perimeter_inner
G1 X138.898 Y115.649 F2400 E0.011
G1 X139.237 Y115.926 E0.011
G1 X139.553 Y116.23 E0.011
G1 X139.842 Y116.556 E0.011
G1 X140.144 Y116.967 E0.013
G1 X140.341 Y117.278 E0.009
G1 X140.545 Y117.666 E0.011
G1 X140.716 Y118.069 E0.011
G1 X140.855 Y118.485 E0.011
G1 X140.96 Y118.91 E0.011
G1 X141.03 Y119.342 E0.011
G1 X141.065 Y119.779 E0.01
G1 Y120.217 E0.011
G1 X141.03 Y120.654 E0.011
G1 X140.96 Y121.086 E0.011
G1 X140.855 Y121.511 E0.011
G1 X140.716 Y121.927 E0.011
G1 X140.545 Y122.33 E0.011
G1 X140.341 Y122.718 E0.011
G1 X140.107 Y123.088 E0.011
G1 X139.844 Y123.438 E0.011
G1 X139.553 Y123.766 E0.011
G1 X139.237 Y124.07 E0.011
G1 X138.898 Y124.347 E0.011
G1 X138.538 Y124.595 E0.01
G1 X138.161 Y124.813 E0.011
G1 X137.698 Y125.027 E0.013
G1 X137.353 Y125.157 E0.009
G1 X136.932 Y125.28 E0.011
G1 X136.503 Y125.367 E0.011
G1 X136.068 Y125.42 E0.011
G1 X135.619 Y125.438 E0.011
G1 X128.19 E0.186
G1 Y114.558 E0.271
G1 X135.69 Y114.561 E0.187
G1 X136.068 Y114.577 E0.009
G1 X136.504 Y114.629 E0.011
G1 X136.932 Y114.716 E0.011
G1 X137.352 Y114.839 E0.011
G1 X137.763 Y114.994 E0.011
G1 X138.158 Y115.181 E0.011
G1 X138.537 Y115.401 E0.011
G1 F2100 E-0.5
;rapid-dry
G0 X137.73 Y116.361 F7200
G1 F2100 E0.5
;bead-perimeter_outer
G1 X137.357 Y116.17 F1800 E0.011
G1 X136.968 Y116.016 E0.01
G1 X136.565 Y115.903 E0.01
G1 X136.153 Y115.83 E0.011
G1 X135.735 Y115.799 E0.01
G1 X135.316 Y115.809 E0.011
G1 X134.901 Y115.862 E0.01
G1 X134.493 Y115.955 E0.011
G1 X134.096 Y116.089 E0.01
G1 X133.714 Y116.261 E0.011
G1 X133.351 Y116.47 E0.01
G1 X133.011 Y116.714 E0.01
G1 X132.697 Y116.992 E0.011
G1 X132.413 Y117.298 E0.01
G1 X132.16 Y117.632 E0.011
G1 X131.941 Y117.989 E0.01
G1 X131.759 Y118.366 E0.011
G1 X131.617 Y118.76 E0.01
G1 X131.514 Y119.165 E0.011
G1 X131.451 Y119.58 E0.01
G1 X131.43 Y119.998 E0.01
G1 X131.451 Y120.416 E0.011
G1 X131.514 Y120.831 E0.01
G1 X131.617 Y121.236 E0.011
G1 X131.759 Y121.63 E0.01
G1 X131.941 Y122.007 E0.011
G1 X132.16 Y122.364 E0.01
G1 X132.413 Y122.698 E0.011
G1 X132.697 Y123.005 E0.01
G1 X133.011 Y123.282 E0.01
G1 X133.351 Y123.526 E0.011
G1 X133.714 Y123.736 E0.01
G1 X134.096 Y123.908 E0.011
G1 X134.493 Y124.042 E0.01
G1 X134.901 Y124.134 E0.011
G1 X135.316 Y124.187 E0.01
G1 X135.735 Y124.197 E0.011
G1 X136.153 Y124.166 E0.01
G1 X136.565 Y124.093 E0.01
G1 X136.968 Y123.98 E0.011
G1 X137.357 Y123.826 E0.01
G1 X137.73 Y123.635 E0.011
G1 X138.082 Y123.409 E0.01
G1 X138.41 Y123.147 E0.011
G1 X138.709 Y122.855 E0.01
G1 X138.979 Y122.534 E0.011
G1 X139.214 Y122.188 E0.01
G1 X139.414 Y121.821 E0.01
G1 X139.577 Y121.435 E0.011
G1 X139.701 Y121.035 E0.01
G1 X139.784 Y120.624 E0.011
G1 X139.825 Y120.207 E0.01
G1 Y119.789 E0.011
G1 X139.784 Y119.372 E0.01
G1 X139.701 Y118.962 E0.011
G1 X139.577 Y118.561 E0.01
G1 X139.414 Y118.176 E0.01
G1 X139.214 Y117.808 E0.011
G1 X138.979 Y117.462 E0.01
G1 X138.709 Y117.141 E0.011
G1 X138.41 Y116.849 E0.01
G1 X138.082 Y116.587 E0.011
G1 X137.73 Y116.361 E0.01
;rapid-leaky
G0 X137.91 Y116.048 F7200
;bead-perimeter_inner
G1 X137.506 Y115.841 F2400 E0.011
G1 X137.083 Y115.675 E0.012
G1 X136.645 Y115.551 E0.011
G1 X136.198 Y115.473 E0.011
G1 X135.744 Y115.438 E0.012
G1 X135.289 Y115.45 E0.011
G1 X134.838 Y115.507 E0.012
G1 X134.395 Y115.608 E0.011
G1 X133.964 Y115.753 E0.011
G1 X133.549 Y115.94 E0.012
G1 X133.156 Y116.167 E0.011
G1 X132.786 Y116.433 E0.011
G1 X132.445 Y116.734 E0.012
G1 X132.137 Y117.067 E0.011
G1 X131.862 Y117.429 E0.011
G1 X131.625 Y117.817 E0.012
G1 X131.427 Y118.226 E0.011
G1 X131.272 Y118.654 E0.011
G1 X131.16 Y119.094 E0.012
G1 X131.092 Y119.544 E0.011
G1 X131.069 Y119.998 E0.011
G1 X131.092 Y120.452 E0.012
G1 X131.16 Y120.902 E0.011
G1 X131.272 Y121.342 E0.011
G1 X131.427 Y121.77 E0.012
G1 X131.625 Y122.179 E0.011
G1 X131.862 Y122.567 E0.011
G1 X132.136 Y122.929 E0.012
G1 X132.445 Y123.263 E0.011
G1 X132.787 Y123.564 E0.011
G1 X133.155 Y123.829 E0.012
G1 X133.549 Y124.057 E0.011
G1 X133.964 Y124.244 E0.011
G1 X134.396 Y124.389 E0.012
G1 X134.839 Y124.489 E0.011
G1 X135.289 Y124.546 E0.011
G1 X135.744 Y124.558 E0.012
G1 X136.198 Y124.523 E0.011
G1 X136.645 Y124.445 E0.011
G1 X137.083 Y124.321 E0.012
G1 X137.506 Y124.155 E0.011
G1 X137.91 Y123.948 E0.011
G1 X138.292 Y123.701 E0.012
G1 X138.648 Y123.417 E0.011
G1 X138.973 Y123.1 E0.011
G1 X139.266 Y122.752 E0.012
G1 X139.521 Y122.376 E0.011
G1 X139.739 Y121.977 E0.011
G1 X139.916 Y121.558 E0.012
G1 X140.05 Y121.124 E0.011
G1 X140.141 Y120.677 E0.012
G1 X140.185 Y120.224 E0.011
G1 Y119.772 E0.011
G1 X140.141 Y119.319 E0.012
G1 X140.05 Y118.872 E0.011
G1 X139.916 Y118.438 E0.011
G1 X139.739 Y118.02 E0.012
G1 X139.522 Y117.62 E0.011
G1 X139.266 Y117.244 E0.011
G1 X138.973 Y116.896 E0.012
G1 X138.648 Y116.579 E0.011
G1 X138.292 Y116.295 E0.011
G1 X137.91 Y116.048 E0.012
G1 F2100 E-0.5
;rapid-dry
G0 X128.51 Y119.53 F7200
G1 F2100 E0.5
;bead-solid_infill
G1 X131.391 Y122.411 F1800 E0.101
G1 X131.343 Y122.333 E0.003
G1 X131.132 Y121.894 E0.012
G1 X130.966 Y121.436 E0.012
G1 X130.96 Y121.414
G1 X128.51 Y118.964 E0.087
G1 Y118.398 E0.014
G1 X130.805 Y120.693 E0.081
G1 X130.773 Y120.484 E0.005
G1 X130.753 Y120.075 E0.01
G1 X128.51 Y117.833 E0.08
G1 Y117.267 E0.014
G1 X130.772 Y119.529 E0.079
G1 X130.773 Y119.511 E0.001
G1 X130.845 Y119.037 E0.012
G1 X128.51 Y116.701 E0.082
G1 Y116.136 E0.014
G1 X130.959 Y118.585 E0.087
G1 X130.966 Y118.56
G1 X131.108 Y118.168 E0.011
G1 X128.51 Y115.57 E0.092
G1 Y115.004 E0.014
G1 X131.287 Y117.781 E0.098
G1 X131.343 Y117.663 E0.003
G1 X131.492 Y117.42 E0.007
G1 X128.95 Y114.878 E0.09
G1 X129.516 Y114.879 E0.014
G1 X131.722 Y117.084 E0.078
G1 X131.851 Y116.913 E0.005
G1 X131.891 Y116.861 E0.002
G1 X131.974 Y116.771 E0.003
G1 X130.082 Y114.879 E0.066
G1 X130.648 E0.014
G1 X132.249 Y116.48 E0.057
G1 X132.549 Y116.215 E0.01
G1 X131.214 Y114.879 E0.047
G1 X131.78 Y114.88 E0.014
G1 X132.875 Y115.975 E0.039
G1 X132.982 Y115.898 E0.003
G1 X133.224 Y115.758 E0.007
G1 X132.345 Y114.88 E0.031
G1 X132.911 E0.014
G1 X133.598 Y115.567 E0.024
G1 X133.847 Y115.455 E0.007
G1 X134 Y115.403 E0.004
G1 X133.477 Y114.88 E0.019
G1 X134.043 E0.014
G1 X134.434 Y115.271 E0.014
G1 X134.782 Y115.191 E0.009
G1 X134.904 Y115.176 E0.003
G1 X134.609 Y114.881 E0.01
G1 X135.175 E0.014
G1 X135.421 Y115.126 E0.009
G1 X135.729 Y115.119 E0.008
G1 X135.752 Y115.118
G1 X135.996 Y115.137 E0.006
G1 X135.743 Y114.883 E0.009
G1 X136.042 Y114.896 E0.008
G1 X136.36 Y114.934 E0.008
G1 X136.653 Y115.228 E0.01
G1 X136.716 Y115.239 E0.002
G1 X137.185 Y115.371 E0.012
G1 X137.477 Y115.486 E0.008
G1 X137.085 Y115.094 E0.013
G1 X137.251 Y115.142 E0.005
G1 X137.637 Y115.288 E0.01
G1 X137.893 Y115.409 E0.007
G1 X138.009 Y115.465 E0.003
G1 X138.038 Y115.481 E0.001
G1 X140.139 Y117.582 E0.074
G1 X140.255 Y117.804 E0.006
G1 X140.416 Y118.182 E0.011
G1 X140.538 Y118.547 E0.009
G1 X140.142 Y118.151 E0.014
G1 X140.217 Y118.328 E0.005
G1 X140.361 Y118.793 E0.012
G1 X140.397 Y118.971 E0.005
G1 X140.693 Y119.268 E0.01
G1 X140.712 Y119.381 E0.003
G1 X140.745 Y119.792 E0.01
G1 Y119.885 E0.003
G1 X140.493 Y119.633 E0.009
G1 X140.505 Y119.756 E0.003
G1 Y120.211 E0.011
G1 X140.727 Y120.432 E0.008
G1 X140.712 Y120.615 E0.004
G1 X140.661 Y120.932 E0.008
G1 X140.457 Y120.728 E0.008
G1 X140.362 Y121.199 E0.012
G1 X140.555 Y121.392 E0.006
G1 X140.547 Y121.422 E0.001
G1 X140.453 Y121.704 E0.007
G1 X140.416 Y121.814 E0.003
G1 X140.415 Y121.818 E0.001
G1 X140.228 Y121.631 E0.006
G1 X140.217 Y121.668 E0.001
G1 X140.164 Y121.794 E0.003
G1 X140.063 Y122.032 E0.007
G1 X140.244 Y122.213 E0.006
G1 X140.063 Y122.557 E0.01
G1 X140.048 Y122.582 E0.001
G1 X139.87 Y122.405 E0.006
G1 X139.795 Y122.544 E0.004
G1 X139.652 Y122.752 E0.006
G1 X139.827 Y122.927 E0.006
G1 X139.596 Y123.236 E0.01
G1 X139.584 Y123.249
G1 X139.411 Y123.077 E0.007
G1 X139.208 Y123.318 E0.007
G1 X139.147 Y123.378 E0.003
G1 X139.317 Y123.549 E0.006
G1 X139.029 Y123.826 E0.01
G1 X138.86 Y123.657 E0.006
G1 Y123.658
G1 X138.546 Y123.908 E0.01
G1 X138.718 Y124.081 E0.006
G1 X138.706 Y124.091
G1 X138.384 Y124.312 E0.01
G1 X138.208 Y124.136 E0.006
G1 X138.07 Y124.225 E0.004
G1 X137.846 Y124.34 E0.006
G1 X138.027 Y124.521 E0.007
G1 X138.013 Y124.529
G1 X137.641 Y124.701 E0.01
G1 X137.458 Y124.518 E0.007
G1 X137.185 Y124.625 E0.007
G1 X137.04 Y124.666 E0.004
G1 X137.233 Y124.859 E0.007
G1 X136.856 Y124.969 E0.01
G1 X136.791 Y124.982 E0.001
G1 X136.588 Y124.78 E0.007
G1 X136.238 Y124.841 E0.009
G1 X136.095 Y124.852 E0.004
G1 X136.311 Y125.068 E0.007
G1 X136.042 Y125.101 E0.007
G1 X135.789 Y125.111 E0.006
G1 X135.55 Y124.873 E0.009
G1 X135.265 Y124.866 E0.007
G1 X134.936 Y124.824 E0.008
G1 X135.23 Y125.118 E0.011
G1 X134.664 E0.014
G1 X134.21 Y124.664 E0.016
G1 X133.847 Y124.542 E0.009
G1 X133.403 Y124.342 E0.012
G1 X133.212 Y124.231 E0.006
G1 X134.098 Y125.118 E0.031
G1 X133.533 E0.014
G1 X128.51 Y120.095 E0.178
G1 Y120.661 E0.014
G1 X132.967 Y125.118 E0.157
G1 X132.401 E0.014
G1 X128.51 Y121.227 E0.137
G1 Y121.792 E0.014
G1 X131.836 Y125.118 E0.118
G1 X131.27 E0.014
G1 X128.51 Y122.358 E0.097
G1 Y122.924 E0.014
G1 X130.704 Y125.118 E0.078
G1 X130.139 E0.014
G1 X128.51 Y123.489 E0.057
G1 Y124.055 E0.014
G1 X129.573 Y125.118 E0.038
G1 X129.007 E0.014
G1 X128.51 Y124.621 E0.018
G1 F2100 E-0.5
;rapid-dry
G0 X113.556 Y122.821 F7200
G1 F2100 E0.5
;bead-support
G1 X112.824 Y123.243 F3300 E0.021
G1 X109.006 Y123.452 E0.095
G1 X106.695 Y123.703 E0.058
G1 X112.803 Y120.176 E0.176
G1 F2100 E-0.5
G0 X111.937 Y120.676 F2400
G0 X112.803 Y120.176 F2400
;rapid-dry
G0 X98.727 Y106.749 F7200
G1 F2100 E0.5
;bead-support
G1 X97.214 Y107.622 F3300 E0.044
G1 F2100 E-0.5
G0 X98.08 Y107.122 F2400
G0 X97.214 Y107.622 F2400
;LAYER:3
M107
;rapid-leaky
G0 Z0.5 F7200
G1 F2100 E0.5
;bead-support
G1 X98.727 Y106.749 F3300 E0.043
G1 F2100 E-0.5
G0 X97.861 Y107.249 F2400
G0 X98.727 Y106.749 F2400
;rapid-dry
G0 X96.599 Y107.977 F7200
G1 F2100 E0.5
;bead-support
G1 X95.79 Y108.444 F3300 E0.023
G1 X95.512 Y108.471 E0.007
G1 X94.037 Y108.277 E0.037
G1 X92.635 Y107.76 E0.038
G1 X92.148 Y107.468 E0.014
G1 X94.673 Y106.01 E0.073
G1 X94.051 Y105.835 E0.016
G1 X93.278 Y105.439 E0.021
G1 X92.319 Y104.593 E0.032
G1 X92.171 Y104.375 E0.007
G1 X90.158 Y105.538 E0.058
G1 X89.809 Y105.051 E0.015
G1 X89.398 Y104.163 E0.024
G1 X89.116 Y103.06 E0.029
G1 X91.325 Y101.784 E0.063
G1 X89.25 Y99.903 E0.07
G1 X97.143 Y95.346 E0.227
G1 X98.09 Y95.604 E0.025
G1 X99.543 Y96.372 E0.041
G1 X101.209 Y96.078 E0.042
G1 X97.797 Y98.048 E0.098
G1 X97.799 Y98.049
G1 X98.813 Y98.858 E0.033
G1 X99.534 Y99.915 E0.032
G1 X99.597 Y100.088 E0.004
G1 X113.412 Y92.112 E0.398
G1 X114.722 Y92.025 E0.033
G1 X118.375 Y91.683 E0.092
G1 X118.55 Y92.224 E0.014
G1 X103.724 Y100.784 E0.427
G1 X102.113 Y100.046 E0.044
G1 X102.371 Y101.565 E0.038
G1 X99.759 Y103.074 E0.076
G1 X99.702 Y103.296 E0.005
G1 X99.092 Y104.415 E0.032
G1 X98.504 Y105.049 E0.022
G1 X98.158 Y105.302 E0.01
G1 X99.332 Y106.399 E0.041
G1 X105.764 Y102.686 E0.185
G1 X105.637 Y102.856 E0.005
G1 X106.015 Y104.987 E0.054
G1 X107.14 Y103.476 E0.047
G1 X106.895 Y102.033 E0.037
G1 X119.389 Y94.82 E0.359
G1 X120.227 Y97.415 E0.069
G1 X103.025 Y107.346 E0.495
G1 X110.704 Y105.992 E0.194
G1 X121.96 Y99.493 E0.325
G1 X124.544 Y101.081 E0.075
G1 X120.758 Y103.266 E0.109
G1 X120.631 Y94.102 E0.229
G1 X126.244 Y90.861 E0.162
G1 X127.084 Y93.456 E0.068
G1 X121.125 Y96.896 E0.171
G1 X121.294 Y97.857 E0.025
G1 X124.717 Y97.902 E0.085
G1 X127.923 Y96.051 E0.092
G1 F2100 E-0.5
G0 X127.057 Y96.551 F2400
G0 X127.923 Y96.051 F2400
;rapid-leaky
G0 X136.778 Y100.176 F7200
G1 F2100 E0.5
;bead-support
G1 X135.857 Y100.707 F3300 E0.027
G1 X127.23 Y99.53 E0.217
G1 X126.781 Y99.789 E0.013
G1 X127.116 Y101.711 E0.049
G1 X126.95 Y102.104 E0.01
G1 X128.621 Y101.806 E0.043
G1 X136.285 Y97.381 E0.221
G1 X135.954 Y95.501 E0.047
G1 X135.678 Y94.653 E0.022
G1 X131.198 Y97.239 E0.129
G1 X131.169 Y97.086 E0.004
G1 X129.072 Y96.775 E0.053
G1 X128.85 Y95.515 E0.032
G1 X134.834 Y92.061 E0.172
G1 X133.99 Y89.468 E0.068
G1 X128.359 Y92.72 E0.163
G1 F2100 E-0.5
G0 X129.225 Y92.22 F2400
G0 X128.359 Y92.72 F2400
;rapid-dry
G0 X136.083 Y91.339 F7200
G1 F2100 E0.5
;bead-support
G1 X140.329 Y88.888 F3300 E0.122
G1 X141.589 Y91.24 E0.067
G1 X136.576 Y94.134 E0.144
G1 X136.843 Y95.65 E0.038
G1 X136.717 Y95.672 E0.004
G1 X137.157 Y96.878 E0.032
G1 X142.158 Y93.991 E0.144
G1 X142.453 Y93.938 E0.007
G1 X142.931 Y93.906 E0.012
G1 X143.388 Y93.825 E0.012
G1 X143.389 Y93.826
G1 X148.187 Y92.979 E0.121
G1 X148.308 Y92.958 E0.003
G1 X149.706 Y92.712 E0.036
G1 X138.085 Y99.421 E0.334
G1 X138.445 Y100.409 E0.027
G1 X142.254 Y100.093 E0.095
G1 X150.08 Y95.575 E0.225
G1 X150.119 Y95.955 E0.01
G1 X150.368 Y96.571 E0.017
G1 X151.031 Y97.341 E0.025
G1 X151.691 Y97.724 E0.019
G1 X145.386 Y101.364 E0.182
G1 X153.065 Y100.01 E0.194
G1 X160.844 Y95.519 E0.224
G1 X160.939 Y95.241 E0.007
G1 X161.035 Y94.547 E0.018
G1 X160.989 Y93.87 E0.017
G1 X160.802 Y93.216 E0.017
G1 X160.496 Y92.64 E0.016
G1 X158.464 Y93.814 E0.059
G1 X158.251 Y93.375 E0.012
G1 X158.171 Y93.282 E0.003
G1 X157.801 Y92.853 E0.014
G1 X157.223 Y92.432 E0.018
G1 X156.535 Y92.118 E0.019
G1 X156.21 Y92.036 E0.008
G1 X157.384 Y91.358 E0.034
G1 F2100 E-0.5
G0 X156.518 Y91.858 F2400
G0 X157.384 Y91.358 F2400
;rapid-leaky
G0 X157.399 Y90.594 F7200
G1 F2100 E0.5
;bead-support
G1 X157.585 Y90.917 F3300 E0.009
G1 X156.887 Y91.04 E0.018
G1 X156.658 Y90.643 E0.011
G1 X155.959 Y90.766 E0.018
G1 X156.188 Y91.163 E0.011
G1 X155.489 Y91.286 E0.018
G1 X155.26 Y90.89 E0.011
G1 X154.562 Y91.013 E0.018
G1 X154.791 Y91.409 E0.012
G1 X154.092 Y91.532 E0.017
G1 X153.863 Y91.136 E0.012
G1 X153.164 Y91.259 E0.017
G1 X153.393 Y91.656 E0.012
G1 X152.694 Y91.779 E0.018
G1 X152.466 Y91.382 E0.011
G1 X151.767 Y91.506 E0.018
G1 X151.996 Y91.902 E0.011
G1 X151.297 Y92.025 E0.018
G1 X151.068 Y91.629 E0.011
G1 X150.37 Y91.752 E0.018
G1 X150.598 Y92.148 E0.011
G1 X149.9 Y92.271 E0.018
G1 X149.671 Y91.875 E0.011
G1 X148.972 Y91.998 E0.018
G1 X149.201 Y92.395 E0.012
G1 X148.502 Y92.518 E0.017
G1 X148.274 Y92.121 E0.012
G1 X147.963 Y92.176 E0.007
G1 X147.899 Y92.162 E0.002
G1 X147.594 Y92.19 E0.008
G1 X147.553 Y92.206 E0.001
G1 X147.803 Y92.641 E0.012
G1 X147.105 Y92.764 E0.018
G1 X146.876 Y92.367 E0.012
G1 X146.177 Y92.49 E0.017
G1 X146.406 Y92.887 E0.012
G1 X145.708 Y93.011 E0.017
G1 X145.479 Y92.614 E0.012
G1 X144.78 Y92.737 E0.017
G1 X145.009 Y93.134 E0.012
G1 X144.311 Y93.257 E0.018
G1 X144.081 Y92.861 E0.011
G1 X144.074 Y92.862
G1 Y92.861
G1 X143.884 Y92.894 E0.005
G1 X143.883 Y92.895
G1 X143.423 Y92.976 E0.012
G1 X143.383 Y92.984 E0.001
G1 X143.611 Y93.38 E0.011
G1 X142.913 Y93.503 E0.018
G1 X142.718 Y93.166 E0.01
G1 X142.543 Y93.226 E0.004
G1 X142.516 Y93.084 E0.004
G1 X142.267 Y93.128 E0.006
G1 X142.103 Y92.202 E0.024
G1 X142.098 Y92.191
G1 X141.921 Y92.255 E0.005
G1 X141.831 Y92.271 E0.002
G1 X141.995 Y93.2 E0.023
G1 X141.985 Y93.23 E0.001
G1 X142.187 Y93.579 E0.01
G1 F2100 E-0.5
G0 X141.985 Y93.23 F2400
G0 X141.995 Y93.2 F2400
G0 X141.897 Y92.644 F2400
G0 X141.995 Y93.2 F2400
G0 X141.985 Y93.23 F2400
G0 X142.187 Y93.579 F2400
;rapid-dry
G0 X142.943 Y90.889 F7200
G1 F2100 E0.5
;bead-support
G1 X142.714 Y90.492 F3300 E0.012
G1 X143.327 Y90.385 E0.015
G1 Y90.384
G1 X143.413 Y90.369 E0.002
G1 X143.642 Y90.766 E0.012
G1 X143.97 Y89.865 E0.024
G1 X143.974 Y89.863
G1 X143.717 Y88.395 E0.037
G1 X144.573 Y88.408 E0.021
G1 X144.75 Y89.415 E0.026
G1 X153.06 Y84.617 E0.239
G1 X153.152 Y84.074 E0.014
G1 X153.026 Y83.391 E0.017
G1 X152.304 Y83.48 E0.018
G1 X148.549 Y84.142 E0.095
G1 X142.238 Y87.786 E0.182
G1 F2100 E-0.5
G0 X143.104 Y87.286 F2400
G0 X142.238 Y87.786 F2400
;rapid-leaky
G0 X147.017 Y89.946 F7200
G1 F2100 E0.5
;bead-support
G1 X146.906 Y89.753 F3300 E0.006
G1 X147.605 Y89.63 E0.018
G1 X147.643 Y89.695 E0.001
G1 F2100 E-0.5
G0 X147.605 Y89.63 F2400
G0 X146.906 Y89.753 F2400
G0 X147.014 Y89.939 F2400
G0 X146.906 Y89.753 F2400
G0 X147.605 Y89.63 F2400
G0 X147.643 Y89.695 F2400
;rapid-dry
G0 X154.008 Y84.07 F7200
G1 F2100 E0.5
;bead-support
G1 X154.192 Y83.963 F3300 E0.006
G1 X154.268 Y84.354 E0.01
G1 X155.968 Y84.567 E0.042
G1 X157.278 Y84.982 E0.035
G1 X157.522 Y85.12 E0.007
G1 X155.808 Y86.11 E0.049
G1 F2100 E-0.5
G0 X156.674 Y85.61 F2400
G0 X155.808 Y86.11 F2400
;rapid-dry
G0 X159.059 Y87.312 F7200
G1 F2100 E0.5
;bead-support
G1 X157.681 Y88.108 F3300 E0.04
G1 F2100 E-0.5
G0 X158.547 Y87.608 F2400
G0 X157.681 Y88.108 F2400
;rapid-dry
G0 X154.972 Y89.846 F7200
G1 F2100 E0.5
;bead-perimeter_outer
G1 X155.488 Y89.944 F1800 E0.013
G1 X155.644 Y89.989 E0.004
G1 X142.891 Y92.236 E0.323
G1 X142.805 Y91.746 E0.012
G1 X153.436 Y89.872 E0.27
G1 X153.945 Y89.808 E0.012
G1 X154.456 Y89.8 E0.013
G1 X154.972 Y89.846 E0.013
G1 F2100 E-0.5
;rapid-dry
G0 X153.637 Y93.522 F7200
G1 F2100 E0.5
;bead-support
G1 X152.953 Y93.916 F3300 E0.02
G1 F2100 E-0.5
G0 X153.637 Y93.522 F2400
G0 X152.953 Y93.916 F2400
;rapid-dry
G0 X138.73 Y115.096 F7200
G1 F2100 E0.5
;bead-perimeter_outer
G1 X139.115 Y115.361 F1800 E0.011
G1 X139.476 Y115.657 E0.012
G1 X139.813 Y115.981 E0.012
G1 X140.123 Y116.33 E0.011
G1 X140.403 Y116.704 E0.012
G1 X140.653 Y117.098 E0.012
G1 X140.87 Y117.512 E0.011
G1 X141.053 Y117.941 E0.012
G1 X141.201 Y118.385 E0.012
G1 X141.313 Y118.838 E0.011
G1 X141.387 Y119.299 E0.012
G1 X141.425 Y119.764 E0.012
G1 Y120.232 E0.011
G1 X141.387 Y120.697 E0.012
G1 X141.313 Y121.158 E0.012
G1 X141.201 Y121.612 E0.011
G1 X141.053 Y122.055 E0.012
G1 X140.87 Y122.484 E0.011
G1 X140.653 Y122.898 E0.012
G1 X140.403 Y123.292 E0.012
G1 X140.123 Y123.666 E0.011
G1 X139.813 Y124.015 E0.012
G1 X139.476 Y124.339 E0.012
G1 X139.115 Y124.635 E0.011
G1 X138.73 Y124.9 E0.012
G1 X138.326 Y125.134 E0.012
G1 X137.904 Y125.334 E0.011
G1 X137.467 Y125.499 E0.012
G1 X137.018 Y125.63 E0.012
G1 X136.561 Y125.722 E0.011
G1 X136.097 Y125.779 E0.012
G1 X135.626 Y125.798 E0.012
G1 X127.83 E0.194
G1 Y114.198 E0.29
G1 X135.734 Y114.202 E0.197
G1 X136.097 Y114.217 E0.009
G1 X136.561 Y114.274 E0.011
G1 X137.018 Y114.366 E0.012
G1 X137.467 Y114.497 E0.012
G1 X137.904 Y114.662 E0.011
G1 X138.326 Y114.862 E0.012
G1 X138.73 Y115.096 E0.012
;rapid-leaky
G0 X138.537 Y115.401 F7200
;bead-perimeter_inner
G1 X138.898 Y115.649 F2400 E0.011
G1 X139.237 Y115.926 E0.011
G1 X139.553 Y116.23 E0.01
G1 X139.844 Y116.558 E0.011
G1 X140.107 Y116.908 E0.011
G1 X140.341 Y117.278 E0.011
G1 X140.545 Y117.666 E0.011
G1 X140.716 Y118.069 E0.011
G1 X140.855 Y118.485 E0.011
G1 X140.96 Y118.91 E0.011
G1 X141.03 Y119.343 E0.011
G1 X141.065 Y119.778 E0.011
G1 Y120.217 E0.011
G1 X141.03 Y120.654 E0.011
G1 X140.96 Y121.086 E0.011
G1 X140.855 Y121.512 E0.011
G1 X140.716 Y121.927 E0.01
G1 X140.545 Y122.33 E0.011
G1 X140.341 Y122.718 E0.011
G1 X140.107 Y123.088 E0.011
G1 X139.844 Y123.438 E0.011
G1 X139.553 Y123.766 E0.011
G1 X139.237 Y124.07 E0.011
G1 X138.898 Y124.347 E0.011
G1 X138.537 Y124.595 E0.011
G1 X138.158 Y124.815 E0.011
G1 X137.763 Y125.002 E0.011
G1 X137.352 Y125.157 E0.011
G1 X136.932 Y125.28 E0.011
G1 X136.503 Y125.367 E0.01
G1 X136.068 Y125.42 E0.011
G1 X135.619 Y125.438 E0.012
G1 X128.19 E0.185
G1 Y114.558 E0.271
G1 X135.726 Y114.562 E0.188
G1 X136.067 Y114.577 E0.009
G1 X136.504 Y114.629 E0.011
G1 X136.932 Y114.716 E0.011
G1 X137.352 Y114.839 E0.011
G1 X137.764 Y114.994 E0.011
G1 X138.158 Y115.181 E0.011
G1 X138.537 Y115.401 E0.01
G1 F2100 E-0.5
;rapid-dry
G0 X137.73 Y116.361 F7200
G1 F2100 E0.5
;bead-perimeter_outer
G1 X137.357 Y116.17 F1800 E0.011
G1 X136.968 Y116.016 E0.01
G1 X136.565 Y115.903 E0.011
G1 X136.153 Y115.83 E0.01
G1 X135.735 Y115.799 E0.011
G1 X135.316 Y115.809 E0.01
G1 X134.901 Y115.862 E0.011
G1 X134.493 Y115.955 E0.01
G1 X134.096 Y116.089 E0.01
G1 X133.714 Y116.261 E0.011
G1 X133.351 Y116.47 E0.01
G1 X133.011 Y116.714 E0.011
G1 X132.697 Y116.992 E0.01
G1 X132.413 Y117.298 E0.011
G1 X132.16 Y117.632 E0.01
G1 X131.941 Y117.989 E0.011
G1 X131.759 Y118.366 E0.01
G1 X131.617 Y118.76 E0.01
G1 X131.514 Y119.165 E0.011
G1 X131.451 Y119.58 E0.01
G1 X131.43 Y119.998 E0.011
G1 X131.451 Y120.416 E0.01
G1 X131.514 Y120.831 E0.011
G1 X131.617 Y121.236 E0.01
G1 X131.759 Y121.63 E0.011
G1 X131.941 Y122.007 E0.01
G1 X132.16 Y122.364 E0.01
G1 X132.413 Y122.698 E0.011
G1 X132.697 Y123.005 E0.01
G1 X133.011 Y123.282 E0.011
G1 X133.351 Y123.526 E0.01
G1 X133.714 Y123.736 E0.011
G1 X134.096 Y123.908 E0.01
G1 X134.493 Y124.042 E0.011
G1 X134.901 Y124.134 E0.01
G1 X135.316 Y124.187 E0.01
G1 X135.735 Y124.197 E0.011
G1 X136.153 Y124.166 E0.01
G1 X136.565 Y124.093 E0.011
G1 X136.968 Y123.98 E0.01
G1 X137.357 Y123.826 E0.011
G1 X137.73 Y123.635 E0.01
G1 X138.082 Y123.409 E0.011
G1 X138.41 Y123.147 E0.01
G1 X138.709 Y122.855 E0.01
G1 X138.979 Y122.534 E0.011
G1 X139.214 Y122.188 E0.01
G1 X139.414 Y121.821 E0.011
G1 X139.577 Y121.435 E0.01
G1 X139.701 Y121.035 E0.011
G1 X139.784 Y120.624 E0.01
G1 X139.825 Y120.207 E0.011
G1 Y119.789 E0.01
G1 X139.784 Y119.372 E0.01
G1 X139.701 Y118.962 E0.011
G1 X139.577 Y118.561 E0.01
G1 X139.414 Y118.176 E0.011
G1 X139.214 Y117.808 E0.01
G1 X138.979 Y117.462 E0.011
G1 X138.709 Y117.141 E0.01
G1 X138.41 Y116.849 E0.011
G1 X138.082 Y116.587 E0.01
G1 X137.73 Y116.361 E0.011
;rapid-leaky
G0 X137.91 Y116.048 F7200
;bead-perimeter_inner
G1 X137.506 Y115.841 F2400 E0.011
G1 X137.083 Y115.675 E0.011
G1 X136.645 Y115.551 E0.012
G1 X136.198 Y115.473 E0.011
G1 X135.744 Y115.438 E0.011
G1 X135.289 Y115.45 E0.012
G1 X134.838 Y115.507 E0.011
G1 X134.395 Y115.608 E0.011
G1 X133.964 Y115.753 E0.012
G1 X133.549 Y115.94 E0.011
G1 X133.156 Y116.167 E0.011
G1 X132.786 Y116.433 E0.012
G1 X132.445 Y116.734 E0.011
G1 X132.137 Y117.067 E0.011
G1 X131.862 Y117.429 E0.012
G1 X131.625 Y117.817 E0.011
G1 X131.427 Y118.226 E0.011
G1 X131.272 Y118.654 E0.012
G1 X131.16 Y119.094 E0.011
G1 X131.092 Y119.545 E0.011
G1 X131.069 Y119.998 E0.012
G1 X131.092 Y120.452 E0.011
G1 X131.16 Y120.902 E0.011
G1 X131.272 Y121.342 E0.012
G1 X131.427 Y121.77 E0.011
G1 X131.625 Y122.179 E0.011
G1 X131.862 Y122.567 E0.012
G1 X132.136 Y122.929 E0.011
G1 X132.445 Y123.263 E0.011
G1 X132.787 Y123.564 E0.012
G1 X133.155 Y123.829 E0.011
G1 X133.549 Y124.057 E0.011
G1 X133.964 Y124.244 E0.012
G1 X134.396 Y124.389 E0.011
G1 X134.839 Y124.489 E0.011
G1 X135.289 Y124.546 E0.012
G1 X135.744 Y124.558 E0.011
G1 X136.198 Y124.523 E0.011
G1 X136.645 Y124.445 E0.012
G1 X137.083 Y124.321 E0.011
G1 X137.506 Y124.155 E0.011
G1 X137.91 Y123.948 E0.012
G1 X138.292 Y123.701 E0.011
G1 X138.648 Y123.417 E0.012
G1 X138.973 Y123.1 E0.011
G1 X139.266 Y122.752 E0.011
G1 X139.521 Y122.376 E0.012
G1 X139.739 Y121.977 E0.011
G1 X139.916 Y121.558 E0.011
G1 X140.05 Y121.124 E0.012
G1 X140.141 Y120.677 E0.011
G1 X140.185 Y120.224 E0.011
G1 Y119.772 E0.012
G1 X140.141 Y119.319 E0.011
G1 X140.05 Y118.872 E0.011
G1 X139.916 Y118.438 E0.012
G1 X139.739 Y118.02 E0.011
G1 X139.522 Y117.62 E0.011
G1 X139.266 Y117.244 E0.012
G1 X138.973 Y116.896 E0.011
G1 X138.648 Y116.579 E0.011
G1 X138.292 Y116.295 E0.012
G1 X137.91 Y116.048 E0.011
G1 F2100 E-0.5
;rapid-dry
G0 X128.51 Y115.357 F7200
G1 F2100 E0.5
;bead-solid_infill
G1 X128.988 Y114.879 F1800 E0.017
G1 X129.553 E0.014
G1 X128.51 Y115.922 E0.037
G1 Y116.488 E0.014
G1 X130.119 Y114.879 E0.057
G1 X130.684 Y114.88 E0.014
G1 X128.51 Y117.054 E0.076
G1 Y117.619 E0.015
G1 X131.249 Y114.88 E0.096
G1 X131.815 E0.014
G1 X128.51 Y118.185 E0.117
G1 Y118.751 E0.014
G1 X132.38 Y114.88 E0.137
G1 X132.946 Y114.881 E0.014
