;deget aratator
;Printer name: Prusa i3 MK3
;TIME:3051
;Print time: 50m:51s
;Extruder 1 material used: 2440mm
;Extruder 1 material name: 
;Extruder 1 filament diameter: 1.75mm
;Extruder 1 nozzle diameter: 0.4mm
;Extruder 1 offset x: 0mm
;Extruder 1 offset y: 0mm
;Extruder 1 offset z: 0mm
;Extruder 1 max temp: 200
;Bed temp: 70
;Layer count: 73
;Width: 250mm
;Depth: 210mm
;Height: 210mm
;Center x: 125mm
;Center y: 105mm
;Center z: 0mm
;Count of bodies: 3
;Fusion version: 2.0.19440
G21
M115 U3.0.10 ;tell printer latest fw version
G28 W ;home all without mesh bed level
;--------------------------------
;Selected Profile: PLA Direct Drive
;--------------------------------
;Selected Printer: Prusa, i3 MK3
;--------------------------------
T0
M140 S70
M104 S200 T0
M190 S70
M109 S200 T0
G80 ;mesh bed leveling
G92 E0
G90
M83
G0 X10 Y10 Z10 F7200
G92 E0
;--------------------------------
;Part 1
;LAYER_COUNT:73
;LAYER:1
M107
;rapid-leaky
G0 X20 Y20.5 Z0.2 F7200
;bead-prime
G1 X120 F720 E8.315
G1 F2100 E-0.5
;rapid-dry
G0 X113.361 Y80.931 F7200
G1 F2100 E0.5
;bead-skirt/brim
G1 X118.428 Y81.315 F960 E0.169
G1 X123.347 Y81.487 E0.164
G1 X128.149 Y81.458 E0.159
G1 X132.853 Y81.241 E0.157
G1 X139.484 Y80.647 E0.222
G1 X143.5 Y80.081 E0.134
G1 X145.03 Y79.845 E0.052
G1 X146.495 Y79.605 E0.049
G1 X148.99 Y79.162 E0.085
G1 X151.307 Y78.711 E0.078
G1 X151.636 Y78.58 E0.012
G1 X152.352 Y78.354 E0.025
G1 X153.085 Y78.182 E0.025
G1 X153.826 Y78.067 E0.025
G1 X154.572 Y78.007 E0.025
G1 X155.323 Y78.002 E0.025
G1 X156.073 Y78.055 E0.025
G1 X156.821 Y78.165 E0.025
G1 X157.59 Y78.34 E0.026
G1 X158.266 Y78.546 E0.024
G1 X158.965 Y78.817 E0.024
G1 X159.643 Y79.14 E0.025
G1 X160.292 Y79.513 E0.025
G1 X160.914 Y79.933 E0.025
G1 X161.503 Y80.4 E0.025
G1 X162.054 Y80.909 E0.025
G1 X162.567 Y81.458 E0.025
G1 X163.035 Y82.043 E0.025
G1 X163.458 Y82.66 E0.025
G1 X163.836 Y83.312 E0.025
G1 X164.162 Y83.986 E0.025
G1 X164.438 Y84.685 E0.025
G1 X164.66 Y85.404 E0.025
G1 X164.826 Y86.133 E0.025
G1 X164.939 Y86.875 E0.025
G1 X164.995 Y87.625 E0.025
G1 Y88.374 E0.025
G1 X164.939 Y89.124 E0.025
G1 X164.826 Y89.866 E0.025
G1 X164.66 Y90.595 E0.025
G1 X164.437 Y91.315 E0.025
G1 X164.162 Y92.012 E0.025
G1 X163.837 Y92.686 E0.025
G1 X163.458 Y93.339 E0.025
G1 X163.03 Y93.962 E0.025
G1 X162.534 Y94.576 E0.026
G1 X162.054 Y95.091 E0.023
G1 X161.496 Y95.605 E0.026
G1 X160.876 Y96.091 E0.026
G1 X160.294 Y96.486 E0.023
G1 X159.636 Y96.863 E0.026
G1 X158.921 Y97.199 E0.026
G1 X158.265 Y97.454 E0.023
G1 X157.539 Y97.674 E0.025
G1 X156.767 Y97.843 E0.027
G1 X156.072 Y97.944 E0.023
G1 X155.316 Y97.997 E0.025
G1 X154.525 Y97.989 E0.027
G1 X153.826 Y97.932 E0.023
G1 X153.085 Y97.817 E0.025
G1 X152.352 Y97.645 E0.025
G1 X151.636 Y97.419 E0.025
G1 X151.301 Y97.285 E0.012
G1 X148.996 Y96.838 E0.078
G1 X146.503 Y96.396 E0.084
G1 X141 Y95.521 E0.186
G1 Y95.507
G1 X134.783 Y94.899 E0.208
G1 X129.819 Y94.591 E0.165
G1 X125.094 Y94.491 E0.157
G1 X120.526 Y94.577 E0.152
G1 X114.515 Y94.959 E0.201
G1 X109.424 Y95.506 E0.17
G1 X105.439 Y96.07 E0.134
G1 X101.284 Y96.776 E0.14
G1 X99.493 Y97.122 E0.061
G1 X99.714 Y97.228 E0.008
G1 X103.103 Y98.038 E0.116
G1 X106.535 Y98.685 E0.116
G1 X110.612 Y99.22 E0.137
G1 X113.67 Y99.447 E0.102
G1 X117.343 Y99.514 E0.122
G1 X120.115 Y99.415 E0.092
G1 X123.718 Y99.096 E0.12
G1 X126.059 Y98.776 E0.079
G1 X128.257 Y98.417 E0.074
G1 X130.159 E0.063
G1 X130.376 Y98.275 E0.009
G1 X131.015 Y97.926 E0.024
G1 X131.686 Y97.628 E0.025
G1 X132.377 Y97.387 E0.024
G1 X133.079 Y97.204 E0.024
G1 X133.799 Y97.076 E0.024
G1 X134.528 Y97.009 E0.025
G1 X135.258 Y97 E0.024
G1 X135.988 Y97.051 E0.024
G1 X136.707 Y97.16 E0.024
G1 X137.419 Y97.327 E0.025
G1 X138.116 Y97.552 E0.024
G1 X138.798 Y97.836 E0.025
G1 X139.479 Y98.191 E0.025
G1 X140.059 Y98.553 E0.023
G1 X140.645 Y98.986 E0.024
G1 X141.197 Y99.468 E0.025
G1 X141.712 Y99.998 E0.024
G1 X142.197 Y100.593 E0.026
G1 X142.588 Y101.156 E0.023
G1 X142.955 Y101.785 E0.024
G1 X143.271 Y102.442 E0.024
G1 X143.533 Y103.128 E0.024
G1 X143.737 Y103.83 E0.025
G1 X143.884 Y104.544 E0.024
G1 X143.973 Y105.268 E0.024
G1 X144.003 Y105.999 E0.025
G1 X143.972 Y106.737 E0.024
G1 X143.875 Y107.496 E0.026
G1 X143.737 Y108.167 E0.022
G1 X143.533 Y108.87 E0.025
G1 X143.27 Y109.556 E0.024
G1 X142.955 Y110.212 E0.024
G1 X142.588 Y110.842 E0.025
G1 X142.166 Y111.447 E0.024
G1 X141.675 Y112.037 E0.026
G1 X141.196 Y112.529 E0.023
G1 X140.645 Y113.011 E0.024
G1 X140.059 Y113.445 E0.024
G1 X139.434 Y113.833 E0.025
G1 X138.75 Y114.182 E0.025
G1 X138.115 Y114.445 E0.023
G1 X137.422 Y114.67 E0.024
G1 X136.707 Y114.838 E0.025
G1 X135.985 Y114.946 E0.024
G1 X135.251 Y114.998 E0.024
G1 X134.483 Y114.985 E0.026
G1 X133.801 Y114.921 E0.023
G1 X133.082 Y114.795 E0.024
G1 X132.374 Y114.61 E0.024
G1 X131.676 Y114.366 E0.025
G1 X130.975 Y114.05 E0.026
G1 X130.374 Y113.721 E0.022
G1 X130.159 Y113.58 E0.009
G1 X128.257 E0.063
G1 X126.052 Y113.22 E0.074
G1 X124.153 Y112.951 E0.064
G1 X120.111 Y112.582 E0.135
G1 X117.343 Y112.483 E0.092
G1 X113.67 Y112.55 E0.123
G1 X110.612 Y112.777 E0.102
G1 X106.534 Y113.312 E0.136
G1 X103.103 Y113.959 E0.116
G1 X99.714 Y114.769 E0.116
G1 X99.291 Y114.971 E0.016
G1 X104.722 Y116.084 E0.184
G1 X106.769 Y116.462 E0.07
G1 X108.106 Y116.659 E0.045
G1 X109.812 Y116.863 E0.057
G1 X112.238 Y116.972 E0.08
G1 X117.005 Y117.049 E0.159
G1 Y128.965 E0.396
G1 X112.68 Y129.017 E0.144
G1 X109.856 Y129.133 E0.094
G1 X108.129 Y129.339 E0.058
G1 X106.781 Y129.537 E0.045
G1 X104.776 Y129.906 E0.068
G1 X100.186 Y130.849 E0.156
G1 X97.007 Y131.479 E0.108
G1 X96.632 Y131.611 E0.013
G1 X95.927 Y131.795 E0.024
G1 X95.207 Y131.923 E0.025
G1 X94.478 Y131.99 E0.024
G1 X93.751 Y131.999 E0.024
G1 X93.021 Y131.95 E0.024
G1 X92.296 Y131.84 E0.025
G1 X91.584 Y131.672 E0.024
G1 X90.874 Y131.441 E0.025
G1 X90.12 Y131.118 E0.027
G1 X89.567 Y130.834 E0.021
G1 X88.945 Y130.447 E0.024
G1 X88.36 Y130.013 E0.025
G1 X87.808 Y129.532 E0.024
G1 X87.286 Y128.993 E0.025
G1 X86.77 Y128.353 E0.027
G1 X86.416 Y127.842 E0.021
G1 X86.051 Y127.217 E0.024
G1 X85.734 Y126.558 E0.024
G1 X85.472 Y125.871 E0.025
G1 X85.268 Y125.169 E0.024
G1 X85.121 Y124.455 E0.024
G1 X85.033 Y123.731 E0.025
G1 X85.002 Y123.001 E0.024
G1 X85.032 Y122.27 E0.024
G1 X85.121 Y121.546 E0.024
G1 X85.268 Y120.832 E0.025
G1 X85.472 Y120.129 E0.024
G1 X85.735 Y119.443 E0.024
G1 X86.05 Y118.787 E0.025
G1 X86.416 Y118.159 E0.024
G1 X86.834 Y117.557 E0.024
G1 X87.3 Y116.993 E0.025
G1 X87.808 Y116.47 E0.024
G1 X88.358 Y115.989 E0.024
G1 X88.945 Y115.554 E0.024
G1 X89.569 Y115.166 E0.025
G1 X90.278 Y114.809 E0.026
G1 X89.009 Y114.008 E0.05
G1 X87.448 Y112.558 E0.071
G1 X86.498 Y111.268 E0.053
G1 X85.575 Y109.349 E0.071
G1 X85.176 Y107.857 E0.052
G1 X85.009 Y106.372 E0.049
G1 X85.067 Y104.826 E0.052
G1 X85.552 Y102.696 E0.072
G1 X86.498 Y100.73 E0.073
G1 X87.448 Y99.439 E0.053
G1 X89.009 Y97.989 E0.071
G1 X90.319 Y97.163 E0.052
G1 X90.696 Y96.998 E0.013
G1 X90.405 Y96.885 E0.011
G1 X89.086 Y96.06 E0.051
G1 X87.908 Y95.053 E0.052
G1 X86.569 Y93.382 E0.071
G1 X85.842 Y92.011 E0.052
G1 X85.326 Y90.544 E0.052
G1 X85.007 Y88.431 E0.071
G1 X85.067 Y86.822 E0.053
G1 X85.541 Y84.741 E0.071
G1 X86.19 Y83.262 E0.054
G1 X87.428 Y81.454 E0.073
G1 X89.041 Y79.965 E0.073
G1 X90.406 Y79.113 E0.053
G1 X92.398 Y78.341 E0.071
G1 X93.931 Y78.059 E0.052
G1 X95.427 Y78.01 E0.05
G1 X96.973 Y78.193 E0.052
G1 X98.584 Y78.701 E0.056
G1 X99.849 Y78.952 E0.043
G1 X104.053 Y79.708 E0.142
G1 X108.11 Y80.32 E0.136
G1 X113.361 Y80.931 E0.176
;rapid-leaky
G0 X113.323 Y81.329 F7200
;bead-skirt/brim
G1 X118.406 Y81.714 F960 E0.17
G1 X123.341 Y81.887 E0.164
G1 X128.159 Y81.858 E0.16
G1 X132.88 Y81.64 E0.157
G1 X139.53 Y81.044 E0.222
G1 X143.558 Y80.476 E0.136
G1 X145.093 Y80.24 E0.051
G1 X146.563 Y79.999 E0.05
G1 X149.063 Y79.556 E0.084
G1 X151.421 Y79.097 E0.08
G1 X151.771 Y78.957 E0.013
G1 X152.458 Y78.74 E0.024
G1 X153.161 Y78.575 E0.024
G1 X153.873 Y78.464 E0.024
G1 X154.589 Y78.407 E0.024
G1 X155.31 Y78.402 E0.024
G1 X156.03 Y78.453 E0.024
G1 X156.747 Y78.558 E0.024
G1 X157.487 Y78.727 E0.025
G1 X158.135 Y78.924 E0.023
G1 X158.806 Y79.184 E0.023
G1 X159.457 Y79.495 E0.024
G1 X160.081 Y79.852 E0.024
G1 X160.677 Y80.256 E0.024
G1 X161.243 Y80.704 E0.024
G1 X161.772 Y81.192 E0.024
G1 X162.264 Y81.72 E0.024
G1 X162.713 Y82.281 E0.024
G1 X163.12 Y82.874 E0.024
G1 X163.482 Y83.499 E0.024
G1 X163.795 Y84.147 E0.024
G1 X164.06 Y84.818 E0.024
G1 X164.273 Y85.508 E0.024
G1 X164.433 Y86.208 E0.024
G1 X164.541 Y86.92 E0.024
G1 X164.595 Y87.64 E0.024
G1 Y88.359 E0.024
G1 X164.541 Y89.079 E0.024
G1 X164.433 Y89.791 E0.024
G1 X164.273 Y90.491 E0.024
G1 X164.06 Y91.182 E0.024
G1 X163.795 Y91.851 E0.024
G1 X163.483 Y92.499 E0.024
G1 X163.12 Y93.125 E0.024
G1 X162.709 Y93.723 E0.024
G1 X162.232 Y94.313 E0.025
G1 X161.772 Y94.807 E0.022
G1 X161.237 Y95.3 E0.025
G1 X160.64 Y95.768 E0.025
G1 X160.082 Y96.146 E0.022
G1 X159.451 Y96.508 E0.024
G1 X158.764 Y96.831 E0.026
G1 X158.134 Y97.075 E0.022
G1 X157.438 Y97.287 E0.024
G1 X156.695 Y97.449 E0.026
G1 X156.029 Y97.546 E0.022
G1 X155.304 Y97.597 E0.024
G1 X154.544 Y97.589 E0.026
G1 X153.873 Y97.535 E0.022
G1 X153.161 Y97.424 E0.024
G1 X152.458 Y97.259 E0.024
G1 X151.77 Y97.042 E0.024
G1 X151.416 Y96.9 E0.013
G1 X150.342 Y96.686 E0.036
G1 X149.068 Y96.444 E0.043
G1 X146.569 Y96.001 E0.085
G1 X141.4 Y95.179 E0.174
G1 Y95.144 E0.001
G1 X134.815 Y94.5 E0.22
G1 X129.836 Y94.191 E0.166
G1 X125.094 Y94.091 E0.158
G1 X120.509 Y94.177 E0.152
G1 X114.481 Y94.56 E0.201
G1 X109.375 Y95.109 E0.171
G1 X105.378 Y95.674 E0.134
G1 X101.212 Y96.382 E0.141
G1 X98.479 Y96.911 E0.092
G1 X98.267 Y96.978 E0.008
G1 X99.58 Y97.608 E0.048
G1 X103.019 Y98.43 E0.118
G1 X106.471 Y99.081 E0.116
G1 X110.571 Y99.619 E0.138
G1 X113.652 Y99.847 E0.103
G1 X117.346 Y99.914 E0.123
G1 X120.14 Y99.814 E0.093
G1 X123.763 Y99.493 E0.121
G1 X126.118 Y99.172 E0.079
G1 X128.289 Y98.817 E0.073
G1 X130.278 E0.066
G1 X130.581 Y98.619 E0.012
G1 X131.192 Y98.285 E0.023
G1 X131.833 Y98 E0.023
G1 X132.493 Y97.77 E0.024
G1 X133.165 Y97.595 E0.023
G1 X133.852 Y97.473 E0.023
G1 X134.549 Y97.409 E0.023
G1 X135.247 Y97.4 E0.024
G1 X135.944 Y97.449 E0.023
G1 X136.631 Y97.553 E0.023
G1 X137.311 Y97.712 E0.023
G1 X137.977 Y97.928 E0.023
G1 X138.628 Y98.198 E0.024
G1 X139.28 Y98.539 E0.024
G1 X139.834 Y98.884 E0.022
G1 X140.394 Y99.298 E0.023
G1 X140.921 Y99.759 E0.023
G1 X141.413 Y100.265 E0.024
G1 X141.877 Y100.834 E0.024
G1 X142.251 Y101.371 E0.022
G1 X142.601 Y101.972 E0.023
G1 X142.903 Y102.601 E0.023
G1 X143.154 Y103.256 E0.024
G1 X143.349 Y103.926 E0.023
G1 X143.489 Y104.609 E0.023
G1 X143.574 Y105.301 E0.023
G1 X143.602 Y105.999 E0.024
G1 X143.573 Y106.703 E0.023
G1 X143.481 Y107.43 E0.024
G1 X143.349 Y108.071 E0.022
G1 X143.154 Y108.742 E0.023
G1 X142.903 Y109.397 E0.024
G1 X142.601 Y110.025 E0.023
G1 X142.251 Y110.626 E0.023
G1 X141.848 Y111.204 E0.024
G1 X141.378 Y111.769 E0.024
G1 X140.921 Y112.239 E0.022
G1 X140.394 Y112.699 E0.023
G1 X139.834 Y113.114 E0.023
G1 X139.238 Y113.485 E0.024
G1 X138.582 Y113.818 E0.024
G1 X137.976 Y114.069 E0.022
G1 X137.314 Y114.284 E0.023
G1 X136.631 Y114.445 E0.023
G1 X135.942 Y114.549 E0.024
G1 X135.24 Y114.598 E0.023
G1 X134.505 Y114.585 E0.024
G1 X133.854 Y114.524 E0.022
G1 X133.167 Y114.404 E0.023
G1 X132.491 Y114.227 E0.024
G1 X131.825 Y113.994 E0.023
G1 X131.153 Y113.691 E0.025
G1 X130.58 Y113.378 E0.021
G1 X130.278 Y113.18 E0.012
G1 X128.289 E0.066
G1 X126.112 Y112.824 E0.074
G1 X124.199 Y112.554 E0.064
G1 X120.136 Y112.183 E0.136
G1 X117.346 Y112.083 E0.093
G1 X113.652 Y112.15 E0.122
G1 X110.571 Y112.378 E0.103
G1 X106.471 Y112.916 E0.138
G1 X103.019 Y113.567 E0.117
G1 X99.58 Y114.389 E0.117
G1 X98.197 Y115.052 E0.051
G1 X97.956 Y115.116 E0.009
G1 X104.645 Y116.477 E0.227
G1 X106.704 Y116.857 E0.069
G1 X108.053 Y117.056 E0.046
G1 X109.779 Y117.262 E0.057
G1 X112.226 Y117.372 E0.082
G1 X116.605 Y117.443 E0.145
G1 Y128.57 E0.371
G1 X112.669 Y128.617 E0.13
G1 X109.824 Y128.734 E0.095
G1 X108.076 Y128.943 E0.059
G1 X106.715 Y129.143 E0.045
G1 X104.7 Y129.513 E0.069
G1 X100.107 Y130.457 E0.156
G1 X96.902 Y131.093 E0.108
G1 X96.515 Y131.228 E0.014
G1 X95.842 Y131.404 E0.023
G1 X95.154 Y131.526 E0.023
G1 X94.457 Y131.59 E0.024
G1 X93.762 Y131.599 E0.023
G1 X93.064 Y131.552 E0.023
G1 X92.372 Y131.447 E0.023
G1 X91.692 Y131.286 E0.023
G1 X91.015 Y131.066 E0.024
G1 X90.29 Y130.756 E0.026
G1 X89.765 Y130.485 E0.02
G1 X89.17 Y130.116 E0.023
G1 X88.611 Y129.701 E0.023
G1 X88.084 Y129.242 E0.024
G1 X87.586 Y128.728 E0.023
G1 X87.091 Y128.114 E0.027
G1 X86.753 Y127.627 E0.019
G1 X86.405 Y127.029 E0.023
G1 X86.102 Y126.399 E0.024
G1 X85.851 Y125.744 E0.023
G1 X85.656 Y125.072 E0.023
G1 X85.516 Y124.39 E0.023
G1 X85.432 Y123.698 E0.024
G1 X85.403 Y123.001 E0.023
G1 X85.431 Y122.303 E0.023
G1 X85.516 Y121.611 E0.023
G1 X85.656 Y120.929 E0.023
G1 X85.852 Y120.257 E0.024
G1 X86.102 Y119.602 E0.023
G1 X86.404 Y118.974 E0.023
G1 X86.753 Y118.374 E0.023
G1 X87.153 Y117.799 E0.024
G1 X87.598 Y117.26 E0.023
G1 X88.084 Y116.761 E0.023
G1 X88.609 Y116.301 E0.023
G1 X89.17 Y115.885 E0.023
G1 X89.766 Y115.515 E0.024
G1 X90.386 Y115.197 E0.023
G1 X91.029 Y114.93 E0.023
G1 X91.356 Y114.824 E0.012
G1 X90.546 Y114.505 E0.029
G1 X89.254 Y113.69 E0.05
G1 X87.748 Y112.29 E0.069
G1 X86.843 Y111.06 E0.051
G1 X85.951 Y109.21 E0.068
G1 X85.57 Y107.783 E0.049
G1 X85.41 Y106.357 E0.048
G1 X85.465 Y104.879 E0.049
G1 X85.932 Y102.829 E0.07
G1 X86.842 Y100.937 E0.07
G1 X87.748 Y99.707 E0.05
G1 X89.254 Y98.307 E0.069
G1 X90.507 Y97.518 E0.049
G1 X91.744 Y96.976 E0.045
G1 X90.585 Y96.526 E0.041
G1 X89.323 Y95.737 E0.05
G1 X88.196 Y94.773 E0.049
G1 X86.905 Y93.161 E0.069
G1 X86.21 Y91.85 E0.049
G1 X85.716 Y90.446 E0.05
G1 X85.408 Y88.408 E0.068
G1 X85.465 Y86.875 E0.051
G1 X85.923 Y84.867 E0.069
G1 X86.541 Y83.457 E0.051
G1 X87.733 Y81.717 E0.07
G1 X89.285 Y80.285 E0.07
G1 X90.586 Y79.473 E0.051
G1 X92.508 Y78.727 E0.069
G1 X93.974 Y78.458 E0.05
G1 X95.41 Y78.411 E0.047
G1 X96.889 Y78.586 E0.05
G1 X98.485 Y79.089 E0.056
G1 X99.775 Y79.345 E0.043
G1 X103.988 Y80.103 E0.143
G1 X108.057 Y80.717 E0.137
G1 X113.323 Y81.329 E0.176
;rapid-leaky
G0 X113.284 Y81.728 F7200
;bead-skirt/brim
G1 X118.383 Y82.114 F960 E0.17
G1 X123.335 Y82.287 E0.165
G1 X128.17 Y82.258 E0.161
G1 X132.907 Y82.04 E0.157
G1 X139.576 Y81.442 E0.223
G1 X143.617 Y80.872 E0.136
G1 X145.156 Y80.635 E0.051
G1 X146.63 Y80.393 E0.05
G1 X149.136 Y79.949 E0.085
G1 X151.534 Y79.482 E0.081
G1 X151.905 Y79.334 E0.013
G1 X152.564 Y79.126 E0.023
G1 X153.238 Y78.968 E0.023
G1 X153.92 Y78.862 E0.023
G1 X154.607 Y78.807 E0.023
G1 X155.297 Y78.803 E0.023
G1 X155.987 Y78.851 E0.023
G1 X156.674 Y78.952 E0.023
G1 X157.385 Y79.113 E0.025
G1 X158.004 Y79.302 E0.021
G1 X158.647 Y79.552 E0.023
G1 X159.271 Y79.849 E0.023
G1 X159.869 Y80.192 E0.023
G1 X160.441 Y80.578 E0.023
G1 X160.983 Y81.008 E0.023
G1 X161.49 Y81.476 E0.023
G1 X161.961 Y81.982 E0.023
G1 X162.391 Y82.52 E0.023
G1 X162.781 Y83.088 E0.023
G1 X163.129 Y83.687 E0.023
G1 X163.428 Y84.307 E0.023
G1 X163.682 Y84.951 E0.023
G1 X163.886 Y85.612 E0.023
G1 X164.04 Y86.283 E0.023
G1 X164.144 Y86.965 E0.022
G1 X164.195 Y87.655 E0.024
G1 Y88.344 E0.022
G1 X164.144 Y89.034 E0.023
G1 X164.04 Y89.716 E0.023
G1 X163.886 Y90.387 E0.023
G1 X163.682 Y91.049 E0.023
G1 X163.428 Y91.69 E0.023
G1 X163.129 Y92.311 E0.023
G1 X162.781 Y92.911 E0.023
G1 X162.388 Y93.484 E0.023
G1 X161.93 Y94.051 E0.025
G1 X161.489 Y94.523 E0.021
G1 X160.978 Y94.995 E0.023
G1 X160.404 Y95.445 E0.024
G1 X159.87 Y95.806 E0.022
G1 X159.266 Y96.153 E0.023
G1 X158.606 Y96.463 E0.024
G1 X158.004 Y96.697 E0.022
G1 X157.337 Y96.9 E0.023
G1 X156.624 Y97.055 E0.024
G1 X155.986 Y97.148 E0.022
G1 X155.292 Y97.197 E0.023
G1 X154.562 Y97.189 E0.024
G1 X153.92 Y97.137 E0.022
G1 X153.238 Y97.031 E0.023
G1 X152.564 Y96.873 E0.023
G1 X151.905 Y96.665 E0.023
G1 X151.53 Y96.515 E0.013
G1 X149.141 Y96.051 E0.081
G1 X146.635 Y95.607 E0.085
G1 X141.8 Y94.838 E0.162
G1 Y94.675 E0.006
G1 X141.128 Y94.582 E0.022
G1 X141.125 Y94.715 E0.005
G1 X134.847 Y94.101 E0.21
G1 X129.852 Y93.792 E0.166
G1 X125.095 Y93.69 E0.158
G1 X120.493 Y93.778 E0.153
G1 X114.446 Y94.162 E0.202
G1 X109.326 Y94.712 E0.171
G1 X105.316 Y95.279 E0.135
G1 X101.141 Y95.989 E0.141
G1 X98.381 Y96.523 E0.093
G1 X96.859 Y97.003 E0.053
G1 X98.058 Y97.322 E0.042
G1 X99.445 Y97.987 E0.051
G1 X102.936 Y98.821 E0.119
G1 X106.408 Y99.476 E0.118
G1 X110.531 Y100.017 E0.138
G1 X113.633 Y100.247 E0.103
G1 X117.35 Y100.314 E0.124
G1 X120.165 Y100.213 E0.094
G1 X123.807 Y99.891 E0.121
G1 X126.178 Y99.567 E0.08
G1 X128.322 Y99.217 E0.072
G1 X130.397 E0.069
G1 X130.787 Y98.962 E0.016
G1 X131.369 Y98.644 E0.022
G1 X131.98 Y98.372 E0.022
G1 X132.61 Y98.153 E0.022
G1 X133.25 Y97.986 E0.022
G1 X133.906 Y97.87 E0.022
G1 X134.57 Y97.808 E0.023
G1 X135.235 Y97.8 E0.022
G1 X135.9 Y97.847 E0.022
G1 X136.556 Y97.946 E0.022
G1 X137.204 Y98.098 E0.022
G1 X137.838 Y98.303 E0.022
G1 X138.459 Y98.561 E0.023
G1 X139.082 Y98.886 E0.023
G1 X139.609 Y99.215 E0.021
G1 X140.143 Y99.61 E0.022
G1 X140.646 Y100.049 E0.022
G1 X141.114 Y100.531 E0.022
G1 X141.558 Y101.075 E0.024
G1 X141.913 Y101.586 E0.02
G1 X142.247 Y102.16 E0.022
G1 X142.535 Y102.759 E0.022
G1 X142.774 Y103.383 E0.023
G1 X142.96 Y104.022 E0.022
G1 X143.094 Y104.674 E0.022
G1 X143.175 Y105.333 E0.022
G1 X143.202 Y105.999 E0.022
G1 X143.174 Y106.67 E0.023
G1 X143.086 Y107.364 E0.023
G1 X142.96 Y107.975 E0.021
G1 X142.774 Y108.615 E0.022
G1 X142.535 Y109.239 E0.022
G1 X142.247 Y109.837 E0.022
G1 X141.913 Y110.411 E0.022
G1 X141.53 Y110.962 E0.022
G1 X141.08 Y111.501 E0.024
G1 X140.645 Y111.948 E0.021
G1 X140.143 Y112.387 E0.022
G1 X139.609 Y112.782 E0.022
G1 X139.041 Y113.136 E0.022
G1 X138.415 Y113.454 E0.023
G1 X137.838 Y113.694 E0.021
G1 X137.206 Y113.898 E0.022
G1 X136.556 Y114.052 E0.023
G1 X135.898 Y114.151 E0.022
G1 X135.23 Y114.197 E0.022
G1 X134.527 Y114.185 E0.023
G1 X133.907 Y114.127 E0.021
G1 X133.252 Y114.012 E0.022
G1 X132.608 Y113.844 E0.022
G1 X131.973 Y113.622 E0.023
G1 X131.332 Y113.333 E0.023
G1 X130.786 Y113.034 E0.021
G1 X130.397 Y112.78 E0.015
G1 X128.322 E0.069
G1 X126.172 Y112.429 E0.073
G1 X124.246 Y112.156 E0.064
G1 X120.162 Y111.783 E0.137
G1 X117.35 Y111.683 E0.093
G1 X113.633 Y111.75 E0.124
G1 X110.531 Y111.98 E0.104
G1 X106.408 Y112.521 E0.138
G1 X102.936 Y113.176 E0.117
G1 X99.445 Y114.01 E0.12
G1 X98.058 Y114.675 E0.051
G1 X96.695 Y115.037 E0.047
G1 X96.168 Y115.096 E0.017
G1 X96.398 Y115.156 E0.008
G1 X96.795 Y115.295 E0.014
G1 X99.202 Y115.769 E0.082
G1 X104.569 Y116.869 E0.182
G1 X106.638 Y117.251 E0.07
G1 X108 Y117.452 E0.046
G1 X109.746 Y117.661 E0.058
G1 X112.213 Y117.772 E0.083
G1 X116.205 Y117.836 E0.132
G1 Y128.175 E0.344
G1 X112.658 Y128.217 E0.118
G1 X109.792 Y128.335 E0.096
G1 X108.023 Y128.546 E0.059
G1 X106.65 Y128.748 E0.046
G1 X104.623 Y129.121 E0.068
G1 X100.028 Y130.065 E0.156
G1 X96.796 Y130.706 E0.11
G1 X96.398 Y130.845 E0.014
G1 X95.756 Y131.013 E0.022
G1 X95.1 Y131.129 E0.022
G1 X94.436 Y131.191 E0.023
G1 X93.773 Y131.199 E0.022
G1 X93.108 Y131.154 E0.022
G1 X92.448 Y131.054 E0.022
G1 X91.8 Y130.9 E0.022
G1 X91.155 Y130.692 E0.023
G1 X90.461 Y130.394 E0.025
G1 X89.962 Y130.137 E0.018
G1 X89.395 Y129.785 E0.023
G1 X88.862 Y129.389 E0.022
G1 X88.359 Y128.951 E0.022
G1 X87.886 Y128.463 E0.023
G1 X87.411 Y127.874 E0.025
G1 X87.091 Y127.412 E0.018
G1 X86.758 Y126.841 E0.022
G1 X86.47 Y126.241 E0.022
G1 X86.231 Y125.616 E0.023
G1 X86.045 Y124.976 E0.022
G1 X85.911 Y124.325 E0.022
G1 X85.83 Y123.666 E0.022
G1 X85.803 Y123.001 E0.022
G1 X85.83 Y122.335 E0.022
G1 X85.911 Y121.676 E0.022
G1 X86.045 Y121.025 E0.023
G1 X86.231 Y120.384 E0.022
G1 X86.47 Y119.76 E0.022
G1 X86.758 Y119.162 E0.022
G1 X87.091 Y118.589 E0.022
G1 X87.472 Y118.041 E0.022
G1 X87.896 Y117.527 E0.022
G1 X88.359 Y117.051 E0.023
G1 X88.86 Y116.613 E0.022
G1 X89.395 Y116.216 E0.022
G1 X89.963 Y115.863 E0.022
G1 X90.555 Y115.56 E0.022
G1 X91.168 Y115.305 E0.022
G1 X91.802 Y115.1 E0.022
G1 X92.45 Y114.948 E0.023
G1 X92.742 Y114.904 E0.009
G1 X92.568 Y114.871 E0.006
G1 X90.727 Y114.146 E0.066
G1 X89.499 Y113.371 E0.048
G1 X88.048 Y112.023 E0.066
G1 X87.187 Y110.853 E0.049
G1 X86.328 Y109.07 E0.065
G1 X85.964 Y107.708 E0.047
G1 X85.81 Y106.342 E0.046
G1 X85.863 Y104.931 E0.047
G1 X86.312 Y102.961 E0.067
G1 X87.187 Y101.144 E0.067
G1 X88.048 Y99.974 E0.049
G1 X89.499 Y98.626 E0.065
G1 X90.694 Y97.872 E0.047
G1 X91.992 Y97.304 E0.048
G1 X93.285 Y97.008 E0.044
G1 X92.617 Y96.885 E0.022
G1 X90.765 Y96.167 E0.066
G1 X89.561 Y95.413 E0.048
G1 X88.485 Y94.493 E0.047
G1 X87.24 Y92.941 E0.066
G1 X86.577 Y91.689 E0.047
G1 X86.106 Y90.349 E0.047
G1 X85.809 Y88.386 E0.066
G1 X85.863 Y86.927 E0.049
G1 X86.304 Y84.992 E0.066
G1 X86.892 Y83.652 E0.048
G1 X88.037 Y81.981 E0.068
G1 X89.529 Y80.604 E0.067
G1 X90.766 Y79.832 E0.049
G1 X92.617 Y79.114 E0.066
G1 X94.017 Y78.857 E0.047
G1 X95.393 Y78.812 E0.046
G1 X96.804 Y78.979 E0.047
G1 X98.386 Y79.478 E0.055
G1 X99.7 Y79.738 E0.045
G1 X103.923 Y80.497 E0.143
G1 X108.004 Y81.113 E0.137
G1 X113.284 Y81.728 E0.177
;rapid-leaky
G0 X113.246 Y82.126 F7200
;bead-skirt/brim
G1 X118.361 Y82.513 F960 E0.17
G1 X123.329 Y82.687 E0.166
G1 X128.18 Y82.658 E0.161
G1 X132.934 Y82.439 E0.158
G1 X139.622 Y81.839 E0.224
G1 X143.675 Y81.268 E0.136
G1 X145.218 Y81.03 E0.052
G1 X146.697 Y80.788 E0.05
G1 X149.209 Y80.342 E0.085
G1 X151.648 Y79.868 E0.082
G1 X152.04 Y79.711 E0.014
G1 X152.67 Y79.512 E0.022
G1 X153.314 Y79.361 E0.022
G1 X153.967 Y79.259 E0.022
G1 X154.624 Y79.206 E0.022
G1 X155.284 Y79.203 E0.022
G1 X155.944 Y79.249 E0.022
G1 X156.6 Y79.345 E0.022
G1 X157.282 Y79.5 E0.023
G1 X157.874 Y79.681 E0.021
G1 X158.489 Y79.919 E0.022
G1 X159.085 Y80.204 E0.022
G1 X159.657 Y80.532 E0.022
G1 X160.204 Y80.901 E0.022
G1 X160.722 Y81.313 E0.022
G1 X161.207 Y81.76 E0.022
G1 X161.658 Y82.243 E0.022
G1 X162.07 Y82.758 E0.022
G1 X162.443 Y83.302 E0.022
G1 X162.775 Y83.875 E0.022
G1 X163.062 Y84.468 E0.021
G1 X163.305 Y85.083 E0.022
G1 X163.5 Y85.715 E0.022
G1 X163.647 Y86.358 E0.022
G1 X163.746 Y87.011 E0.022
G1 X163.795 Y87.67 E0.022
G1 Y88.329 E0.022
G1 X163.746 Y88.989 E0.022
G1 X163.647 Y89.641 E0.022
G1 X163.5 Y90.284 E0.022
G1 X163.304 Y90.916 E0.022
G1 X163.062 Y91.53 E0.022
G1 X162.775 Y92.124 E0.022
G1 X162.443 Y92.697 E0.022
G1 X162.067 Y93.245 E0.022
G1 X161.628 Y93.788 E0.023
G1 X161.207 Y94.239 E0.021
G1 X160.718 Y94.69 E0.022
G1 X160.168 Y95.121 E0.023
G1 X159.658 Y95.467 E0.021
G1 X159.081 Y95.798 E0.022
G1 X158.448 Y96.096 E0.023
G1 X157.873 Y96.319 E0.021
G1 X157.236 Y96.512 E0.022
G1 X156.553 Y96.661 E0.023
G1 X155.943 Y96.75 E0.021
G1 X155.28 Y96.797 E0.022
G1 X154.58 Y96.789 E0.023
G1 X153.967 Y96.74 E0.02
G1 X153.314 Y96.638 E0.022
G1 X152.67 Y96.487 E0.022
G1 X152.04 Y96.288 E0.022
G1 X151.644 Y96.13 E0.015
G1 X149.213 Y95.657 E0.082
G1 X146.701 Y95.212 E0.085
G1 X142.2 Y94.496 E0.151
G1 Y94.326 E0.006
G1 X140.738 Y94.124 E0.049
G1 X140.735 Y94.275 E0.005
G1 X134.879 Y93.703 E0.196
G1 X129.869 Y93.392 E0.167
G1 X125.095 Y93.29 E0.159
G1 X120.476 Y93.378 E0.153
G1 X114.412 Y93.763 E0.202
G1 X109.276 Y94.315 E0.172
G1 X105.255 Y94.884 E0.135
G1 X101.069 Y95.595 E0.141
G1 X98.282 Y96.135 E0.095
G1 X96.72 Y96.628 E0.054
G1 X95.376 Y96.786 E0.045
G1 X94.06 Y96.744 E0.044
G1 X92.726 Y96.499 E0.045
G1 X90.945 Y95.807 E0.064
G1 X89.798 Y95.09 E0.045
G1 X88.773 Y94.214 E0.045
G1 X87.576 Y92.72 E0.063
G1 X86.945 Y91.528 E0.045
G1 X86.496 Y90.252 E0.045
G1 X86.21 Y88.363 E0.064
G1 X86.262 Y86.979 E0.046
G1 X86.686 Y85.118 E0.063
G1 X87.244 Y83.847 E0.046
G1 X88.342 Y82.244 E0.065
G1 X89.772 Y80.924 E0.065
G1 X90.946 Y80.191 E0.046
G1 X92.726 Y79.5 E0.063
G1 X94.06 Y79.255 E0.045
G1 X95.376 Y79.213 E0.044
G1 X96.72 Y79.371 E0.045
G1 X98.286 Y79.866 E0.055
G1 X99.626 Y80.131 E0.045
G1 X103.858 Y80.892 E0.143
G1 X107.951 Y81.51 E0.138
G1 X113.246 Y82.126 E0.177
;rapid-leaky
G0 X113.208 Y82.524 F7200
;bead-skirt/brim
G1 X118.339 Y82.913 F960 E0.171
G1 X123.323 Y83.087 E0.166
G1 X128.191 Y83.058 E0.162
G1 X132.961 Y82.838 E0.159
G1 X139.667 Y82.237 E0.224
G1 X143.733 Y81.664 E0.137
G1 X145.281 Y81.425 E0.052
G1 X146.764 Y81.182 E0.05
G1 X149.282 Y80.736 E0.085
G1 X151.762 Y80.253 E0.084
G1 X152.175 Y80.088 E0.014
G1 X152.776 Y79.898 E0.021
G1 X153.391 Y79.754 E0.021
G1 X154.014 Y79.657 E0.021
G1 X154.641 Y79.606 E0.021
G1 X155.271 Y79.603 E0.021
G1 X155.901 Y79.647 E0.021
G1 X156.527 Y79.739 E0.021
G1 X157.179 Y79.887 E0.023
G1 X157.743 Y80.059 E0.019
G1 X158.33 Y80.287 E0.021
G1 X158.9 Y80.558 E0.021
G1 X159.445 Y80.871 E0.021
G1 X159.967 Y81.224 E0.021
G1 X160.462 Y81.617 E0.021
G1 X160.925 Y82.044 E0.021
G1 X161.355 Y82.505 E0.021
G1 X161.748 Y82.997 E0.021
G1 X162.104 Y83.516 E0.021
G1 X162.422 Y84.062 E0.021
G1 X162.695 Y84.629 E0.021
G1 X162.927 Y85.216 E0.021
G1 X163.113 Y85.819 E0.021
G1 X163.253 Y86.432 E0.021
G1 X163.348 Y87.056 E0.021
G1 X163.395 Y87.685 E0.021
G1 Y88.314 E0.021
G1 X163.348 Y88.944 E0.021
G1 X163.253 Y89.567 E0.021
G1 X163.113 Y90.18 E0.02
G1 X162.927 Y90.784 E0.021
G1 X162.695 Y91.369 E0.021
G1 X162.422 Y91.936 E0.021
G1 X162.104 Y92.483 E0.021
G1 X161.746 Y93.005 E0.021
G1 X161.326 Y93.526 E0.023
G1 X160.925 Y93.955 E0.019
G1 X160.459 Y94.385 E0.021
G1 X159.932 Y94.798 E0.023
G1 X159.446 Y95.127 E0.019
G1 X158.896 Y95.443 E0.021
G1 X158.291 Y95.728 E0.022
G1 X157.742 Y95.94 E0.02
G1 X157.135 Y96.125 E0.021
G1 X156.481 Y96.267 E0.022
G1 X155.9 Y96.352 E0.02
G1 X155.268 Y96.397 E0.021
G1 X154.598 Y96.389 E0.022
G1 X154.014 Y96.342 E0.02
G1 X153.391 Y96.245 E0.021
G1 X152.776 Y96.101 E0.021
G1 X152.175 Y95.911 E0.021
G1 X151.759 Y95.745 E0.015
G1 X149.285 Y95.264 E0.083
G1 X146.768 Y94.818 E0.085
G1 X142.6 Y94.155 E0.141
G1 Y93.978 E0.006
G1 X140.349 Y93.666 E0.075
G1 X140.345 Y93.835 E0.006
G1 X134.91 Y93.304 E0.182
G1 X129.886 Y92.992 E0.167
G1 X125.095 Y92.89 E0.159
G1 X120.46 Y92.978 E0.155
G1 X114.378 Y93.364 E0.202
G1 X109.227 Y93.918 E0.173
G1 X105.193 Y94.489 E0.135
G1 X100.997 Y95.202 E0.142
G1 X98.184 Y95.746 E0.095
G1 X96.635 Y96.235 E0.054
G1 X95.359 Y96.386 E0.043
G1 X94.103 Y96.345 E0.041
G1 X92.836 Y96.112 E0.043
G1 X91.125 Y95.448 E0.061
G1 X90.035 Y94.767 E0.043
G1 X89.062 Y93.934 E0.043
G1 X87.912 Y92.499 E0.061
G1 X87.312 Y91.367 E0.042
G1 X86.886 Y90.155 E0.043
G1 X86.611 Y88.34 E0.061
G1 X86.66 Y87.032 E0.044
G1 X87.068 Y85.244 E0.061
G1 X87.595 Y84.042 E0.043
G1 X88.646 Y82.507 E0.062
G1 X90.016 Y81.243 E0.062
G1 X91.126 Y80.551 E0.044
G1 X92.836 Y79.887 E0.061
G1 X94.103 Y79.654 E0.043
G1 X95.359 Y79.613 E0.042
G1 X96.635 Y79.764 E0.042
G1 X98.187 Y80.254 E0.054
G1 X99.552 Y80.524 E0.047
G1 X103.792 Y81.287 E0.143
G1 X107.898 Y81.906 E0.138
G1 X113.208 Y82.524 E0.178
;rapid-leaky
G0 X113.17 Y82.922 F7200
;bead-skirt/brim
G1 X118.317 Y83.312 F960 E0.172
G1 X123.318 Y83.487 E0.166
G1 X128.201 Y83.458 E0.162
G1 X132.988 Y83.237 E0.16
G1 X139.955 Y82.613 E0.232
G1 X139.988 Y84.083 E0.049
G1 X140.008 E0.001
G1 X140.034 Y82.589 E0.05
G1 X143.792 Y82.059 E0.126
G1 X145.344 Y81.82 E0.052
G1 X146.832 Y81.576 E0.05
G1 X149.355 Y81.129 E0.086
G1 X151.875 Y80.638 E0.085
G1 X152.309 Y80.465 E0.015
G1 X152.882 Y80.284 E0.02
G1 X153.468 Y80.147 E0.02
G1 X154.061 Y80.054 E0.02
G1 X154.658 Y80.006 E0.02
G1 X155.258 Y80.003 E0.02
G1 X155.858 Y80.045 E0.02
G1 X156.454 Y80.132 E0.02
G1 X157.076 Y80.274 E0.022
G1 X157.612 Y80.437 E0.018
G1 X158.171 Y80.654 E0.02
G1 X158.714 Y80.913 E0.02
G1 X159.233 Y81.211 E0.02
G1 X159.731 Y81.547 E0.02
G1 X160.202 Y81.921 E0.02
G1 X160.643 Y82.328 E0.02
G1 X161.052 Y82.767 E0.02
G1 X161.427 Y83.235 E0.02
G1 X161.766 Y83.729 E0.02
G1 X162.068 Y84.25 E0.02
G1 X162.329 Y84.789 E0.02
G1 X162.549 Y85.348 E0.02
G1 X162.727 Y85.923 E0.02
G1 X162.86 Y86.507 E0.02
G1 X162.95 Y87.101 E0.02
G1 X162.995 Y87.7 E0.02
G1 Y88.299 E0.02
G1 X162.95 Y88.898 E0.02
G1 X162.86 Y89.492 E0.02
G1 X162.727 Y90.076 E0.019
G1 X162.549 Y90.651 E0.02
G1 X162.329 Y91.209 E0.02
G1 X162.068 Y91.749 E0.02
G1 X161.766 Y92.27 E0.02
G1 X161.425 Y92.766 E0.02
G1 X161.023 Y93.263 E0.022
G1 X160.643 Y93.672 E0.018
G1 X160.199 Y94.08 E0.02
G1 X159.697 Y94.474 E0.022
G1 X159.234 Y94.788 E0.018
G1 X158.711 Y95.088 E0.02
G1 X158.133 Y95.36 E0.021
G1 X157.612 Y95.562 E0.019
G1 X157.034 Y95.737 E0.02
G1 X156.41 Y95.874 E0.021
G1 X155.857 Y95.954 E0.019
G1 X155.256 Y95.996 E0.02
G1 X154.616 Y95.99 E0.021
G1 X154.061 Y95.945 E0.019
G1 X153.468 Y95.852 E0.02
G1 X152.882 Y95.715 E0.02
G1 X152.309 Y95.534 E0.02
G1 X151.873 Y95.36 E0.015
G1 X150.647 Y95.116 E0.042
G1 X149.357 Y94.871 E0.044
G1 X146.834 Y94.423 E0.085
G1 X143 Y93.814 E0.129
G1 Y93.629 E0.006
G1 X140.024 Y93.218 E0.1
G1 X140.005 Y91.916 E0.043
G1 X139.988 E0.001
G1 X139.955 Y93.395 E0.049
G1 X134.942 Y92.905 E0.168
G1 X129.902 Y92.592 E0.168
G1 X125.096 Y92.49 E0.159
G1 X120.443 Y92.578 E0.155
G1 X114.344 Y92.966 E0.203
G1 X109.177 Y93.521 E0.173
G1 X105.132 Y94.093 E0.136
G1 X100.926 Y94.808 E0.142
G1 X98.085 Y95.358 E0.096
G1 X96.551 Y95.842 E0.054
G1 X95.342 Y95.985 E0.04
G1 X94.146 Y95.946 E0.04
G1 X92.945 Y95.725 E0.041
G1 X91.305 Y95.089 E0.058
G1 X90.273 Y94.443 E0.041
G1 X89.351 Y93.655 E0.04
G1 X88.248 Y92.279 E0.059
G1 X87.679 Y91.206 E0.04
G1 X87.275 Y90.058 E0.041
G1 X87.012 Y88.318 E0.058
G1 X87.058 Y87.084 E0.041
G1 X87.449 Y85.37 E0.059
G1 X87.946 Y84.237 E0.041
G1 X88.951 Y82.771 E0.059
G1 X90.26 Y81.562 E0.059
G1 X91.305 Y80.91 E0.041
G1 X92.945 Y80.274 E0.059
G1 X94.146 Y80.053 E0.04
G1 X95.342 Y80.014 E0.04
G1 X96.551 Y80.157 E0.041
G1 X98.087 Y80.642 E0.053
G1 X99.478 Y80.917 E0.047
G1 X103.727 Y81.681 E0.144
G1 X107.845 Y82.303 E0.138
G1 X113.17 Y82.922 E0.179
;rapid-leaky
G0 X113.131 Y83.321 F7200
;bead-skirt/brim
G1 X118.295 Y83.712 F960 E0.172
G1 X123.312 Y83.887 E0.167
G1 X128.211 Y83.858 E0.163
G1 X133.015 Y83.636 E0.16
G1 X139.564 Y83.049 E0.219
G1 X139.597 Y84.483 E0.047
G1 X140.401 E0.027
G1 X140.428 Y82.937 E0.051
G1 X143.85 Y82.455 E0.115
G1 X145.407 Y82.215 E0.053
G1 X146.899 Y81.971 E0.05
G1 X149.428 Y81.522 E0.085
G1 X151.989 Y81.024 E0.087
G1 X152.444 Y80.842 E0.017
G1 X152.988 Y80.67 E0.019
G1 X153.544 Y80.54 E0.019
G1 X154.108 Y80.452 E0.018
G1 X154.675 Y80.406 E0.019
G1 X155.245 Y80.403 E0.019
G1 X155.815 Y80.443 E0.019
G1 X156.38 Y80.526 E0.019
G1 X156.973 Y80.661 E0.021
G1 X157.481 Y80.816 E0.017
G1 X158.013 Y81.022 E0.019
G1 X158.528 Y81.267 E0.019
G1 X159.022 Y81.551 E0.019
G1 X159.494 Y81.87 E0.019
G1 X159.941 Y82.225 E0.019
G1 X160.36 Y82.611 E0.019
G1 X160.749 Y83.028 E0.019
G1 X161.105 Y83.473 E0.019
G1 X161.428 Y83.943 E0.019
G1 X161.714 Y84.438 E0.019
G1 X161.962 Y84.95 E0.019
G1 X162.172 Y85.481 E0.019
G1 X162.34 Y86.026 E0.019
G1 X162.467 Y86.582 E0.019
G1 X162.553 Y87.146 E0.019
G1 X162.595 Y87.715 E0.019
G1 Y88.284 E0.019
G1 X162.553 Y88.854 E0.019
G1 X162.467 Y89.417 E0.019
G1 X162.34 Y89.973 E0.019
G1 X162.171 Y90.518 E0.019
G1 X161.962 Y91.048 E0.019
G1 X161.714 Y91.561 E0.018
G1 X161.428 Y92.056 E0.019
G1 X161.104 Y92.527 E0.019
G1 X160.721 Y93.001 E0.021
G1 X160.36 Y93.388 E0.017
G1 X159.94 Y93.775 E0.019
G1 X159.461 Y94.151 E0.021
G1 X159.022 Y94.448 E0.017
G1 X158.526 Y94.733 E0.019
G1 X157.975 Y94.992 E0.021
G1 X157.481 Y95.184 E0.017
G1 X156.933 Y95.35 E0.019
G1 X156.338 Y95.48 E0.02
G1 X155.814 Y95.556 E0.018
G1 X155.244 Y95.596 E0.019
G1 X154.635 Y95.59 E0.02
G1 X154.108 Y95.547 E0.018
G1 X153.544 Y95.459 E0.019
G1 X152.988 Y95.329 E0.019
G1 X152.444 Y95.157 E0.019
G1 X151.987 Y94.975 E0.016
G1 X150.723 Y94.723 E0.043
G1 X149.43 Y94.477 E0.044
G1 X146.9 Y94.029 E0.085
G1 X143.4 Y93.472 E0.118
G1 Y93.281 E0.007
G1 X140.419 Y92.868 E0.1
G1 X140.399 Y91.516 E0.045
G1 X139.597 E0.026
G1 X139.564 Y92.955 E0.048
G1 X134.974 Y92.506 E0.154
G1 X129.919 Y92.193 E0.168
G1 X125.096 Y92.09 E0.161
G1 X120.427 Y92.179 E0.155
G1 X114.31 Y92.567 E0.204
G1 X109.128 Y93.125 E0.173
G1 X105.07 Y93.698 E0.136
G1 X100.854 Y94.414 E0.143
G1 X97.987 Y94.97 E0.097
G1 X96.467 Y95.449 E0.053
G1 X95.325 Y95.584 E0.038
G1 X94.189 Y95.547 E0.038
G1 X93.055 Y95.339 E0.038
G1 X91.485 Y94.73 E0.056
G1 X90.51 Y94.12 E0.038
G1 X89.639 Y93.375 E0.039
G1 X88.583 Y92.058 E0.056
G1 X88.047 Y91.045 E0.038
G1 X87.665 Y89.961 E0.038
G1 X87.413 Y88.295 E0.056
G1 X87.457 Y87.136 E0.039
G1 X87.831 Y85.496 E0.056
G1 X88.297 Y84.432 E0.038
G1 X89.255 Y83.034 E0.057
G1 X90.503 Y81.882 E0.056
G1 X91.485 Y81.269 E0.039
G1 X93.055 Y80.66 E0.056
G1 X94.189 Y80.452 E0.038
G1 X95.325 Y80.415 E0.038
G1 X96.467 Y80.55 E0.038
G1 X97.988 Y81.03 E0.053
G1 X99.403 Y81.31 E0.048
G1 X103.662 Y82.076 E0.144
G1 X107.792 Y82.699 E0.139
G1 X113.131 Y83.321 E0.179
;rapid-leaky
G0 X113.093 Y83.719 F7200
;bead-skirt/brim
G1 X118.273 Y84.111 F960 E0.172
G1 X123.306 Y84.287 E0.168
G1 X128.222 Y84.258 E0.163
G1 X133.042 Y84.035 E0.161
G1 X139.174 Y83.486 E0.205
G1 X139.206 Y84.883 E0.046
G1 X140.794 E0.053
G1 X140.822 Y83.286 E0.053
G1 X143.908 Y82.851 E0.104
G1 X145.47 Y82.61 E0.052
G1 X146.966 Y82.365 E0.051
G1 X149.501 Y81.915 E0.085
G1 X152.102 Y81.409 E0.089
G1 X152.579 Y81.219 E0.017
G1 X153.094 Y81.056 E0.018
G1 X153.621 Y80.933 E0.018
G1 X154.155 Y80.849 E0.018
G1 X154.692 Y80.806 E0.017
G1 X155.232 Y80.803 E0.018
G1 X155.772 Y80.841 E0.018
G1 X156.307 Y80.919 E0.018
G1 X156.87 Y81.048 E0.02
G1 X157.35 Y81.194 E0.016
G1 X157.854 Y81.389 E0.018
G1 X158.342 Y81.622 E0.018
G1 X158.81 Y81.89 E0.018
G1 X159.257 Y82.193 E0.018
G1 X159.681 Y82.529 E0.018
G1 X160.078 Y82.895 E0.018
G1 X160.446 Y83.29 E0.018
G1 X160.784 Y83.712 E0.018
G1 X161.089 Y84.157 E0.018
G1 X161.361 Y84.625 E0.018
G1 X161.595 Y85.111 E0.018
G1 X161.794 Y85.614 E0.018
G1 X161.953 Y86.13 E0.018
G1 X162.074 Y86.657 E0.018
G1 X162.155 Y87.191 E0.018
G1 X162.195 Y87.73 E0.018
G1 Y88.269 E0.018
G1 X162.155 Y88.808 E0.018
G1 X162.074 Y89.342 E0.018
G1 X161.953 Y89.869 E0.018
G1 X161.794 Y90.385 E0.018
G1 X161.595 Y90.887 E0.018
G1 X161.361 Y91.374 E0.018
G1 X161.089 Y91.842 E0.018
G1 X160.783 Y92.288 E0.018
G1 X160.419 Y92.738 E0.019
G1 X160.078 Y93.104 E0.016
G1 X159.681 Y93.47 E0.018
G1 X159.225 Y93.828 E0.02
G1 X158.81 Y94.109 E0.016
G1 X158.342 Y94.378 E0.018
G1 X157.818 Y94.624 E0.02
G1 X157.35 Y94.805 E0.016
G1 X156.832 Y94.963 E0.018
G1 X156.267 Y95.086 E0.02
G1 X155.771 Y95.158 E0.016
G1 X155.232 Y95.196 E0.018
G1 X154.653 Y95.19 E0.019
G1 X154.155 Y95.15 E0.017
G1 X153.621 Y95.066 E0.018
G1 X153.094 Y94.943 E0.018
G1 X152.579 Y94.78 E0.018
G1 X152.102 Y94.59 E0.017
G1 X150.8 Y94.33 E0.044
G1 X149.502 Y94.084 E0.044
G1 X146.967 Y93.634 E0.086
G1 X143.8 Y93.131 E0.106
G1 Y92.932 E0.007
G1 X140.814 Y92.519 E0.1
G1 X140.793 Y91.116 E0.047
G1 X139.206 E0.053
G1 X139.174 Y92.515 E0.046
G1 X135.006 Y92.107 E0.14
G1 X129.936 Y91.793 E0.169
G1 X125.097 Y91.69 E0.161
G1 X120.41 Y91.779 E0.155
G1 X114.276 Y92.168 E0.205
G1 X109.079 Y92.728 E0.174
G1 X105.009 Y93.303 E0.136
G1 X100.783 Y94.021 E0.143
G1 X97.888 Y94.581 E0.098
G1 X96.382 Y95.056 E0.053
G1 X95.308 Y95.183 E0.036
G1 X94.232 Y95.148 E0.035
G1 X93.164 Y94.952 E0.037
G1 X91.665 Y94.371 E0.053
G1 X90.747 Y93.797 E0.036
G1 X89.928 Y93.096 E0.036
G1 X88.919 Y91.837 E0.054
G1 X88.414 Y90.884 E0.035
G1 X88.055 Y89.864 E0.036
G1 X87.814 Y88.272 E0.054
G1 X87.855 Y87.189 E0.036
G1 X88.212 Y85.622 E0.053
G1 X88.648 Y84.627 E0.037
G1 X89.56 Y83.297 E0.053
G1 X90.747 Y82.201 E0.054
G1 X91.665 Y81.628 E0.036
G1 X93.164 Y81.047 E0.053
G1 X94.232 Y80.851 E0.036
G1 X95.308 Y80.816 E0.036
G1 X96.382 Y80.943 E0.036
G1 X97.889 Y81.418 E0.053
G1 X99.329 Y81.703 E0.049
G1 X103.597 Y82.471 E0.144
G1 X107.74 Y83.096 E0.139
G1 X113.093 Y83.719 E0.179
;rapid-leaky
G0 X110.49 Y100.415 F7200
;bead-skirt/brim
G1 X113.615 Y100.646 F960 E0.105
G1 X117.353 Y100.714 E0.124
G1 X120.189 Y100.613 E0.094
G1 X123.852 Y100.289 E0.123
G1 X126.237 Y99.963 E0.08
G1 X128.354 Y99.617 E0.071
G1 X130.517 E0.072
G1 X130.993 Y99.305 E0.019
G1 X131.547 Y99.003 E0.021
G1 X132.127 Y98.745 E0.021
G1 X132.726 Y98.536 E0.021
G1 X133.336 Y98.377 E0.021
G1 X133.959 Y98.267 E0.021
G1 X134.591 Y98.208 E0.021
G1 X135.224 Y98.2 E0.021
G1 X135.856 Y98.244 E0.021
G1 X136.48 Y98.339 E0.021
G1 X137.096 Y98.484 E0.022
G1 X137.7 Y98.679 E0.021
G1 X138.289 Y98.924 E0.021
G1 X138.883 Y99.234 E0.022
G1 X139.384 Y99.546 E0.02
G1 X139.892 Y99.921 E0.021
G1 X140.37 Y100.339 E0.021
G1 X140.815 Y100.797 E0.021
G1 X141.238 Y101.316 E0.022
G1 X141.576 Y101.801 E0.02
G1 X141.894 Y102.347 E0.021
G1 X142.168 Y102.917 E0.021
G1 X142.395 Y103.511 E0.021
G1 X142.572 Y104.119 E0.021
G1 X142.699 Y104.738 E0.021
G1 X142.776 Y105.366 E0.021
G1 X142.802 Y105.999 E0.021
G1 X142.775 Y106.636 E0.022
G1 X142.691 Y107.299 E0.022
G1 X142.572 Y107.878 E0.02
G1 X142.395 Y108.487 E0.021
G1 X142.167 Y109.08 E0.021
G1 X141.894 Y109.65 E0.021
G1 X141.576 Y110.196 E0.021
G1 X141.212 Y110.719 E0.021
G1 X140.783 Y111.233 E0.022
G1 X140.37 Y111.658 E0.02
G1 X139.892 Y112.076 E0.021
G1 X139.384 Y112.451 E0.021
G1 X138.844 Y112.787 E0.021
G1 X138.247 Y113.091 E0.023
G1 X137.699 Y113.318 E0.019
G1 X137.098 Y113.513 E0.021
G1 X136.48 Y113.659 E0.021
G1 X135.854 Y113.753 E0.021
G1 X135.219 Y113.797 E0.022
G1 X134.55 Y113.786 E0.022
G1 X133.96 Y113.73 E0.02
G1 X133.337 Y113.621 E0.021
G1 X132.724 Y113.461 E0.021
G1 X132.122 Y113.25 E0.021
G1 X131.51 Y112.975 E0.022
G1 X130.992 Y112.691 E0.02
G1 X130.516 Y112.38 E0.019
G1 X128.354 E0.072
G1 X126.233 Y112.034 E0.071
G1 X124.292 Y111.759 E0.065
G1 X120.187 Y111.384 E0.137
G1 X117.353 Y111.283 E0.095
G1 X113.615 Y111.351 E0.124
G1 X110.49 Y111.582 E0.104
G1 X106.345 Y112.126 E0.139
G1 X102.852 Y112.785 E0.119
G1 X99.311 Y113.631 E0.121
G1 X97.919 Y114.298 E0.051
G1 X96.621 Y114.643 E0.045
G1 X95.314 Y114.788 E0.043
G1 X94.005 Y114.736 E0.044
G1 X92.679 Y114.485 E0.045
G1 X90.909 Y113.788 E0.063
G1 X89.744 Y113.053 E0.046
G1 X88.348 Y111.755 E0.063
G1 X87.531 Y110.646 E0.046
G1 X86.705 Y108.93 E0.064
G1 X86.358 Y107.634 E0.044
G1 X86.211 Y106.327 E0.044
G1 X86.262 Y104.983 E0.045
G1 X86.692 Y103.094 E0.064
G1 X87.531 Y101.351 E0.064
G1 X88.348 Y100.242 E0.046
G1 X89.744 Y98.944 E0.064
G1 X90.882 Y98.226 E0.044
G1 X92.118 Y97.685 E0.045
G1 X93.968 Y97.262 E0.063
G1 X95.314 Y97.209 E0.045
G1 X96.621 Y97.354 E0.044
G1 X97.919 Y97.699 E0.045
G1 X99.311 Y98.366 E0.051
G1 X102.852 Y99.212 E0.121
G1 X106.345 Y99.871 E0.118
G1 X110.49 Y100.415 E0.139
;rapid-leaky
G0 X110.449 Y100.813 F7200
;bead-skirt/brim
G1 X113.597 Y101.046 F960 E0.105
G1 X117.357 Y101.115 E0.125
G1 X120.214 Y101.012 E0.095
G1 X123.897 Y100.686 E0.123
G1 X126.296 Y100.358 E0.081
G1 X128.386 Y100.017 E0.07
G1 X130.645 E0.076
G1 X131.198 Y99.649 E0.022
G1 X131.724 Y99.362 E0.02
G1 X132.275 Y99.117 E0.02
G1 X132.842 Y98.919 E0.02
G1 X133.421 Y98.768 E0.02
G1 X134.013 Y98.663 E0.019
G1 X134.612 Y98.608 E0.02
G1 X135.212 Y98.6 E0.02
G1 X135.812 Y98.642 E0.02
G1 X136.404 Y98.732 E0.02
G1 X136.989 Y98.869 E0.02
G1 X137.561 Y99.055 E0.02
G1 X138.119 Y99.287 E0.02
G1 X138.685 Y99.581 E0.022
G1 X139.159 Y99.877 E0.018
G1 X139.641 Y100.233 E0.02
G1 X140.095 Y100.63 E0.02
G1 X140.516 Y101.063 E0.02
G1 X140.919 Y101.557 E0.022
G1 X141.238 Y102.017 E0.018
G1 X141.54 Y102.535 E0.02
G1 X141.8 Y103.076 E0.02
G1 X142.015 Y103.638 E0.02
G1 X142.183 Y104.215 E0.02
G1 X142.304 Y104.803 E0.02
G1 X142.377 Y105.398 E0.02
G1 X142.401 Y105.999 E0.02
G1 X142.376 Y106.602 E0.02
G1 X142.296 Y107.233 E0.021
G1 X142.183 Y107.782 E0.019
G1 X142.015 Y108.36 E0.02
G1 X141.8 Y108.922 E0.02
G1 X141.54 Y109.462 E0.02
G1 X141.238 Y109.98 E0.02
G1 X140.893 Y110.476 E0.02
G1 X140.485 Y110.965 E0.021
G1 X140.094 Y111.368 E0.019
G1 X139.641 Y111.764 E0.02
G1 X139.159 Y112.12 E0.02
G1 X138.647 Y112.439 E0.02
G1 X138.079 Y112.727 E0.021
G1 X137.561 Y112.943 E0.019
G1 X136.99 Y113.127 E0.02
G1 X136.404 Y113.266 E0.02
G1 X135.811 Y113.355 E0.02
G1 X135.209 Y113.397 E0.02
G1 X134.572 Y113.386 E0.021
G1 X134.014 Y113.334 E0.018
G1 X133.423 Y113.23 E0.02
G1 X132.841 Y113.078 E0.02
G1 X132.27 Y112.878 E0.02
G1 X131.689 Y112.616 E0.022
G1 X131.198 Y112.348 E0.018
G1 X130.645 Y111.98 E0.022
G1 X128.386 E0.076
G1 X126.293 Y111.638 E0.07
G1 X124.338 Y111.361 E0.066
G1 X120.212 Y110.985 E0.138
G1 X117.357 Y110.882 E0.095
G1 X113.597 Y110.951 E0.125
G1 X110.449 Y111.184 E0.105
G1 X106.282 Y111.731 E0.139
G1 X102.769 Y112.394 E0.119
G1 X99.176 Y113.252 E0.123
G1 X97.78 Y113.921 E0.052
G1 X96.547 Y114.249 E0.042
G1 X95.3 Y114.387 E0.042
G1 X94.05 Y114.338 E0.041
G1 X92.791 Y114.099 E0.043
G1 X91.091 Y113.429 E0.061
G1 X89.989 Y112.734 E0.043
G1 X88.648 Y111.488 E0.061
G1 X87.875 Y110.439 E0.043
G1 X87.081 Y108.791 E0.061
G1 X86.752 Y107.559 E0.043
G1 X86.612 Y106.312 E0.041
G1 X86.66 Y105.036 E0.043
G1 X87.072 Y103.227 E0.062
G1 X87.875 Y101.558 E0.061
G1 X88.648 Y100.509 E0.043
G1 X89.989 Y99.262 E0.061
G1 X91.07 Y98.581 E0.043
G1 X92.244 Y98.067 E0.043
G1 X94.021 Y97.66 E0.06
G1 X95.3 Y97.61 E0.043
G1 X96.547 Y97.748 E0.041
G1 X97.78 Y98.076 E0.043
G1 X99.176 Y98.745 E0.051
G1 X102.769 Y99.604 E0.123
G1 X106.282 Y100.266 E0.119
G1 X110.449 Y100.813 E0.14
;rapid-leaky
G0 X110.408 Y101.211 F7200
;bead-skirt/brim
G1 X113.578 Y101.446 F960 E0.106
G1 X117.36 Y101.515 E0.125
G1 X120.239 Y101.412 E0.096
G1 X123.942 Y101.084 E0.124
G1 X126.356 Y100.754 E0.081
G1 X128.419 Y100.417 E0.069
G1 X130.783 E0.079
G1 X130.928 Y100.304 E0.006
G1 X131.404 Y99.992 E0.019
G1 X131.902 Y99.721 E0.019
G1 X132.422 Y99.489 E0.019
G1 X132.959 Y99.302 E0.019
G1 X133.507 Y99.159 E0.019
G1 X134.066 Y99.06 E0.019
G1 X134.633 Y99.008 E0.019
G1 X135.201 Y99.001 E0.018
G1 X135.768 Y99.04 E0.019
G1 X136.328 Y99.125 E0.019
G1 X136.882 Y99.255 E0.019
G1 X137.423 Y99.43 E0.019
G1 X137.95 Y99.649 E0.019
G1 X138.486 Y99.929 E0.02
G1 X138.934 Y100.208 E0.018
G1 X139.39 Y100.545 E0.019
G1 X139.819 Y100.92 E0.018
G1 X140.217 Y101.329 E0.019
G1 X140.599 Y101.798 E0.021
G1 X140.901 Y102.232 E0.017
G1 X141.186 Y102.722 E0.019
G1 X141.432 Y103.234 E0.019
G1 X141.636 Y103.766 E0.019
G1 X141.794 Y104.311 E0.019
G1 X141.909 Y104.868 E0.019
G1 X141.978 Y105.431 E0.018
G1 X142.001 Y105.999 E0.019
G1 X141.977 Y106.569 E0.019
G1 X141.901 Y107.167 E0.02
G1 X141.794 Y107.686 E0.018
G1 X141.636 Y108.232 E0.019
G1 X141.432 Y108.763 E0.019
G1 X141.186 Y109.275 E0.019
G1 X140.901 Y109.765 E0.019
G1 X140.575 Y110.233 E0.019
G1 X140.188 Y110.698 E0.02
G1 X139.819 Y111.077 E0.017
G1 X139.39 Y111.452 E0.019
G1 X138.934 Y111.789 E0.019
G1 X138.451 Y112.09 E0.019
G1 X137.912 Y112.364 E0.02
G1 X137.422 Y112.567 E0.018
G1 X136.883 Y112.742 E0.019
G1 X136.328 Y112.873 E0.019
G1 X135.767 Y112.957 E0.018
G1 X135.198 Y112.997 E0.019
G1 X134.594 Y112.986 E0.021
G1 X134.067 Y112.937 E0.017
G1 X133.508 Y112.839 E0.019
G1 X132.958 Y112.695 E0.019
G1 X132.419 Y112.507 E0.019
G1 X131.867 Y112.258 E0.02
G1 X131.403 Y112.004 E0.018
G1 X130.928 Y111.693 E0.019
G1 X130.783 Y111.58 E0.006
G1 X128.419 E0.078
G1 X126.353 Y111.243 E0.07
G1 X124.384 Y110.964 E0.066
G1 X120.238 Y110.585 E0.139
G1 X117.36 Y110.482 E0.095
G1 X113.578 Y110.551 E0.126
G1 X110.408 Y110.786 E0.106
G1 X106.219 Y111.336 E0.14
G1 X102.685 Y112.002 E0.12
G1 X99.042 Y112.873 E0.125
G1 X97.641 Y113.544 E0.051
G1 X96.474 Y113.855 E0.04
G1 X95.286 Y113.986 E0.04
G1 X94.096 Y113.939 E0.04
G1 X92.902 Y113.713 E0.04
G1 X91.272 Y113.071 E0.058
G1 X90.234 Y112.416 E0.041
G1 X88.947 Y111.221 E0.059
G1 X88.219 Y110.232 E0.04
G1 X87.458 Y108.651 E0.059
G1 X87.147 Y107.485 E0.04
G1 X87.013 Y106.297 E0.04
G1 X87.058 Y105.088 E0.04
G1 X87.452 Y103.36 E0.059
G1 X88.219 Y101.765 E0.059
G1 X88.947 Y100.776 E0.041
G1 X90.234 Y99.581 E0.058
G1 X91.258 Y98.935 E0.04
G1 X92.37 Y98.448 E0.041
G1 X94.074 Y98.058 E0.058
G1 X95.286 Y98.011 E0.04
G1 X96.474 Y98.142 E0.04
G1 X97.641 Y98.453 E0.04
G1 X99.042 Y99.124 E0.052
G1 X102.685 Y99.995 E0.124
G1 X106.219 Y100.661 E0.12
G1 X110.408 Y101.211 E0.14
;rapid-leaky
G0 X110.367 Y101.609 F7200
;bead-skirt/brim
G1 X113.56 Y101.845 F960 E0.107
G1 X117.364 Y101.915 E0.127
G1 X120.264 Y101.811 E0.096
G1 X123.986 Y101.481 E0.124
G1 X126.415 Y101.15 E0.082
G1 X128.451 Y100.817 E0.068
G1 X130.92 E0.083
G1 X131.161 Y100.629 E0.01
G1 X131.61 Y100.336 E0.018
G1 X132.079 Y100.08 E0.017
G1 X132.569 Y99.862 E0.018
G1 X133.075 Y99.685 E0.018
G1 X133.593 Y99.55 E0.018
G1 X134.12 Y99.457 E0.018
G1 X134.654 Y99.407 E0.017
G1 X135.189 Y99.401 E0.018
G1 X135.724 Y99.438 E0.018
G1 X136.253 Y99.518 E0.018
G1 X136.774 Y99.641 E0.018
G1 X137.284 Y99.806 E0.018
G1 X137.78 Y100.012 E0.017
G1 X138.288 Y100.277 E0.019
G1 X138.709 Y100.539 E0.017
G1 X139.139 Y100.857 E0.018
G1 X139.543 Y101.21 E0.018
G1 X139.918 Y101.596 E0.017
G1 X140.279 Y102.039 E0.019
G1 X140.563 Y102.447 E0.017
G1 X140.832 Y102.91 E0.018
G1 X141.065 Y103.392 E0.018
G1 X141.256 Y103.894 E0.017
G1 X141.406 Y104.408 E0.018
G1 X141.514 Y104.932 E0.018
G1 X141.579 Y105.463 E0.018
G1 X141.601 Y105.999 E0.018
G1 X141.578 Y106.535 E0.018
G1 X141.506 Y107.102 E0.019
G1 X141.406 Y107.589 E0.016
G1 X141.256 Y108.104 E0.018
G1 X141.064 Y108.605 E0.018
G1 X140.833 Y109.087 E0.018
G1 X140.563 Y109.55 E0.017
G1 X140.257 Y109.99 E0.018
G1 X139.89 Y110.43 E0.019
G1 X139.543 Y110.787 E0.017
G1 X139.139 Y111.14 E0.018
G1 X138.709 Y111.458 E0.017
G1 X138.254 Y111.741 E0.018
G1 X137.744 Y112 E0.019
G1 X137.284 Y112.191 E0.017
G1 X136.775 Y112.356 E0.018
G1 X136.253 Y112.48 E0.018
G1 X135.723 Y112.559 E0.017
G1 X135.188 Y112.596 E0.018
G1 X134.616 Y112.587 E0.019
G1 X134.12 Y112.54 E0.017
G1 X133.593 Y112.448 E0.018
G1 X133.075 Y112.312 E0.017
G1 X132.567 Y112.135 E0.018
G1 X132.045 Y111.9 E0.019
G1 X131.609 Y111.661 E0.017
G1 X131.161 Y111.368 E0.018
G1 X130.92 Y111.18 E0.01
G1 X128.451 E0.082
G1 X126.414 Y110.847 E0.069
G1 X124.431 Y110.566 E0.066
G1 X120.263 Y110.186 E0.139
G1 X117.364 Y110.082 E0.097
G1 X113.56 Y110.152 E0.126
G1 X110.367 Y110.388 E0.107
G1 X106.156 Y110.941 E0.141
G1 X102.601 Y111.611 E0.121
G1 X98.908 Y112.494 E0.126
G1 X97.502 Y113.167 E0.052
G1 X96.4 Y113.46 E0.038
G1 X95.271 Y113.585 E0.037
G1 X94.141 Y113.541 E0.038
G1 X93.014 Y113.327 E0.038
G1 X91.454 Y112.713 E0.056
G1 X90.479 Y112.098 E0.038
G1 X89.247 Y110.953 E0.056
G1 X88.564 Y110.025 E0.039
G1 X87.835 Y108.511 E0.055
G1 X87.541 Y107.411 E0.038
G1 X87.414 Y106.282 E0.038
G1 X87.457 Y105.14 E0.038
G1 X87.832 Y103.493 E0.056
G1 X88.564 Y101.972 E0.056
G1 X89.247 Y101.044 E0.039
G1 X90.479 Y99.899 E0.056
G1 X91.446 Y99.289 E0.038
G1 X92.496 Y98.83 E0.038
G1 X94.127 Y98.457 E0.055
G1 X95.271 Y98.412 E0.039
G1 X96.4 Y98.537 E0.037
G1 X97.502 Y98.83 E0.038
G1 X98.908 Y99.503 E0.052
G1 X102.601 Y100.386 E0.126
G1 X106.156 Y101.056 E0.121
G1 X110.367 Y101.609 E0.141
;rapid-leaky
G0 X110.326 Y102.007 F7200
;bead-skirt/brim
G1 X113.541 Y102.245 F960 E0.107
G1 X117.367 Y102.315 E0.127
G1 X120.289 Y102.21 E0.098
G1 X124.3 Y101.855 E0.134
G1 Y101.842
G1 X126.474 Y101.545 E0.073
G1 X128.484 Y101.217 E0.068
G1 X131.057 E0.085
G1 X131.394 Y100.955 E0.015
G1 X131.815 Y100.679 E0.016
G1 X132.256 Y100.439 E0.017
G1 X132.716 Y100.234 E0.017
G1 X133.192 Y100.069 E0.016
G1 X133.678 Y99.941 E0.017
G1 X134.173 Y99.854 E0.017
G1 X134.675 Y99.807 E0.017
G1 X135.178 Y99.801 E0.016
G1 X135.68 Y99.836 E0.017
G1 X136.177 Y99.911 E0.017
G1 X136.667 Y100.026 E0.017
G1 X137.145 Y100.181 E0.016
G1 X137.611 Y100.375 E0.017
G1 X138.089 Y100.624 E0.018
G1 X138.484 Y100.87 E0.016
G1 X138.888 Y101.169 E0.016
G1 X139.268 Y101.501 E0.017
G1 X139.619 Y101.862 E0.017
G1 X139.96 Y102.281 E0.018
G1 X140.226 Y102.662 E0.015
G1 X140.479 Y103.097 E0.017
G1 X140.697 Y103.551 E0.017
G1 X140.877 Y104.021 E0.016
G1 X141.017 Y104.504 E0.017
G1 X141.119 Y104.997 E0.017
G1 X141.18 Y105.496 E0.017
G1 X141.2 Y105.999 E0.016
G1 X141.179 Y106.502 E0.017
G1 X141.111 Y107.036 E0.018
G1 X141.017 Y107.493 E0.016
G1 X140.877 Y107.977 E0.016
G1 X140.697 Y108.446 E0.017
G1 X140.479 Y108.9 E0.017
G1 X140.226 Y109.335 E0.016
G1 X139.938 Y109.747 E0.017
G1 X139.593 Y110.162 E0.018
G1 X139.268 Y110.496 E0.016
G1 X138.888 Y110.828 E0.016
G1 X138.484 Y111.127 E0.017
G1 X138.057 Y111.392 E0.017
G1 X137.577 Y111.637 E0.018
G1 X137.145 Y111.816 E0.015
G1 X136.667 Y111.971 E0.017
G1 X136.177 Y112.087 E0.017
G1 X135.68 Y112.161 E0.017
G1 X135.177 Y112.196 E0.016
G1 X134.638 Y112.187 E0.018
G1 X134.173 Y112.143 E0.016
G1 X133.678 Y112.057 E0.016
G1 X133.192 Y111.929 E0.017
G1 X132.716 Y111.763 E0.017
G1 X132.224 Y111.541 E0.018
G1 X131.815 Y111.318 E0.015
G1 X131.394 Y111.042 E0.017
G1 X131.057 Y110.78 E0.014
G1 X128.484 E0.086
G1 X126.474 Y110.452 E0.068
G1 X124.477 Y110.169 E0.067
G1 X120.288 Y109.787 E0.14
G1 X117.367 Y109.682 E0.097
G1 X113.541 Y109.752 E0.127
G1 X110.326 Y109.99 E0.107
G1 X106.093 Y110.546 E0.142
G1 X102.518 Y111.22 E0.121
G1 X98.773 Y112.115 E0.128
G1 X97.363 Y112.79 E0.052
G1 X96.326 Y113.066 E0.036
G1 X95.257 Y113.184 E0.036
G1 X94.186 Y113.142 E0.036
G1 X93.125 Y112.941 E0.035
G1 X91.635 Y112.354 E0.054
G1 X90.724 Y111.779 E0.036
G1 X89.547 Y110.686 E0.053
G1 X88.908 Y109.818 E0.036
G1 X88.212 Y108.372 E0.053
G1 X87.935 Y107.336 E0.036
G1 X87.815 Y106.267 E0.036
G1 X87.855 Y105.193 E0.035
G1 X88.212 Y103.626 E0.054
G1 X88.908 Y102.179 E0.053
G1 X89.547 Y101.311 E0.036
G1 X90.724 Y100.218 E0.054
G1 X91.634 Y99.644 E0.035
G1 X92.622 Y99.211 E0.036
G1 X94.18 Y98.855 E0.053
G1 X95.257 Y98.813 E0.036
G1 X96.326 Y98.931 E0.036
G1 X97.363 Y99.207 E0.036
G1 X98.773 Y99.882 E0.052
G1 X102.518 Y100.777 E0.128
G1 X106.093 Y101.451 E0.121
G1 X110.326 Y102.007 E0.142
;rapid-leaky
G0 X107.947 Y117.849 F7200
;bead-skirt/brim
G1 X109.714 Y118.06 F960 E0.059
G1 X112.201 Y118.172 E0.083
G1 X115.805 Y118.23 E0.12
G1 Y127.779 E0.317
G1 X112.648 Y127.818 E0.105
G1 X109.761 Y127.936 E0.096
G1 X107.97 Y128.149 E0.06
G1 X106.585 Y128.353 E0.047
G1 X104.547 Y128.728 E0.069
G1 X99.949 Y129.672 E0.156
G1 X96.691 Y130.319 E0.11
G1 X96.282 Y130.462 E0.015
G1 X95.67 Y130.622 E0.021
G1 X95.047 Y130.732 E0.021
G1 X94.415 Y130.791 E0.021
G1 X93.784 Y130.799 E0.021
G1 X93.152 Y130.756 E0.021
G1 X92.524 Y130.661 E0.021
G1 X91.908 Y130.515 E0.021
G1 X91.296 Y130.317 E0.022
G1 X90.632 Y130.031 E0.024
G1 X90.159 Y129.789 E0.017
G1 X89.62 Y129.454 E0.021
G1 X89.113 Y129.077 E0.021
G1 X88.635 Y128.661 E0.022
G1 X88.186 Y128.198 E0.021
G1 X87.732 Y127.634 E0.024
G1 X87.429 Y127.197 E0.018
G1 X87.112 Y126.654 E0.021
G1 X86.837 Y126.083 E0.021
G1 X86.61 Y125.489 E0.021
G1 X86.433 Y124.88 E0.021
G1 X86.306 Y124.261 E0.021
G1 X86.229 Y123.633 E0.021
G1 X86.203 Y123.001 E0.021
G1 X86.229 Y122.368 E0.021
G1 X86.306 Y121.74 E0.021
G1 X86.433 Y121.121 E0.021
G1 X86.61 Y120.512 E0.021
G1 X86.838 Y119.919 E0.021
G1 X87.111 Y119.349 E0.021
G1 X87.429 Y118.804 E0.021
G1 X87.791 Y118.283 E0.022
G1 X88.195 Y117.795 E0.021
G1 X88.635 Y117.341 E0.021
G1 X89.112 Y116.924 E0.021
G1 X89.62 Y116.547 E0.021
G1 X90.16 Y116.212 E0.021
G1 X90.723 Y115.923 E0.021
G1 X91.306 Y115.681 E0.021
G1 X91.91 Y115.486 E0.021
G1 X92.526 Y115.341 E0.021
G1 X93.15 Y115.246 E0.021
G1 X93.782 Y115.202 E0.021
G1 X94.415 Y115.21 E0.021
G1 X95.047 Y115.269 E0.021
G1 X95.67 Y115.379 E0.021
G1 X96.282 Y115.539 E0.021
G1 X96.69 Y115.682 E0.015
G1 X99.123 Y116.161 E0.082
G1 X104.492 Y117.262 E0.183
G1 X106.573 Y117.646 E0.07
G1 X107.947 Y117.849 E0.046
;rapid-leaky
G0 X107.894 Y118.245 F7200
;bead-skirt/brim
G1 X109.681 Y118.458 F960 E0.06
G1 X112.189 Y118.572 E0.084
G1 X115.405 Y118.623 E0.106
G1 Y127.384 E0.292
G1 X112.637 Y127.418 E0.092
G1 X109.729 Y127.537 E0.097
G1 X107.918 Y127.753 E0.06
G1 X106.52 Y127.958 E0.047
G1 X104.47 Y128.335 E0.07
G1 X99.87 Y129.28 E0.156
G1 X96.585 Y129.932 E0.111
G1 X96.165 Y130.079 E0.015
G1 X95.585 Y130.231 E0.02
G1 X94.993 Y130.336 E0.02
G1 X94.394 Y130.391 E0.02
G1 X93.795 Y130.399 E0.02
G1 X93.195 Y130.358 E0.02
G1 X92.601 Y130.268 E0.02
G1 X92.016 Y130.129 E0.02
G1 X91.437 Y129.942 E0.02
G1 X90.802 Y129.669 E0.023
G1 X90.357 Y129.44 E0.017
G1 X89.845 Y129.123 E0.02
G1 X89.364 Y128.766 E0.02
G1 X88.91 Y128.37 E0.02
G1 X88.486 Y127.932 E0.02
G1 X88.052 Y127.394 E0.023
G1 X87.766 Y126.982 E0.017
G1 X87.465 Y126.466 E0.02
G1 X87.205 Y125.924 E0.02
G1 X86.99 Y125.361 E0.02
G1 X86.822 Y124.784 E0.02
G1 X86.701 Y124.196 E0.02
G1 X86.629 Y123.601 E0.02
G1 X86.604 Y123.001 E0.02
G1 X86.628 Y122.4 E0.02
G1 X86.701 Y121.805 E0.019
G1 X86.822 Y121.217 E0.02
G1 X86.99 Y120.639 E0.02
G1 X87.205 Y120.077 E0.02
G1 X87.465 Y119.537 E0.02
G1 X87.766 Y119.019 E0.02
G1 X88.11 Y118.525 E0.02
G1 X88.493 Y118.062 E0.02
G1 X88.91 Y117.632 E0.02
G1 X89.363 Y117.236 E0.02
G1 X89.845 Y116.878 E0.02
G1 X90.357 Y116.56 E0.02
G1 X90.891 Y116.287 E0.02
G1 X91.445 Y116.057 E0.02
G1 X92.017 Y115.871 E0.02
G1 X92.602 Y115.734 E0.02
G1 X93.194 Y115.644 E0.02
G1 X93.794 Y115.602 E0.02
G1 X94.394 Y115.61 E0.02
G1 X94.993 Y115.665 E0.02
G1 X95.585 Y115.77 E0.02
G1 X96.165 Y115.922 E0.02
G1 X96.584 Y116.069 E0.015
G1 X99.044 Y116.553 E0.083
G1 X104.416 Y117.655 E0.183
G1 X106.507 Y118.041 E0.07
G1 X107.894 Y118.245 E0.047
;rapid-leaky
G0 X107.841 Y118.642 F7200
;bead-skirt/brim
G1 X109.505 Y118.84 F960 E0.056
G1 Y118.851
G1 X112.177 Y118.971 E0.089
G1 X115.005 Y119.017 E0.094
G1 Y126.989 E0.265
G1 X112.627 Y127.018 E0.079
G1 X109.505 Y127.146 E0.104
G1 Y127.161 E0.001
G1 X107.865 Y127.356 E0.055
G1 X106.454 Y127.564 E0.047
G1 X104.394 Y127.943 E0.07
G1 X99.791 Y128.888 E0.156
G1 X96.48 Y129.545 E0.112
G1 X96.048 Y129.696 E0.016
G1 X95.499 Y129.84 E0.018
G1 X94.94 Y129.939 E0.019
G1 X94.373 Y129.991 E0.019
G1 X93.806 Y129.998 E0.019
G1 X93.239 Y129.96 E0.019
G1 X92.677 Y129.875 E0.019
G1 X92.123 Y129.744 E0.019
G1 X91.578 Y129.567 E0.019
G1 X90.973 Y129.307 E0.022
G1 X90.554 Y129.092 E0.015
G1 X90.07 Y128.792 E0.019
G1 X89.615 Y128.454 E0.019
G1 X89.186 Y128.08 E0.019
G1 X88.786 Y127.667 E0.019
G1 X88.373 Y127.154 E0.022
G1 X88.104 Y126.767 E0.016
G1 X87.819 Y126.278 E0.019
G1 X87.573 Y125.766 E0.019
G1 X87.369 Y125.234 E0.019
G1 X87.211 Y124.688 E0.018
G1 X87.096 Y124.132 E0.019
G1 X87.028 Y123.568 E0.019
G1 X87.004 Y123.001 E0.019
G1 X87.027 Y122.433 E0.019
G1 X87.096 Y121.869 E0.019
G1 X87.211 Y121.313 E0.019
G1 X87.369 Y120.767 E0.019
G1 X87.573 Y120.236 E0.019
G1 X87.819 Y119.724 E0.018
G1 X88.104 Y119.234 E0.019
G1 X88.429 Y118.767 E0.019
G1 X88.791 Y118.329 E0.019
G1 X89.186 Y117.922 E0.019
G1 X89.614 Y117.548 E0.019
G1 X90.07 Y117.209 E0.019
G1 X90.554 Y116.909 E0.019
G1 X91.059 Y116.65 E0.019
G1 X91.583 Y116.432 E0.019
G1 X92.124 Y116.257 E0.018
G1 X92.678 Y116.127 E0.019
G1 X93.238 Y116.042 E0.019
G1 X93.805 Y116.003 E0.019
G1 X94.373 Y116.01 E0.019
G1 X94.94 Y116.062 E0.019
G1 X95.499 Y116.161 E0.019
G1 X96.048 Y116.305 E0.019
G1 X96.479 Y116.456 E0.015
G1 X98.965 Y116.946 E0.084
G1 X104.339 Y118.047 E0.183
G1 X106.442 Y118.435 E0.071
G1 X107.841 Y118.642 E0.047
;rapid-leaky
G0 X107.788 Y119.038 F7200
;bead-skirt/brim
G1 X109.105 Y119.195 F960 E0.044
G1 Y121.472 E0.076
G1 X109.905 Y121.473 E0.026
G1 Y119.269 E0.074
G1 X112.164 Y119.371 E0.075
G1 X114.605 Y119.411 E0.081
G1 Y126.594 E0.239
G1 X112.616 Y126.618 E0.066
G1 X109.905 Y126.729 E0.09
G1 Y124.528 E0.073
G1 X109.105 Y124.529 E0.027
G1 Y126.806 E0.076
G1 X107.812 Y126.96 E0.043
G1 X106.389 Y127.169 E0.048
G1 X104.318 Y127.55 E0.07
G1 X99.711 Y128.496 E0.156
G1 X96.374 Y129.158 E0.114
G1 X95.931 Y129.313 E0.015
G1 X95.413 Y129.449 E0.018
G1 X94.886 Y129.542 E0.018
G1 X94.352 Y129.592 E0.018
G1 X93.817 Y129.598 E0.017
G1 X93.283 Y129.562 E0.018
G1 X92.753 Y129.482 E0.018
G1 X92.231 Y129.358 E0.018
G1 X91.719 Y129.192 E0.018
G1 X91.143 Y128.945 E0.021
G1 X90.751 Y128.744 E0.014
G1 X90.295 Y128.461 E0.018
G1 X89.866 Y128.142 E0.018
G1 X89.462 Y127.79 E0.018
G1 X89.086 Y127.402 E0.018
G1 X88.693 Y126.915 E0.021
G1 X88.442 Y126.552 E0.014
G1 X88.173 Y126.091 E0.018
G1 X87.94 Y125.608 E0.018
G1 X87.749 Y125.106 E0.018
G1 X87.599 Y124.591 E0.017
G1 X87.491 Y124.067 E0.018
G1 X87.426 Y123.536 E0.018
G1 X87.405 Y123.001 E0.018
G1 X87.426 Y122.465 E0.018
G1 X87.491 Y121.934 E0.017
G1 X87.599 Y121.41 E0.018
G1 X87.749 Y120.895 E0.018
G1 X87.941 Y120.394 E0.018
G1 X88.172 Y119.912 E0.018
G1 X88.442 Y119.449 E0.018
G1 X88.748 Y119.009 E0.017
G1 X89.089 Y118.596 E0.018
G1 X89.462 Y118.212 E0.018
G1 X89.865 Y117.859 E0.018
G1 X90.295 Y117.54 E0.018
G1 X90.751 Y117.257 E0.018
G1 X91.228 Y117.013 E0.017
G1 X91.722 Y116.808 E0.018
G1 X92.232 Y116.643 E0.018
G1 X92.753 Y116.52 E0.018
G1 X93.282 Y116.44 E0.018
G1 X93.817 Y116.403 E0.017
G1 X94.352 Y116.409 E0.018
G1 X94.886 Y116.459 E0.018
G1 X95.413 Y116.552 E0.018
G1 X95.931 Y116.688 E0.018
G1 X96.374 Y116.843 E0.015
G1 X98.886 Y117.338 E0.085
G1 X104.263 Y118.44 E0.183
G1 X106.376 Y118.83 E0.071
G1 X107.788 Y119.038 E0.048
;rapid-leaky
G0 X107.736 Y119.435 F7200
;bead-skirt/brim
G1 X108.705 Y119.55 F960 E0.032
G1 Y121.872 E0.078
G1 X110.305 Y121.873 E0.053
G1 Y119.688 E0.072
G1 X112.152 Y119.771 E0.062
G1 X114.205 Y119.804 E0.068
G1 Y126.199 E0.213
G1 X112.605 Y126.218 E0.053
G1 X110.305 Y126.312 E0.077
G1 Y124.128 E0.072
G1 X108.705 Y124.129 E0.054
G1 Y126.451 E0.077
G1 X107.759 Y126.563 E0.031
G1 X106.324 Y126.774 E0.049
G1 X104.241 Y127.157 E0.07
G1 X99.632 Y128.104 E0.157
G1 X96.269 Y128.771 E0.114
G1 X95.814 Y128.93 E0.016
G1 X95.328 Y129.058 E0.016
G1 X94.833 Y129.145 E0.017
G1 X94.331 Y129.192 E0.017
G1 X93.829 Y129.198 E0.017
G1 X93.326 Y129.164 E0.016
G1 X92.829 Y129.089 E0.017
G1 X92.339 Y128.973 E0.017
G1 X91.86 Y128.817 E0.017
G1 X91.314 Y128.583 E0.019
G1 X90.948 Y128.395 E0.014
G1 X90.52 Y128.13 E0.017
G1 X90.117 Y127.83 E0.017
G1 X89.737 Y127.499 E0.016
G1 X89.386 Y127.137 E0.017
G1 X89.014 Y126.675 E0.02
G1 X88.779 Y126.337 E0.013
G1 X88.526 Y125.903 E0.017
G1 X88.308 Y125.449 E0.017
G1 X88.128 Y124.979 E0.017
G1 X87.988 Y124.495 E0.016
G1 X87.886 Y124.002 E0.017
G1 X87.826 Y123.503 E0.017
G1 X87.805 Y123.001 E0.017
G1 X87.826 Y122.498 E0.016
G1 X87.886 Y121.999 E0.017
G1 X87.988 Y121.506 E0.017
G1 X88.128 Y121.022 E0.017
G1 X88.308 Y120.553 E0.016
G1 X88.526 Y120.099 E0.017
G1 X88.779 Y119.664 E0.017
G1 X89.067 Y119.251 E0.016
G1 X89.387 Y118.863 E0.017
G1 X89.737 Y118.503 E0.017
G1 X90.116 Y118.171 E0.017
G1 X90.521 Y117.871 E0.016
G1 X90.948 Y117.606 E0.017
G1 X91.396 Y117.376 E0.017
G1 X91.861 Y117.183 E0.017
G1 X92.339 Y117.028 E0.016
G1 X92.829 Y116.913 E0.017
G1 X93.326 Y116.838 E0.017
G1 X93.828 Y116.803 E0.017
G1 X94.331 Y116.809 E0.016
G1 X94.833 Y116.856 E0.017
G1 X95.328 Y116.943 E0.017
G1 X95.814 Y117.071 E0.017
G1 X96.269 Y117.229 E0.016
G1 X98.808 Y117.73 E0.086
G1 X104.186 Y118.833 E0.182
G1 X106.311 Y119.225 E0.072
G1 X107.736 Y119.435 E0.048
;rapid-leaky
G0 X115.881 Y129.779 F7200
;bead-skirt/brim
G1 X112.701 Y129.817 F960 E0.106
G1 X109.92 Y129.931 E0.092
G1 X108.234 Y130.132 E0.057
G1 X106.911 Y130.327 E0.044
G1 X104.929 Y130.691 E0.067
G1 X100.345 Y131.633 E0.156
G1 X97.218 Y132.253 E0.106
G1 X96.866 Y132.377 E0.012
G1 X96.098 Y132.577 E0.027
G1 X95.314 Y132.716 E0.026
G1 X94.52 Y132.79 E0.027
G1 X93.729 Y132.8 E0.026
G1 X92.934 Y132.746 E0.027
G1 X92.144 Y132.626 E0.026
G1 X91.369 Y132.443 E0.027
G1 X90.592 Y132.191 E0.027
G1 X89.779 Y131.842 E0.029
G1 X89.173 Y131.53 E0.023
G1 X88.495 Y131.11 E0.026
G1 X87.858 Y130.637 E0.027
G1 X87.257 Y130.113 E0.026
G1 X86.686 Y129.524 E0.028
G1 X86.129 Y128.833 E0.029
G1 X85.74 Y128.272 E0.023
G1 X85.344 Y127.592 E0.026
G1 X84.999 Y126.874 E0.027
G1 X84.713 Y126.126 E0.026
G1 X84.49 Y125.361 E0.027
G1 X84.331 Y124.584 E0.026
G1 X84.235 Y123.796 E0.026
G1 X84.202 Y123.001 E0.027
G1 X84.234 Y122.205 E0.026
G1 X84.331 Y121.417 E0.027
G1 X84.49 Y120.64 E0.026
G1 X84.713 Y119.874 E0.027
G1 X85 Y119.126 E0.026
G1 X85.343 Y118.412 E0.027
G1 X85.741 Y117.729 E0.026
G1 X86.196 Y117.073 E0.027
G1 X86.704 Y116.459 E0.026
G1 X87.257 Y115.889 E0.026
G1 X87.855 Y115.366 E0.027
G1 X88.495 Y114.891 E0.026
G1 X88.704 Y114.762 E0.009
G1 X88.519 Y114.645 E0.007
G1 X86.849 Y113.092 E0.076
G1 X85.81 Y111.682 E0.058
G1 X84.821 Y109.629 E0.076
G1 X84.388 Y108.006 E0.056
G1 X84.207 Y106.402 E0.053
G1 X84.27 Y104.721 E0.056
G1 X84.792 Y102.43 E0.078
G1 X85.81 Y100.316 E0.078
G1 X86.849 Y98.905 E0.059
G1 X88.519 Y97.352 E0.076
G1 X89.079 Y96.999 E0.022
G1 X88.611 Y96.707 E0.018
G1 X87.331 Y95.612 E0.056
G1 X85.897 Y93.823 E0.076
G1 X85.107 Y92.333 E0.056
G1 X84.546 Y90.738 E0.057
G1 X84.204 Y88.476 E0.076
G1 X84.27 Y86.717 E0.058
G1 X84.778 Y84.489 E0.076
G1 X85.487 Y82.872 E0.059
G1 X86.82 Y80.928 E0.078
G1 X88.554 Y79.327 E0.079
G1 X90.047 Y78.395 E0.058
G1 X92.179 Y77.567 E0.076
G1 X93.846 Y77.261 E0.057
G1 X95.461 Y77.209 E0.054
G1 X97.142 Y77.407 E0.056
G1 X98.783 Y77.925 E0.057
G1 X99.998 Y78.166 E0.041
G1 X104.184 Y78.919 E0.142
G1 X108.216 Y79.527 E0.135
G1 X113.437 Y80.135 E0.175
G1 X118.472 Y80.516 E0.168
G1 X123.358 Y80.687 E0.163
G1 X128.128 Y80.659 E0.158
G1 X132.799 Y80.443 E0.156
G1 X139.393 Y79.852 E0.22
G1 X143.383 Y79.289 E0.134
G1 X144.904 Y79.055 E0.051
G1 X146.361 Y78.816 E0.049
G1 X148.843 Y78.376 E0.084
G1 X151.08 Y77.941 E0.076
G1 X151.366 Y77.826 E0.01
G1 X152.141 Y77.582 E0.027
G1 X152.931 Y77.397 E0.027
G1 X153.732 Y77.272 E0.027
G1 X154.538 Y77.207 E0.027
G1 X155.349 Y77.202 E0.027
G1 X156.159 Y77.259 E0.027
;rapid-leaky
G0 F7200
;bead-skirt/brim
G1 X156.968 Y77.378 F960 E0.027
G1 X157.796 Y77.566 E0.029
G1 X158.527 Y77.789 E0.025
G1 X159.282 Y78.082 E0.027
G1 X160.015 Y78.431 E0.027
G1 X160.716 Y78.833 E0.027
G1 X161.387 Y79.287 E0.027
G1 X162.024 Y79.792 E0.027
G1 X162.619 Y80.341 E0.027
G1 X163.172 Y80.935 E0.027
G1 X163.678 Y81.566 E0.027
G1 X164.135 Y82.233 E0.027
G1 X164.543 Y82.937 E0.027
G1 X164.895 Y83.665 E0.026
G1 X165.193 Y84.42 E0.027
G1 X165.433 Y85.197 E0.028
G1 X165.613 Y85.984 E0.026
G1 X165.735 Y86.785 E0.027
G1 X165.795 Y87.596 E0.027
G1 Y88.403 E0.027
G1 X165.735 Y89.214 E0.027
G1 X165.613 Y90.015 E0.027
G1 X165.433 Y90.802 E0.027
G1 X165.193 Y91.58 E0.027
G1 X164.895 Y92.333 E0.027
G1 X164.544 Y93.061 E0.027
G1 X164.135 Y93.766 E0.027
G1 X163.672 Y94.441 E0.027
G1 X163.139 Y95.1 E0.028
G1 X162.619 Y95.658 E0.026
G1 X162.015 Y96.215 E0.027
G1 X161.347 Y96.738 E0.028
G1 X160.718 Y97.165 E0.026
G1 X160.006 Y97.573 E0.027
G1 X159.237 Y97.935 E0.028
G1 X158.526 Y98.21 E0.026
G1 X157.741 Y98.449 E0.027
G1 X156.91 Y98.63 E0.028
G1 X156.158 Y98.74 E0.025
G1 X155.34 Y98.797 E0.028
G1 X154.489 Y98.788 E0.028
G1 X153.732 Y98.727 E0.025
G1 X152.931 Y98.602 E0.027
G1 X152.141 Y98.417 E0.027
G1 X151.366 Y98.173 E0.027
G1 X151.073 Y98.055 E0.011
G1 X148.852 Y97.625 E0.075
G1 X146.37 Y97.185 E0.084
G1 X140.674 Y96.279 E0.192
G1 X134.719 Y95.697 E0.199
G1 X129.786 Y95.391 E0.164
G1 X125.093 Y95.291 E0.156
G1 X120.558 Y95.377 E0.151
G1 X114.583 Y95.756 E0.199
G1 X109.523 Y96.3 E0.169
G1 X105.562 Y96.86 E0.133
G1 X103.255 Y97.252 E0.078
G1 X106.661 Y97.895 E0.116
G1 X110.694 Y98.424 E0.135
G1 X113.707 Y98.648 E0.1
G1 X117.336 Y98.714 E0.121
G1 X120.065 Y98.616 E0.091
G1 X123.628 Y98.301 E0.119
G1 X125.94 Y97.985 E0.078
G1 X128.192 Y97.617 E0.075
G1 X129.92 E0.058
G1 X130.66 Y97.209 E0.028
G1 X131.391 Y96.883 E0.027
G1 X132.144 Y96.621 E0.026
G1 X132.908 Y96.422 E0.026
G1 X133.692 Y96.283 E0.027
G1 X134.486 Y96.209 E0.026
G1 X135.281 Y96.199 E0.027
G1 X136.076 Y96.255 E0.026
G1 X136.858 Y96.374 E0.027
G1 X137.634 Y96.555 E0.026
G1 X138.393 Y96.801 E0.027
G1 X139.137 Y97.11 E0.026
G1 X139.876 Y97.496 E0.028
G1 X140.509 Y97.891 E0.025
G1 X141.147 Y98.362 E0.026
G1 X141.748 Y98.887 E0.027
G1 X142.31 Y99.466 E0.027
G1 X142.836 Y100.111 E0.027
G1 X143.264 Y100.725 E0.025
G1 X143.662 Y101.41 E0.027
G1 X144.006 Y102.126 E0.026
G1 X144.292 Y102.873 E0.027
G1 X144.514 Y103.637 E0.026
G1 X144.674 Y104.415 E0.027
G1 X144.771 Y105.203 E0.026
G1 X144.803 Y105.999 E0.027
G1 X144.77 Y106.804 E0.026
G1 X144.665 Y107.627 E0.028
G1 X144.514 Y108.36 E0.025
G1 X144.292 Y109.125 E0.026
G1 X144.005 Y109.873 E0.027
G1 X143.662 Y110.587 E0.026
G1 X143.263 Y111.272 E0.027
G1 X142.803 Y111.933 E0.026
G1 X142.27 Y112.573 E0.028
G1 X141.747 Y113.11 E0.025
G1 X141.147 Y113.635 E0.027
G1 X140.509 Y114.107 E0.026
G1 X139.828 Y114.531 E0.027
G1 X139.085 Y114.909 E0.027
G1 X138.392 Y115.196 E0.025
G1 X137.637 Y115.441 E0.027
G1 X136.858 Y115.625 E0.026
G1 X136.072 Y115.742 E0.027
G1 X135.272 Y115.798 E0.026
G1 X134.439 Y115.784 E0.028
G1 X133.694 Y115.714 E0.025
G1 X132.911 Y115.577 E0.026
G1 X132.14 Y115.376 E0.027
G1 X131.379 Y115.109 E0.027
G1 X130.618 Y114.766 E0.028
G1 X129.92 Y114.38 E0.026
G1 X128.192 E0.058
G1 X125.931 Y114.011 E0.076
G1 X124.061 Y113.746 E0.063
G1 X120.06 Y113.381 E0.133
G1 X117.336 Y113.283 E0.091
G1 X113.707 Y113.349 E0.121
G1 X110.694 Y113.573 E0.1
G1 X106.661 Y114.102 E0.135
G1 X103.27 Y114.741 E0.115
G1 X102.755 Y114.864 E0.018
G1 X104.874 Y115.299 E0.072
G1 X106.9 Y115.673 E0.068
G1 X108.212 Y115.866 E0.044
G1 X109.877 Y116.065 E0.056
G1 X112.262 Y116.172 E0.08
G1 X117.805 Y116.262 E0.184
G1 Y128.591 E0.41
;rapid-leaky
G0 X117.405 Y128.838 F7200
;bead-skirt/brim
G1 Y116.655 F960 E0.405
G1 X112.25 Y116.572 E0.172
G1 X109.845 Y116.464 E0.08
G1 X108.159 Y116.263 E0.056
G1 X106.835 Y116.067 E0.045
G1 X104.798 Y115.692 E0.069
G1 X100.909 Y114.894 E0.132
G1 X103.187 Y114.35 E0.078
G1 X106.598 Y113.707 E0.115
G1 X110.653 Y113.175 E0.136
G1 X113.689 Y112.95 E0.101
G1 X117.339 Y112.883 E0.122
G1 X120.085 Y112.981 E0.091
G1 X124.107 Y113.349 E0.134
G1 X125.992 Y113.615 E0.064
G1 X128.224 Y113.98 E0.075
G1 X130.039 E0.06
G1 X130.169 Y114.065 E0.005
G1 X130.797 Y114.408 E0.024
G1 X131.527 Y114.737 E0.027
G1 X132.257 Y114.993 E0.026
G1 X132.997 Y115.186 E0.025
G1 X133.747 Y115.318 E0.025
G1 X134.461 Y115.384 E0.024
G1 X135.262 Y115.398 E0.027
G1 X136.029 Y115.344 E0.025
G1 X136.783 Y115.232 E0.026
G1 X137.529 Y115.055 E0.025
G1 X138.253 Y114.821 E0.026
G1 X138.917 Y114.545 E0.024
G1 X139.631 Y114.182 E0.026
G1 X140.284 Y113.776 E0.026
G1 X140.896 Y113.323 E0.025
G1 X141.472 Y112.82 E0.026
G1 X141.973 Y112.305 E0.023
G1 X142.485 Y111.69 E0.027
G1 X142.926 Y111.057 E0.026
G1 X143.308 Y110.4 E0.025
G1 X143.638 Y109.714 E0.025
G1 X143.912 Y108.998 E0.026
G1 X144.126 Y108.263 E0.025
G1 X144.27 Y107.561 E0.024
G1 X144.371 Y106.77 E0.027
G1 X144.403 Y105.999 E0.025
G1 X144.372 Y105.236 E0.026
G1 X144.279 Y104.48 E0.025
G1 X144.126 Y103.733 E0.025
G1 X143.912 Y103.001 E0.026
G1 X143.638 Y102.284 E0.025
G1 X143.308 Y101.597 E0.026
G1 X142.926 Y100.94 E0.025
G1 X142.516 Y100.352 E0.024
G1 X142.011 Y99.732 E0.026
G1 X141.472 Y99.178 E0.026
G1 X140.896 Y98.674 E0.025
G1 X140.284 Y98.222 E0.026
G1 X139.678 Y97.843 E0.024
G1 X138.967 Y97.473 E0.026
G1 X138.254 Y97.177 E0.026
G1 X137.526 Y96.941 E0.025
G1 X136.783 Y96.767 E0.026
G1 X136.032 Y96.653 E0.025
G1 X135.27 Y96.6 E0.025
G1 X134.507 Y96.609 E0.026
G1 X133.745 Y96.68 E0.025
G1 X132.993 Y96.813 E0.026
G1 X132.26 Y97.004 E0.025
G1 X131.538 Y97.256 E0.025
G1 X130.837 Y97.568 E0.026
G1 X130.17 Y97.932 E0.025
G1 X130.039 Y98.017 E0.005
G1 X128.224 E0.061
G1 X126 Y98.38 E0.075
G1 X123.673 Y98.698 E0.078
G1 X120.09 Y99.015 E0.119
G1 X117.339 Y99.114 E0.092
G1 X113.689 Y99.047 E0.121
G1 X110.653 Y98.822 E0.102
G1 X106.598 Y98.29 E0.136
G1 X103.187 Y97.647 E0.115
G1 X101.263 Y97.187 E0.066
G1 X105.501 Y96.465 E0.143
G1 X109.474 Y95.903 E0.133
G1 X114.549 Y95.357 E0.17
G1 X120.542 Y94.977 E0.2
G1 X125.093 Y94.891 E0.151
G1 X129.803 Y94.991 E0.157
G1 X134.751 Y95.298 E0.165
G1 X140.725 Y95.882 E0.199
G1 X146.436 Y96.79 E0.193
G1 X148.924 Y97.231 E0.084
G1 X151.187 Y97.67 E0.076
G1 X151.501 Y97.796 E0.012
G1 X152.246 Y98.031 E0.026
G1 X153.008 Y98.21 E0.026
G1 X153.779 Y98.33 E0.026
G1 X154.507 Y98.389 E0.024
G1 X155.328 Y98.397 E0.027
G1 X156.115 Y98.342 E0.027
G1 X156.838 Y98.236 E0.024
G1 X157.64 Y98.062 E0.027
G1 X158.396 Y97.832 E0.026
G1 X159.079 Y97.567 E0.025
G1 X159.821 Y97.218 E0.027
G1 X160.506 Y96.825 E0.026
G1 X161.112 Y96.415 E0.025
G1 X161.756 Y95.91 E0.027
G1 X162.336 Y95.374 E0.026
G1 X162.836 Y94.838 E0.025
G1 X163.351 Y94.202 E0.027
G1 X163.796 Y93.552 E0.026
G1 X164.19 Y92.874 E0.026
G1 X164.528 Y92.172 E0.026
G1 X164.815 Y91.447 E0.026
G1 X165.046 Y90.699 E0.026
G1 X165.219 Y89.94 E0.026
G1 X165.337 Y89.169 E0.026
G1 X165.395 Y88.388 E0.026
G1 Y87.611 E0.026
G1 X165.337 Y86.83 E0.026
G1 X165.219 Y86.059 E0.026
G1 X165.046 Y85.301 E0.025
G1 X164.815 Y84.553 E0.027
G1 X164.528 Y83.826 E0.026
G1 X164.189 Y83.124 E0.025
G1 X163.796 Y82.447 E0.026
G1 X163.356 Y81.805 E0.026
G1 X162.87 Y81.197 E0.026
G1 X162.336 Y80.625 E0.026
G1 X161.763 Y80.096 E0.026
G1 X161.151 Y79.61 E0.026
G1 X160.504 Y79.173 E0.026
G1 X159.829 Y78.786 E0.026
G1 X159.123 Y78.449 E0.026
G1 X158.397 Y78.167 E0.026
G1 X157.693 Y77.953 E0.024
G1 X156.894 Y77.771 E0.028
G1 X156.116 Y77.657 E0.026
;rapid-leaky
G0 F7200
;bead-skirt/brim
G1 X155.336 Y77.602 F960 E0.026
G1 X154.555 Y77.607 E0.026
G1 X153.779 Y77.669 E0.026
G1 X153.008 Y77.789 E0.026
G1 X152.246 Y77.968 E0.026
G1 X151.501 Y78.203 E0.026
G1 X151.194 Y78.326 E0.011
G1 X148.916 Y78.769 E0.077
G1 X146.428 Y79.21 E0.084
G1 X144.967 Y79.45 E0.049
G1 X143.442 Y79.685 E0.052
G1 X139.438 Y80.249 E0.134
G1 X132.826 Y80.842 E0.221
G1 X128.139 Y81.058 E0.156
G1 X123.352 Y81.087 E0.159
G1 X118.45 Y80.916 E0.163
G1 X113.399 Y80.533 E0.169
G1 X108.163 Y79.923 E0.175
G1 X104.119 Y79.313 E0.136
G1 X99.923 Y78.559 E0.142
G1 X98.684 Y78.313 E0.042
G1 X97.057 Y77.8 E0.057
G1 X95.444 Y77.609 E0.054
G1 X93.889 Y77.66 E0.051
G1 X92.289 Y77.954 E0.054
G1 X90.227 Y78.754 E0.074
G1 X88.798 Y79.646 E0.056
G1 X87.124 Y81.191 E0.076
G1 X85.839 Y83.067 E0.075
G1 X85.16 Y84.615 E0.057
G1 X84.668 Y86.77 E0.073
G1 X84.605 Y88.454 E0.056
G1 X84.936 Y90.641 E0.074
G1 X85.475 Y92.172 E0.054
G1 X86.233 Y93.603 E0.054
G1 X87.619 Y95.332 E0.073
G1 X88.849 Y96.383 E0.054
G1 X89.831 Y96.998 E0.039
G1 X88.764 Y97.67 E0.042
G1 X87.148 Y99.172 E0.073
G1 X86.154 Y100.523 E0.056
G1 X85.172 Y102.563 E0.075
G1 X84.668 Y104.774 E0.076
G1 X84.608 Y106.387 E0.053
G1 X84.782 Y107.932 E0.052
G1 X85.198 Y109.489 E0.054
G1 X86.154 Y111.475 E0.073
G1 X87.148 Y112.825 E0.056
G1 X88.764 Y114.326 E0.073
G1 X89.466 Y114.77 E0.028
G1 X88.72 Y115.222 E0.029
G1 X88.107 Y115.678 E0.025
G1 X87.533 Y116.18 E0.025
G1 X87.002 Y116.726 E0.026
G1 X86.515 Y117.315 E0.025
G1 X86.078 Y117.944 E0.026
G1 X85.697 Y118.599 E0.025
G1 X85.367 Y119.285 E0.025
G1 X85.093 Y120.001 E0.026
G1 X84.879 Y120.736 E0.025
G1 X84.726 Y121.482 E0.025
G1 X84.633 Y122.238 E0.026
G1 X84.602 Y123.001 E0.025
G1 X84.633 Y123.763 E0.026
G1 X84.726 Y124.519 E0.025
G1 X84.879 Y125.265 E0.025
G1 X85.092 Y125.998 E0.026
G1 X85.367 Y126.716 E0.025
G1 X85.698 Y127.405 E0.026
G1 X86.078 Y128.057 E0.025
G1 X86.45 Y128.593 E0.021
G1 X86.986 Y129.258 E0.029
G1 X87.533 Y129.822 E0.026
G1 X88.109 Y130.325 E0.025
G1 X88.72 Y130.779 E0.026
G1 X89.37 Y131.182 E0.025
G1 X89.949 Y131.48 E0.022
G1 X90.733 Y131.816 E0.028
G1 X91.477 Y132.057 E0.026
G1 X92.22 Y132.233 E0.026
G1 X92.977 Y132.348 E0.025
G1 X93.74 Y132.399 E0.025
G1 X94.499 Y132.39 E0.026
G1 X95.261 Y132.319 E0.025
G1 X96.013 Y132.186 E0.026
G1 X96.749 Y131.994 E0.025
G1 X97.113 Y131.866 E0.013
G1 X100.266 Y131.241 E0.107
G1 X104.853 Y130.299 E0.155
G1 X106.846 Y129.932 E0.068
G1 X108.182 Y129.736 E0.045
G1 X109.888 Y129.532 E0.057
G1 X112.69 Y129.417 E0.093
G1 X116.542 Y129.371 E0.128
G1 F2100 E-0.5
;rapid-dry
G0 X113.805 Y120.199 F7200
G1 F2100 E0.5
;bead-perimeter_outer
G1 Y125.802 F720 E0.187
G1 X112.596 Y125.818 E0.04
G1 X110.705 Y125.894 E0.063
G1 Y123.728 E0.072
G1 X108.305 Y123.729 E0.08
G1 Y126.095 E0.078
G1 X106.981 Y126.267 E0.045
G1 X106.259 Y126.38 E0.024
G1 X104.164 Y126.765 E0.071
G1 X99.553 Y127.712 E0.156
G1 X96.163 Y128.385 E0.115
G1 X95.698 Y128.548 E0.017
G1 X95.242 Y128.666 E0.015
G1 X94.779 Y128.749 E0.016
G1 X94.311 Y128.792 E0.016
G1 X93.84 Y128.798 E0.015
G1 X93.37 Y128.766 E0.016
G1 X92.905 Y128.695 E0.016
G1 X92.447 Y128.587 E0.015
G1 X91.999 Y128.442 E0.016
G1 X91.49 Y128.224 E0.018
G1 X91.146 Y128.047 E0.013
G1 X90.745 Y127.798 E0.016
G1 X90.367 Y127.518 E0.016
G1 X90.013 Y127.209 E0.015
G1 X89.685 Y126.871 E0.016
G1 X89.338 Y126.441 E0.018
G1 X89.117 Y126.121 E0.013
G1 X88.88 Y125.715 E0.016
G1 X88.676 Y125.291 E0.016
G1 X88.508 Y124.851 E0.015
G1 X88.376 Y124.399 E0.016
G1 X88.282 Y123.938 E0.015
G1 X88.224 Y123.47 E0.016
G1 X88.205 Y123.001 E0.016
G1 X88.225 Y122.53 E0.015
G1 X88.282 Y122.063 E0.016
G1 X88.376 Y121.602 E0.016
G1 X88.508 Y121.15 E0.015
G1 X88.676 Y120.711 E0.016
G1 X88.88 Y120.287 E0.016
G1 X89.117 Y119.88 E0.015
G1 X89.385 Y119.493 E0.016
G1 X89.685 Y119.131 E0.016
G1 X90.013 Y118.793 E0.015
G1 X90.368 Y118.483 E0.016
G1 X90.745 Y118.203 E0.016
G1 X91.146 Y117.954 E0.015
G1 X91.564 Y117.74 E0.016
G1 X91.999 Y117.559 E0.016
G1 X92.447 Y117.414 E0.015
G1 X92.905 Y117.307 E0.016
G1 X93.37 Y117.236 E0.016
G1 X93.84 Y117.203 E0.015
G1 X94.311 Y117.209 E0.016
G1 X94.779 Y117.252 E0.016
G1 X95.242 Y117.335 E0.015
G1 X95.698 Y117.453 E0.016
G1 X96.163 Y117.616 E0.016
G1 X98.729 Y118.122 E0.087
G1 X104.109 Y119.225 E0.183
G1 X106.245 Y119.619 E0.072
G1 X106.941 Y119.729 E0.024
G1 X108.305 Y119.906 E0.045
G1 Y122.272 E0.079
G1 X110.705 Y122.273 E0.08
G1 Y120.108 E0.072
G1 X112.14 Y120.171 E0.048
G1 X113.805 Y120.199 E0.055
;rapid-leaky
G0 X113.445 Y120.556 F7200
;bead-perimeter_inner
G1 Y125.445 F960 E0.163
G1 X112.587 Y125.458 E0.028
G1 X111.065 Y125.516 E0.051
G1 Y123.368 E0.071
G1 X107.945 Y123.369 E0.104
G1 Y125.776 E0.08
G1 X106.2 Y126.024 E0.059
G1 X104.094 Y126.412 E0.071
G1 X99.482 Y127.359 E0.157
G1 X96.068 Y128.036 E0.115
G1 X95.592 Y128.203 E0.017
G1 X95.165 Y128.315 E0.015
G1 X94.731 Y128.392 E0.014
G1 X94.292 Y128.432 E0.015
G1 X93.85 Y128.438 E0.015
G1 X93.409 Y128.408 E0.014
G1 X92.974 Y128.342 E0.015
G1 X92.544 Y128.24 E0.015
G1 X92.124 Y128.104 E0.014
G1 X91.653 Y127.903 E0.018
G1 X91.323 Y127.733 E0.012
G1 X90.948 Y127.5 E0.015
G1 X90.593 Y127.237 E0.014
G1 X90.261 Y126.947 E0.015
G1 X89.954 Y126.63 E0.015
G1 X89.633 Y126.235 E0.017
G1 X89.421 Y125.928 E0.012
G1 X89.198 Y125.546 E0.015
G1 X89.007 Y125.148 E0.014
G1 X88.849 Y124.737 E0.015
G1 X88.726 Y124.312 E0.015
G1 X88.637 Y123.88 E0.014
G1 X88.583 Y123.441 E0.015
G1 X88.565 Y123.001 E0.015
G1 X88.584 Y122.56 E0.014
G1 X88.637 Y122.121 E0.015
G1 X88.726 Y121.689 E0.015
G1 X88.849 Y121.265 E0.014
G1 X89.007 Y120.854 E0.015
G1 X89.198 Y120.456 E0.015
G1 X89.421 Y120.073 E0.015
G1 X89.673 Y119.711 E0.014
G1 X89.953 Y119.371 E0.015
G1 X90.261 Y119.055 E0.015
G1 X90.594 Y118.763 E0.014
G1 X90.948 Y118.501 E0.015
G1 X91.323 Y118.268 E0.015
G1 X91.716 Y118.067 E0.014
G1 X92.124 Y117.897 E0.015
G1 X92.543 Y117.761 E0.015
G1 X92.973 Y117.66 E0.014
G1 X93.41 Y117.594 E0.015
G1 X93.85 Y117.563 E0.015
G1 X94.292 Y117.569 E0.014
G1 X94.731 Y117.609 E0.015
G1 X95.165 Y117.686 E0.015
G1 X95.592 Y117.798 E0.014
G1 X96.069 Y117.965 E0.017
G1 X98.658 Y118.475 E0.088
G1 X104.039 Y119.578 E0.183
G1 X106.187 Y119.975 E0.072
G1 X106.888 Y120.085 E0.024
G1 X107.945 Y120.225 E0.035
G1 Y122.632 E0.08
G1 X111.065 Y122.633 E0.104
G1 Y120.488 E0.072
G1 X112.129 Y120.531 E0.035
G1 X113.445 Y120.556 E0.044
G1 F2100 E-0.5
;rapid-dry
G0 X113.44 Y107.97 F7200
G1 F2100 E0.5
;bead-support
G1 X114.036 Y107.627 F1320 E0.023
G1 X114.149 Y107.708 E0.004
G1 X114.994 Y107.912 E0.029
G1 X115.851 Y107.709 E0.029
G1 X116.358 Y107.342 E0.021
G1 X116.814 Y106.599 E0.029
G1 X116.909 Y106.002 E0.02
G1 X116.904 Y105.971 E0.001
G1 X116.978 Y105.928 E0.003
G1 X116.98 Y104.028 E0.063
G1 X114.941 Y104.024 E0.068
G1 X114.716 Y104.154 E0.009
G1 X114.149 Y104.288 E0.019
G1 X113.642 Y104.655 E0.021
G1 X113.528 Y104.84 E0.007
G1 X113.023 Y105.132 E0.02
G1 F2100 E-0.5
G0 X113.528 Y104.84 F2400
G0 X113.642 Y104.655 F2400
G0 X113.804 Y104.538 F2400
G0 X113.642 Y104.655 F2400
G0 X113.528 Y104.84 F2400
G0 X113.023 Y105.132 F2400
;rapid-dry
G0 X112.172 Y105.623 F7200
G1 F2100 E0.5
;bead-support
G1 X103.821 Y110.445 F1320 E0.32
G1 X106.01 Y110.032 E0.075
G1 X110.273 Y109.473 E0.143
G1 X110.922 Y109.425 E0.021
G1 X112.176 Y108.7 E0.048
G1 F2100 E-0.5
G0 X111.31 Y109.2 F2400
G0 X112.176 Y108.7 F2400
;rapid-leaky
G0 X123.93 Y108.072 F7200
G1 F2100 E0.5
;bead-support
G1 X121.65 Y109.389 F1320 E0.088
G1 X120.321 Y109.268 E0.044
G1 X117.372 Y109.162 E0.098
G1 X116.688 Y109.174 E0.023
G1 X117.32 Y108.81 E0.024
G1 X117.83 Y108.808 E0.017
G1 Y108.515 E0.01
G1 X123.93 Y104.993 E0.234
G1 Y102.41 E0.086
G1 X122.915 Y102.5 E0.034
G1 X117.826 Y105.438 E0.196
G1 X117.824 Y103.174 E0.075
G1 X116.407 Y103.178 E0.047
G1 X117.013 Y102.829 E0.023
G1 X113.517 Y102.765 E0.117
G1 X111.986 Y102.651 E0.051
G1 X94.683 Y112.641 E0.664
G1 F2100 E-0.5
G0 X95.549 Y112.141 F2400
G0 X94.683 Y112.641 F2400
;rapid-leaky
G0 X88.422 Y107.018 F7200
G1 F2100 E0.5
;bead-support
G1 X90.698 Y105.705 F1320 E0.088
G1 X90.668 Y105.997 E0.009
G1 X90.754 Y106.855 E0.029
G1 X91.009 Y107.683 E0.029
G1 X91.391 Y108.384 E0.026
G1 X89.361 Y109.556 E0.078
G1 X89.937 Y110.338 E0.033
G1 X91.042 Y111.365 E0.05
G1 X91.29 Y111.521 E0.01
G1 X93.723 Y110.117 E0.093
G1 X94.25 Y110.265 E0.018
G1 X95.106 Y110.328 E0.029
G1 X95.96 Y110.222 E0.028
G1 X96.778 Y109.948 E0.029
G1 X97.53 Y109.514 E0.029
G1 X98.176 Y108.944 E0.029
G1 X98.696 Y108.256 E0.028
G1 X99.07 Y107.483 E0.029
G1 X99.205 Y106.952 E0.018
G1 X107.503 Y102.161 E0.319
G1 X106.01 Y101.965 E0.05
G1 X103.37 Y101.467 E0.089
G1 X98.87 Y104.066 E0.173
G1 X98.453 Y103.381 E0.027
G1 X97.869 Y102.752 E0.028
G1 X97.168 Y102.247 E0.029
G1 X96.897 Y102.126 E0.01
G1 X99.539 Y100.6 E0.101
G1 X98.598 Y100.375 E0.033
G1 X97.182 Y99.697 E0.052
G1 X96.23 Y99.443 E0.033
G1 X96.213 Y99.442
G1 X88.721 Y103.767 E0.288
G1 F2100 E-0.5
G0 X89.587 Y103.267 F2400
G0 X88.721 Y103.767 F2400
;rapid-dry
G0 X90.622 Y93.006 F7200
G1 F2100 E0.5
;bead-support
G1 X88.5 Y89.33 F1320 E0.141
G1 X88.336 Y88.243 E0.037
G1 X88.355 Y87.744 E0.016
G1 X91.914 Y93.909 E0.237
G1 X92.906 Y94.294 E0.035
G1 X88.506 Y86.673 E0.293
G1 X88.708 Y85.786 E0.03
G1 X88.732 Y85.731 E0.002
G1 X91.003 Y89.664 E0.151
G1 X91.009 Y89.684 E0.001
G1 X91.167 Y89.975 E0.011
G1 X91.42 Y90.439 E0.018
G1 X91.515 Y90.552 E0.005
G1 X93.82 Y94.544 E0.153
G1 X94.287 Y94.63 E0.016
G1 X94.305 Y94.631
G1 X94.646 Y94.642 E0.012
G1 X93.022 Y91.829 E0.108
G1 X93.416 Y92.031 E0.014
G1 X94.004 Y92.197 E0.021
G1 X95.419 Y94.647 E0.094
G1 X96.139 Y94.561 E0.024
G1 X94.839 Y92.31 E0.086
G1 X95.114 Y92.33 E0.01
G1 X95.574 Y92.249 E0.015
G1 X96.803 Y94.378 E0.082
G1 X97.455 Y94.173 E0.023
G1 X96.274 Y92.127 E0.078
G1 X96.369 Y92.11 E0.003
G1 X96.896 Y91.872 E0.02
G1 X98.128 Y94.005 E0.081
G1 X98.82 Y93.871 E0.024
G1 X97.47 Y91.533 E0.09
G1 X97.869 Y91.246 E0.016
G1 X97.996 Y91.11 E0.006
G1 X99.513 Y93.737 E0.101
G1 X100.205 Y93.603 E0.024
G1 X98.467 Y90.593 E0.115
G1 X98.862 Y89.944 E0.026
G1 X100.9 Y93.473 E0.135
G1 X101.601 Y93.354 E0.024
G1 X99.17 Y89.143 E0.161
G1 X99.197 Y89.069 E0.003
G1 X99.326 Y88.217 E0.029
G1 X99.319 Y88.068 E0.005
G1 X102.302 Y93.235 E0.198
G1 X103.003 Y93.116 E0.024
G1 X96.269 Y81.453 E0.448
G1 X95.811 Y81.399 E0.015
G1 X95.443 Y81.355 E0.012
G1 X97.109 Y84.241 E0.111
G1 X96.778 Y84.05 E0.013
G1 X96.098 Y83.822 E0.024
G1 X94.674 Y81.356 E0.094
G1 X94.301 Y81.369 E0.013
G1 X94.287
G1 X93.948 Y81.432 E0.012
G1 X95.25 Y83.687 E0.086
G1 X95.109 Y83.67 E0.005
G1 X95.007 Y83.677 E0.004
G1 X94.834 Y83.69 E0.005
G1 X94.496 Y83.715 E0.012
G1 X93.257 Y81.569 E0.082
G1 X92.628 Y81.813 E0.023
G1 X93.809 Y83.857 E0.078
G1 X93.417 Y83.968 E0.014
G1 X93.174 Y84.092 E0.009
G1 X91.999 Y82.057 E0.078
G1 X91.899 Y82.095 E0.003
G1 X91.423 Y82.392 E0.019
G1 X92.588 Y84.41 E0.078
G1 X92.061 Y84.83 E0.022
G1 X90.88 Y82.786 E0.078
G1 X90.378 Y83.249 E0.023
G1 X91.593 Y85.354 E0.081
G1 X91.42 Y85.56 E0.009
G1 X91.188 Y85.986 E0.016
G1 X89.889 Y83.736 E0.087
G1 X89.472 Y84.346 E0.024
G1 X90.87 Y86.767 E0.093
G1 X90.754 Y87.143 E0.013
G1 X90.689 Y87.788 E0.022
G1 X89.064 Y84.974 E0.108
G1 F2100 E-0.5
G0 X89.564 Y85.84 F2400
G0 X89.064 Y84.974 F2400
;rapid-leaky
G0 X97.21 Y81.749 F7200
G1 F2100 E0.5
;bead-support
G1 X103.704 Y92.997 F1320 E0.432
G1 X104.405 Y92.878 E0.023
G1 X98.121 Y81.994 E0.418
G1 X98.991 Y82.166 E0.03
G1 X105.109 Y92.763 E0.407
G1 X105.82 Y92.663 E0.024
G1 X99.852 Y82.326 E0.397
G1 X100.711 Y82.48 E0.029
G1 X106.532 Y92.562 E0.387
G1 X107.244 Y92.462 E0.024
G1 X101.57 Y82.635 E0.377
G1 X102.429 Y82.789 E0.029
G1 X107.956 Y92.361 E0.368
G1 X108.044 Y92.349 E0.003
G1 X108.667 Y92.26 E0.021
G1 X103.288 Y82.944 E0.358
G1 X103.512 Y82.984 E0.007
G1 X104.006 Y83.058 E0.017
G1 X104.136 Y83.078 E0.004
G1 X109.386 Y92.171 E0.349
G1 X110.111 Y92.093 E0.025
G1 X104.979 Y83.205 E0.341
G1 X105.822 Y83.332 E0.028
G1 X110.835 Y92.016 E0.334
G1 X111.56 Y91.938 E0.024
G1 X106.665 Y83.46 E0.326
G1 X107.509 Y83.587 E0.028
G1 X112.285 Y91.86 E0.318
G1 X112.424 Y91.845 E0.005
G1 X113.01 Y91.782 E0.019
G1 X108.337 Y83.689 E0.311
G1 X109.163 Y83.785 E0.028
G1 X113.734 Y91.704 E0.304
G1 X114.232 Y91.65 E0.016
G1 X114.465 Y91.635 E0.008
G1 X109.988 Y83.881 E0.298
G1 X110.813 Y83.977 E0.028
G1 X115.207 Y91.588 E0.292
G1 X115.95 Y91.541 E0.025
G1 X111.638 Y84.073 E0.286
G1 X112.464 Y84.169 E0.028
G1 X116.693 Y91.494 E0.281
G1 X117.435 Y91.447 E0.025
G1 X113.283 Y84.255 E0.276
G1 X114.088 Y84.316 E0.027
G1 X118.178 Y91.4 E0.272
G1 X118.92 Y91.352 E0.025
G1 X114.893 Y84.377 E0.268
G1 X115.698 Y84.438 E0.027
G1 X119.663 Y91.305 E0.263
G1 X120.389 Y91.259 E0.025
G1 X120.406
G1 X116.503 Y84.499 E0.26
G1 X117.308 Y84.56 E0.027
G1 X121.167 Y91.244 E0.256
G1 X121.929 Y91.23 E0.026
G1 X118.113 Y84.621 E0.254
G1 X118.244 Y84.631 E0.004
G1 X118.902 Y84.654 E0.022
G1 X122.176 Y90.324 E0.218
G1 Y90.824 E0.016
G1 X122.464 Y90.823 E0.01
G1 X122.69 Y91.216 E0.015
G1 X123.452 Y91.201 E0.025
G1 X123.232 Y90.821 E0.015
G1 X124.001 Y90.819 E0.025
G1 X124.213 Y91.187 E0.014
G1 X124.975 Y91.172 E0.026
G1 X124.769 Y90.817 E0.013
G1 X125.538 Y90.815 E0.026
G1 X125.751 Y91.184 E0.014
G1 X126.531 Y91.2 E0.026
G1 X126.307 Y90.812 E0.015
G1 X127.075 Y90.81 E0.026
G1 X127.31 Y91.217 E0.015
G1 X128.089 Y91.234 E0.026
G1 X127.83 Y90.785 E0.017
G1 X127.829 Y89.449 E0.045
G1 X128.869 Y91.25 E0.069
G1 X129.648 Y91.267 E0.026
G1 X127.827 Y88.113 E0.121
G1 X127.826 Y86.777 E0.045
G1 X130.439 Y91.303 E0.173
G1 X131.237 Y91.353 E0.027
G1 X127.824 Y85.441 E0.227
G1 Y85.174 E0.009
G1 X127.67 Y85.175 E0.005
G1 X127.444 Y84.783 E0.015
G1 X126.677 Y84.787 E0.026
G1 X126.902 Y85.177 E0.014
G1 X126.133 Y85.179 E0.026
G1 X125.91 Y84.792 E0.015
G1 X125.143 Y84.796 E0.025
G1 X125.365 Y85.181 E0.015
G1 X124.596 Y85.183 E0.026
G1 X124.375 Y84.801 E0.014
G1 X123.608 Y84.805 E0.026
G1 X123.828 Y85.185 E0.015
G1 X123.059 Y85.187 E0.025
G1 X122.83 Y84.791 E0.015
G1 X122.622 Y84.783 E0.007
G1 X122.044 Y84.763 E0.02
G1 X122.29 Y85.19 E0.016
G1 X122.17 E0.004
G1 X122.171 Y86.316 E0.037
G1 X121.259 Y84.736 E0.061
G1 X120.473 Y84.708 E0.026
G1 X122.173 Y87.652 E0.113
G1 X122.174 Y88.942 E0.043
G1 Y88.988 E0.002
G1 X119.687 Y84.681 E0.165
G1 F2100 E-0.5
G0 X120.187 Y85.547 F2400
G0 X119.687 Y84.681 F2400
;rapid-dry
G0 X123.091 Y86.577 F7200
G1 F2100 E0.5
;bead-support
G1 X123.024 Y86.46 F1320 E0.005
G1 X123.023 Y87.791 E0.044
G1 X123.093 Y87.913 E0.004
G1 X123.094 Y89.249 E0.045
G1 X123.021 Y89.122 E0.005
G1 X123.02 Y89.97 E0.028
G1 X123.511 Y89.971 E0.016
G1 X123.471 Y89.9 E0.003
G1 X124.239 Y89.898 E0.026
G1 X124.282 Y89.972 E0.002
G1 X126.976 Y89.305 E0.093
G1 X126.908 Y89.188 E0.004
G1 X126.907 Y87.852 E0.045
G1 X126.978 Y87.975 E0.004
G1 X126.979 Y86.644 E0.045
G1 X126.905 Y86.516 E0.005
G1 Y86.097 E0.013
G1 X126.664 E0.008
G1 X126.623 Y86.028 E0.003
G1 X123.491 Y86.771 E0.107
G1 X123.617 Y86.699 E0.005
G1 X123.651 Y86.644 E0.002
G1 X124.399 Y86.185 E0.029
G1 X124.548 Y86.162 E0.005
G1 X124.786 Y86.024 E0.01
G1 F2100 E-0.5
G0 X124.548 Y86.162 F2400
G0 X124.399 Y86.185 F2400
G0 X123.909 Y86.486 F2400
G0 X124.399 Y86.185 F2400
G0 X124.548 Y86.162 F2400
G0 X124.786 Y86.024 F2400
;rapid-dry
G0 X128.211 Y84.778 F7200
G1 F2100 E0.5
;bead-support
G1 X132.036 Y91.402 F1320 E0.254
G1 X132.834 Y91.452 E0.027
G1 X128.962 Y84.744 E0.257
G1 X129.711 Y84.71 E0.025
G1 X133.632 Y91.501 E0.261
G1 X134.431 Y91.551 E0.027
G1 X130.461 Y84.675 E0.264
G1 X131.211 Y84.641 E0.025
G1 X135.233 Y91.607 E0.267
G1 X136.049 Y91.687 E0.027
G1 X131.961 Y84.606 E0.272
G1 X132.711 Y84.571 E0.025
G1 X136.865 Y91.767 E0.277
G1 X137.079 Y91.788 E0.007
G1 X137.681 Y91.847 E0.02
G1 X133.451 Y84.521 E0.281
G1 X134.183 Y84.455 E0.025
G1 X138.497 Y91.926 E0.287
G1 X138.667 Y91.943 E0.005
G1 X138.69 Y90.927 E0.034
G1 X134.915 Y84.39 E0.251
G1 X135.647 Y84.324 E0.025
G1 X139.268 Y90.596 E0.24
G1 X140.038 E0.026
G1 X136.379 Y84.258 E0.243
G1 X137.111 Y84.193 E0.025
G1 X140.808 Y90.596 E0.246
G1 X141.305 E0.016
G1 X141.318 Y91.48 E0.03
G1 X141.685 Y92.115 E0.024
G1 X142.521 Y92.231 E0.028
G1 X137.843 Y84.127 E0.311
G1 X138.575 Y84.062 E0.025
G1 X138.671 Y84.228 E0.006
G1 X138.697 Y85.403 E0.039
G1 X139.349 E0.022
G1 X143.358 Y92.346 E0.267
G1 X143.43 Y92.356 E0.002
G1 Y91.138 E0.041
G1 X140.119 Y85.403 E0.22
G1 X140.889 E0.026
G1 X143.43 Y89.804 E0.169
G1 Y88.471 E0.044
G1 X141.315 Y84.808 E0.141
G1 X141.334 Y83.739 E0.035
G1 X141.458 Y83.721 E0.004
G1 X143.43 Y87.138 E0.132
G1 Y85.804 E0.044
G1 X142.169 Y83.621 E0.084
G1 X142.881 Y83.521 E0.024
G1 X143.43 Y84.471 E0.036
G1 F2100 E-0.5
G0 X142.93 Y83.605 F2400
G0 X143.43 Y84.471 F2400
;rapid-dry
G0 X157.1 Y84.362 F7200
G1 F2100 E0.5
;bead-perimeter_outer
G1 X156.727 Y84.17 F720 E0.014
G1 X156.338 Y84.018 E0.014
G1 X155.935 Y83.905 E0.014
G1 X155.522 Y83.831 E0.014
G1 X155.105 Y83.801 E0.014
G1 X154.686 Y83.811 E0.014
G1 X154.27 Y83.863 E0.014
G1 X153.863 Y83.956 E0.014
G1 X153.466 Y84.09 E0.013
G1 X153.084 Y84.262 E0.014
G1 X152.721 Y84.471 E0.014
G1 X152.381 Y84.715 E0.014
G1 X152.067 Y84.993 E0.014
G1 X151.783 Y85.299 E0.014
G1 X151.53 Y85.633 E0.014
G1 X151.311 Y85.99 E0.014
G1 X151.129 Y86.368 E0.014
G1 X150.987 Y86.761 E0.014
G1 X150.883 Y87.167 E0.014
G1 X150.821 Y87.581 E0.014
G1 X150.8 Y87.999 E0.014
G1 X150.821 Y88.418 E0.014
G1 X150.883 Y88.832 E0.013
G1 X150.987 Y89.237 E0.014
G1 X151.129 Y89.631 E0.014
G1 X151.311 Y90.008 E0.014
G1 X151.53 Y90.366 E0.014
G1 X151.783 Y90.7 E0.014
G1 X152.067 Y91.006 E0.014
G1 X152.381 Y91.284 E0.014
G1 X152.721 Y91.527 E0.014
G1 X153.084 Y91.737 E0.014
G1 X153.466 Y91.909 E0.014
G1 X153.863 Y92.043 E0.014
G1 X154.27 Y92.136 E0.014
G1 X154.686 Y92.188 E0.014
G1 X155.105 Y92.198 E0.013
G1 X155.522 Y92.167 E0.014
G1 X155.934 Y92.094 E0.014
G1 X156.338 Y91.981 E0.014
G1 X156.727 Y91.827 E0.014
G1 X157.1 Y91.636 E0.014
G1 X157.452 Y91.41 E0.014
G1 X157.78 Y91.149 E0.014
G1 X158.079 Y90.856 E0.014
G1 X158.349 Y90.536 E0.014
G1 X158.584 Y90.189 E0.014
G1 X158.784 Y89.822 E0.014
G1 X158.947 Y89.435 E0.014
G1 X159.07 Y89.035 E0.014
G1 X159.153 Y88.626 E0.013
G1 X159.195 Y88.209 E0.014
G1 Y87.79 E0.014
G1 X159.153 Y87.373 E0.014
G1 X159.07 Y86.963 E0.014
G1 X158.947 Y86.563 E0.014
G1 X158.784 Y86.177 E0.014
G1 X158.584 Y85.81 E0.014
G1 X158.349 Y85.463 E0.014
G1 X158.079 Y85.143 E0.014
G1 X157.78 Y84.85 E0.014
G1 X157.452 Y84.589 E0.014
G1 X157.1 Y84.362 E0.014
;rapid-leaky
G0 X157.281 Y84.05 F7200
;bead-perimeter_inner
G1 X156.875 Y83.842 F960 E0.015
G1 X156.452 Y83.676 E0.015
G1 X156.015 Y83.553 E0.015
G1 X155.567 Y83.474 E0.015
G1 X155.113 Y83.44 E0.015
G1 X154.66 Y83.452 E0.015
G1 X154.208 Y83.508 E0.015
G1 X153.765 Y83.609 E0.016
G1 X153.334 Y83.754 E0.015
G1 X152.919 Y83.941 E0.015
G1 X152.526 Y84.168 E0.015
G1 X152.156 Y84.434 E0.015
G1 X151.815 Y84.735 E0.015
G1 X151.507 Y85.068 E0.015
G1 X151.232 Y85.43 E0.015
G1 X150.995 Y85.818 E0.016
G1 X150.797 Y86.229 E0.015
G1 X150.642 Y86.655 E0.015
G1 X150.529 Y87.096 E0.015
G1 X150.462 Y87.545 E0.015
G1 X150.439 Y87.999 E0.015
G1 X150.462 Y88.454 E0.015
G1 X150.529 Y88.903 E0.015
G1 X150.642 Y89.343 E0.015
G1 X150.797 Y89.771 E0.016
G1 X150.995 Y90.18 E0.015
G1 X151.232 Y90.569 E0.015
G1 X151.507 Y90.931 E0.015
G1 X151.815 Y91.264 E0.015
G1 X152.157 Y91.566 E0.015
G1 X152.526 Y91.83 E0.015
G1 X152.919 Y92.058 E0.015
G1 X153.334 Y92.245 E0.016
G1 X153.765 Y92.39 E0.015
G1 X154.208 Y92.491 E0.015
G1 X154.66 Y92.547 E0.015
G1 X155.114 Y92.559 E0.015
G1 X155.567 Y92.524 E0.015
G1 X156.015 Y92.446 E0.015
G1 X156.453 Y92.322 E0.015
G1 X156.876 Y92.156 E0.016
G1 X157.28 Y91.949 E0.015
G1 X157.662 Y91.703 E0.015
G1 X158.018 Y91.419 E0.015
G1 X158.343 Y91.101 E0.015
G1 X158.636 Y90.754 E0.015
G1 X158.892 Y90.377 E0.015
G1 X159.109 Y89.978 E0.015
G1 X159.286 Y89.558 E0.016
G1 X159.419 Y89.124 E0.015
G1 X159.509 Y88.68 E0.015
G1 X159.555 Y88.227 E0.015
G1 Y87.772 E0.015
G1 X159.509 Y87.319 E0.015
G1 X159.419 Y86.874 E0.015
G1 X159.286 Y86.439 E0.015
G1 X159.109 Y86.02 E0.016
G1 X158.892 Y85.622 E0.015
G1 X158.636 Y85.245 E0.015
G1 X158.343 Y84.898 E0.015
G1 X158.018 Y84.58 E0.015
G1 X157.662 Y84.297 E0.015
G1 X157.281 Y84.05 E0.015
G1 F2100 E-0.5
;rapid-dry
G0 X158.598 Y82.23 F7200
G1 F2100 E0.5
;bead-perimeter_outer
G1 X159.021 Y82.515 F720 E0.017
G1 X159.421 Y82.833 E0.017
G1 X159.796 Y83.179 E0.017
G1 X160.144 Y83.552 E0.017
G1 X160.462 Y83.95 E0.017
G1 X160.751 Y84.371 E0.017
G1 X161.007 Y84.813 E0.017
G1 X161.229 Y85.271 E0.017
G1 X161.416 Y85.746 E0.017
G1 X161.567 Y86.234 E0.017
G1 X161.68 Y86.731 E0.017
G1 X161.757 Y87.236 E0.017
G1 X161.795 Y87.744 E0.017
G1 Y88.255 E0.017
G1 X161.757 Y88.763 E0.017
G1 X161.68 Y89.268 E0.017
G1 X161.567 Y89.765 E0.017
G1 X161.416 Y90.253 E0.017
G1 X161.229 Y90.727 E0.017
G1 X161.007 Y91.186 E0.017
G1 X160.751 Y91.628 E0.017
G1 X160.463 Y92.048 E0.017
G1 X160.117 Y92.476 E0.018
G1 X159.796 Y92.82 E0.016
G1 X159.421 Y93.166 E0.016
G1 X158.989 Y93.504 E0.019
G1 X158.598 Y93.769 E0.015
G1 X158.157 Y94.022 E0.017
G1 X157.66 Y94.256 E0.019
G1 X157.22 Y94.427 E0.015
G1 X156.732 Y94.575 E0.017
G1 X156.195 Y94.692 E0.019
G1 X155.729 Y94.76 E0.015
G1 X155.22 Y94.796 E0.017
G1 X154.671 Y94.79 E0.018
G1 X154.201 Y94.752 E0.016
G1 X153.697 Y94.674 E0.017
G1 X153.2 Y94.557 E0.017
G1 X152.713 Y94.404 E0.017
G1 X152.216 Y94.204 E0.018
G1 X150.876 Y93.938 E0.045
G1 X149.574 Y93.69 E0.044
G1 X147.034 Y93.24 E0.086
G1 X144.2 Y92.788 E0.096
G1 Y83.211 E0.318
G1 X147.034 Y82.759 E0.096
G1 X149.575 Y82.309 E0.085
G1 X152.216 Y81.795 E0.09
G1 X152.714 Y81.595 E0.018
G1 X153.2 Y81.442 E0.017
G1 X153.697 Y81.325 E0.017
G1 X154.201 Y81.247 E0.017
G1 X154.71 Y81.206 E0.017
G1 X155.22 Y81.203 E0.017
G1 X155.728 Y81.239 E0.017
G1 X156.233 Y81.313 E0.017
G1 X156.768 Y81.434 E0.018
G1 X157.22 Y81.572 E0.016
G1 X157.696 Y81.757 E0.016
G1 X158.156 Y81.976 E0.017
G1 X158.598 Y82.23 E0.017
;rapid-leaky
G0 X158.407 Y82.536 F7200
;bead-perimeter_inner
G1 X158.808 Y82.806 F960 E0.016
G1 X159.187 Y83.107 E0.017
G1 X159.542 Y83.434 E0.016
G1 X159.871 Y83.787 E0.016
G1 X160.173 Y84.165 E0.016
G1 X160.446 Y84.563 E0.016
G1 X160.689 Y84.982 E0.016
G1 X160.899 Y85.416 E0.016
G1 X161.076 Y85.866 E0.016
G1 X161.219 Y86.327 E0.016
G1 X161.326 Y86.799 E0.016
G1 X161.399 Y87.276 E0.016
G1 X161.435 Y87.758 E0.016
G1 Y88.241 E0.016
G1 X161.399 Y88.723 E0.016
G1 X161.326 Y89.2 E0.017
G1 X161.219 Y89.672 E0.016
G1 X161.076 Y90.133 E0.016
G1 X160.899 Y90.582 E0.016
G1 X160.689 Y91.018 E0.016
G1 X160.446 Y91.436 E0.016
G1 X160.174 Y91.833 E0.016
G1 X159.845 Y92.24 E0.017
G1 X159.542 Y92.565 E0.015
G1 X159.188 Y92.891 E0.016
G1 X158.777 Y93.213 E0.017
G1 X158.407 Y93.464 E0.015
G1 X157.99 Y93.703 E0.016
G1 X157.518 Y93.925 E0.018
G1 X157.102 Y94.086 E0.015
G1 X156.641 Y94.227 E0.016
G1 X156.131 Y94.338 E0.017
G1 X155.69 Y94.402 E0.015
G1 X155.209 Y94.436 E0.016
G1 X154.687 Y94.43 E0.017
G1 X154.244 Y94.394 E0.015
G1 X153.766 Y94.32 E0.016
G1 X153.295 Y94.21 E0.016
G1 X152.835 Y94.064 E0.016
G1 X152.319 Y93.858 E0.019
G1 X150.945 Y93.584 E0.046
G1 X149.639 Y93.336 E0.044
G1 X147.094 Y92.885 E0.086
G1 X144.56 Y92.479 E0.086
G1 Y83.519 E0.298
G1 X147.094 Y83.114 E0.085
G1 X149.64 Y82.663 E0.086
G1 X152.318 Y82.142 E0.091
G1 X152.835 Y81.935 E0.018
G1 X153.295 Y81.789 E0.016
G1 X153.766 Y81.679 E0.017
G1 X154.244 Y81.605 E0.016
G1 X154.725 Y81.566 E0.016
G1 X155.208 Y81.563 E0.016
G1 X155.69 Y81.597 E0.016
G1 X156.167 Y81.667 E0.016
G1 X156.675 Y81.783 E0.017
G1 X157.102 Y81.913 E0.015
G1 X157.553 Y82.088 E0.016
G1 X157.989 Y82.295 E0.016
G1 X158.407 Y82.536 E0.016
G1 F2100 E-0.5
;rapid-dry
G0 X138.992 Y101.791 F7200
G1 F2100 E0.5
;bead-perimeter_outer
G1 X139.319 Y102.128 F720 E0.016
G1 X139.64 Y102.522 E0.017
G1 X139.888 Y102.878 E0.014
G1 X140.125 Y103.285 E0.016
G1 X140.329 Y103.709 E0.015
G1 X140.497 Y104.149 E0.016
G1 X140.629 Y104.6 E0.016
G1 X140.723 Y105.061 E0.015
G1 X140.781 Y105.528 E0.016
G1 X140.8 Y105.999 E0.016
G1 X140.781 Y106.468 E0.015
G1 X140.717 Y106.97 E0.017
G1 X140.629 Y107.397 E0.015
G1 X140.497 Y107.849 E0.015
G1 X140.329 Y108.288 E0.016
G1 X140.125 Y108.712 E0.016
G1 X139.888 Y109.119 E0.015
G1 X139.62 Y109.505 E0.016
G1 X139.295 Y109.894 E0.017
G1 X138.992 Y110.206 E0.014
G1 X138.638 Y110.516 E0.016
G1 X138.26 Y110.795 E0.016
G1 X137.861 Y111.044 E0.015
G1 X137.409 Y111.273 E0.017
G1 X137.007 Y111.44 E0.014
G1 X136.559 Y111.585 E0.016
G1 X136.101 Y111.693 E0.016
G1 X135.636 Y111.763 E0.015
G1 X135.167 Y111.796 E0.016
G1 X134.66 Y111.787 E0.017
G1 X134.227 Y111.747 E0.014
G1 X133.764 Y111.665 E0.016
G1 X133.308 Y111.547 E0.016
G1 X132.864 Y111.391 E0.015
G1 X132.402 Y111.183 E0.017
G1 X132.021 Y110.974 E0.015
G1 X131.626 Y110.716 E0.015
G1 X131.195 Y110.38 E0.019
G1 X128.517 E0.089
G1 X126.534 Y110.056 E0.066
G1 X124.7 Y109.804 E0.062
G1 Y102.193 E0.253
G1 X126.534 Y101.941 E0.062
G1 X128.517 Y101.617 E0.067
G1 X131.195 E0.089
G1 X131.626 Y101.281 E0.018
G1 X132.021 Y101.023 E0.015
G1 X132.434 Y100.797 E0.016
G1 X132.864 Y100.606 E0.016
G1 X133.308 Y100.451 E0.015
G1 X133.764 Y100.333 E0.016
G1 X134.227 Y100.25 E0.016
G1 X134.696 Y100.207 E0.015
G1 X135.166 Y100.201 E0.016
G1 X135.636 Y100.234 E0.016
G1 X136.101 Y100.305 E0.015
G1 X136.559 Y100.412 E0.016
G1 X137.007 Y100.557 E0.016
G1 X137.441 Y100.737 E0.015
G1 X137.891 Y100.972 E0.017
G1 X138.26 Y101.202 E0.015
G1 X138.638 Y101.481 E0.015
G1 X138.992 Y101.791 E0.016
;rapid-leaky
G0 X138.744 Y102.053 F7200
;bead-perimeter_inner
G1 X139.05 Y102.368 F960 E0.015
G1 X139.353 Y102.738 E0.015
G1 X139.584 Y103.071 E0.014
G1 X139.807 Y103.454 E0.015
G1 X139.998 Y103.852 E0.014
G1 X140.156 Y104.264 E0.015
G1 X140.279 Y104.687 E0.015
G1 X140.368 Y105.119 E0.014
G1 X140.421 Y105.558 E0.015
G1 X140.44 Y105.999 E0.015
G1 X140.421 Y106.438 E0.014
G1 X140.361 Y106.911 E0.016
G1 X140.279 Y107.31 E0.014
G1 X140.156 Y107.734 E0.014
G1 X139.998 Y108.145 E0.015
G1 X139.807 Y108.543 E0.015
G1 X139.584 Y108.926 E0.015
G1 X139.333 Y109.286 E0.014
G1 X139.028 Y109.653 E0.016
G1 X138.744 Y109.944 E0.014
G1 X138.412 Y110.235 E0.014
G1 X138.057 Y110.497 E0.015
G1 X137.684 Y110.73 E0.015
G1 X137.258 Y110.946 E0.015
G1 X136.882 Y111.102 E0.014
G1 X136.462 Y111.238 E0.015
G1 X136.033 Y111.34 E0.014
G1 X135.597 Y111.405 E0.015
G1 X135.157 Y111.436 E0.015
G1 X134.68 Y111.427 E0.015
G1 X134.275 Y111.39 E0.014
G1 X133.84 Y111.313 E0.015
G1 X133.414 Y111.202 E0.014
G1 X132.998 Y111.056 E0.015
G1 X132.563 Y110.86 E0.016
G1 X132.206 Y110.665 E0.013
G1 X131.836 Y110.423 E0.015
G1 X131.318 Y110.02 E0.022
G1 X128.547 E0.092
G1 X126.587 Y109.7 E0.066
G1 X125.06 Y109.488 E0.051
G1 Y102.509 E0.233
G1 X126.587 Y102.297 E0.051
G1 X128.547 Y101.977 E0.066
G1 X131.318 E0.092
G1 X131.836 Y101.574 E0.022
G1 X132.206 Y101.332 E0.015
G1 X132.593 Y101.12 E0.014
G1 X132.996 Y100.941 E0.015
G1 X133.413 Y100.796 E0.015
G1 X133.841 Y100.684 E0.014
G1 X134.275 Y100.607 E0.015
G1 X134.714 Y100.567 E0.015
G1 X135.156 Y100.561 E0.014
G1 X135.596 Y100.592 E0.015
G1 X136.033 Y100.658 E0.015
G1 X136.463 Y100.759 E0.014
G1 X136.882 Y100.895 E0.015
G1 X137.289 Y101.064 E0.015
G1 X137.712 Y101.285 E0.016
G1 X138.057 Y101.5 E0.013
G1 X138.412 Y101.762 E0.015
G1 X138.744 Y102.053 E0.014
G1 F2100 E-0.5
;rapid-dry
G0 X137.921 Y102.981 F7200
G1 F2100 E0.5
;bead-perimeter_outer
G1 X137.607 Y102.705 F720 E0.014
G1 X137.291 Y102.478 E0.013
G1 X136.93 Y102.268 E0.014
G1 X136.549 Y102.095 E0.014
G1 X136.152 Y101.959 E0.014
G1 X135.746 Y101.865 E0.014
G1 X135.33 Y101.811 E0.014
G1 X134.91 Y101.8 E0.014
G1 X134.463 Y101.833 E0.015
G1 X134.079 Y101.901 E0.013
G1 X133.648 Y102.022 E0.015
G1 X133.259 Y102.177 E0.014
G1 X132.886 Y102.369 E0.014
G1 X132.536 Y102.598 E0.013
G1 X132.232 Y102.839 E0.013
G1 X131.931 Y103.131 E0.014
G1 X131.643 Y103.474 E0.015
G1 X131.424 Y103.797 E0.013
G1 X131.21 Y104.19 E0.015
G1 X131.058 Y104.547 E0.013
G1 X130.934 Y104.948 E0.014
G1 X130.845 Y105.387 E0.015
G1 X130.806 Y105.774 E0.013
G1 Y106.224 E0.015
G1 X130.85 Y106.641 E0.014
G1 X130.934 Y107.05 E0.014
G1 X131.058 Y107.45 E0.013
G1 X131.223 Y107.835 E0.014
G1 X131.424 Y108.201 E0.014
G1 X131.662 Y108.547 E0.014
G1 X131.932 Y108.867 E0.014
G1 X132.232 Y109.158 E0.014
G1 X132.536 Y109.399 E0.013
G1 X132.886 Y109.628 E0.014
G1 X133.259 Y109.821 E0.014
G1 X133.648 Y109.975 E0.014
G1 X134.079 Y110.096 E0.015
G1 X134.463 Y110.165 E0.013
G1 X134.911 Y110.197 E0.015
G1 X135.33 Y110.186 E0.014
G1 X135.746 Y110.132 E0.013
G1 X136.152 Y110.038 E0.014
G1 X136.549 Y109.902 E0.014
G1 X136.93 Y109.729 E0.014
G1 X137.291 Y109.519 E0.014
G1 X137.607 Y109.292 E0.013
G1 X137.921 Y109.016 E0.014
G1 X138.207 Y108.71 E0.014
G1 X138.478 Y108.353 E0.015
G1 X138.682 Y108.021 E0.013
G1 X138.864 Y107.644 E0.014
G1 X139.017 Y107.223 E0.015
G1 X139.12 Y106.815 E0.014
G1 X139.18 Y106.402 E0.013
G1 X139.2 Y106.014 E0.013
G1 X139.18 Y105.596 E0.014
G1 X139.12 Y105.182 E0.014
G1 X139.017 Y104.775 E0.014
G1 X138.864 Y104.353 E0.015
G1 X138.682 Y103.977 E0.014
G1 X138.478 Y103.644 E0.013
G1 X138.207 Y103.287 E0.015
G1 X137.921 Y102.981 E0.014
;rapid-leaky
G0 X138.172 Y102.722 F7200
;bead-perimeter_inner
G1 X137.831 Y102.423 F960 E0.015
G1 X137.487 Y102.176 E0.014
G1 X137.095 Y101.948 E0.015
G1 X136.682 Y101.76 E0.015
G1 X136.251 Y101.613 E0.015
G1 X135.809 Y101.51 E0.015
G1 X135.358 Y101.452 E0.016
G1 X134.902 Y101.439 E0.015
G1 X134.418 Y101.476 E0.016
G1 X133.999 Y101.549 E0.014
G1 X133.532 Y101.681 E0.016
G1 X133.11 Y101.849 E0.015
G1 X132.705 Y102.057 E0.015
G1 X132.325 Y102.305 E0.015
G1 X131.994 Y102.568 E0.015
G1 X131.667 Y102.885 E0.015
G1 X131.356 Y103.257 E0.016
G1 X131.116 Y103.609 E0.014
G1 X130.885 Y104.033 E0.016
G1 X130.719 Y104.423 E0.014
G1 X130.585 Y104.859 E0.015
G1 X130.489 Y105.333 E0.016
G1 X130.446 Y105.756 E0.015
G1 Y106.243 E0.016
G1 X130.494 Y106.696 E0.015
G1 X130.585 Y107.139 E0.015
G1 X130.72 Y107.575 E0.015
G1 X130.899 Y107.993 E0.015
G1 X131.118 Y108.39 E0.015
G1 X131.375 Y108.766 E0.015
G1 X131.668 Y109.112 E0.016
G1 X131.994 Y109.429 E0.015
G1 X132.325 Y109.692 E0.014
G1 X132.704 Y109.939 E0.015
G1 X133.11 Y110.149 E0.015
G1 X133.533 Y110.316 E0.015
G1 X133.999 Y110.447 E0.016
G1 X134.418 Y110.522 E0.014
G1 X134.902 Y110.558 E0.017
G1 X135.358 Y110.545 E0.015
G1 X135.809 Y110.487 E0.015
G1 X136.251 Y110.384 E0.015
G1 X136.682 Y110.237 E0.015
G1 X137.095 Y110.049 E0.015
G1 X137.487 Y109.821 E0.015
G1 X137.831 Y109.574 E0.014
G1 X138.172 Y109.275 E0.015
G1 X138.483 Y108.942 E0.016
G1 X138.776 Y108.556 E0.016
G1 X138.998 Y108.194 E0.014
G1 X139.197 Y107.784 E0.015
G1 X139.362 Y107.329 E0.016
G1 X139.474 Y106.885 E0.015
G1 X139.539 Y106.437 E0.015
G1 X139.561 Y106.015 E0.014
G1 X139.539 Y105.561 E0.015
G1 X139.474 Y105.112 E0.016
G1 X139.362 Y104.669 E0.015
G1 X139.197 Y104.213 E0.016
G1 X138.998 Y103.804 E0.015
G1 X138.776 Y103.441 E0.014
G1 X138.483 Y103.055 E0.016
G1 X138.172 Y102.722 E0.015
G1 F2100 E-0.5
;rapid-dry
G0 X97.589 Y120.81 F7200
G1 F2100 E0.5
;bead-perimeter_outer
G1 X97.346 Y120.456 F720 E0.015
G1 X97.084 Y120.144 E0.013
G1 X96.785 Y119.851 E0.014
G1 X96.457 Y119.59 E0.014
G1 X96.105 Y119.363 E0.014
G1 X95.732 Y119.172 E0.014
G1 X95.343 Y119.019 E0.014
G1 X94.939 Y118.906 E0.014
G1 X94.527 Y118.833 E0.014
G1 X94.11 Y118.802 E0.014
G1 X93.691 Y118.812 E0.014
G1 X93.275 Y118.864 E0.014
G1 X92.868 Y118.957 E0.014
G1 X92.471 Y119.091 E0.013
G1 X92.089 Y119.263 E0.014
G1 X91.726 Y119.473 E0.014
G1 X91.386 Y119.716 E0.014
G1 X91.072 Y119.994 E0.014
G1 X90.788 Y120.3 E0.014
G1 X90.535 Y120.634 E0.014
G1 X90.316 Y120.992 E0.014
G1 X90.134 Y121.369 E0.014
G1 X89.992 Y121.763 E0.014
G1 X89.888 Y122.169 E0.014
G1 X89.826 Y122.593 E0.014
G1 X89.805 Y123.011 E0.014
G1 X89.827 Y123.429 E0.014
G1 X89.89 Y123.843 E0.014
G1 X89.992 Y124.239 E0.013
G1 X90.134 Y124.632 E0.014
G1 X90.316 Y125.01 E0.014
G1 X90.535 Y125.367 E0.014
G1 X90.788 Y125.701 E0.014
G1 X91.079 Y126.015 E0.014
G1 X91.386 Y126.285 E0.014
G1 X91.726 Y126.529 E0.014
G1 X92.089 Y126.738 E0.014
G1 X92.471 Y126.91 E0.014
G1 X92.868 Y127.044 E0.014
G1 X93.275 Y127.137 E0.014
G1 X93.691 Y127.189 E0.013
G1 X94.11 Y127.199 E0.014
G1 X94.527 Y127.169 E0.014
G1 X94.94 Y127.095 E0.014
G1 X95.343 Y126.982 E0.014
G1 X95.732 Y126.83 E0.014
