;deget mijlociu
;Printer name: Prusa i3 MK3
;TIME:3158
;Print time: 52m:38s
;Extruder 1 material used: 2522mm
;Extruder 1 material name: 
;Extruder 1 filament diameter: 1.75mm
;Extruder 1 nozzle diameter: 0.4mm
;Extruder 1 offset x: 0mm
;Extruder 1 offset y: 0mm
;Extruder 1 offset z: 0mm
;Extruder 1 max temp: 200
;Bed temp: 70
;Layer count: 73
;Width: 250mm
;Depth: 210mm
;Height: 210mm
;Center x: 125mm
;Center y: 105mm
;Center z: 0mm
;Count of bodies: 3
;Fusion version: 2.0.19440
G21
M115 U3.0.10 ;tell printer latest fw version
G28 W ;home all without mesh bed level
;--------------------------------
;Selected Profile: PLA Direct Drive
;--------------------------------
;Selected Printer: Prusa, i3 MK3
;--------------------------------
T0
M140 S70
M104 S200 T0
M190 S70
M109 S200 T0
G80 ;mesh bed leveling
G92 E0
G90
M83
G0 X10 Y10 Z10 F7200
G92 E0
;--------------------------------
;Part 1
;LAYER_COUNT:73
;LAYER:1
M107
;rapid-leaky
G0 X20 Y20.5 Z0.2 F7200
;bead-prime
G1 X120 F720 E8.315
G1 F2100 E-0.5
;rapid-dry
G0 X114.457 Y81.079 F7200
G1 F2100 E0.5
;bead-skirt/brim
G1 X119.865 Y81.406 F960 E0.18
G1 X125.283 Y81.509 E0.18
G1 X129.324 Y81.436 E0.135
G1 X134.745 Y81.142 E0.18
G1 X140.896 Y80.565 E0.206
G1 X143.941 Y80.162 E0.102
G1 X147.102 Y79.684 E0.106
G1 X149.134 Y79.35 E0.069
G1 X151.167 Y78.992 E0.069
G1 X152.959 Y78.653 E0.06
G1 X153.303 Y78.523 E0.012
G1 X154.012 Y78.313 E0.025
G1 X154.74 Y78.154 E0.025
G1 X155.478 Y78.051 E0.025
G1 X156.216 Y78.002 E0.024
G1 X156.961 Y78.008 E0.025
G1 X157.703 Y78.071 E0.025
G1 X158.436 Y78.186 E0.024
G1 X159.162 Y78.358 E0.025
G1 X159.872 Y78.583 E0.025
G1 X160.563 Y78.861 E0.025
G1 X161.233 Y79.189 E0.025
G1 X161.908 Y79.587 E0.026
G1 X162.485 Y79.986 E0.023
G1 X163.061 Y80.451 E0.025
G1 X163.603 Y80.958 E0.024
G1 X164.109 Y81.508 E0.025
G1 X164.569 Y82.091 E0.025
G1 X164.985 Y82.704 E0.025
G1 X165.355 Y83.349 E0.024
G1 X165.677 Y84.022 E0.025
G1 X165.948 Y84.716 E0.025
G1 X166.165 Y85.427 E0.025
G1 X166.329 Y86.149 E0.024
G1 X166.441 Y86.886 E0.025
G1 X166.495 Y87.63 E0.025
G1 Y88.37 E0.024
G1 X166.441 Y89.114 E0.025
G1 X166.329 Y89.851 E0.025
G1 X166.165 Y90.572 E0.025
G1 X165.948 Y91.283 E0.024
G1 X165.677 Y91.979 E0.025
G1 X165.355 Y92.649 E0.025
G1 X164.986 Y93.294 E0.025
G1 X164.568 Y93.911 E0.024
G1 X164.108 Y94.493 E0.025
G1 X163.605 Y95.04 E0.025
G1 X163.063 Y95.548 E0.025
G1 X162.483 Y96.016 E0.024
G1 X161.869 Y96.439 E0.025
G1 X161.228 Y96.813 E0.025
G1 X160.561 Y97.141 E0.025
G1 X159.872 Y97.416 E0.024
G1 X159.162 Y97.642 E0.025
G1 X158.436 Y97.812 E0.025
G1 X157.703 Y97.929 E0.024
G1 X156.961 Y97.991 E0.025
G1 X156.219 Y97.998 E0.025
G1 X155.478 Y97.949 E0.025
G1 X154.74 Y97.846 E0.024
G1 X154.012 Y97.687 E0.025
G1 X153.301 Y97.476 E0.025
G1 X152.957 Y97.346 E0.012
G1 X151.167 Y97.008 E0.061
G1 X149.134 Y96.65 E0.068
G1 X147.102 Y96.316 E0.069
G1 X144.396 Y95.907 E0.091
G1 X141.004 Y95.445 E0.114
G1 X134.745 Y94.858 E0.209
G1 X129.332 Y94.564 E0.18
G1 X123.914 Y94.494 E0.18
G1 X119.873 Y94.593 E0.135
G1 X114.457 Y94.92 E0.18
G1 X107.657 Y95.628 E0.228
G1 X103.597 Y96.198 E0.136
G1 X99.512 Y96.876 E0.138
G1 X98.289 Y97.104 E0.041
G1 X101.441 Y97.792 E0.107
G1 X104.349 Y98.325 E0.099
G1 X108.247 Y98.896 E0.131
G1 X112.129 Y99.289 E0.13
G1 X116.004 Y99.495 E0.129
G1 X119.882 Y99.511 E0.129
G1 X123.761 Y99.337 E0.129
G1 X128.127 Y98.928 E0.146
G1 X130.574 Y98.601 E0.082
G1 X132.771 Y98.264 E0.074
G1 X134.91 E0.071
G1 X135.193 Y98.095 E0.011
G1 X135.847 Y97.771 E0.024
G1 X136.529 Y97.502 E0.024
G1 X137.226 Y97.289 E0.025
G1 X137.941 Y97.133 E0.024
G1 X138.674 Y97.035 E0.025
G1 X139.437 Y96.999 E0.025
G1 X140.123 Y97.019 E0.023
G1 X140.85 Y97.098 E0.024
G1 X141.568 Y97.238 E0.024
G1 X142.276 Y97.436 E0.025
G1 X142.994 Y97.704 E0.025
G1 X143.619 Y97.995 E0.023
G1 X144.254 Y98.355 E0.025
G1 X144.858 Y98.765 E0.024
G1 X145.426 Y99.223 E0.024
G1 X145.957 Y99.726 E0.024
G1 X146.445 Y100.271 E0.025
G1 X146.885 Y100.853 E0.024
G1 X147.277 Y101.466 E0.024
G1 X147.621 Y102.113 E0.025
G1 X147.912 Y102.793 E0.024
G1 X148.152 Y103.519 E0.026
G1 X148.318 Y104.184 E0.022
G1 X148.436 Y104.907 E0.025
G1 X148.495 Y105.636 E0.024
G1 Y106.363 E0.024
G1 X148.436 Y107.092 E0.025
G1 X148.317 Y107.817 E0.024
G1 X148.141 Y108.523 E0.024
G1 X147.909 Y109.214 E0.025
G1 X147.62 Y109.887 E0.024
G1 X147.277 Y110.533 E0.024
G1 X146.881 Y111.153 E0.025
G1 X146.415 Y111.761 E0.025
G1 X145.956 Y112.273 E0.023
G1 X145.426 Y112.776 E0.024
G1 X144.858 Y113.234 E0.025
G1 X144.254 Y113.644 E0.024
G1 X143.619 Y114.005 E0.024
G1 X142.954 Y114.313 E0.025
G1 X142.269 Y114.565 E0.024
G1 X141.568 Y114.761 E0.024
G1 X140.85 Y114.901 E0.024
G1 X140.123 Y114.98 E0.025
G1 X139.395 Y115.001 E0.024
G1 X138.665 Y114.964 E0.024
G1 X137.938 Y114.866 E0.025
G1 X137.226 Y114.71 E0.024
G1 X136.529 Y114.497 E0.024
G1 X135.849 Y114.229 E0.024
G1 X135.192 Y113.905 E0.025
G1 X134.909 Y113.735 E0.011
G1 X132.771 E0.071
G1 X130.568 Y113.397 E0.074
G1 X128.651 Y113.133 E0.064
G1 X123.758 Y112.662 E0.164
G1 X119.882 Y112.489 E0.129
G1 X116.003 Y112.504 E0.129
G1 X112.129 Y112.71 E0.129
G1 X108.247 Y113.103 E0.13
G1 X104.349 Y113.673 E0.131
G1 X101.441 Y114.208 E0.098
G1 X97.863 Y114.988 E0.122
G1 X103.222 Y116.084 E0.182
G1 X105.27 Y116.461 E0.069
G1 X106.607 Y116.659 E0.045
G1 X108.312 Y116.863 E0.057
G1 X110.737 Y116.972 E0.081
G1 X115.505 Y117.046 E0.159
G1 Y128.953 E0.396
G1 X110.749 Y129.028 E0.158
G1 X108.297 Y129.139 E0.081
G1 X106.63 Y129.338 E0.056
G1 X105.282 Y129.537 E0.046
G1 X103.276 Y129.906 E0.067
G1 X98.687 Y130.849 E0.156
G1 X95.507 Y131.479 E0.108
G1 X95.132 Y131.611 E0.013
G1 X94.424 Y131.796 E0.025
G1 X93.707 Y131.921 E0.024
G1 X92.981 Y131.99 E0.024
G1 X92.248 Y131.999 E0.024
G1 X91.518 Y131.948 E0.025
G1 X90.799 Y131.839 E0.024
G1 X90.087 Y131.672 E0.024
G1 X89.374 Y131.441 E0.025
G1 X88.617 Y131.116 E0.028
G1 X88.065 Y130.831 E0.02
G1 X87.448 Y130.448 E0.024
G1 X86.86 Y130.013 E0.025
G1 X86.308 Y129.531 E0.024
G1 X85.786 Y128.994 E0.025
G1 X85.271 Y128.353 E0.027
G1 X84.916 Y127.842 E0.021
G1 X84.55 Y127.214 E0.024
G1 X84.234 Y126.557 E0.025
G1 X83.972 Y125.871 E0.024
G1 X83.768 Y125.169 E0.024
G1 X83.621 Y124.455 E0.025
G1 X83.533 Y123.731 E0.024
G1 X83.502 Y123 E0.024
G1 X83.532 Y122.27 E0.024
G1 X83.621 Y121.546 E0.025
G1 X83.768 Y120.831 E0.024
G1 X83.972 Y120.129 E0.024
G1 X84.234 Y119.443 E0.025
G1 X84.55 Y118.786 E0.024
G1 X84.917 Y118.156 E0.024
G1 X85.334 Y117.557 E0.024
G1 X85.799 Y116.993 E0.025
G1 X86.31 Y116.468 E0.024
G1 X86.86 Y115.988 E0.024
G1 X87.445 Y115.554 E0.025
G1 X88.067 Y115.168 E0.024
G1 X88.775 Y114.809 E0.026
G1 X87.052 Y113.647 E0.07
G1 X85.946 Y112.551 E0.051
G1 X85.016 Y111.298 E0.052
G1 X84.082 Y109.371 E0.071
G1 X83.677 Y107.87 E0.052
G1 X83.509 Y106.376 E0.05
G1 X83.567 Y104.816 E0.052
G1 X84.057 Y102.679 E0.073
G1 X85.016 Y100.701 E0.073
G1 X85.946 Y99.45 E0.052
G1 X87.051 Y98.353 E0.052
G1 X88.827 Y97.155 E0.071
G1 X89.187 Y97 E0.013
G1 X87.562 Y96.05 E0.063
G1 X86.357 Y95.002 E0.053
G1 X85.042 Y93.341 E0.07
G1 X84.328 Y91.976 E0.051
G1 X83.821 Y90.521 E0.052
G1 X83.498 Y88.371 E0.072
G1 X83.66 Y86.203 E0.072
G1 X84.055 Y84.717 E0.051
G1 X84.669 Y83.302 E0.052
G1 X85.887 Y81.503 E0.072
G1 X87.475 Y80.016 E0.072
G1 X88.774 Y79.189 E0.052
G1 X90.182 Y78.563 E0.051
G1 X92.24 Y78.077 E0.07
G1 X93.781 Y78.006 E0.051
G1 X95.316 Y78.163 E0.052
G1 X96.928 Y78.642 E0.056
G1 X99.512 Y79.124 E0.087
G1 X103.597 Y79.802 E0.138
G1 X107.657 Y80.372 E0.136
G1 X114.457 Y81.079 E0.228
;rapid-leaky
G0 X114.424 Y81.478 F7200
;bead-skirt/brim
G1 X119.849 Y81.806 F960 E0.18
G1 X125.282 Y81.91 E0.181
G1 X129.339 Y81.836 E0.135
G1 X134.775 Y81.541 E0.181
G1 X140.941 Y80.962 E0.206
G1 X143.998 Y80.558 E0.103
G1 X147.164 Y80.079 E0.106
G1 X149.201 Y79.745 E0.069
G1 X151.239 Y79.385 E0.069
G1 X153.068 Y79.039 E0.062
G1 X153.431 Y78.902 E0.012
G1 X154.112 Y78.7 E0.024
G1 X154.81 Y78.548 E0.024
G1 X155.519 Y78.449 E0.024
G1 X156.228 Y78.402 E0.023
G1 X156.943 Y78.408 E0.024
G1 X157.655 Y78.468 E0.024
G1 X158.359 Y78.579 E0.024
G1 X159.056 Y78.744 E0.023
G1 X159.737 Y78.96 E0.024
G1 X160.4 Y79.226 E0.024
G1 X161.043 Y79.541 E0.024
G1 X161.692 Y79.924 E0.025
G1 X162.245 Y80.307 E0.022
G1 X162.798 Y80.753 E0.024
G1 X163.319 Y81.24 E0.024
G1 X163.804 Y81.767 E0.023
G1 X164.246 Y82.327 E0.024
G1 X164.646 Y82.917 E0.024
G1 X165.001 Y83.536 E0.024
G1 X165.31 Y84.181 E0.023
G1 X165.57 Y84.848 E0.024
G1 X165.779 Y85.53 E0.024
G1 X165.936 Y86.224 E0.023
G1 X166.043 Y86.931 E0.024
G1 X166.095 Y87.645 E0.024
G1 Y88.355 E0.024
G1 X166.043 Y89.069 E0.024
G1 X165.936 Y89.777 E0.023
G1 X165.779 Y90.469 E0.024
G1 X165.57 Y91.152 E0.024
G1 X165.31 Y91.82 E0.024
G1 X165.001 Y92.463 E0.023
G1 X164.646 Y93.082 E0.024
G1 X164.245 Y93.674 E0.024
G1 X163.803 Y94.233 E0.023
G1 X163.321 Y94.758 E0.024
G1 X162.8 Y95.246 E0.024
G1 X162.244 Y95.695 E0.024
G1 X161.655 Y96.101 E0.024
G1 X161.039 Y96.461 E0.023
G1 X160.398 Y96.775 E0.024
G1 X159.737 Y97.039 E0.024
G1 X159.056 Y97.256 E0.023
G1 X158.359 Y97.42 E0.024
G1 X157.655 Y97.532 E0.024
G1 X156.943 Y97.591 E0.024
G1 X156.23 Y97.598 E0.023
G1 X155.519 Y97.551 E0.024
G1 X154.81 Y97.452 E0.024
G1 X154.112 Y97.3 E0.024
G1 X153.429 Y97.097 E0.023
G1 X153.066 Y96.959 E0.013
G1 X151.239 Y96.615 E0.062
G1 X149.201 Y96.255 E0.069
G1 X147.164 Y95.921 E0.069
G1 X144.453 Y95.511 E0.091
G1 X141.05 Y95.048 E0.114
G1 X134.775 Y94.459 E0.21
G1 X129.346 Y94.164 E0.181
G1 X123.912 Y94.094 E0.18
G1 X119.856 Y94.193 E0.135
G1 X114.424 Y94.521 E0.181
G1 X107.608 Y95.231 E0.228
G1 X103.536 Y95.802 E0.137
G1 X99.442 Y96.482 E0.138
G1 X96.785 Y96.983 E0.09
G1 X97.656 Y97.375 E0.032
G1 X101.362 Y98.185 E0.126
G1 X104.284 Y98.72 E0.099
G1 X108.197 Y99.293 E0.131
G1 X112.098 Y99.688 E0.131
G1 X115.992 Y99.895 E0.129
G1 X119.89 Y99.911 E0.13
G1 X123.788 Y99.736 E0.13
G1 X128.172 Y99.326 E0.146
G1 X130.631 Y98.997 E0.083
G1 X132.802 Y98.664 E0.073
G1 X135.02 E0.073
G1 X135.385 Y98.446 E0.015
G1 X136.009 Y98.137 E0.023
G1 X136.661 Y97.879 E0.023
G1 X137.327 Y97.676 E0.023
G1 X138.01 Y97.527 E0.023
G1 X138.71 Y97.434 E0.024
G1 X139.44 Y97.399 E0.024
G1 X140.095 Y97.418 E0.022
G1 X140.79 Y97.494 E0.023
G1 X141.476 Y97.628 E0.024
G1 X142.152 Y97.817 E0.023
G1 X142.84 Y98.074 E0.024
G1 X143.436 Y98.351 E0.022
G1 X144.043 Y98.695 E0.023
G1 X144.619 Y99.087 E0.024
G1 X145.163 Y99.524 E0.023
G1 X145.669 Y100.005 E0.023
G1 X146.136 Y100.526 E0.023
G1 X146.557 Y101.082 E0.023
G1 X146.932 Y101.668 E0.024
G1 X147.259 Y102.286 E0.023
G1 X147.538 Y102.935 E0.023
G1 X147.767 Y103.63 E0.025
G1 X147.925 Y104.265 E0.021
G1 X148.039 Y104.955 E0.024
G1 X148.095 Y105.652 E0.023
G1 Y106.347 E0.023
G1 X148.039 Y107.043 E0.023
G1 X147.925 Y107.736 E0.024
G1 X147.757 Y108.411 E0.023
G1 X147.535 Y109.071 E0.023
G1 X147.259 Y109.714 E0.023
G1 X146.932 Y110.331 E0.023
G1 X146.553 Y110.923 E0.024
G1 X146.107 Y111.506 E0.024
G1 X145.669 Y111.994 E0.022
G1 X145.163 Y112.475 E0.023
G1 X144.619 Y112.912 E0.024
G1 X144.043 Y113.304 E0.023
G1 X143.435 Y113.649 E0.023
G1 X142.8 Y113.944 E0.023
G1 X142.146 Y114.184 E0.023
G1 X141.476 Y114.371 E0.024
G1 X140.79 Y114.505 E0.023
G1 X140.095 Y114.581 E0.023
G1 X139.4 Y114.601 E0.023
G1 X138.702 Y114.565 E0.023
G1 X138.008 Y114.472 E0.024
G1 X137.327 Y114.323 E0.023
G1 X136.661 Y114.12 E0.023
G1 X136.012 Y113.863 E0.023
G1 X135.384 Y113.553 E0.024
G1 X135.02 Y113.335 E0.014
G1 X132.802 E0.073
G1 X130.625 Y113.001 E0.074
G1 X128.698 Y112.735 E0.064
G1 X123.786 Y112.262 E0.165
G1 X119.89 Y112.089 E0.129
G1 X115.992 Y112.104 E0.13
G1 X112.098 Y112.311 E0.13
G1 X108.197 Y112.706 E0.13
G1 X104.284 Y113.279 E0.132
G1 X101.362 Y113.815 E0.098
G1 X97.656 Y114.624 E0.127
G1 X96.76 Y115.027 E0.032
G1 X96.445 Y115.115 E0.011
G1 X103.145 Y116.477 E0.227
G1 X105.204 Y116.856 E0.07
G1 X106.554 Y117.056 E0.045
G1 X108.279 Y117.262 E0.058
G1 X110.725 Y117.372 E0.082
G1 X115.105 Y117.44 E0.145
G1 Y128.559 E0.37
G1 X110.736 Y128.628 E0.146
G1 X108.264 Y128.74 E0.082
G1 X106.577 Y128.941 E0.056
G1 X105.216 Y129.142 E0.046
G1 X103.2 Y129.513 E0.068
G1 X98.608 Y130.457 E0.156
G1 X95.402 Y131.093 E0.109
G1 X95.015 Y131.228 E0.014
G1 X94.339 Y131.405 E0.023
G1 X93.654 Y131.525 E0.023
G1 X92.96 Y131.59 E0.023
G1 X92.259 Y131.599 E0.023
G1 X91.562 Y131.55 E0.024
G1 X90.875 Y131.446 E0.023
G1 X90.195 Y131.287 E0.023
G1 X89.514 Y131.066 E0.024
G1 X88.788 Y130.754 E0.026
G1 X88.262 Y130.483 E0.02
G1 X87.672 Y130.116 E0.023
G1 X87.111 Y129.701 E0.023
G1 X86.584 Y129.24 E0.023
G1 X86.086 Y128.728 E0.024
G1 X85.591 Y128.113 E0.026
G1 X85.254 Y127.627 E0.02
G1 X84.904 Y127.027 E0.023
G1 X84.602 Y126.398 E0.023
G1 X84.351 Y125.743 E0.024
G1 X84.156 Y125.073 E0.023
G1 X84.016 Y124.39 E0.023
G1 X83.932 Y123.698 E0.023
G1 X83.903 Y123 E0.024
G1 X83.931 Y122.303 E0.023
G1 X84.016 Y121.61 E0.023
G1 X84.156 Y120.927 E0.023
G1 X84.351 Y120.257 E0.023
G1 X84.602 Y119.602 E0.024
G1 X84.904 Y118.973 E0.023
G1 X85.254 Y118.372 E0.023
G1 X85.653 Y117.799 E0.023
G1 X86.097 Y117.26 E0.023
G1 X86.585 Y116.758 E0.024
G1 X87.111 Y116.3 E0.023
G1 X87.67 Y115.885 E0.023
G1 X88.264 Y115.516 E0.023
G1 X88.886 Y115.196 E0.024
G1 X89.531 Y114.929 E0.023
G1 X89.821 Y114.835 E0.01
G1 X89.02 Y114.491 E0.029
G1 X87.307 Y113.336 E0.069
G1 X86.249 Y112.288 E0.049
G1 X85.36 Y111.089 E0.05
G1 X84.458 Y109.231 E0.069
G1 X84.071 Y107.795 E0.049
G1 X83.91 Y106.361 E0.048
G1 X83.965 Y104.869 E0.05
G1 X84.437 Y102.813 E0.07
G1 X85.36 Y100.909 E0.07
G1 X86.249 Y99.712 E0.05
G1 X87.306 Y98.663 E0.049
G1 X89.02 Y97.508 E0.069
G1 X90.221 Y96.991 E0.044
G1 X89.556 Y96.753 E0.023
G1 X87.796 Y95.723 E0.068
G1 X86.648 Y94.724 E0.05
G1 X85.379 Y93.122 E0.068
G1 X84.696 Y91.817 E0.049
G1 X84.211 Y90.425 E0.05
G1 X83.901 Y88.356 E0.069
G1 X84.056 Y86.27 E0.07
G1 X84.434 Y84.849 E0.049
G1 X85.021 Y83.495 E0.049
G1 X86.193 Y81.764 E0.069
G1 X87.721 Y80.333 E0.07
G1 X88.964 Y79.543 E0.049
G1 X90.31 Y78.944 E0.049
G1 X92.295 Y78.475 E0.068
G1 X93.77 Y78.407 E0.049
G1 X95.238 Y78.557 E0.049
G1 X96.834 Y79.031 E0.055
G1 X99.443 Y79.518 E0.088
G1 X103.536 Y80.198 E0.138
G1 X107.608 Y80.769 E0.137
G1 X114.424 Y81.478 E0.228
;rapid-leaky
G0 X114.391 Y81.877 F7200
;bead-skirt/brim
G1 X119.833 Y82.205 F960 E0.181
G1 X125.282 Y82.31 E0.182
G1 X129.353 Y82.236 E0.135
G1 X134.804 Y81.94 E0.182
G1 X140.986 Y81.36 E0.206
G1 X144.054 Y80.954 E0.103
G1 X147.226 Y80.474 E0.107
G1 X149.268 Y80.139 E0.069
G1 X151.311 Y79.779 E0.069
G1 X153.176 Y79.426 E0.063
G1 X153.559 Y79.282 E0.013
G1 X154.212 Y79.088 E0.023
G1 X154.881 Y78.942 E0.023
G1 X155.56 Y78.847 E0.023
G1 X156.24 Y78.802 E0.022
G1 X156.925 Y78.808 E0.023
G1 X157.607 Y78.866 E0.023
G1 X158.281 Y78.972 E0.023
G1 X158.949 Y79.13 E0.022
G1 X159.602 Y79.337 E0.023
G1 X160.238 Y79.592 E0.023
G1 X160.853 Y79.894 E0.023
G1 X161.477 Y80.261 E0.024
G1 X162.006 Y80.627 E0.021
G1 X162.536 Y81.055 E0.023
G1 X163.035 Y81.522 E0.023
G1 X163.5 Y82.027 E0.022
G1 X163.923 Y82.564 E0.023
G1 X164.306 Y83.129 E0.023
G1 X164.647 Y83.722 E0.023
G1 X164.943 Y84.34 E0.022
G1 X165.192 Y84.979 E0.023
G1 X165.392 Y85.633 E0.023
G1 X165.542 Y86.298 E0.023
G1 X165.645 Y86.976 E0.022
G1 X165.695 Y87.66 E0.023
G1 Y88.34 E0.023
G1 X165.645 Y89.024 E0.023
G1 X165.542 Y89.703 E0.023
G1 X165.392 Y90.366 E0.022
G1 X165.192 Y91.021 E0.023
G1 X164.943 Y91.66 E0.023
G1 X164.647 Y92.277 E0.023
G1 X164.307 Y92.871 E0.022
G1 X163.923 Y93.438 E0.023
G1 X163.499 Y93.973 E0.023
G1 X163.036 Y94.476 E0.023
G1 X162.537 Y94.944 E0.022
G1 X162.004 Y95.374 E0.023
G1 X161.44 Y95.763 E0.023
G1 X160.85 Y96.108 E0.023
G1 X160.236 Y96.409 E0.022
G1 X159.602 Y96.662 E0.023
G1 X158.949 Y96.87 E0.023
G1 X158.281 Y97.027 E0.023
G1 X157.607 Y97.135 E0.022
G1 X156.924 Y97.191 E0.023
G1 X156.242 Y97.198 E0.023
G1 X155.56 Y97.153 E0.023
G1 X154.881 Y97.058 E0.022
G1 X154.212 Y96.912 E0.023
G1 X153.557 Y96.718 E0.023
G1 X153.175 Y96.573 E0.013
G1 X151.311 Y96.221 E0.064
G1 X149.268 Y95.861 E0.069
G1 X147.227 Y95.526 E0.068
G1 X144.51 Y95.115 E0.092
G1 X141.096 Y94.651 E0.114
G1 X134.804 Y94.06 E0.21
G1 X129.359 Y93.764 E0.182
G1 X123.91 Y93.694 E0.181
G1 X119.839 Y93.793 E0.136
G1 X114.391 Y94.122 E0.181
G1 X107.56 Y94.834 E0.229
G1 X103.476 Y95.407 E0.137
G1 X99.373 Y96.088 E0.138
G1 X96.741 Y96.579 E0.089
G1 X95.344 Y96.994 E0.049
G1 X96.624 Y97.349 E0.044
G1 X97.53 Y97.757 E0.033
G1 X101.283 Y98.577 E0.128
G1 X104.219 Y99.115 E0.099
G1 X108.148 Y99.69 E0.132
G1 X112.067 Y100.087 E0.131
G1 X115.981 Y100.295 E0.13
G1 X119.898 Y100.311 E0.131
G1 X123.816 Y100.136 E0.13
G1 X128.217 Y99.723 E0.147
G1 X130.688 Y99.393 E0.083
G1 X132.832 Y99.064 E0.072
G1 X135.13 E0.077
G1 X135.576 Y98.798 E0.017
G1 X136.172 Y98.503 E0.022
G1 X136.793 Y98.257 E0.022
G1 X137.428 Y98.064 E0.022
G1 X138.08 Y97.921 E0.022
G1 X138.746 Y97.833 E0.023
G1 X139.444 Y97.8 E0.023
G1 X140.068 Y97.817 E0.021
G1 X140.73 Y97.89 E0.022
G1 X141.384 Y98.017 E0.022
G1 X142.028 Y98.197 E0.022
G1 X142.686 Y98.443 E0.024
G1 X143.253 Y98.706 E0.02
G1 X143.831 Y99.035 E0.023
G1 X144.381 Y99.408 E0.022
G1 X144.899 Y99.825 E0.022
G1 X145.382 Y100.284 E0.022
G1 X145.827 Y100.781 E0.022
G1 X146.229 Y101.31 E0.022
G1 X146.586 Y101.87 E0.022
G1 X146.898 Y102.459 E0.022
G1 X147.163 Y103.077 E0.023
G1 X147.383 Y103.741 E0.023
G1 X147.533 Y104.346 E0.021
G1 X147.642 Y105.004 E0.022
G1 X147.695 Y105.668 E0.022
G1 Y106.331 E0.022
G1 X147.642 Y106.995 E0.022
G1 X147.533 Y107.655 E0.023
G1 X147.372 Y108.299 E0.022
G1 X147.161 Y108.928 E0.022
G1 X146.898 Y109.541 E0.022
G1 X146.586 Y110.129 E0.022
G1 X146.225 Y110.694 E0.022
G1 X145.799 Y111.25 E0.024
G1 X145.382 Y111.715 E0.02
G1 X144.899 Y112.174 E0.023
G1 X144.381 Y112.591 E0.022
G1 X143.831 Y112.964 E0.022
G1 X143.252 Y113.293 E0.022
G1 X142.647 Y113.574 E0.022
G1 X142.023 Y113.803 E0.022
G1 X141.384 Y113.982 E0.022
G1 X140.73 Y114.109 E0.023
G1 X140.068 Y114.182 E0.022
G1 X139.404 Y114.201 E0.022
G1 X138.739 Y114.166 E0.022
G1 X138.077 Y114.077 E0.022
G1 X137.428 Y113.935 E0.022
G1 X136.793 Y113.742 E0.022
G1 X136.174 Y113.497 E0.022
G1 X135.575 Y113.202 E0.023
G1 X135.131 Y112.935 E0.017
G1 X132.832 E0.076
G1 X130.683 Y112.605 E0.073
G1 X128.744 Y112.338 E0.065
G1 X123.814 Y111.863 E0.165
G1 X119.898 Y111.689 E0.13
G1 X115.981 Y111.704 E0.13
G1 X112.067 Y111.912 E0.131
G1 X108.148 Y112.309 E0.131
G1 X104.219 Y112.884 E0.132
G1 X101.283 Y113.423 E0.099
G1 X97.53 Y114.242 E0.128
G1 X96.624 Y114.65 E0.033
G1 X95.294 Y115.019 E0.046
G1 X94.669 Y115.095 E0.021
G1 X94.898 Y115.155 E0.007
G1 X95.297 Y115.294 E0.014
G1 X98.53 Y115.937 E0.11
G1 X103.069 Y116.869 E0.154
G1 X105.139 Y117.25 E0.07
G1 X106.501 Y117.452 E0.046
G1 X108.246 Y117.661 E0.058
G1 X110.713 Y117.772 E0.083
G1 X114.705 Y117.834 E0.132
G1 Y128.166 E0.344
G1 X110.724 Y128.228 E0.132
G1 X108.231 Y128.341 E0.083
G1 X106.524 Y128.545 E0.058
G1 X105.151 Y128.748 E0.046
G1 X103.123 Y129.121 E0.068
G1 X98.528 Y130.064 E0.156
G1 X95.296 Y130.706 E0.11
G1 X94.898 Y130.845 E0.014
G1 X94.254 Y131.013 E0.022
G1 X93.6 Y131.128 E0.022
G1 X92.939 Y131.191 E0.022
G1 X92.271 Y131.199 E0.023
G1 X91.606 Y131.152 E0.022
G1 X90.95 Y131.053 E0.022
G1 X90.302 Y130.901 E0.022
G1 X89.655 Y130.692 E0.023
G1 X88.959 Y130.392 E0.025
G1 X88.46 Y130.135 E0.018
G1 X87.897 Y129.785 E0.022
G1 X87.362 Y129.389 E0.023
G1 X86.859 Y128.95 E0.022
G1 X86.386 Y128.463 E0.022
G1 X85.912 Y127.873 E0.026
G1 X85.591 Y127.412 E0.018
G1 X85.258 Y126.839 E0.022
G1 X84.97 Y126.24 E0.022
G1 X84.731 Y125.616 E0.023
G1 X84.545 Y124.977 E0.022
G1 X84.411 Y124.325 E0.022
G1 X84.33 Y123.666 E0.022
G1 X84.303 Y123 E0.022
G1 X84.33 Y122.335 E0.022
G1 X84.411 Y121.675 E0.022
G1 X84.545 Y121.023 E0.023
G1 X84.731 Y120.384 E0.022
G1 X84.97 Y119.76 E0.022
G1 X85.258 Y119.161 E0.022
G1 X85.592 Y118.587 E0.022
G1 X85.972 Y118.041 E0.022
G1 X86.396 Y117.527 E0.022
G1 X86.86 Y117.049 E0.023
G1 X87.362 Y116.612 E0.022
G1 X87.895 Y116.216 E0.022
G1 X88.462 Y115.864 E0.022
G1 X89.055 Y115.559 E0.022
G1 X89.67 Y115.305 E0.022
G1 X90.3 Y115.101 E0.022
G1 X90.948 Y114.947 E0.022
G1 X91.339 Y114.888 E0.014
G1 X90.555 Y114.716 E0.026
G1 X89.212 Y114.139 E0.049
G1 X87.562 Y113.025 E0.066
G1 X86.552 Y112.025 E0.047
G1 X85.703 Y110.881 E0.048
G1 X84.835 Y109.09 E0.066
G1 X84.466 Y107.72 E0.047
G1 X84.31 Y106.346 E0.046
G1 X84.363 Y104.922 E0.048
G1 X84.817 Y102.947 E0.067
G1 X85.704 Y101.117 E0.068
G1 X86.552 Y99.975 E0.047
G1 X87.561 Y98.974 E0.047
G1 X89.212 Y97.86 E0.066
G1 X90.555 Y97.283 E0.049
G1 X91.849 Y96.999 E0.044
G1 X91.092 Y96.879 E0.026
G1 X89.726 Y96.389 E0.048
G1 X88.031 Y95.397 E0.065
G1 X86.938 Y94.447 E0.048
G1 X85.716 Y92.904 E0.066
G1 X85.064 Y91.658 E0.047
G1 X84.601 Y90.329 E0.046
G1 X84.303 Y88.341 E0.067
G1 X84.452 Y86.337 E0.067
G1 X84.813 Y84.981 E0.047
G1 X85.373 Y83.689 E0.047
G1 X86.499 Y82.026 E0.066
G1 X87.967 Y80.651 E0.067
G1 X89.154 Y79.896 E0.047
G1 X90.439 Y79.324 E0.047
G1 X92.351 Y78.873 E0.065
G1 X93.759 Y78.808 E0.047
G1 X95.16 Y78.951 E0.047
G1 X96.74 Y79.42 E0.055
G1 X99.373 Y79.912 E0.089
G1 X103.476 Y80.593 E0.138
G1 X107.56 Y81.166 E0.137
G1 X114.391 Y81.877 E0.229
;rapid-leaky
G0 X114.358 Y82.276 F7200
;bead-skirt/brim
G1 X119.818 Y82.605 F960 E0.182
G1 X125.282 Y82.71 E0.181
G1 X129.368 Y82.636 E0.136
G1 X134.834 Y82.339 E0.182
G1 X141.031 Y81.757 E0.207
G1 X144.11 Y81.35 E0.104
G1 X147.289 Y80.869 E0.107
G1 X149.335 Y80.533 E0.069
G1 X151.383 Y80.172 E0.069
G1 X153.285 Y79.813 E0.064
G1 X153.686 Y79.661 E0.014
G1 X154.311 Y79.476 E0.022
G1 X154.951 Y79.336 E0.022
G1 X155.601 Y79.245 E0.022
G1 X156.251 Y79.203 E0.021
G1 X156.906 Y79.208 E0.022
G1 X157.558 Y79.263 E0.022
G1 X158.204 Y79.365 E0.022
G1 X158.842 Y79.516 E0.022
G1 X159.467 Y79.713 E0.021
G1 X160.075 Y79.958 E0.022
G1 X160.663 Y80.246 E0.022
G1 X161.261 Y80.598 E0.023
G1 X161.766 Y80.948 E0.02
G1 X162.273 Y81.357 E0.022
G1 X162.751 Y81.803 E0.022
G1 X163.195 Y82.287 E0.022
G1 X163.6 Y82.8 E0.021
G1 X163.967 Y83.341 E0.022
G1 X164.292 Y83.908 E0.022
G1 X164.576 Y84.5 E0.022
G1 X164.814 Y85.11 E0.022
G1 X165.005 Y85.735 E0.021
G1 X165.149 Y86.372 E0.022
G1 X165.247 Y87.02 E0.022
G1 X165.295 Y87.674 E0.022
G1 Y88.326 E0.021
G1 X165.247 Y88.98 E0.022
G1 X165.149 Y89.628 E0.022
G1 X165.005 Y90.263 E0.022
G1 X164.814 Y90.889 E0.021
G1 X164.575 Y91.501 E0.022
G1 X164.292 Y92.091 E0.022
G1 X163.967 Y92.659 E0.022
G1 X163.6 Y93.201 E0.021
G1 X163.194 Y93.713 E0.022
G1 X162.752 Y94.195 E0.022
G1 X162.274 Y94.642 E0.022
G1 X161.765 Y95.053 E0.021
G1 X161.225 Y95.425 E0.022
G1 X160.66 Y95.755 E0.022
G1 X160.073 Y96.043 E0.022
G1 X159.467 Y96.285 E0.021
G1 X158.843 Y96.484 E0.022
G1 X158.204 Y96.634 E0.022
G1 X157.558 Y96.737 E0.022
G1 X156.906 Y96.791 E0.022
G1 X156.253 Y96.798 E0.021
G1 X155.601 Y96.755 E0.022
G1 X154.951 Y96.664 E0.022
G1 X154.311 Y96.524 E0.022
G1 X153.685 Y96.339 E0.021
G1 X153.284 Y96.186 E0.015
G1 X151.383 Y95.828 E0.064
G1 X149.335 Y95.467 E0.069
G1 X147.289 Y95.131 E0.069
G1 X144.566 Y94.719 E0.092
G1 X141.141 Y94.253 E0.115
G1 X134.834 Y93.661 E0.21
G1 X129.373 Y93.364 E0.182
G1 X123.907 Y93.294 E0.182
G1 X119.822 Y93.394 E0.136
G1 X114.359 Y93.723 E0.182
G1 X107.511 Y94.437 E0.229
G1 X103.415 Y95.011 E0.138
G1 X99.303 Y95.694 E0.138
G1 X96.647 Y96.189 E0.09
G1 X95.05 Y96.664 E0.056
G1 X93.094 Y96.791 E0.065
G1 X91.191 Y96.489 E0.064
G1 X89.896 Y96.025 E0.046
G1 X88.265 Y95.071 E0.062
G1 X87.229 Y94.17 E0.046
G1 X86.053 Y92.685 E0.063
G1 X85.432 Y91.498 E0.045
G1 X84.991 Y90.232 E0.044
G1 X84.705 Y88.326 E0.064
G1 X84.848 Y86.404 E0.064
G1 X85.192 Y85.112 E0.045
G1 X85.725 Y83.882 E0.044
G1 X86.806 Y82.287 E0.065
G1 X88.213 Y80.968 E0.064
G1 X89.343 Y80.25 E0.044
G1 X90.567 Y79.705 E0.045
G1 X92.407 Y79.271 E0.063
G1 X93.748 Y79.209 E0.044
G1 X95.082 Y79.346 E0.045
G1 X96.646 Y79.81 E0.054
G1 X99.304 Y80.306 E0.09
G1 X103.415 Y80.989 E0.139
G1 X107.511 Y81.563 E0.137
G1 X114.358 Y82.276 E0.229
;rapid-leaky
G0 X114.326 Y82.674 F7200
;bead-skirt/brim
G1 X119.802 Y83.005 F960 E0.183
G1 X125.282 Y83.11 E0.182
G1 X129.382 Y83.036 E0.136
G1 X134.864 Y82.738 E0.183
G1 X141.129 Y82.15 E0.209
G1 X144.166 Y81.746 E0.102
G1 X147.351 Y81.264 E0.107
G1 X149.402 Y80.928 E0.069
G1 X151.454 Y80.566 E0.07
G1 X153.394 Y80.199 E0.065
G1 X153.814 Y80.04 E0.015
G1 X154.411 Y79.863 E0.021
G1 X155.021 Y79.73 E0.021
G1 X155.641 Y79.643 E0.021
G1 X156.263 Y79.603 E0.02
G1 X156.888 Y79.607 E0.021
G1 X157.51 Y79.66 E0.021
G1 X158.127 Y79.757 E0.021
G1 X158.736 Y79.902 E0.021
G1 X159.332 Y80.09 E0.02
G1 X159.912 Y80.323 E0.021
G1 X160.474 Y80.599 E0.021
G1 X161.046 Y80.936 E0.022
G1 X161.526 Y81.268 E0.019
G1 X162.011 Y81.659 E0.021
G1 X162.467 Y82.085 E0.021
G1 X162.89 Y82.546 E0.021
G1 X163.277 Y83.036 E0.021
G1 X163.627 Y83.553 E0.02
G1 X163.938 Y84.094 E0.021
G1 X164.208 Y84.659 E0.021
G1 X164.435 Y85.242 E0.021
G1 X164.618 Y85.838 E0.02
G1 X164.756 Y86.446 E0.021
G1 X164.849 Y87.065 E0.021
G1 X164.895 Y87.689 E0.021
G1 Y88.311 E0.02
G1 X164.849 Y88.935 E0.021
G1 X164.756 Y89.554 E0.021
G1 X164.618 Y90.161 E0.021
G1 X164.436 Y90.758 E0.021
G1 X164.208 Y91.342 E0.02
G1 X163.938 Y91.905 E0.021
G1 X163.628 Y92.447 E0.021
G1 X163.277 Y92.964 E0.021
G1 X162.89 Y93.453 E0.02
G1 X162.467 Y93.913 E0.021
G1 X162.012 Y94.34 E0.021
G1 X161.525 Y94.733 E0.021
G1 X161.01 Y95.087 E0.021
G1 X160.471 Y95.403 E0.02
G1 X159.911 Y95.677 E0.021
G1 X159.332 Y95.909 E0.021
G1 X158.736 Y96.099 E0.021
G1 X158.127 Y96.242 E0.02
G1 X157.51 Y96.34 E0.021
G1 X156.888 Y96.391 E0.021
G1 X156.264 Y96.397 E0.021
G1 X155.641 Y96.357 E0.021
G1 X155.021 Y96.27 E0.02
G1 X154.411 Y96.137 E0.021
G1 X153.813 Y95.959 E0.021
G1 X153.393 Y95.8 E0.015
G1 X151.455 Y95.434 E0.065
G1 X149.402 Y95.072 E0.07
G1 X147.351 Y94.736 E0.069
G1 X144.623 Y94.323 E0.092
G1 X141.187 Y93.856 E0.115
G1 X134.864 Y93.262 E0.211
G1 X129.386 Y92.965 E0.183
G1 X123.905 Y92.894 E0.182
G1 X119.805 Y92.994 E0.136
G1 X114.326 Y93.325 E0.183
G1 X107.463 Y94.04 E0.229
G1 X103.355 Y94.616 E0.138
G1 X99.234 Y95.3 E0.139
G1 X96.553 Y95.8 E0.091
G1 X94.979 Y96.268 E0.055
G1 X93.113 Y96.389 E0.062
G1 X91.291 Y96.1 E0.061
G1 X90.066 Y95.661 E0.044
G1 X88.499 Y94.744 E0.06
G1 X87.519 Y93.892 E0.043
G1 X86.39 Y92.466 E0.061
G1 X85.8 Y91.339 E0.042
G1 X85.381 Y90.136 E0.042
G1 X85.107 Y88.311 E0.062
G1 X85.245 Y86.471 E0.061
G1 X85.571 Y85.244 E0.042
G1 X86.077 Y84.075 E0.043
G1 X87.112 Y82.548 E0.061
G1 X88.459 Y81.286 E0.061
G1 X89.533 Y80.603 E0.043
G1 X90.696 Y80.086 E0.042
G1 X92.462 Y79.669 E0.06
G1 X93.736 Y79.61 E0.043
G1 X95.004 Y79.74 E0.042
G1 X96.553 Y80.199 E0.054
G1 X99.234 Y80.7 E0.091
G1 X103.355 Y81.384 E0.139
G1 X107.463 Y81.96 E0.138
G1 X114.326 Y82.674 E0.229
;rapid-leaky
G0 X114.293 Y83.073 F7200
;bead-skirt/brim
G1 X119.786 Y83.405 F960 E0.183
G1 X125.282 Y83.51 E0.183
G1 X129.397 Y83.436 E0.137
G1 X134.893 Y83.137 E0.183
G1 X141.454 Y82.521 E0.219
G1 X141.487 Y83.973 E0.048
G1 X141.504 E0.001
G1 X141.524 Y82.499 E0.049
G1 X144.5 Y82.105 E0.1
G1 X147.413 Y81.659 E0.098
G1 X149.469 Y81.322 E0.069
G1 X151.526 Y80.959 E0.07
G1 X153.502 Y80.586 E0.066
G1 X153.942 Y80.42 E0.016
G1 X154.511 Y80.251 E0.02
G1 X155.092 Y80.124 E0.02
G1 X155.682 Y80.042 E0.019
G1 X156.274 Y80.003 E0.02
G1 X156.869 Y80.007 E0.02
G1 X157.462 Y80.058 E0.02
G1 X158.049 Y80.15 E0.02
G1 X158.629 Y80.287 E0.019
G1 X159.197 Y80.467 E0.02
G1 X159.749 Y80.689 E0.02
G1 X160.284 Y80.951 E0.02
G1 X160.83 Y81.273 E0.021
G1 X161.286 Y81.589 E0.018
G1 X161.748 Y81.962 E0.02
G1 X162.182 Y82.367 E0.02
G1 X162.586 Y82.806 E0.02
G1 X162.954 Y83.273 E0.019
G1 X163.288 Y83.765 E0.02
G1 X163.584 Y84.28 E0.02
G1 X163.841 Y84.818 E0.02
G1 X164.057 Y85.373 E0.02
G1 X164.231 Y85.941 E0.019
G1 X164.362 Y86.52 E0.02
G1 X164.452 Y87.109 E0.02
G1 X164.495 Y87.703 E0.02
G1 Y88.297 E0.019
G1 X164.452 Y88.891 E0.02
G1 X164.362 Y89.48 E0.02
G1 X164.231 Y90.058 E0.02
G1 X164.057 Y90.627 E0.02
G1 X163.841 Y91.182 E0.019
G1 X163.584 Y91.718 E0.02
G1 X163.288 Y92.235 E0.02
G1 X162.954 Y92.728 E0.02
G1 X162.585 Y93.194 E0.02
G1 X162.183 Y93.631 E0.019
G1 X161.749 Y94.038 E0.02
G1 X161.286 Y94.412 E0.02
G1 X160.796 Y94.75 E0.02
G1 X160.282 Y95.05 E0.019
G1 X159.748 Y95.312 E0.02
G1 X159.197 Y95.532 E0.02
G1 X158.629 Y95.713 E0.02
G1 X158.049 Y95.849 E0.02
G1 X157.462 Y95.942 E0.019
G1 X156.869 Y95.992 E0.02
G1 X156.275 Y95.997 E0.02
G1 X155.682 Y95.959 E0.02
G1 X155.092 Y95.876 E0.02
G1 X154.511 Y95.749 E0.019
G1 X153.941 Y95.58 E0.02
G1 X153.502 Y95.413 E0.016
G1 X151.527 Y95.041 E0.067
G1 X149.469 Y94.678 E0.069
G1 X147.413 Y94.341 E0.069
G1 X144.68 Y93.927 E0.092
G1 X141.524 Y93.498 E0.106
G1 X141.504 Y92.027 E0.049
G1 X141.487 E0.001
G1 X141.454 Y93.479 E0.048
G1 X134.893 Y92.863 E0.219
G1 X129.399 Y92.565 E0.183
G1 X123.903 Y92.494 E0.183
G1 X119.788 Y92.594 E0.137
G1 X114.293 Y92.926 E0.183
G1 X107.414 Y93.643 E0.23
G1 X103.294 Y94.221 E0.138
G1 X99.165 Y94.906 E0.14
G1 X96.459 Y95.41 E0.091
G1 X94.908 Y95.872 E0.054
G1 X93.132 Y95.987 E0.059
G1 X91.391 Y95.711 E0.059
G1 X90.236 Y95.297 E0.041
G1 X88.733 Y94.418 E0.058
G1 X87.81 Y93.615 E0.04
G1 X86.727 Y92.247 E0.058
G1 X86.168 Y91.179 E0.04
G1 X85.771 Y90.04 E0.04
G1 X85.509 Y88.296 E0.059
G1 X85.641 Y86.538 E0.059
G1 X85.95 Y85.376 E0.04
G1 X86.43 Y84.269 E0.04
G1 X87.418 Y82.81 E0.058
G1 X88.706 Y81.603 E0.059
G1 X89.723 Y80.956 E0.04
G1 X90.824 Y80.466 E0.04
G1 X92.518 Y80.066 E0.058
G1 X93.725 Y80.011 E0.04
G1 X94.926 Y80.134 E0.041
G1 X96.459 Y80.589 E0.053
G1 X99.165 Y81.094 E0.091
G1 X103.294 Y81.779 E0.14
G1 X107.414 Y82.357 E0.138
G1 X114.293 Y83.073 E0.23
;rapid-leaky
G0 X114.26 Y83.472 F7200
;bead-skirt/brim
G1 X119.77 Y83.804 F960 E0.184
G1 X125.281 Y83.91 E0.183
G1 X129.411 Y83.835 E0.137
G1 X134.923 Y83.536 E0.184
G1 X141.064 Y82.959 E0.205
G1 X141.096 Y84.373 E0.047
G1 X141.898 E0.027
G1 X141.919 Y82.85 E0.05
G1 X144.9 Y82.456 E0.1
G1 Y82.444 E0.001
G1 X147.475 Y82.054 E0.086
G1 X149.536 Y81.716 E0.07
G1 X151.598 Y81.353 E0.069
G1 X153.611 Y80.972 E0.069
G1 X154.069 Y80.799 E0.016
G1 X154.61 Y80.639 E0.019
G1 X155.162 Y80.518 E0.018
G1 X155.723 Y80.44 E0.019
G1 X156.286 Y80.403 E0.019
G1 X156.851 Y80.407 E0.019
G1 X157.414 Y80.455 E0.019
G1 X157.972 Y80.543 E0.018
G1 X158.523 Y80.673 E0.019
G1 X159.062 Y80.844 E0.019
G1 X159.586 Y81.055 E0.019
G1 X160.094 Y81.303 E0.019
G1 X160.614 Y81.61 E0.02
G1 X161.047 Y81.909 E0.017
G1 X161.486 Y82.264 E0.019
G1 X161.898 Y82.649 E0.019
G1 X162.281 Y83.066 E0.019
G1 X162.631 Y83.509 E0.018
G1 X162.948 Y83.977 E0.019
G1 X163.229 Y84.467 E0.019
G1 X163.474 Y84.977 E0.019
G1 X163.679 Y85.504 E0.019
G1 X163.844 Y86.044 E0.018
G1 X163.969 Y86.595 E0.019
G1 X164.054 Y87.154 E0.019
G1 X164.095 Y87.718 E0.019
G1 Y88.282 E0.019
G1 X164.054 Y88.846 E0.018
G1 X163.969 Y89.405 E0.019
G1 X163.844 Y89.955 E0.019
G1 X163.679 Y90.496 E0.019
G1 X163.474 Y91.023 E0.019
G1 X163.23 Y91.532 E0.018
G1 X162.948 Y92.023 E0.019
G1 X162.631 Y92.491 E0.019
G1 X162.281 Y92.934 E0.019
G1 X161.899 Y93.35 E0.019
G1 X161.486 Y93.736 E0.018
G1 X161.046 Y94.091 E0.019
G1 X160.581 Y94.412 E0.019
G1 X160.093 Y94.697 E0.019
G1 X159.586 Y94.946 E0.019
G1 X159.062 Y95.155 E0.018
G1 X158.523 Y95.327 E0.019
G1 X157.972 Y95.456 E0.019
G1 X157.414 Y95.545 E0.019
G1 X156.851 Y95.592 E0.019
G1 X156.286 Y95.597 E0.018
G1 X155.723 Y95.56 E0.019
G1 X155.162 Y95.482 E0.019
G1 X154.61 Y95.361 E0.019
G1 X154.069 Y95.201 E0.018
G1 X153.611 Y95.027 E0.017
G1 X151.598 Y94.647 E0.068
G1 X149.536 Y94.284 E0.07
G1 X147.476 Y93.946 E0.069
G1 X144.9 Y93.554 E0.087
G1 X141.919 Y93.148 E0.1
G1 X141.898 Y91.627 E0.05
G1 X141.096 E0.027
G1 X141.064 Y93.041 E0.047
G1 X134.923 Y92.464 E0.205
G1 X129.413 Y92.165 E0.184
G1 X123.9 Y92.094 E0.183
G1 X119.771 Y92.195 E0.137
G1 X114.26 Y92.527 E0.184
G1 X107.366 Y93.246 E0.231
G1 X103.234 Y93.825 E0.138
G1 X99.095 Y94.512 E0.14
G1 X96.365 Y95.021 E0.092
G1 X94.837 Y95.475 E0.053
G1 X93.15 Y95.585 E0.056
G1 X91.49 Y95.322 E0.056
G1 X90.406 Y94.933 E0.039
G1 X88.968 Y94.092 E0.055
G1 X88.1 Y93.337 E0.038
G1 X87.064 Y92.028 E0.056
G1 X86.536 Y91.02 E0.038
G1 X86.161 Y89.943 E0.038
G1 X85.912 Y88.281 E0.056
G1 X86.037 Y86.605 E0.055
G1 X86.329 Y85.507 E0.038
G1 X86.782 Y84.462 E0.038
G1 X87.724 Y83.071 E0.056
G1 X88.952 Y81.921 E0.056
G1 X89.912 Y81.31 E0.038
G1 X90.952 Y80.847 E0.038
G1 X92.574 Y80.464 E0.055
G1 X93.714 Y80.412 E0.038
G1 X94.848 Y80.528 E0.038
G1 X96.365 Y80.978 E0.053
G1 X99.095 Y81.488 E0.092
G1 X103.234 Y82.175 E0.14
G1 X107.366 Y82.754 E0.138
G1 X114.26 Y83.472 E0.231
;rapid-leaky
G0 X114.227 Y83.871 F7200
;bead-skirt/brim
G1 X119.754 Y84.204 F960 E0.184
G1 X125.281 Y84.31 E0.184
G1 X129.426 Y84.235 E0.138
G1 X134.952 Y83.935 E0.184
G1 X140.674 Y83.398 E0.191
G1 X140.705 Y84.773 E0.046
G1 X142.293 E0.053
G1 X142.314 Y83.201 E0.052
G1 X145.3 Y82.806 E0.1
G1 Y82.788 E0.001
G1 X147.538 Y82.449 E0.075
G1 X149.603 Y82.111 E0.069
G1 X151.67 Y81.746 E0.07
G1 X153.72 Y81.359 E0.07
G1 X154.197 Y81.178 E0.017
G1 X154.71 Y81.026 E0.017
G1 X155.233 Y80.912 E0.018
G1 X155.764 Y80.838 E0.018
G1 X156.297 Y80.803 E0.018
G1 X156.832 Y80.807 E0.018
G1 X157.366 Y80.852 E0.017
G1 X157.895 Y80.936 E0.018
G1 X158.416 Y81.059 E0.018
G1 X158.927 Y81.221 E0.018
G1 X159.423 Y81.42 E0.018
G1 X159.904 Y81.656 E0.017
G1 X160.399 Y81.947 E0.02
G1 X160.807 Y82.23 E0.016
G1 X161.223 Y82.566 E0.018
G1 X161.614 Y82.931 E0.018
G1 X161.976 Y83.325 E0.017
G1 X162.308 Y83.746 E0.018
G1 X162.609 Y84.189 E0.018
G1 X162.875 Y84.653 E0.018
G1 X163.107 Y85.136 E0.018
G1 X163.301 Y85.635 E0.018
G1 X163.457 Y86.147 E0.017
G1 X163.576 Y86.669 E0.018
G1 X163.656 Y87.199 E0.018
G1 X163.695 Y87.733 E0.018
G1 Y88.267 E0.018
G1 X163.656 Y88.801 E0.017
G1 X163.576 Y89.331 E0.018
G1 X163.457 Y89.852 E0.018
G1 X163.301 Y90.365 E0.018
G1 X163.107 Y90.864 E0.018
G1 X162.875 Y91.346 E0.017
G1 X162.609 Y91.811 E0.018
G1 X162.308 Y92.254 E0.018
G1 X161.976 Y92.674 E0.018
G1 X161.614 Y93.068 E0.018
G1 X161.223 Y93.434 E0.017
G1 X160.807 Y93.77 E0.018
G1 X160.366 Y94.074 E0.018
G1 X159.904 Y94.344 E0.018
G1 X159.423 Y94.58 E0.018
G1 X158.927 Y94.778 E0.017
G1 X158.416 Y94.941 E0.018
G1 X157.895 Y95.063 E0.018
G1 X157.366 Y95.148 E0.018
G1 X156.832 Y95.192 E0.018
G1 X156.297 Y95.197 E0.017
G1 X155.764 Y95.162 E0.018
G1 X155.233 Y95.088 E0.018
G1 X154.71 Y94.974 E0.018
G1 X154.197 Y94.822 E0.018
G1 X153.72 Y94.64 E0.017
G1 X151.67 Y94.254 E0.069
G1 X149.603 Y93.889 E0.07
G1 X147.538 Y93.551 E0.069
G1 X145.3 Y93.204 E0.076
G1 X142.314 Y92.798 E0.1
G1 X142.293 Y91.227 E0.052
G1 X140.705 E0.053
G1 X140.674 Y92.602 E0.046
G1 X134.952 Y92.065 E0.191
G1 X129.426 Y91.765 E0.184
G1 X123.898 Y91.694 E0.184
G1 X119.754 Y91.795 E0.138
G1 X114.227 Y92.128 E0.184
G1 X107.317 Y92.849 E0.231
G1 X103.173 Y93.43 E0.139
G1 X99.026 Y94.118 E0.14
G1 X96.271 Y94.632 E0.093
G1 X94.766 Y95.079 E0.052
G1 X93.169 Y95.183 E0.054
G1 X91.59 Y94.933 E0.053
G1 X90.576 Y94.569 E0.036
G1 X89.202 Y93.765 E0.053
G1 X88.391 Y93.06 E0.035
G1 X87.401 Y91.809 E0.053
G1 X86.904 Y90.861 E0.036
G1 X86.551 Y89.847 E0.036
G1 X86.314 Y88.267 E0.053
G1 X86.433 Y86.672 E0.053
G1 X86.708 Y85.639 E0.036
G1 X87.134 Y84.655 E0.035
G1 X88.03 Y83.332 E0.053
G1 X89.198 Y82.238 E0.054
G1 X90.102 Y81.663 E0.035
G1 X91.081 Y81.228 E0.036
G1 X92.629 Y80.862 E0.053
G1 X93.703 Y80.813 E0.036
G1 X94.77 Y80.922 E0.035
G1 X96.271 Y81.367 E0.052
G1 X99.026 Y81.882 E0.094
G1 X103.173 Y82.57 E0.139
G1 X107.317 Y83.151 E0.14
G1 X114.227 Y83.871 E0.231
;rapid-leaky
G0 X112.037 Y100.486 F7200
;bead-skirt/brim
G1 X115.969 Y100.695 F960 E0.131
G1 X119.906 Y100.711 E0.131
G1 X123.844 Y100.535 E0.131
G1 X128.262 Y100.121 E0.147
G1 X130.744 Y99.789 E0.084
G1 X132.863 Y99.464 E0.071
G1 X135.244 E0.079
G1 X135.768 Y99.149 E0.02
G1 X136.334 Y98.869 E0.021
G1 X136.925 Y98.635 E0.021
G1 X137.529 Y98.451 E0.021
G1 X138.149 Y98.316 E0.022
G1 X138.781 Y98.232 E0.021
G1 X139.448 Y98.2 E0.022
G1 X140.04 Y98.217 E0.02
G1 X140.67 Y98.286 E0.021
G1 X141.292 Y98.407 E0.021
G1 X141.904 Y98.578 E0.021
G1 X142.531 Y98.812 E0.022
G1 X143.07 Y99.062 E0.02
G1 X143.62 Y99.374 E0.021
G1 X144.143 Y99.73 E0.021
G1 X144.636 Y100.127 E0.021
G1 X145.095 Y100.563 E0.021
G1 X145.518 Y101.035 E0.021
G1 X145.9 Y101.539 E0.021
G1 X146.24 Y102.071 E0.021
G1 X146.537 Y102.632 E0.021
G1 X146.789 Y103.219 E0.022
G1 X146.998 Y103.852 E0.022
G1 X147.141 Y104.427 E0.02
G1 X147.244 Y105.052 E0.021
G1 X147.295 Y105.684 E0.021
G1 Y106.315 E0.021
G1 X147.244 Y106.946 E0.021
G1 X147.141 Y107.574 E0.021
G1 X146.988 Y108.186 E0.021
G1 X146.787 Y108.786 E0.021
G1 X146.537 Y109.368 E0.021
G1 X146.24 Y109.928 E0.021
G1 X145.897 Y110.464 E0.021
G1 X145.491 Y110.995 E0.022
G1 X145.095 Y111.436 E0.02
G1 X144.636 Y111.872 E0.021
G1 X144.143 Y112.269 E0.021
G1 X143.62 Y112.625 E0.021
G1 X143.069 Y112.937 E0.021
G1 X142.493 Y113.204 E0.022
G1 X141.9 Y113.422 E0.021
G1 X141.292 Y113.592 E0.021
G1 X140.669 Y113.713 E0.021
G1 X140.04 Y113.782 E0.021
G1 X139.409 Y113.8 E0.021
G1 X138.776 Y113.768 E0.021
G1 X138.147 Y113.683 E0.021
G1 X137.529 Y113.548 E0.021
G1 X136.925 Y113.364 E0.021
G1 X136.336 Y113.131 E0.021
G1 X135.767 Y112.85 E0.021
G1 X135.242 Y112.535 E0.02
G1 X132.863 E0.08
G1 X130.741 Y112.209 E0.071
G1 X128.791 Y111.94 E0.065
G1 X123.842 Y111.464 E0.166
G1 X119.906 Y111.289 E0.131
G1 X115.969 Y111.304 E0.131
G1 X112.037 Y111.513 E0.131
G1 X108.099 Y111.912 E0.131
G1 X104.154 Y112.489 E0.133
G1 X101.205 Y113.031 E0.1
G1 X97.403 Y113.861 E0.129
G1 X96.488 Y114.273 E0.034
G1 X95.216 Y114.626 E0.043
G1 X93.904 Y114.785 E0.044
G1 X92.551 Y114.745 E0.045
G1 X90.678 Y114.333 E0.064
G1 X89.405 Y113.786 E0.046
G1 X87.816 Y112.715 E0.064
G1 X86.855 Y111.762 E0.045
G1 X86.047 Y110.673 E0.045
G1 X85.211 Y108.949 E0.064
G1 X84.86 Y107.645 E0.045
G1 X84.711 Y106.331 E0.044
G1 X84.762 Y104.974 E0.045
G1 X85.196 Y103.08 E0.065
G1 X86.047 Y101.326 E0.064
G1 X86.855 Y100.238 E0.046
G1 X87.816 Y99.285 E0.045
G1 X89.405 Y98.213 E0.063
G1 X90.678 Y97.666 E0.046
G1 X92.551 Y97.254 E0.064
G1 X93.904 Y97.214 E0.045
G1 X95.216 Y97.373 E0.044
G1 X96.488 Y97.726 E0.044
G1 X97.404 Y98.139 E0.033
G1 X101.204 Y98.969 E0.13
G1 X104.154 Y99.51 E0.1
G1 X108.099 Y100.087 E0.132
G1 X112.037 Y100.486 E0.132
;rapid-leaky
G0 X112.006 Y100.885 F7200
;bead-skirt/brim
G1 X115.958 Y101.095 F960 E0.131
G1 X119.914 Y101.111 E0.132
G1 X123.871 Y100.934 E0.132
G1 X128.307 Y100.518 E0.148
G1 X130.801 Y100.185 E0.084
G1 X132.893 Y99.864 E0.07
G1 X135.371 E0.082
G1 X135.959 Y99.501 E0.023
G1 X136.497 Y99.235 E0.02
G1 X137.057 Y99.013 E0.02
G1 X137.631 Y98.838 E0.02
G1 X138.218 Y98.71 E0.02
G1 X138.817 Y98.63 E0.02
G1 X139.452 Y98.6 E0.022
G1 X140.013 Y98.616 E0.018
G1 X140.609 Y98.682 E0.02
G1 X141.2 Y98.797 E0.02
G1 X141.78 Y98.959 E0.02
G1 X142.377 Y99.181 E0.021
G1 X142.886 Y99.418 E0.019
G1 X143.408 Y99.714 E0.02
G1 X143.905 Y100.052 E0.02
G1 X144.372 Y100.428 E0.02
G1 X144.808 Y100.842 E0.02
G1 X145.209 Y101.29 E0.02
G1 X145.572 Y101.768 E0.02
G1 X145.894 Y102.273 E0.02
G1 X146.176 Y102.804 E0.02
G1 X146.414 Y103.361 E0.02
G1 X146.614 Y103.964 E0.021
G1 X146.749 Y104.508 E0.019
G1 X146.847 Y105.101 E0.02
G1 X146.895 Y105.7 E0.02
G1 Y106.299 E0.02
G1 X146.847 Y106.898 E0.02
G1 X146.749 Y107.493 E0.02
G1 X146.604 Y108.074 E0.02
G1 X146.413 Y108.643 E0.02
G1 X146.176 Y109.195 E0.02
G1 X145.894 Y109.726 E0.02
G1 X145.57 Y110.234 E0.02
G1 X145.183 Y110.739 E0.021
G1 X144.808 Y111.157 E0.019
G1 X144.372 Y111.571 E0.02
G1 X143.905 Y111.947 E0.019
G1 X143.408 Y112.285 E0.02
G1 X142.886 Y112.581 E0.02
G1 X142.34 Y112.834 E0.02
G1 X141.777 Y113.041 E0.02
G1 X141.2 Y113.202 E0.02
G1 X140.609 Y113.317 E0.02
G1 X140.013 Y113.383 E0.02
G1 X139.413 Y113.4 E0.02
G1 X138.813 Y113.369 E0.02
G1 X138.216 Y113.289 E0.02
G1 X137.631 Y113.161 E0.02
G1 X137.057 Y112.986 E0.02
G1 X136.498 Y112.765 E0.02
G1 X135.959 Y112.499 E0.02
G1 X135.367 Y112.135 E0.023
G1 X132.893 E0.082
G1 X130.798 Y111.813 E0.071
G1 X128.837 Y111.543 E0.066
G1 X123.87 Y111.065 E0.166
G1 X119.914 Y110.889 E0.132
G1 X115.958 Y110.904 E0.131
G1 X112.006 Y111.114 E0.132
G1 X108.05 Y111.515 E0.132
G1 X104.089 Y112.095 E0.133
G1 X101.126 Y112.639 E0.1
G1 X97.277 Y113.479 E0.131
G1 X96.351 Y113.895 E0.034
G1 X95.138 Y114.232 E0.042
G1 X93.885 Y114.385 E0.042
G1 X92.6 Y114.346 E0.043
G1 X90.801 Y113.951 E0.061
G1 X89.597 Y113.433 E0.044
G1 X88.071 Y112.404 E0.061
G1 X87.158 Y111.5 E0.043
G1 X86.39 Y110.465 E0.042
G1 X85.588 Y108.809 E0.062
G1 X85.254 Y107.57 E0.042
G1 X85.112 Y106.316 E0.042
G1 X85.16 Y105.027 E0.043
G1 X85.576 Y103.214 E0.062
G1 X86.391 Y101.534 E0.062
G1 X87.158 Y100.5 E0.043
G1 X88.071 Y99.595 E0.043
G1 X89.597 Y98.566 E0.061
G1 X90.801 Y98.048 E0.044
G1 X92.6 Y97.652 E0.061
G1 X93.885 Y97.615 E0.043
G1 X95.138 Y97.767 E0.042
G1 X96.351 Y98.104 E0.041
G1 X97.277 Y98.52 E0.034
G1 X101.126 Y99.361 E0.131
G1 X104.089 Y99.904 E0.1
G1 X108.05 Y100.484 E0.134
G1 X112.006 Y100.885 E0.132
;rapid-leaky
G0 X111.975 Y101.284 F7200
;bead-skirt/brim
G1 X115.947 Y101.495 F960 E0.132
G1 X119.923 Y101.511 E0.132
G1 X123.899 Y101.333 E0.133
G1 X128.353 Y100.916 E0.148
G1 X130.858 Y100.581 E0.085
G1 X132.924 Y100.264 E0.069
G1 X135.498 E0.086
G1 X135.697 Y100.123 E0.008
G1 X136.151 Y99.852 E0.017
G1 X136.66 Y99.6 E0.019
G1 X137.189 Y99.391 E0.019
G1 X137.732 Y99.226 E0.019
G1 X138.287 Y99.104 E0.019
G1 X138.853 Y99.029 E0.019
G1 X139.456 Y99 E0.02
G1 X139.985 Y99.016 E0.018
G1 X140.549 Y99.077 E0.019
G1 X141.107 Y99.186 E0.018
G1 X141.656 Y99.339 E0.019
G1 X142.222 Y99.551 E0.02
G1 X142.703 Y99.774 E0.018
G1 X143.197 Y100.054 E0.019
G1 X143.667 Y100.374 E0.019
G1 X144.109 Y100.73 E0.019
G1 X144.521 Y101.121 E0.019
G1 X144.9 Y101.544 E0.019
G1 X145.243 Y101.997 E0.018
G1 X145.548 Y102.475 E0.019
G1 X145.815 Y102.977 E0.019
G1 X146.04 Y103.502 E0.019
G1 X146.229 Y104.075 E0.02
G1 X146.357 Y104.589 E0.018
G1 X146.449 Y105.149 E0.019
G1 X146.495 Y105.716 E0.019
G1 Y106.283 E0.019
G1 X146.449 Y106.849 E0.018
G1 X146.357 Y107.412 E0.019
G1 X146.22 Y107.962 E0.019
G1 X146.039 Y108.5 E0.019
G1 X145.815 Y109.022 E0.019
G1 X145.548 Y109.524 E0.019
G1 X145.242 Y110.004 E0.019
G1 X144.874 Y110.484 E0.02
G1 X144.521 Y110.878 E0.018
G1 X144.109 Y111.269 E0.019
G1 X143.667 Y111.625 E0.018
G1 X143.197 Y111.945 E0.019
G1 X142.703 Y112.225 E0.019
G1 X142.187 Y112.464 E0.019
G1 X141.654 Y112.66 E0.019
G1 X141.107 Y112.813 E0.019
G1 X140.549 Y112.922 E0.019
G1 X139.985 Y112.983 E0.019
G1 X139.418 Y113 E0.019
G1 X138.85 Y112.971 E0.018
G1 X138.286 Y112.895 E0.019
G1 X137.732 Y112.773 E0.019
G1 X137.189 Y112.608 E0.019
G1 X136.66 Y112.399 E0.019
G1 X136.151 Y112.148 E0.019
G1 X135.663 Y111.855 E0.019
G1 X135.495 Y111.735 E0.007
G1 X132.924 E0.085
G1 X130.856 Y111.418 E0.07
G1 X128.884 Y111.146 E0.066
G1 X123.898 Y110.666 E0.167
G1 X119.923 Y110.489 E0.132
G1 X115.947 Y110.504 E0.132
G1 X111.975 Y110.715 E0.132
G1 X108.001 Y111.118 E0.133
G1 X104.024 Y111.7 E0.134
G1 X101.047 Y112.247 E0.101
G1 X97.151 Y113.097 E0.132
G1 X96.215 Y113.518 E0.034
G1 X95.06 Y113.839 E0.04
G1 X93.867 Y113.984 E0.04
G1 X92.65 Y113.948 E0.041
G1 X90.924 Y113.568 E0.059
G1 X89.79 Y113.081 E0.041
G1 X88.326 Y112.094 E0.058
G1 X87.461 Y111.237 E0.041
G1 X86.734 Y110.257 E0.04
G1 X85.964 Y108.668 E0.059
G1 X85.648 Y107.495 E0.041
G1 X85.513 Y106.301 E0.04
G1 X85.558 Y105.079 E0.04
G1 X85.956 Y103.348 E0.059
G1 X86.734 Y101.742 E0.06
G1 X87.461 Y100.763 E0.04
G1 X88.326 Y99.906 E0.041
G1 X89.79 Y98.918 E0.058
G1 X90.924 Y98.431 E0.041
G1 X92.65 Y98.051 E0.059
G1 X93.867 Y98.015 E0.041
G1 X95.06 Y98.16 E0.04
G1 X96.215 Y98.481 E0.04
G1 X97.151 Y98.902 E0.034
G1 X101.047 Y99.753 E0.132
G1 X104.024 Y100.299 E0.101
G1 X108.001 Y100.881 E0.134
G1 X111.975 Y101.284 E0.133
;rapid-leaky
G0 X111.944 Y101.683 F7200
;bead-skirt/brim
G1 X115.935 Y101.895 F960 E0.133
G1 X119.931 Y101.911 E0.132
G1 X123.927 Y101.732 E0.133
G1 X128.4 Y101.313 E0.15
G1 X130.915 Y100.977 E0.084
G1 X132.954 Y100.664 E0.069
G1 X135.625 E0.089
G1 X135.916 Y100.459 E0.012
G1 X136.343 Y100.204 E0.016
G1 X136.822 Y99.966 E0.018
G1 X137.321 Y99.769 E0.018
G1 X137.833 Y99.613 E0.018
G1 X138.356 Y99.499 E0.017
G1 X138.889 Y99.428 E0.018
G1 X139.459 Y99.401 E0.019
G1 X139.957 Y99.415 E0.017
G1 X140.489 Y99.473 E0.018
G1 X141.015 Y99.576 E0.017
G1 X141.532 Y99.72 E0.018
G1 X142.068 Y99.92 E0.019
G1 X142.52 Y100.13 E0.017
G1 X142.985 Y100.394 E0.018
G1 X143.428 Y100.695 E0.017
G1 X143.845 Y101.031 E0.018
G1 X144.234 Y101.4 E0.018
G1 X144.591 Y101.799 E0.018
G1 X144.915 Y102.226 E0.018
G1 X145.203 Y102.676 E0.018
G1 X145.454 Y103.15 E0.017
G1 X145.666 Y103.644 E0.018
G1 X145.845 Y104.186 E0.019
G1 X145.965 Y104.67 E0.017
G1 X146.052 Y105.198 E0.018
G1 X146.095 Y105.732 E0.017
G1 Y106.267 E0.018
G1 X146.052 Y106.801 E0.018
G1 X145.965 Y107.331 E0.018
G1 X145.835 Y107.849 E0.018
G1 X145.665 Y108.357 E0.017
G1 X145.454 Y108.849 E0.018
G1 X145.203 Y109.323 E0.018
G1 X144.914 Y109.775 E0.018
G1 X144.566 Y110.228 E0.019
G1 X144.234 Y110.599 E0.017
G1 X143.845 Y110.968 E0.017
G1 X143.428 Y111.304 E0.018
G1 X142.985 Y111.605 E0.018
G1 X142.52 Y111.869 E0.018
G1 X142.033 Y112.095 E0.018
G1 X141.531 Y112.279 E0.017
G1 X141.015 Y112.423 E0.018
G1 X140.489 Y112.526 E0.018
G1 X139.957 Y112.584 E0.018
G1 X139.422 Y112.599 E0.018
G1 X138.888 Y112.572 E0.017
G1 X138.356 Y112.5 E0.018
G1 X137.833 Y112.386 E0.018
G1 X137.321 Y112.23 E0.018
G1 X136.823 Y112.033 E0.018
G1 X136.342 Y111.796 E0.018
G1 X135.883 Y111.52 E0.017
G1 X135.624 Y111.335 E0.011
G1 X132.954 E0.089
G1 X130.914 Y111.022 E0.068
G1 X128.93 Y110.748 E0.067
G1 X123.926 Y110.267 E0.167
G1 X119.931 Y110.089 E0.133
G1 X115.935 Y110.104 E0.133
G1 X111.944 Y110.316 E0.133
G1 X107.952 Y110.721 E0.133
G1 X103.959 Y111.305 E0.135
G1 X100.968 Y111.854 E0.101
G1 X97.025 Y112.715 E0.134
G1 X96.079 Y113.141 E0.035
G1 X94.982 Y113.445 E0.037
G1 X93.849 Y113.583 E0.038
G1 X92.699 Y113.549 E0.039
G1 X91.047 Y113.186 E0.056
G1 X89.982 Y112.728 E0.038
G1 X88.581 Y111.783 E0.057
G1 X87.764 Y110.974 E0.038
G1 X87.078 Y110.048 E0.038
G1 X86.34 Y108.528 E0.056
G1 X86.042 Y107.42 E0.039
G1 X85.914 Y106.286 E0.038
G1 X85.957 Y105.132 E0.038
G1 X86.335 Y103.481 E0.056
G1 X87.078 Y101.951 E0.057
G1 X87.764 Y101.026 E0.038
G1 X88.581 Y100.216 E0.038
G1 X89.982 Y99.271 E0.057
G1 X91.047 Y98.813 E0.038
G1 X92.699 Y98.45 E0.056
G1 X93.849 Y98.416 E0.039
G1 X94.982 Y98.554 E0.038
G1 X96.079 Y98.858 E0.038
G1 X97.025 Y99.284 E0.034
G1 X100.968 Y100.146 E0.134
G1 X103.959 Y100.694 E0.101
G1 X107.952 Y101.278 E0.135
G1 X111.944 Y101.683 E0.133
;rapid-leaky
G0 X111.913 Y102.082 F7200
;bead-skirt/brim
G1 X115.924 Y102.295 F960 E0.134
G1 X119.939 Y102.311 E0.133
G1 X123.954 Y102.131 E0.134
G1 X128.8 Y101.677 E0.162
G1 Y101.663
G1 X130.972 Y101.373 E0.073
G1 X132.985 Y101.064 E0.068
G1 X135.752 E0.092
G1 X136.134 Y100.794 E0.016
G1 X136.534 Y100.555 E0.015
G1 X136.985 Y100.332 E0.017
G1 X137.453 Y100.147 E0.016
G1 X137.934 Y100 E0.017
G1 X138.425 Y99.893 E0.017
G1 X138.925 Y99.827 E0.017
G1 X139.463 Y99.801 E0.018
G1 X139.93 Y99.814 E0.015
G1 X140.429 Y99.869 E0.017
G1 X140.923 Y99.965 E0.017
G1 X141.408 Y100.101 E0.016
G1 X141.913 Y100.289 E0.018
G1 X142.337 Y100.486 E0.016
G1 X142.774 Y100.734 E0.017
G1 X143.19 Y101.017 E0.016
G1 X143.582 Y101.332 E0.017
G1 X143.947 Y101.679 E0.017
G1 X144.282 Y102.054 E0.016
G1 X144.586 Y102.455 E0.017
G1 X144.857 Y102.878 E0.017
G1 X145.093 Y103.323 E0.017
G1 X145.291 Y103.786 E0.016
G1 X145.46 Y104.297 E0.018
G1 X145.573 Y104.751 E0.016
G1 X145.655 Y105.247 E0.017
G1 X145.695 Y105.748 E0.016
G1 Y106.251 E0.017
G1 X145.655 Y106.752 E0.017
G1 X145.573 Y107.25 E0.017
G1 X145.451 Y107.737 E0.016
G1 X145.291 Y108.214 E0.017
G1 X145.093 Y108.676 E0.017
G1 X144.857 Y109.121 E0.016
G1 X144.586 Y109.545 E0.017
G1 X144.258 Y109.973 E0.018
G1 X143.947 Y110.32 E0.016
G1 X143.582 Y110.667 E0.016
G1 X143.19 Y110.982 E0.017
G1 X142.774 Y111.265 E0.017
G1 X142.337 Y111.513 E0.017
G1 X141.88 Y111.725 E0.016
G1 X141.408 Y111.898 E0.017
G1 X140.923 Y112.034 E0.017
G1 X140.429 Y112.13 E0.017
G1 X139.93 Y112.185 E0.016
G1 X139.427 Y112.199 E0.017
G1 X138.925 Y112.173 E0.017
G1 X138.425 Y112.106 E0.016
G1 X137.934 Y111.999 E0.017
G1 X137.453 Y111.852 E0.017
G1 X136.985 Y111.667 E0.017
G1 X136.534 Y111.445 E0.016
G1 X136.102 Y111.185 E0.017
G1 X135.752 Y110.935 E0.014
G1 X132.985 E0.092
G1 X130.971 Y110.626 E0.068
G1 X128.977 Y110.351 E0.067
G1 X123.954 Y109.868 E0.168
G1 X119.939 Y109.689 E0.134
G1 X115.924 Y109.704 E0.133
G1 X111.913 Y109.917 E0.134
G1 X107.903 Y110.324 E0.134
G1 X103.894 Y110.91 E0.135
G1 X100.889 Y111.462 E0.101
G1 X96.899 Y112.333 E0.136
G1 X95.942 Y112.764 E0.035
G1 X94.904 Y113.052 E0.036
G1 X93.83 Y113.182 E0.036
G1 X92.748 Y113.15 E0.036
G1 X91.17 Y112.803 E0.054
G1 X90.175 Y112.375 E0.036
G1 X88.836 Y111.472 E0.053
G1 X88.067 Y110.711 E0.036
G1 X87.421 Y109.84 E0.036
G1 X86.717 Y108.387 E0.054
G1 X86.436 Y107.345 E0.036
G1 X86.315 Y106.271 E0.036
G1 X86.355 Y105.185 E0.036
G1 X86.715 Y103.615 E0.054
G1 X87.421 Y102.159 E0.053
G1 X88.067 Y101.289 E0.036
G1 X88.836 Y100.527 E0.036
G1 X90.175 Y99.624 E0.054
G1 X91.17 Y99.196 E0.036
G1 X92.748 Y98.849 E0.054
G1 X93.83 Y98.817 E0.036
G1 X94.904 Y98.947 E0.036
G1 X95.942 Y99.235 E0.036
G1 X96.899 Y99.666 E0.035
G1 X100.889 Y100.538 E0.136
G1 X103.894 Y101.089 E0.101
G1 X107.903 Y101.675 E0.135
G1 X111.913 Y102.082 E0.134
;rapid-leaky
G0 X110.701 Y118.172 F7200
;bead-skirt/brim
G1 X114.305 Y118.228 F960 E0.12
G1 Y127.772 E0.317
G1 X110.712 Y127.828 E0.12
G1 X108.199 Y127.942 E0.083
G1 X106.471 Y128.148 E0.058
G1 X105.085 Y128.353 E0.047
G1 X103.047 Y128.728 E0.069
G1 X98.449 Y129.672 E0.156
G1 X95.191 Y130.319 E0.11
G1 X94.782 Y130.462 E0.015
G1 X94.168 Y130.622 E0.021
G1 X93.547 Y130.731 E0.021
G1 X92.917 Y130.791 E0.021
G1 X92.282 Y130.799 E0.021
G1 X91.65 Y130.755 E0.021
G1 X91.026 Y130.66 E0.021
G1 X90.41 Y130.515 E0.021
G1 X89.796 Y130.317 E0.022
G1 X89.13 Y130.031 E0.024
G1 X88.658 Y129.786 E0.017
G1 X88.122 Y129.454 E0.021
G1 X87.613 Y129.078 E0.022
G1 X87.135 Y128.66 E0.021
G1 X86.686 Y128.198 E0.021
G1 X86.232 Y127.633 E0.024
G1 X85.929 Y127.197 E0.018
G1 X85.611 Y126.652 E0.021
G1 X85.337 Y126.082 E0.021
G1 X85.11 Y125.488 E0.021
G1 X84.933 Y124.88 E0.021
G1 X84.806 Y124.261 E0.021
G1 X84.729 Y123.633 E0.021
G1 X84.703 Y123 E0.021
G1 X84.729 Y122.368 E0.021
G1 X84.806 Y121.739 E0.021
G1 X84.933 Y121.12 E0.021
G1 X85.11 Y120.512 E0.021
G1 X85.337 Y119.918 E0.022
G1 X85.612 Y119.348 E0.021
G1 X85.929 Y118.802 E0.021
G1 X86.291 Y118.283 E0.021
G1 X86.694 Y117.794 E0.021
G1 X87.136 Y117.339 E0.021
G1 X87.613 Y116.924 E0.021
G1 X88.12 Y116.547 E0.021
G1 X88.659 Y116.213 E0.021
G1 X89.223 Y115.922 E0.021
G1 X89.808 Y115.68 E0.021
G1 X90.408 Y115.486 E0.021
G1 X91.024 Y115.34 E0.021
G1 X91.652 Y115.245 E0.021
G1 X92.282 Y115.202 E0.021
G1 X92.915 Y115.209 E0.021
G1 X93.547 Y115.269 E0.021
G1 X94.169 Y115.378 E0.021
G1 X94.782 Y115.538 E0.021
G1 X95.191 Y115.681 E0.015
G1 X98.45 Y116.329 E0.11
G1 X102.992 Y117.262 E0.155
G1 X105.073 Y117.645 E0.07
G1 X106.448 Y117.849 E0.046
G1 X108.214 Y118.059 E0.059
G1 X110.701 Y118.172 E0.083
;rapid-leaky
G0 X110.688 Y118.572 F7200
;bead-skirt/brim
G1 X113.905 Y118.622 F960 E0.107
G1 Y127.378 E0.291
G1 X110.7 Y127.428 E0.107
G1 X108.166 Y127.544 E0.084
G1 X106.418 Y127.752 E0.059
G1 X105.02 Y127.958 E0.047
G1 X102.97 Y128.335 E0.069
G1 X98.37 Y129.28 E0.156
G1 X95.085 Y129.932 E0.112
G1 X94.665 Y130.079 E0.015
G1 X94.083 Y130.231 E0.02
G1 X93.493 Y130.335 E0.02
G1 X92.896 Y130.391 E0.02
G1 X92.294 Y130.399 E0.02
G1 X91.694 Y130.357 E0.02
G1 X91.102 Y130.267 E0.019
G1 X90.517 Y130.13 E0.02
G1 X89.937 Y129.942 E0.021
G1 X89.301 Y129.669 E0.023
G1 X88.855 Y129.438 E0.016
G1 X88.346 Y129.123 E0.02
G1 X87.864 Y128.766 E0.02
G1 X87.41 Y128.369 E0.02
G1 X86.986 Y127.933 E0.021
G1 X86.552 Y127.393 E0.023
G1 X86.266 Y126.982 E0.016
G1 X85.965 Y126.464 E0.02
G1 X85.705 Y125.923 E0.02
G1 X85.49 Y125.36 E0.02
G1 X85.322 Y124.784 E0.02
G1 X85.201 Y124.196 E0.02
G1 X85.129 Y123.601 E0.02
G1 X85.104 Y123 E0.02
G1 X85.128 Y122.4 E0.02
G1 X85.201 Y121.804 E0.02
G1 X85.322 Y121.216 E0.02
G1 X85.49 Y120.64 E0.02
G1 X85.705 Y120.077 E0.02
G1 X85.965 Y119.536 E0.02
G1 X86.267 Y119.017 E0.02
G1 X86.61 Y118.525 E0.02
G1 X86.992 Y118.061 E0.02
G1 X87.411 Y117.63 E0.02
G1 X87.864 Y117.235 E0.02
G1 X88.345 Y116.878 E0.02
G1 X88.856 Y116.561 E0.02
G1 X89.391 Y116.286 E0.02
G1 X89.946 Y116.056 E0.02
G1 X90.516 Y115.872 E0.02
G1 X91.101 Y115.733 E0.02
G1 X91.695 Y115.643 E0.02
G1 X92.294 Y115.603 E0.02
G1 X92.894 Y115.609 E0.02
G1 X93.493 Y115.665 E0.02
G1 X94.083 Y115.769 E0.02
G1 X94.665 Y115.921 E0.02
G1 X95.085 Y116.068 E0.014
G1 X98.371 Y116.721 E0.112
G1 X102.916 Y117.655 E0.154
G1 X105.007 Y118.04 E0.071
G1 X106.395 Y118.245 E0.046
G1 X108.181 Y118.458 E0.06
G1 X110.688 Y118.572 E0.084
;rapid-leaky
G0 X110.676 Y118.971 F7200
;bead-skirt/brim
G1 X113.505 Y119.015 F960 E0.094
G1 Y126.984 E0.265
G1 X110.688 Y127.029 E0.094
G1 X108.005 Y127.15 E0.089
G1 X106.365 Y127.355 E0.055
G1 X104.955 Y127.564 E0.047
G1 X102.894 Y127.943 E0.07
G1 X98.291 Y128.888 E0.156
G1 X94.98 Y129.545 E0.113
G1 X94.548 Y129.696 E0.015
G1 X93.998 Y129.84 E0.019
G1 X93.44 Y129.938 E0.019
G1 X92.874 Y129.991 E0.018
G1 X92.305 Y129.998 E0.019
G1 X91.738 Y129.959 E0.019
G1 X91.178 Y129.874 E0.019
G1 X90.624 Y129.744 E0.019
G1 X90.078 Y129.567 E0.019
G1 X89.472 Y129.307 E0.022
G1 X89.053 Y129.09 E0.016
G1 X88.571 Y128.791 E0.019
G1 X88.115 Y128.454 E0.019
G1 X87.686 Y128.079 E0.018
G1 X87.286 Y127.667 E0.02
G1 X86.873 Y127.154 E0.021
G1 X86.604 Y126.767 E0.016
G1 X86.319 Y126.277 E0.019
G1 X86.073 Y125.765 E0.019
G1 X85.869 Y125.233 E0.019
G1 X85.711 Y124.688 E0.019
G1 X85.596 Y124.132 E0.019
G1 X85.528 Y123.568 E0.019
G1 X85.504 Y123 E0.018
G1 X85.528 Y122.433 E0.019
G1 X85.596 Y121.869 E0.019
G1 X85.711 Y121.312 E0.019
G1 X85.869 Y120.767 E0.019
G1 X86.073 Y120.235 E0.019
G1 X86.319 Y119.723 E0.019
G1 X86.604 Y119.233 E0.019
G1 X86.929 Y118.767 E0.019
G1 X87.29 Y118.328 E0.018
G1 X87.687 Y117.921 E0.019
G1 X88.115 Y117.547 E0.019
G1 X88.57 Y117.209 E0.019
G1 X89.054 Y116.909 E0.019
G1 X89.559 Y116.649 E0.019
G1 X90.084 Y116.432 E0.019
G1 X90.623 Y116.257 E0.019
G1 X91.177 Y116.126 E0.019
G1 X91.739 Y116.041 E0.019
G1 X92.305 Y116.003 E0.018
G1 X92.873 Y116.008 E0.019
G1 X93.44 Y116.062 E0.019
G1 X93.998 Y116.16 E0.019
G1 X94.548 Y116.304 E0.019
G1 X94.98 Y116.455 E0.015
G1 X98.292 Y117.113 E0.113
G1 X102.839 Y118.047 E0.154
G1 X104.942 Y118.434 E0.071
G1 X106.341 Y118.642 E0.047
G1 X108.005 Y118.84 E0.056
G1 Y118.851
G1 X110.676 Y118.971 E0.089
;rapid-leaky
G0 X110.664 Y119.371 F7200
;bead-skirt/brim
G1 X113.105 Y119.409 F960 E0.081
G1 Y126.591 E0.239
G1 X110.675 Y126.629 E0.081
G1 X108.405 Y126.732 E0.076
G1 Y124.528 E0.073
G1 X107.605 E0.026
G1 Y126.805 E0.076
G1 X106.312 Y126.959 E0.044
G1 X104.889 Y127.169 E0.047
G1 X102.818 Y127.55 E0.07
G1 X98.212 Y128.496 E0.157
G1 X94.874 Y129.158 E0.113
G1 X94.431 Y129.313 E0.016
G1 X93.913 Y129.449 E0.017
G1 X93.386 Y129.541 E0.018
G1 X92.853 Y129.592 E0.018
G1 X92.317 Y129.598 E0.018
G1 X91.782 Y129.561 E0.018
G1 X91.253 Y129.481 E0.017
G1 X90.732 Y129.358 E0.018
G1 X90.219 Y129.192 E0.018
G1 X89.643 Y128.945 E0.021
G1 X89.251 Y128.742 E0.015
G1 X88.796 Y128.46 E0.018
G1 X88.366 Y128.142 E0.017
G1 X87.962 Y127.789 E0.018
G1 X87.586 Y127.402 E0.018
G1 X87.193 Y126.914 E0.021
G1 X86.942 Y126.552 E0.015
G1 X86.673 Y126.089 E0.017
G1 X86.44 Y125.607 E0.018
G1 X86.249 Y125.105 E0.018
G1 X86.099 Y124.591 E0.018
G1 X85.991 Y124.067 E0.018
G1 X85.927 Y123.536 E0.017
G1 X85.905 Y123 E0.018
G1 X85.926 Y122.465 E0.018
G1 X85.991 Y121.933 E0.018
G1 X86.099 Y121.409 E0.018
G1 X86.249 Y120.895 E0.018
G1 X86.44 Y120.393 E0.017
G1 X86.673 Y119.911 E0.018
G1 X86.942 Y119.448 E0.018
G1 X87.248 Y119.009 E0.018
G1 X87.589 Y118.595 E0.018
G1 X87.962 Y118.211 E0.017
G1 X88.366 Y117.859 E0.018
G1 X88.795 Y117.54 E0.018
G1 X89.251 Y117.258 E0.018
G1 X89.728 Y117.012 E0.018
G1 X90.223 Y116.807 E0.018
G1 X90.731 Y116.643 E0.017
G1 X91.253 Y116.519 E0.018
G1 X91.783 Y116.439 E0.018
G1 X92.317 Y116.403 E0.018
G1 X92.852 Y116.408 E0.018
G1 X93.386 Y116.459 E0.017
G1 X93.913 Y116.551 E0.018
G1 X94.431 Y116.687 E0.018
G1 X94.874 Y116.842 E0.016
G1 X98.213 Y117.505 E0.113
G1 X102.763 Y118.44 E0.154
G1 X104.876 Y118.829 E0.072
G1 X106.288 Y119.038 E0.047
G1 X107.605 Y119.195 E0.044
G1 Y121.472 E0.076
G1 X108.405 E0.027
G1 Y119.269 E0.073
G1 X110.664 Y119.371 E0.075
;rapid-leaky
G0 X110.652 Y119.771 F7200
;bead-skirt/brim
G1 X112.705 Y119.803 F960 E0.069
G1 Y126.197 E0.212
G1 X110.663 Y126.229 E0.068
G1 X108.805 Y126.313 E0.062
G1 Y124.128 E0.073
G1 X107.205 E0.053
G1 Y126.45 E0.077
G1 X106.259 Y126.562 E0.032
G1 X104.824 Y126.774 E0.048
G1 X102.741 Y127.157 E0.07
G1 X98.133 Y128.104 E0.157
G1 X94.769 Y128.771 E0.114
G1 X94.314 Y128.93 E0.016
G1 X93.828 Y129.058 E0.017
G1 X93.333 Y129.144 E0.016
G1 X92.832 Y129.192 E0.017
G1 X92.328 Y129.198 E0.017
G1 X91.826 Y129.163 E0.017
G1 X91.329 Y129.088 E0.016
G1 X90.839 Y128.973 E0.017
G1 X90.36 Y128.817 E0.017
G1 X89.813 Y128.583 E0.02
G1 X89.448 Y128.394 E0.013
G1 X89.021 Y128.129 E0.017
G1 X88.617 Y127.83 E0.017
G1 X88.237 Y127.498 E0.017
G1 X87.886 Y127.137 E0.016
G1 X87.514 Y126.674 E0.02
G1 X87.279 Y126.337 E0.014
G1 X87.026 Y125.902 E0.016
G1 X86.808 Y125.448 E0.017
G1 X86.628 Y124.978 E0.017
G1 X86.488 Y124.495 E0.017
G1 X86.386 Y124.002 E0.016
G1 X86.326 Y123.503 E0.017
G1 X86.305 Y123 E0.017
G1 X86.326 Y122.498 E0.017
G1 X86.386 Y121.998 E0.016
G1 X86.488 Y121.505 E0.017
G1 X86.628 Y121.022 E0.017
G1 X86.808 Y120.552 E0.017
G1 X87.026 Y120.098 E0.016
G1 X87.279 Y119.663 E0.017
G1 X87.567 Y119.251 E0.017
G1 X87.887 Y118.862 E0.017
G1 X88.237 Y118.502 E0.016
G1 X88.617 Y118.171 E0.017
G1 X89.02 Y117.871 E0.017
G1 X89.448 Y117.606 E0.016
G1 X89.896 Y117.375 E0.017
G1 X90.361 Y117.183 E0.017
G1 X90.839 Y117.028 E0.017
G1 X91.329 Y116.912 E0.016
G1 X91.826 Y116.837 E0.017
G1 X92.328 Y116.803 E0.017
G1 X92.831 Y116.808 E0.017
G1 X93.333 Y116.856 E0.016
G1 X93.828 Y116.942 E0.017
G1 X94.314 Y117.07 E0.017
G1 X94.769 Y117.229 E0.016
G1 X98.133 Y117.897 E0.114
G1 X102.686 Y118.833 E0.154
G1 X104.811 Y119.224 E0.072
G1 X106.235 Y119.435 E0.048
G1 X107.205 Y119.55 E0.033
G1 Y121.872 E0.077
G1 X108.805 E0.053
G1 Y119.688 E0.073
G1 X110.652 Y119.771 E0.061
;rapid-leaky
G0 X114.353 Y129.771 F7200
;bead-skirt/brim
G1 X110.773 Y129.828 F960 E0.119
G1 X108.363 Y129.937 E0.081
G1 X106.736 Y130.131 E0.054
G1 X105.413 Y130.326 E0.045
G1 X103.429 Y130.691 E0.067
G1 X98.845 Y131.633 E0.155
G1 X95.718 Y132.253 E0.106
G1 X95.366 Y132.377 E0.013
G1 X94.595 Y132.578 E0.026
G1 X93.814 Y132.715 E0.027
G1 X93.024 Y132.79 E0.026
G1 X92.225 Y132.8 E0.027
G1 X91.43 Y132.744 E0.026
G1 X90.648 Y132.625 E0.026
G1 X89.872 Y132.444 E0.027
G1 X89.092 Y132.191 E0.027
G1 X88.275 Y131.84 E0.03
G1 X87.669 Y131.527 E0.022
G1 X86.998 Y131.11 E0.027
G1 X86.358 Y130.637 E0.026
G1 X85.757 Y130.112 E0.027
G1 X85.186 Y129.524 E0.027
G1 X84.63 Y128.832 E0.03
G1 X84.241 Y128.273 E0.022
G1 X83.843 Y127.59 E0.027
G1 X83.499 Y126.873 E0.026
G1 X83.213 Y126.126 E0.027
G1 X82.991 Y125.362 E0.026
G1 X82.831 Y124.584 E0.026
G1 X82.734 Y123.796 E0.027
G1 X82.702 Y123 E0.026
G1 X82.734 Y122.205 E0.027
G1 X82.831 Y121.417 E0.026
G1 X82.991 Y120.638 E0.027
G1 X83.213 Y119.874 E0.026
G1 X83.499 Y119.127 E0.027
G1 X83.843 Y118.41 E0.026
G1 X84.242 Y117.726 E0.027
G1 X84.696 Y117.073 E0.026
G1 X85.202 Y116.459 E0.026
G1 X85.759 Y115.886 E0.027
G1 X86.358 Y115.364 E0.026
G1 X86.995 Y114.891 E0.027
G1 X87.241 Y114.739 E0.009
G1 X86.542 Y114.268 E0.028
G1 X85.339 Y113.076 E0.057
G1 X84.329 Y111.714 E0.056
G1 X83.329 Y109.652 E0.076
G1 X82.889 Y108.02 E0.057
G1 X82.707 Y106.407 E0.054
G1 X82.77 Y104.711 E0.056
G1 X83.298 Y102.412 E0.079
G1 X84.329 Y100.284 E0.078
G1 X85.339 Y98.924 E0.057
G1 X86.541 Y97.732 E0.056
G1 X87.615 Y97.008 E0.043
G1 X87.093 Y96.703 E0.02
G1 X85.776 Y95.557 E0.058
G1 X84.368 Y93.779 E0.076
G1 X83.591 Y92.295 E0.055
G1 X83.041 Y90.714 E0.056
G1 X82.694 Y88.401 E0.078
G1 X82.868 Y86.07 E0.077
G1 X83.298 Y84.454 E0.056
G1 X83.965 Y82.915 E0.056
G1 X85.275 Y80.98 E0.078
G1 X86.982 Y79.381 E0.077
G1 X88.395 Y78.483 E0.056
G1 X89.925 Y77.802 E0.056
G1 X92.128 Y77.281 E0.075
G1 X93.804 Y77.204 E0.056
G1 X95.472 Y77.375 E0.056
G1 X97.116 Y77.863 E0.057
G1 X99.651 Y78.337 E0.085
G1 X103.718 Y79.011 E0.138
G1 X107.754 Y79.577 E0.135
G1 X114.522 Y80.282 E0.226
G1 X119.897 Y80.606 E0.179
G1 X125.283 Y80.709 E0.18
G1 X129.295 Y80.637 E0.133
G1 X134.686 Y80.344 E0.18
G1 X140.807 Y79.77 E0.204
G1 X143.829 Y79.37 E0.102
G1 X146.977 Y78.893 E0.105
G1 X149 Y78.562 E0.069
G1 X151.023 Y78.205 E0.068
G1 X152.742 Y77.88 E0.058
G1 X153.048 Y77.764 E0.011
G1 X153.813 Y77.537 E0.027
G1 X154.599 Y77.366 E0.026
G1 X155.397 Y77.254 E0.027
G1 X156.193 Y77.202 E0.027
G1 X156.998 Y77.208 E0.026
;rapid-leaky
G0 F7200
;bead-skirt/brim
G1 X157.799 Y77.276 F960 E0.027
G1 X158.59 Y77.401 E0.027
G1 X159.375 Y77.587 E0.027
G1 X160.142 Y77.829 E0.026
G1 X160.889 Y78.129 E0.027
G1 X161.613 Y78.484 E0.027
G1 X162.339 Y78.912 E0.028
G1 X162.965 Y79.345 E0.025
G1 X163.586 Y79.847 E0.027
G1 X164.172 Y80.394 E0.027
G1 X164.718 Y80.988 E0.026
G1 X165.215 Y81.618 E0.027
G1 X165.664 Y82.28 E0.027
G1 X166.064 Y82.977 E0.026
G1 X166.412 Y83.704 E0.027
G1 X166.704 Y84.454 E0.027
G1 X166.939 Y85.221 E0.027
G1 X167.116 Y86.001 E0.026
G1 X167.236 Y86.797 E0.027
G1 X167.295 Y87.601 E0.027
G1 Y88.399 E0.026
G1 X167.236 Y89.203 E0.027
G1 X167.115 Y90 E0.027
G1 X166.939 Y90.777 E0.027
G1 X166.705 Y91.545 E0.026
G1 X166.411 Y92.298 E0.027
G1 X166.064 Y93.022 E0.027
G1 X165.665 Y93.718 E0.027
G1 X165.214 Y94.384 E0.026
G1 X164.717 Y95.012 E0.027
G1 X164.174 Y95.603 E0.027
G1 X163.588 Y96.152 E0.026
G1 X162.962 Y96.657 E0.027
G1 X162.299 Y97.114 E0.027
G1 X161.607 Y97.519 E0.027
G1 X160.886 Y97.872 E0.026
G1 X160.142 Y98.169 E0.027
G1 X159.375 Y98.414 E0.027
G1 X158.591 Y98.598 E0.026
G1 X157.799 Y98.724 E0.027
G1 X156.998 Y98.79 E0.027
G1 X156.197 Y98.798 E0.026
G1 X155.397 Y98.746 E0.027
G1 X154.599 Y98.634 E0.027
G1 X153.813 Y98.463 E0.027
G1 X153.044 Y98.235 E0.026
G1 X152.739 Y98.119 E0.011
G1 X151.024 Y97.795 E0.058
G1 X148.999 Y97.438 E0.069
G1 X146.977 Y97.107 E0.068
G1 X144.282 Y96.699 E0.09
G1 X140.913 Y96.24 E0.114
G1 X134.686 Y95.656 E0.208
G1 X129.305 Y95.364 E0.179
G1 X123.919 Y95.295 E0.179
G1 X119.907 Y95.392 E0.133
G1 X114.523 Y95.717 E0.18
G1 X107.754 Y96.423 E0.226
G1 X103.718 Y96.989 E0.136
G1 X102.55 Y97.182 E0.039
G1 X104.479 Y97.536 E0.065
G1 X108.345 Y98.102 E0.13
G1 X112.19 Y98.491 E0.129
G1 X116.027 Y98.695 E0.128
G1 X119.866 Y98.711 E0.127
G1 X123.706 Y98.539 E0.128
G1 X128.037 Y98.133 E0.145
G1 X130.46 Y97.809 E0.081
G1 X132.71 Y97.464 E0.076
G1 X134.689 E0.066
G1 X135.522 Y97.039 E0.031
G1 X136.265 Y96.746 E0.026
G1 X137.023 Y96.515 E0.027
G1 X137.803 Y96.344 E0.026
G1 X138.602 Y96.238 E0.027
G1 X139.429 Y96.198 E0.028
G1 X140.178 Y96.22 E0.025
G1 X140.97 Y96.307 E0.026
G1 X141.752 Y96.459 E0.027
G1 X142.524 Y96.675 E0.026
G1 X143.303 Y96.966 E0.028
G1 X143.986 Y97.283 E0.025
G1 X144.677 Y97.675 E0.026
G1 X145.334 Y98.122 E0.027
G1 X145.953 Y98.62 E0.026
G1 X146.531 Y99.168 E0.027
G1 X147.063 Y99.762 E0.026
G1 X147.542 Y100.395 E0.027
G1 X147.969 Y101.063 E0.026
G1 X148.343 Y101.768 E0.026
G1 X148.661 Y102.51 E0.027
G1 X148.921 Y103.296 E0.028
G1 X149.102 Y104.022 E0.025
G1 X149.231 Y104.809 E0.026
G1 X149.295 Y105.603 E0.027
G1 Y106.396 E0.026
G1 X149.231 Y107.189 E0.027
G1 X149.101 Y107.979 E0.026
G1 X148.909 Y108.748 E0.027
G1 X148.657 Y109.499 E0.026
G1 X148.342 Y110.233 E0.027
G1 X147.969 Y110.936 E0.026
G1 X147.537 Y111.613 E0.027
G1 X147.032 Y112.272 E0.027
G1 X146.531 Y112.831 E0.025
G1 X145.953 Y113.379 E0.027
G1 X145.334 Y113.877 E0.026
G1 X144.677 Y114.324 E0.027
G1 X143.985 Y114.717 E0.026
G1 X143.26 Y115.053 E0.027
G1 X142.515 Y115.327 E0.026
G1 X141.752 Y115.54 E0.026
G1 X140.97 Y115.692 E0.027
G1 X140.178 Y115.779 E0.026
G1 X139.386 Y115.802 E0.027
G1 X138.591 Y115.761 E0.026
G1 X137.799 Y115.654 E0.027
G1 X137.023 Y115.484 E0.026
G1 X136.265 Y115.253 E0.027
G1 X135.525 Y114.961 E0.026
G1 X134.687 Y114.535 E0.031
G1 X132.71 E0.066
G1 X130.452 Y114.188 E0.076
G1 X128.558 Y113.927 E0.064
G1 X123.701 Y113.46 E0.162
G1 X119.866 Y113.289 E0.128
G1 X116.026 Y113.304 E0.127
G1 X112.191 Y113.508 E0.128
G1 X108.345 Y113.897 E0.129
G1 X104.48 Y114.463 E0.13
G1 X101.748 Y114.965 E0.092
G1 X103.375 Y115.299 E0.055
G1 X105.401 Y115.672 E0.069
G1 X106.713 Y115.866 E0.044
G1 X108.377 Y116.065 E0.056
G1 X110.761 Y116.172 E0.079
G1 X116.305 Y116.259 E0.184
G1 Y128.809 E0.418
;rapid-leaky
G0 X115.905 Y129.006 F7200
;bead-skirt/brim
G1 Y116.653 F960 E0.411
G1 X110.749 Y116.572 E0.171
G1 X108.345 Y116.464 E0.08
G1 X106.66 Y116.263 E0.057
G1 X105.335 Y116.066 E0.044
G1 X103.298 Y115.692 E0.069
G1 X99.806 Y114.974 E0.119
G1 X101.52 Y114.6 E0.058
G1 X104.415 Y114.068 E0.098
G1 X108.296 Y113.5 E0.13
G1 X112.16 Y113.109 E0.13
G1 X116.015 Y112.904 E0.128
G1 X119.874 Y112.889 E0.128
G1 X123.729 Y113.061 E0.129
G1 X128.605 Y113.53 E0.163
G1 X130.51 Y113.793 E0.064
G1 X132.741 Y114.135 E0.075
G1 X134.798 E0.068
G1 X135 Y114.256 E0.008
G1 X135.687 Y114.595 E0.025
G1 X136.397 Y114.875 E0.026
G1 X137.124 Y115.097 E0.025
G1 X137.869 Y115.26 E0.025
G1 X138.628 Y115.362 E0.026
G1 X139.39 Y115.402 E0.025
G1 X140.151 Y115.38 E0.026
G1 X140.91 Y115.296 E0.025
G1 X141.66 Y115.15 E0.025
G1 X142.392 Y114.946 E0.026
G1 X143.107 Y114.683 E0.025
G1 X143.802 Y114.361 E0.025
G1 X144.466 Y113.984 E0.026
G1 X145.096 Y113.556 E0.025
G1 X145.69 Y113.078 E0.026
G1 X146.243 Y112.552 E0.025
G1 X146.723 Y112.017 E0.024
G1 X147.209 Y111.383 E0.026
G1 X147.623 Y110.735 E0.026
G1 X147.981 Y110.06 E0.025
G1 X148.283 Y109.357 E0.026
G1 X148.525 Y108.636 E0.025
G1 X148.709 Y107.898 E0.025
G1 X148.834 Y107.14 E0.026
G1 X148.895 Y106.379 E0.025
G1 Y105.619 E0.026
G1 X148.834 Y104.858 E0.025
G1 X148.71 Y104.103 E0.025
G1 X148.536 Y103.407 E0.024
G1 X148.286 Y102.652 E0.027
G1 X147.982 Y101.94 E0.026
G1 X147.623 Y101.264 E0.025
G1 X147.214 Y100.624 E0.025
G1 X146.754 Y100.017 E0.026
G1 X146.244 Y99.447 E0.025
G1 X145.69 Y98.921 E0.025
G1 X145.096 Y98.443 E0.026
G1 X144.466 Y98.015 E0.025
G1 X143.803 Y97.639 E0.025
G1 X143.149 Y97.335 E0.024
G1 X142.4 Y97.055 E0.027
G1 X141.66 Y96.849 E0.026
G1 X140.91 Y96.703 E0.025
G1 X140.151 Y96.619 E0.025
G1 X139.433 Y96.599 E0.024
G1 X138.638 Y96.637 E0.027
G1 X137.872 Y96.738 E0.025
G1 X137.124 Y96.902 E0.026
G1 X136.397 Y97.124 E0.025
G1 X135.684 Y97.405 E0.026
G1 X135.002 Y97.743 E0.025
G1 X134.799 Y97.864 E0.008
G1 X132.741 E0.068
G1 X130.517 Y98.205 E0.075
G1 X128.082 Y98.53 E0.082
G1 X123.733 Y98.938 E0.145
G1 X119.874 Y99.111 E0.129
G1 X116.015 Y99.095 E0.128
G1 X112.16 Y98.89 E0.128
G1 X108.296 Y98.499 E0.13
G1 X104.414 Y97.931 E0.13
G1 X101.52 Y97.4 E0.098
G1 X100.343 Y97.143 E0.04
G1 X103.658 Y96.593 E0.112
G1 X107.705 Y96.025 E0.136
G1 X114.49 Y95.318 E0.227
G1 X119.89 Y94.993 E0.179
G1 X123.917 Y94.895 E0.134
G1 X129.319 Y94.964 E0.18
G1 X134.716 Y95.257 E0.18
G1 X140.959 Y95.843 E0.208
G1 X144.339 Y96.303 E0.114
G1 X147.04 Y96.712 E0.091
G1 X149.067 Y97.044 E0.068
G1 X151.096 Y97.402 E0.069
G1 X152.848 Y97.732 E0.059
G1 X153.172 Y97.856 E0.011
G1 X153.913 Y98.075 E0.026
G1 X154.669 Y98.24 E0.026
G1 X155.438 Y98.348 E0.026
G1 X156.208 Y98.398 E0.025
G1 X156.98 Y98.391 E0.026
G1 X157.751 Y98.327 E0.026
G1 X158.513 Y98.205 E0.025
G1 X159.269 Y98.028 E0.026
G1 X160.007 Y97.793 E0.026
G1 X160.723 Y97.506 E0.026
G1 X161.417 Y97.166 E0.025
G1 X162.084 Y96.776 E0.026
G1 X162.723 Y96.336 E0.026
G1 X163.325 Y95.85 E0.026
G1 X163.889 Y95.321 E0.025
G1 X164.412 Y94.753 E0.026
G1 X164.891 Y94.147 E0.026
G1 X165.325 Y93.506 E0.025
G1 X165.71 Y92.836 E0.026
G1 X166.044 Y92.138 E0.026
G1 X166.326 Y91.414 E0.026
G1 X166.552 Y90.675 E0.026
G1 X166.722 Y89.925 E0.025
G1 X166.838 Y89.158 E0.026
G1 X166.895 Y88.384 E0.026
G1 Y87.616 E0.025
G1 X166.838 Y86.842 E0.026
G1 X166.722 Y86.075 E0.026
G1 X166.552 Y85.324 E0.025
G1 X166.326 Y84.585 E0.026
G1 X166.045 Y83.863 E0.026
G1 X165.71 Y83.163 E0.026
G1 X165.325 Y82.492 E0.025
G1 X164.892 Y81.854 E0.026
G1 X164.413 Y81.248 E0.026
G1 X163.888 Y80.676 E0.026
G1 X163.323 Y80.149 E0.025
G1 X162.725 Y79.666 E0.026
G1 X162.124 Y79.25 E0.024
G1 X161.423 Y78.837 E0.027
G1 X160.726 Y78.495 E0.026
G1 X160.007 Y78.206 E0.026
G1 X159.269 Y77.972 E0.026
G1 X158.513 Y77.794 E0.025
G1 X157.751 Y77.673 E0.026
G1 X156.98 Y77.608 E0.026
;rapid-leaky
G0 F7200
;bead-skirt/brim
G1 X156.205 Y77.602 F960 E0.026
G1 X155.438 Y77.652 E0.025
G1 X154.669 Y77.76 E0.026
G1 X153.913 Y77.925 E0.026
G1 X153.175 Y78.144 E0.025
G1 X152.85 Y78.266 E0.012
G1 X151.095 Y78.598 E0.059
G1 X149.067 Y78.956 E0.069
G1 X147.04 Y79.288 E0.068
G1 X143.885 Y79.766 E0.106
G1 X140.851 Y80.167 E0.102
G1 X134.716 Y80.743 E0.205
G1 X129.31 Y81.037 E0.18
G1 X125.283 Y81.109 E0.134
G1 X119.881 Y81.006 E0.18
G1 X114.489 Y80.681 E0.179
G1 X107.705 Y79.975 E0.227
G1 X103.658 Y79.407 E0.136
G1 X99.582 Y78.731 E0.138
G1 X97.022 Y78.252 E0.086
G1 X95.394 Y77.769 E0.057
G1 X93.793 Y77.605 E0.053
G1 X92.184 Y77.679 E0.054
G1 X90.054 Y78.182 E0.073
G1 X88.585 Y78.836 E0.053
G1 X87.229 Y79.698 E0.054
G1 X85.581 Y81.242 E0.075
G1 X84.317 Y83.108 E0.075
G1 X83.676 Y84.586 E0.053
G1 X83.264 Y86.137 E0.054
G1 X83.096 Y88.386 E0.075
G1 X83.431 Y90.617 E0.075
G1 X83.96 Y92.136 E0.053
G1 X84.705 Y93.56 E0.054
G1 X86.067 Y95.279 E0.072
G1 X87.328 Y96.376 E0.056
G1 X88.366 Y96.984 E0.04
G1 X86.796 Y98.042 E0.063
G1 X85.642 Y99.187 E0.054
G1 X84.673 Y100.492 E0.054
G1 X83.677 Y102.546 E0.076
G1 X83.168 Y104.764 E0.076
G1 X83.108 Y106.391 E0.054
G1 X83.283 Y107.945 E0.052
G1 X83.706 Y109.512 E0.054
G1 X84.673 Y111.506 E0.074
G1 X85.642 Y112.813 E0.054
G1 X86.797 Y113.957 E0.054
G1 X87.986 Y114.759 E0.048
G1 X87.22 Y115.222 E0.029
G1 X86.609 Y115.676 E0.026
G1 X86.034 Y116.177 E0.025
G1 X85.501 Y116.726 E0.025
G1 X85.015 Y117.315 E0.026
G1 X84.579 Y117.941 E0.025
G1 X84.197 Y118.598 E0.026
G1 X83.867 Y119.285 E0.025
G1 X83.593 Y120.002 E0.025
G1 X83.379 Y120.734 E0.026
G1 X83.226 Y121.481 E0.025
G1 X83.133 Y122.238 E0.025
G1 X83.102 Y123 E0.026
G1 X83.133 Y123.763 E0.025
G1 X83.226 Y124.519 E0.026
G1 X83.379 Y125.266 E0.025
G1 X83.593 Y125.998 E0.025
G1 X83.867 Y126.715 E0.026
G1 X84.197 Y127.402 E0.025
G1 X84.578 Y128.058 E0.025
G1 X84.95 Y128.593 E0.022
G1 X85.486 Y129.259 E0.029
G1 X86.033 Y129.821 E0.026
G1 X86.609 Y130.325 E0.025
G1 X87.223 Y130.779 E0.025
G1 X87.867 Y131.179 E0.026
G1 X88.446 Y131.478 E0.021
G1 X89.233 Y131.816 E0.029
G1 X89.98 Y132.058 E0.026
G1 X90.723 Y132.232 E0.025
G1 X91.474 Y132.346 E0.026
G1 X92.236 Y132.399 E0.025
G1 X93.003 Y132.39 E0.026
G1 X93.761 Y132.318 E0.025
G1 X94.509 Y132.187 E0.025
G1 X95.249 Y131.994 E0.026
G1 X95.613 Y131.866 E0.012
G1 X98.766 Y131.241 E0.107
G1 X103.353 Y130.299 E0.156
G1 X105.347 Y129.932 E0.067
G1 X106.683 Y129.734 E0.045
G1 X108.33 Y129.538 E0.056
G1 X110.761 Y129.428 E0.08
G1 X115.191 Y129.358 E0.148
G1 F2100 E-0.5
;rapid-dry
G0 X112.305 Y120.198 F7200
G1 F2100 E0.5
;bead-perimeter_outer
G1 Y125.801 F720 E0.186
G1 X110.651 Y125.829 E0.055
G1 X109.205 Y125.893 E0.048
G1 Y123.728 E0.072
G1 X106.805 E0.08
G1 Y126.094 E0.079
G1 X105.481 Y126.266 E0.044
G1 X104.758 Y126.38 E0.025
G1 X102.664 Y126.765 E0.07
G1 X98.053 Y127.712 E0.157
G1 X94.663 Y128.385 E0.115
G1 X94.198 Y128.548 E0.016
G1 X93.742 Y128.666 E0.016
G1 X93.279 Y128.748 E0.016
G1 X92.81 Y128.792 E0.015
G1 X92.34 Y128.798 E0.016
G1 X91.87 Y128.765 E0.016
G1 X91.405 Y128.694 E0.015
G1 X90.947 Y128.587 E0.016
G1 X90.499 Y128.442 E0.016
G1 X89.99 Y128.224 E0.018
G1 X89.646 Y128.046 E0.013
G1 X89.245 Y127.797 E0.016
G1 X88.867 Y127.518 E0.015
G1 X88.513 Y127.208 E0.016
G1 X88.185 Y126.87 E0.016
G1 X87.838 Y126.439 E0.018
G1 X87.617 Y126.121 E0.013
G1 X87.38 Y125.714 E0.016
G1 X87.176 Y125.29 E0.015
G1 X87.008 Y124.85 E0.016
G1 X86.876 Y124.399 E0.015
G1 X86.782 Y123.938 E0.016
G1 X86.724 Y123.47 E0.016
G1 X86.705 Y123 E0.015
G1 X86.725 Y122.53 E0.016
G1 X86.782 Y122.062 E0.016
G1 X86.876 Y121.601 E0.015
G1 X87.008 Y121.15 E0.016
G1 X87.176 Y120.71 E0.016
G1 X87.38 Y120.286 E0.015
G1 X87.617 Y119.879 E0.016
G1 X87.885 Y119.493 E0.016
G1 X88.185 Y119.13 E0.015
G1 X88.513 Y118.792 E0.016
G1 X88.868 Y118.483 E0.016
G1 X89.245 Y118.203 E0.015
G1 X89.646 Y117.954 E0.016
G1 X90.064 Y117.739 E0.016
G1 X90.499 Y117.559 E0.015
G1 X90.947 Y117.414 E0.016
G1 X91.405 Y117.306 E0.016
G1 X91.87 Y117.235 E0.015
G1 X92.34 Y117.203 E0.016
G1 X92.811 Y117.208 E0.016
G1 X93.279 Y117.252 E0.015
G1 X93.742 Y117.334 E0.016
G1 X94.198 Y117.452 E0.015
G1 X94.663 Y117.615 E0.017
G1 X98.054 Y118.289 E0.115
G1 X102.609 Y119.225 E0.155
G1 X104.746 Y119.618 E0.072
G1 X105.441 Y119.728 E0.023
G1 X106.805 Y119.906 E0.046
G1 Y122.272 E0.079
G1 X109.205 E0.079
G1 Y120.108 E0.072
G1 X110.64 Y120.171 E0.048
G1 X112.305 Y120.198 E0.056
;rapid-leaky
G0 X111.945 Y120.555 F7200
;bead-perimeter_inner
G1 Y125.444 F960 E0.162
G1 X110.641 Y125.469 E0.044
G1 X109.565 Y125.513 E0.035
G1 Y123.368 E0.072
G1 X106.445 E0.104
G1 Y125.775 E0.08
G1 X105.428 Y125.91 E0.034
G1 X104.7 Y126.024 E0.024
G1 X102.594 Y126.412 E0.071
G1 X97.982 Y127.359 E0.157
G1 X94.568 Y128.036 E0.116
G1 X94.092 Y128.203 E0.017
G1 X93.666 Y128.314 E0.014
G1 X93.231 Y128.391 E0.015
G1 X92.791 Y128.432 E0.015
G1 X92.35 Y128.438 E0.014
G1 X91.91 Y128.407 E0.015
G1 X91.473 Y128.341 E0.015
G1 X91.043 Y128.24 E0.014
G1 X90.624 Y128.104 E0.015
G1 X90.154 Y127.904 E0.017
G1 X89.824 Y127.733 E0.012
G1 X89.448 Y127.499 E0.015
G1 X89.093 Y127.237 E0.015
G1 X88.761 Y126.946 E0.014
G1 X88.454 Y126.63 E0.015
G1 X88.133 Y126.233 E0.017
G1 X87.921 Y125.928 E0.012
G1 X87.698 Y125.545 E0.015
G1 X87.507 Y125.147 E0.015
G1 X87.349 Y124.735 E0.015
G1 X87.226 Y124.312 E0.014
G1 X87.137 Y123.88 E0.015
G1 X87.084 Y123.441 E0.015
G1 X87.065 Y123 E0.014
G1 X87.084 Y122.559 E0.015
G1 X87.137 Y122.12 E0.015
G1 X87.226 Y121.688 E0.014
G1 X87.349 Y121.265 E0.015
G1 X87.507 Y120.853 E0.015
G1 X87.698 Y120.455 E0.014
G1 X87.921 Y120.072 E0.015
G1 X88.173 Y119.711 E0.015
G1 X88.454 Y119.37 E0.014
G1 X88.761 Y119.054 E0.015
G1 X89.093 Y118.764 E0.015
G1 X89.448 Y118.501 E0.014
G1 X89.823 Y118.268 E0.015
G1 X90.216 Y118.066 E0.015
G1 X90.624 Y117.897 E0.014
G1 X91.044 Y117.761 E0.015
G1 X91.474 Y117.659 E0.015
G1 X91.909 Y117.593 E0.015
G1 X92.35 Y117.563 E0.014
G1 X92.792 Y117.568 E0.015
G1 X93.231 Y117.609 E0.015
G1 X93.666 Y117.686 E0.014
G1 X94.092 Y117.797 E0.015
G1 X94.568 Y117.964 E0.017
G1 X97.983 Y118.642 E0.116
G1 X102.539 Y119.578 E0.154
G1 X104.687 Y119.974 E0.073
G1 X105.388 Y120.084 E0.023
G1 X106.445 Y120.225 E0.036
G1 Y122.632 E0.08
G1 X109.565 E0.104
G1 Y120.487 E0.071
G1 X110.629 Y120.531 E0.035
G1 X111.945 Y120.555 E0.044
G1 F2100 E-0.5
;rapid-dry
G0 X96.289 Y121.178 F7200
G1 F2100 E0.5
;bead-perimeter_outer
G1 X96.089 Y120.809 F720 E0.014
G1 X95.846 Y120.456 E0.014
G1 X95.584 Y120.143 E0.014
G1 X95.285 Y119.851 E0.014
G1 X94.957 Y119.589 E0.014
G1 X94.605 Y119.363 E0.014
G1 X94.232 Y119.172 E0.014
G1 X93.843 Y119.018 E0.014
G1 X93.439 Y118.905 E0.014
G1 X93.027 Y118.832 E0.014
G1 X92.61 Y118.801 E0.013
G1 X92.191 Y118.811 E0.014
G1 X91.775 Y118.864 E0.014
G1 X91.368 Y118.957 E0.014
G1 X90.971 Y119.091 E0.014
G1 X90.589 Y119.263 E0.014
G1 X90.226 Y119.472 E0.014
G1 X89.886 Y119.716 E0.014
G1 X89.572 Y119.994 E0.014
G1 X89.288 Y120.3 E0.014
G1 X89.035 Y120.634 E0.014
G1 X88.816 Y120.991 E0.014
G1 X88.634 Y121.368 E0.014
G1 X88.492 Y121.762 E0.014
G1 X88.388 Y122.169 E0.013
G1 X88.326 Y122.592 E0.015
G1 X88.305 Y123.01 E0.014
G1 X88.327 Y123.428 E0.014
G1 X88.39 Y123.843 E0.014
G1 X88.492 Y124.238 E0.013
G1 X88.634 Y124.632 E0.014
G1 X88.816 Y125.009 E0.014
G1 X89.035 Y125.366 E0.014
G1 X89.288 Y125.7 E0.014
G1 X89.579 Y126.014 E0.014
G1 X89.886 Y126.285 E0.014
G1 X90.226 Y126.528 E0.014
G1 X90.589 Y126.738 E0.013
G1 X90.971 Y126.91 E0.014
G1 X91.368 Y127.044 E0.014
G1 X91.775 Y127.136 E0.014
G1 X92.191 Y127.189 E0.014
G1 X92.61 Y127.199 E0.014
G1 X93.027 Y127.168 E0.014
G1 X93.439 Y127.095 E0.014
G1 X93.843 Y126.982 E0.014
G1 X94.242 Y126.824 E0.014
G1 X94.605 Y126.637 E0.014
G1 X94.957 Y126.411 E0.014
G1 X95.285 Y126.149 E0.014
G1 X95.584 Y125.857 E0.014
G1 X95.853 Y125.536 E0.013
G1 X96.089 Y125.191 E0.014
G1 X96.289 Y124.823 E0.014
G1 X96.452 Y124.436 E0.014
G1 X96.575 Y124.036 E0.014
G1 X96.658 Y123.626 E0.014
G1 X96.7 Y123.21 E0.014
G1 Y122.791 E0.014
G1 X96.658 Y122.374 E0.014
G1 X96.575 Y121.964 E0.014
G1 X96.452 Y121.564 E0.014
G1 X96.289 Y121.178 E0.014
;rapid-leaky
G0 X96.614 Y121.022 F7200
;bead-perimeter_inner
G1 X96.396 Y120.621 F960 E0.015
G1 X96.134 Y120.238 E0.015
G1 X95.848 Y119.898 E0.015
G1 X95.523 Y119.581 E0.015
G1 X95.167 Y119.297 E0.015
G1 X94.785 Y119.05 E0.015
G1 X94.381 Y118.843 E0.016
G1 X93.958 Y118.677 E0.015
G1 X93.52 Y118.553 E0.015
G1 X93.072 Y118.475 E0.015
G1 X92.619 Y118.44 E0.015
G1 X92.164 Y118.452 E0.015
G1 X91.712 Y118.509 E0.015
G1 X91.27 Y118.61 E0.015
G1 X90.839 Y118.755 E0.015
G1 X90.424 Y118.942 E0.016
G1 X90.031 Y119.169 E0.015
G1 X89.661 Y119.435 E0.015
G1 X89.32 Y119.736 E0.015
G1 X89.012 Y120.069 E0.015
G1 X88.737 Y120.431 E0.015
G1 X88.5 Y120.819 E0.015
G1 X88.302 Y121.228 E0.015
G1 X88.147 Y121.656 E0.016
G1 X88.034 Y122.098 E0.015
G1 X87.967 Y122.557 E0.015
G1 X87.944 Y123.011 E0.015
G1 X87.968 Y123.465 E0.015
G1 X88.037 Y123.915 E0.016
G1 X88.147 Y124.345 E0.014
G1 X88.302 Y124.772 E0.015
G1 X88.5 Y125.181 E0.016
G1 X88.737 Y125.569 E0.015
G1 X89.011 Y125.931 E0.015
G1 X89.328 Y126.273 E0.015
G1 X89.662 Y126.567 E0.015
G1 X90.031 Y126.831 E0.015
G1 X90.424 Y127.059 E0.015
G1 X90.839 Y127.246 E0.015
G1 X91.271 Y127.391 E0.016
G1 X91.713 Y127.491 E0.015
G1 X92.164 Y127.548 E0.015
G1 X92.619 Y127.56 E0.015
G1 X93.072 Y127.525 E0.015
G1 X93.52 Y127.447 E0.015
G1 X93.958 Y127.323 E0.015
G1 X94.39 Y127.153 E0.016
G1 X94.785 Y126.949 E0.015
G1 X95.167 Y126.703 E0.015
G1 X95.523 Y126.419 E0.015
G1 X95.848 Y126.102 E0.015
G1 X96.14 Y125.754 E0.015
G1 X96.396 Y125.379 E0.015
G1 X96.614 Y124.979 E0.015
G1 X96.791 Y124.559 E0.015
G1 X96.924 Y124.125 E0.016
G1 X97.014 Y123.68 E0.015
G1 X97.06 Y123.228 E0.015
G1 Y122.773 E0.015
G1 X97.014 Y122.32 E0.015
G1 X96.924 Y121.875 E0.015
G1 X96.791 Y121.44 E0.015
G1 X96.614 Y121.022 E0.015
G1 F2100 E-0.5
;rapid-dry
G0 X93.038 Y112.639 F7200
G1 F2100 E0.5
;bead-support
G1 X110.641 Y102.475 F1320 E0.676
G1 X111.873 Y102.6 E0.042
G1 X115.43 Y102.789 E0.118
G1 X114.74 Y103.188 E0.027
G1 X113.67 Y103.191 E0.035
G1 Y103.806 E0.021
G1 X101.528 Y110.816 E0.466
G1 X103.809 Y110.397 E0.077
G1 X107.839 Y109.807 E0.136
G1 X108.772 Y109.713 E0.031
G1 X113.674 Y106.883 E0.188
G1 X113.676 Y108.825 E0.065
G1 X115.653 Y108.819 E0.065
G1 X114.931 Y109.236 E0.028
G1 X115.909 Y109.184 E0.033
G1 X119.95 Y109.169 E0.134
G1 X120.35 Y109.187 E0.013
G1 X128.43 Y104.522 E0.311
G1 Y102.234 E0.076
G1 X126.793 Y102.388 E0.054
G1 X119.328 Y106.698 E0.287
G1 X119.324 Y103.621 E0.103
G1 X120.754 Y102.795 E0.054
G1 F2100 E-0.5
G0 X119.888 Y103.295 F2400
G0 X120.754 Y102.795 F2400
;rapid-leaky
G0 X128.43 Y107.601 F7200
G1 F2100 E0.5
;bead-support
G1 X125.201 Y109.465 F1320 E0.124
G1 F2100 E-0.5
G0 X126.067 Y108.965 F2400
G0 X125.201 Y109.465 F2400
;rapid-dry
G0 X118.152 Y104.298 F7200
G1 F2100 E0.5
;bead-support
G1 X118.48 Y104.108 F1320 E0.013
G1 F2100 E-0.5
G0 X118.152 Y104.298 F2400
G0 X118.48 Y104.108 F2400
;rapid-dry
G0 X142.717 Y103.299 F7200
G1 F2100 E0.5
;bead-perimeter_outer
G1 X142.433 Y102.993 F720 E0.014
G1 X142.119 Y102.715 E0.014
G1 X141.779 Y102.471 E0.014
G1 X141.416 Y102.262 E0.014
G1 X141.034 Y102.09 E0.014
G1 X140.637 Y101.956 E0.014
G1 X140.23 Y101.863 E0.014
G1 X139.814 Y101.811 E0.013
G1 X139.395 Y101.801 E0.014
G1 X138.978 Y101.832 E0.014
G1 X138.566 Y101.905 E0.014
G1 X138.162 Y102.018 E0.014
G1 X137.773 Y102.171 E0.014
G1 X137.4 Y102.362 E0.014
G1 X137.048 Y102.589 E0.014
G1 X136.72 Y102.85 E0.014
G1 X136.421 Y103.143 E0.014
G1 X136.151 Y103.463 E0.014
G1 X135.916 Y103.81 E0.014
G1 X135.716 Y104.177 E0.014
G1 X135.553 Y104.564 E0.014
G1 X135.43 Y104.964 E0.013
G1 X135.347 Y105.373 E0.014
G1 X135.305 Y105.79 E0.014
G1 Y106.209 E0.014
G1 X135.347 Y106.626 E0.014
G1 X135.43 Y107.036 E0.014
G1 X135.553 Y107.436 E0.014
G1 X135.716 Y107.822 E0.014
G1 X135.916 Y108.189 E0.014
G1 X136.151 Y108.536 E0.014
G1 X136.421 Y108.856 E0.014
G1 X136.72 Y109.149 E0.014
G1 X137.048 Y109.41 E0.014
G1 X137.4 Y109.637 E0.013
G1 X137.773 Y109.829 E0.014
G1 X138.162 Y109.981 E0.014
G1 X138.565 Y110.094 E0.014
G1 X138.978 Y110.168 E0.014
G1 X139.395 Y110.198 E0.014
G1 X139.814 Y110.188 E0.014
G1 X140.23 Y110.136 E0.014
G1 X140.637 Y110.043 E0.014
G1 X141.034 Y109.909 E0.014
G1 X141.416 Y109.737 E0.014
G1 X141.779 Y109.528 E0.014
G1 X142.119 Y109.284 E0.014
G1 X142.433 Y109.006 E0.014
G1 X142.717 Y108.7 E0.013
G1 X142.97 Y108.366 E0.014
G1 X143.189 Y108.009 E0.014
G1 X143.371 Y107.631 E0.014
G1 X143.513 Y107.238 E0.014
G1 X143.617 Y106.832 E0.014
G1 X143.679 Y106.418 E0.014
G1 X143.7 Y106 E0.014
G1 X143.679 Y105.581 E0.014
G1 X143.617 Y105.167 E0.014
G1 X143.513 Y104.762 E0.014
G1 X143.371 Y104.368 E0.014
G1 X143.189 Y103.991 E0.014
G1 X142.971 Y103.633 E0.014
G1 X142.717 Y103.299 E0.013
;rapid-leaky
G0 X142.993 Y103.068 F7200
;bead-perimeter_inner
G1 X142.685 Y102.735 F960 E0.016
G1 X142.344 Y102.434 E0.015
G1 X141.974 Y102.168 E0.015
G1 X141.581 Y101.941 E0.015
G1 X141.166 Y101.754 E0.015
G1 X140.735 Y101.609 E0.015
G1 X140.292 Y101.508 E0.015
G1 X139.841 Y101.452 E0.015
G1 X139.386 Y101.44 E0.016
G1 X138.933 Y101.475 E0.015
G1 X138.485 Y101.553 E0.015
G1 X138.047 Y101.677 E0.015
G1 X137.625 Y101.843 E0.015
G1 X137.22 Y102.049 E0.015
G1 X136.838 Y102.297 E0.015
G1 X136.482 Y102.58 E0.015
G1 X136.157 Y102.898 E0.016
G1 X135.864 Y103.245 E0.015
G1 X135.608 Y103.622 E0.015
G1 X135.391 Y104.021 E0.015
G1 X135.214 Y104.441 E0.015
G1 X135.081 Y104.875 E0.015
G1 X134.991 Y105.319 E0.015
G1 X134.945 Y105.772 E0.015
G1 Y106.227 E0.016
G1 X134.991 Y106.68 E0.015
G1 X135.081 Y107.125 E0.015
G1 X135.214 Y107.56 E0.015
G1 X135.391 Y107.979 E0.015
G1 X135.608 Y108.377 E0.015
G1 X135.864 Y108.754 E0.015
G1 X136.157 Y109.101 E0.015
G1 X136.482 Y109.419 E0.015
G1 X136.838 Y109.702 E0.016
G1 X137.219 Y109.949 E0.015
G1 X137.625 Y110.157 E0.015
G1 X138.048 Y110.323 E0.015
G1 X138.485 Y110.446 E0.015
G1 X138.933 Y110.525 E0.015
G1 X139.387 Y110.559 E0.015
G1 X139.841 Y110.547 E0.015
G1 X140.292 Y110.491 E0.016
G1 X140.735 Y110.39 E0.015
G1 X141.166 Y110.245 E0.015
G1 X141.581 Y110.058 E0.015
G1 X141.974 Y109.831 E0.015
G1 X142.344 Y109.565 E0.015
G1 X142.685 Y109.264 E0.015
G1 X142.993 Y108.932 E0.015
G1 X143.268 Y108.569 E0.016
G1 X143.505 Y108.181 E0.015
G1 X143.703 Y107.771 E0.015
G1 X143.858 Y107.344 E0.015
G1 X143.971 Y106.903 E0.015
G1 X144.038 Y106.454 E0.015
G1 X144.061 Y106 E0.015
G1 X144.038 Y105.545 E0.015
G1 X143.971 Y105.096 E0.016
G1 X143.858 Y104.656 E0.015
G1 X143.703 Y104.228 E0.015
G1 X143.505 Y103.819 E0.015
G1 X143.268 Y103.43 E0.015
G1 X142.993 Y103.068 E0.015
G1 F2100 E-0.5
;rapid-dry
G0 X143.974 Y102.308 F7200
G1 F2100 E0.5
;bead-perimeter_outer
G1 X144.258 Y102.683 F720 E0.016
G1 X144.511 Y103.08 E0.015
G1 X144.731 Y103.495 E0.016
G1 X144.917 Y103.928 E0.016
G1 X145.076 Y104.409 E0.017
G1 X145.181 Y104.831 E0.014
G1 X145.257 Y105.295 E0.016
G1 X145.295 Y105.764 E0.015
G1 Y106.235 E0.016
G1 X145.257 Y106.704 E0.016
G1 X145.181 Y107.168 E0.015
G1 X145.067 Y107.625 E0.016
G1 X144.917 Y108.072 E0.016
G1 X144.731 Y108.504 E0.015
G1 X144.511 Y108.919 E0.016
G1 X144.258 Y109.315 E0.016
G1 X143.95 Y109.717 E0.016
G1 X143.659 Y110.042 E0.015
G1 X143.318 Y110.365 E0.016
G1 X142.952 Y110.66 E0.015
G1 X142.562 Y110.925 E0.016
G1 X142.153 Y111.157 E0.015
G1 X141.726 Y111.355 E0.016
G1 X141.285 Y111.518 E0.016
G1 X140.831 Y111.644 E0.015
G1 X140.369 Y111.734 E0.016
G1 X139.902 Y111.785 E0.016
G1 X139.431 Y111.799 E0.015
G1 X138.962 Y111.775 E0.016
G1 X138.495 Y111.712 E0.016
G1 X138.036 Y111.611 E0.015
G1 X137.585 Y111.474 E0.016
G1 X137.147 Y111.301 E0.016
G1 X136.726 Y111.093 E0.015
G1 X136.322 Y110.851 E0.016
G1 X135.88 Y110.535 E0.018
G1 X133.015 E0.095
G1 X131.028 Y110.23 E0.067
G1 X129.2 Y109.987 E0.062
G1 Y102.014 E0.265
G1 X131.029 Y101.769 E0.061
G1 X133.015 Y101.464 E0.067
G1 X135.88 E0.095
G1 X136.352 Y101.13 E0.019
G1 X136.726 Y100.907 E0.015
G1 X137.147 Y100.698 E0.016
G1 X137.585 Y100.525 E0.015
G1 X138.036 Y100.388 E0.016
G1 X138.495 Y100.287 E0.016
G1 X138.961 Y100.225 E0.015
G1 X139.467 Y100.201 E0.017
G1 X139.902 Y100.214 E0.014
G1 X140.369 Y100.265 E0.016
G1 X140.831 Y100.355 E0.016
G1 X141.284 Y100.481 E0.015
G1 X141.759 Y100.659 E0.017
G1 X142.153 Y100.842 E0.015
G1 X142.562 Y101.074 E0.015
G1 X142.952 Y101.339 E0.016
G1 X143.318 Y101.634 E0.016
G1 X143.659 Y101.957 E0.015
G1 X143.974 Y102.308 E0.016
;rapid-leaky
G0 X143.696 Y102.537 F7200
;bead-perimeter_inner
G1 X143.962 Y102.889 F960 E0.015
G1 X144.2 Y103.261 E0.014
G1 X144.406 Y103.651 E0.015
G1 X144.58 Y104.056 E0.015
G1 X144.73 Y104.509 E0.016
G1 X144.828 Y104.904 E0.013
G1 X144.9 Y105.339 E0.015
G1 X144.935 Y105.778 E0.014
G1 Y106.221 E0.015
G1 X144.9 Y106.66 E0.015
G1 X144.828 Y107.096 E0.014
G1 X144.721 Y107.524 E0.015
G1 X144.58 Y107.943 E0.015
G1 X144.406 Y108.348 E0.014
G1 X144.2 Y108.738 E0.015
G1 X143.963 Y109.108 E0.015
G1 X143.673 Y109.487 E0.016
G1 X143.401 Y109.79 E0.013
G1 X143.081 Y110.094 E0.015
G1 X142.738 Y110.371 E0.015
G1 X142.372 Y110.619 E0.014
G1 X141.989 Y110.837 E0.015
G1 X141.588 Y111.022 E0.015
G1 X141.174 Y111.175 E0.014
G1 X140.748 Y111.294 E0.015
G1 X140.315 Y111.378 E0.015
G1 X139.877 Y111.426 E0.014
G1 X139.435 Y111.439 E0.015
G1 X138.995 Y111.416 E0.015
G1 X138.557 Y111.357 E0.014
G1 X138.127 Y111.263 E0.015
G1 X137.704 Y111.134 E0.015
G1 X137.293 Y110.972 E0.014
G1 X136.898 Y110.777 E0.015
G1 X136.519 Y110.549 E0.015
G1 X135.996 Y110.175 E0.021
G1 X133.043 E0.098
G1 X131.079 Y109.874 E0.066
G1 X129.56 Y109.672 E0.051
G1 Y102.33 E0.245
G1 X131.081 Y102.125 E0.051
G1 X133.043 Y101.824 E0.066
G1 X135.994 E0.098
G1 X136.549 Y101.432 E0.022
G1 X136.898 Y101.223 E0.014
G1 X137.294 Y101.027 E0.015
G1 X137.704 Y100.865 E0.014
G1 X138.127 Y100.736 E0.015
G1 X138.557 Y100.642 E0.015
G1 X138.993 Y100.584 E0.014
G1 X139.47 Y100.561 E0.016
G1 X139.877 Y100.573 E0.014
G1 X140.315 Y100.621 E0.014
G1 X140.748 Y100.705 E0.015
G1 X141.172 Y100.824 E0.015
G1 X141.62 Y100.991 E0.016
G1 X141.988 Y101.162 E0.013
G1 X142.372 Y101.38 E0.015
G1 X142.738 Y101.628 E0.014
G1 X143.081 Y101.905 E0.015
G1 X143.401 Y102.209 E0.015
G1 X143.696 Y102.537 E0.014
G1 F2100 E-0.5
;rapid-dry
G0 X156.814 Y94.792 F7200
G1 F2100 E0.5
;bead-perimeter_outer
G1 X156.309 Y94.797 F720 E0.017
G1 X155.804 Y94.764 E0.017
G1 X155.303 Y94.694 E0.017
G1 X154.81 Y94.586 E0.017
G1 X154.325 Y94.442 E0.017
G1 X153.828 Y94.254 E0.017
G1 X151.742 Y93.86 E0.071
G1 X149.671 Y93.495 E0.07
G1 X147.6 Y93.155 E0.07
G1 X145.7 Y92.868 E0.063
G1 Y83.132 E0.324
G1 X147.6 Y82.845 E0.064
G1 X149.671 Y82.505 E0.07
G1 X151.742 Y82.14 E0.07
G1 X153.828 Y81.745 E0.071
G1 X154.325 Y81.558 E0.017
G1 X154.81 Y81.414 E0.017
G1 X155.303 Y81.306 E0.017
G1 X155.804 Y81.236 E0.017
G1 X156.309 Y81.203 E0.016
G1 X156.814 Y81.207 E0.017
G1 X157.318 Y81.25 E0.017
G1 X157.817 Y81.328 E0.017
G1 X158.31 Y81.445 E0.017
G1 X158.791 Y81.597 E0.017
G1 X159.261 Y81.786 E0.016
G1 X159.714 Y82.008 E0.017
G1 X160.183 Y82.285 E0.018
G1 X160.567 Y82.55 E0.016
G1 X160.961 Y82.868 E0.017
G1 X161.33 Y83.213 E0.016
G1 X161.672 Y83.585 E0.017
G1 X161.986 Y83.982 E0.017
G1 X162.269 Y84.401 E0.017
G1 X162.521 Y84.839 E0.017
G1 X162.739 Y85.296 E0.017
G1 X162.923 Y85.767 E0.016
G1 X163.071 Y86.249 E0.017
G1 X163.182 Y86.743 E0.017
G1 X163.258 Y87.243 E0.017
G1 X163.295 Y87.747 E0.017
G1 Y88.253 E0.016
G1 X163.258 Y88.757 E0.017
G1 X163.182 Y89.257 E0.017
G1 X163.071 Y89.75 E0.017
G1 X162.923 Y90.233 E0.017
G1 X162.739 Y90.704 E0.017
G1 X162.521 Y91.16 E0.016
G1 X162.269 Y91.599 E0.017
G1 X161.986 Y92.018 E0.017
G1 X161.672 Y92.414 E0.017
G1 X161.33 Y92.786 E0.017
G1 X160.961 Y93.132 E0.016
G1 X160.567 Y93.45 E0.017
G1 X160.152 Y93.736 E0.017
G1 X159.714 Y93.992 E0.017
G1 X159.261 Y94.214 E0.017
G1 X158.791 Y94.402 E0.016
G1 X158.31 Y94.555 E0.017
G1 X157.817 Y94.671 E0.017
G1 X157.318 Y94.75 E0.017
G1 X156.814 Y94.792 E0.017
;rapid-leaky
G0 X156.797 Y94.432 F7200
;bead-perimeter_inner
G1 X156.319 Y94.437 F960 E0.016
G1 X155.841 Y94.406 E0.016
G1 X155.367 Y94.339 E0.016
G1 X154.9 Y94.237 E0.015
G1 X154.44 Y94.101 E0.016
G1 X153.926 Y93.906 E0.019
G1 X151.807 Y93.506 E0.071
G1 X149.731 Y93.14 E0.071
G1 X147.656 Y92.8 E0.069
G1 X146.06 Y92.558 E0.054
G1 Y83.442 E0.303
G1 X147.656 Y83.2 E0.054
G1 X149.731 Y82.86 E0.07
G1 X151.807 Y82.494 E0.07
G1 X153.926 Y82.093 E0.072
G1 X154.44 Y81.899 E0.018
G1 X154.9 Y81.763 E0.016
G1 X155.367 Y81.661 E0.016
G1 X155.841 Y81.594 E0.016
G1 X156.319 Y81.563 E0.016
G1 X156.797 Y81.567 E0.016
G1 X157.275 Y81.607 E0.016
G1 X157.748 Y81.682 E0.016
G1 X158.214 Y81.792 E0.016
G1 X158.67 Y81.937 E0.015
G1 X159.114 Y82.115 E0.016
G1 X159.543 Y82.325 E0.016
G1 X159.989 Y82.588 E0.017
G1 X160.351 Y82.839 E0.015
G1 X160.724 Y83.14 E0.016
G1 X161.074 Y83.467 E0.016
G1 X161.398 Y83.819 E0.016
G1 X161.695 Y84.195 E0.016
G1 X161.964 Y84.592 E0.016
G1 X162.202 Y85.007 E0.016
G1 X162.409 Y85.439 E0.016
G1 X162.583 Y85.885 E0.016
G1 X162.722 Y86.342 E0.015
G1 X162.828 Y86.81 E0.016
G1 X162.9 Y87.283 E0.016
G1 X162.935 Y87.76 E0.016
G1 Y88.24 E0.016
G1 X162.9 Y88.717 E0.016
G1 X162.828 Y89.19 E0.016
G1 X162.722 Y89.657 E0.016
G1 X162.583 Y90.115 E0.016
G1 X162.409 Y90.561 E0.016
G1 X162.202 Y90.992 E0.016
G1 X161.964 Y91.408 E0.016
G1 X161.695 Y91.805 E0.016
G1 X161.398 Y92.18 E0.015
G1 X161.074 Y92.533 E0.016
G1 X160.724 Y92.86 E0.016
G1 X160.352 Y93.161 E0.016
G1 X159.958 Y93.432 E0.016
G1 X159.544 Y93.674 E0.016
G1 X159.115 Y93.885 E0.016
G1 X158.67 Y94.063 E0.016
G1 X158.214 Y94.208 E0.016
G1 X157.748 Y94.317 E0.016
G1 X157.275 Y94.393 E0.016
G1 X156.797 Y94.432 E0.016
G1 F2100 E-0.5
;rapid-dry
G0 X156.605 Y92.199 F7200
G1 F2100 E0.5
;bead-perimeter_outer
G1 X157.022 Y92.168 F720 E0.014
G1 X157.434 Y92.095 E0.013
G1 X157.838 Y91.982 E0.014
G1 X158.227 Y91.828 E0.014
G1 X158.6 Y91.637 E0.014
G1 X158.952 Y91.411 E0.014
G1 X159.28 Y91.149 E0.014
G1 X159.579 Y90.857 E0.014
G1 X159.849 Y90.536 E0.014
G1 X160.084 Y90.19 E0.014
G1 X160.284 Y89.822 E0.014
G1 X160.447 Y89.436 E0.014
G1 X160.57 Y89.036 E0.014
G1 X160.653 Y88.626 E0.014
G1 X160.695 Y88.209 E0.014
G1 Y87.79 E0.013
G1 X160.653 Y87.374 E0.014
G1 X160.57 Y86.964 E0.014
G1 X160.447 Y86.564 E0.014
G1 X160.284 Y86.177 E0.014
G1 X160.084 Y85.81 E0.014
G1 X159.849 Y85.464 E0.014
G1 X159.579 Y85.143 E0.014
G1 X159.28 Y84.851 E0.014
G1 X158.952 Y84.589 E0.014
G1 X158.6 Y84.363 E0.014
G1 X158.227 Y84.172 E0.014
G1 X157.838 Y84.018 E0.014
G1 X157.434 Y83.905 E0.014
G1 X157.022 Y83.832 E0.013
G1 X156.605 Y83.801 E0.014
G1 X156.186 Y83.811 E0.014
G1 X155.77 Y83.864 E0.014
G1 X155.363 Y83.956 E0.014
G1 X154.966 Y84.09 E0.014
G1 X154.584 Y84.262 E0.014
G1 X154.221 Y84.472 E0.014
G1 X153.881 Y84.715 E0.014
G1 X153.567 Y84.993 E0.014
G1 X153.283 Y85.3 E0.014
G1 X153.03 Y85.634 E0.014
G1 X152.811 Y85.991 E0.014
G1 X152.629 Y86.368 E0.014
G1 X152.487 Y86.762 E0.013
G1 X152.383 Y87.167 E0.014
G1 X152.321 Y87.582 E0.014
G1 X152.3 Y88 E0.014
G1 X152.321 Y88.418 E0.014
G1 X152.379 Y88.802 E0.013
G1 X152.486 Y89.237 E0.015
G1 X152.629 Y89.632 E0.014
G1 X152.811 Y90.009 E0.014
G1 X153.03 Y90.366 E0.014
G1 X153.283 Y90.7 E0.014
G1 X153.567 Y91.006 E0.014
G1 X153.881 Y91.284 E0.014
G1 X154.221 Y91.528 E0.013
G1 X154.584 Y91.737 E0.014
G1 X154.966 Y91.909 E0.014
G1 X155.363 Y92.043 E0.014
G1 X155.77 Y92.136 E0.014
G1 X156.186 Y92.189 E0.014
G1 X156.605 Y92.199 E0.014
;rapid-leaky
G0 X156.614 Y92.56 F7200
;bead-perimeter_inner
G1 X157.067 Y92.525 F960 E0.015
G1 X157.515 Y92.447 E0.015
G1 X157.953 Y92.323 E0.015
G1 X158.376 Y92.157 E0.016
G1 X158.78 Y91.95 E0.015
G1 X159.162 Y91.703 E0.015
G1 X159.518 Y91.419 E0.015
G1 X159.843 Y91.102 E0.015
G1 X160.136 Y90.754 E0.015
G1 X160.392 Y90.378 E0.015
G1 X160.609 Y89.978 E0.015
G1 X160.786 Y89.56 E0.016
G1 X160.919 Y89.125 E0.015
G1 X161.009 Y88.68 E0.015
G1 X161.055 Y88.227 E0.015
G1 Y87.772 E0.015
G1 X161.009 Y87.32 E0.015
G1 X160.919 Y86.875 E0.015
G1 X160.786 Y86.441 E0.015
G1 X160.609 Y86.021 E0.015
G1 X160.391 Y85.622 E0.016
G1 X160.136 Y85.246 E0.015
G1 X159.843 Y84.898 E0.015
G1 X159.518 Y84.581 E0.015
G1 X159.162 Y84.297 E0.015
G1 X158.78 Y84.05 E0.015
G1 X158.376 Y83.843 E0.015
G1 X157.953 Y83.677 E0.015
G1 X157.515 Y83.553 E0.016
G1 X157.067 Y83.475 E0.015
G1 X156.614 Y83.44 E0.015
G1 X156.159 Y83.452 E0.015
G1 X155.708 Y83.509 E0.015
G1 X155.266 Y83.609 E0.015
G1 X154.834 Y83.754 E0.015
G1 X154.419 Y83.941 E0.015
G1 X154.026 Y84.169 E0.016
G1 X153.657 Y84.433 E0.015
G1 X153.315 Y84.735 E0.015
G1 X153.006 Y85.069 E0.015
G1 X152.732 Y85.431 E0.015
G1 X152.495 Y85.819 E0.015
G1 X152.297 Y86.228 E0.015
G1 X152.142 Y86.656 E0.015
G1 X152.029 Y87.096 E0.016
G1 X151.962 Y87.546 E0.015
G1 X151.939 Y88 E0.015
G1 X151.962 Y88.454 E0.015
G1 X152.025 Y88.872 E0.014
G1 X152.142 Y89.342 E0.016
G1 X152.297 Y89.772 E0.015
G1 X152.495 Y90.181 E0.015
G1 X152.732 Y90.569 E0.016
G1 X153.007 Y90.931 E0.015
G1 X153.315 Y91.264 E0.015
G1 X153.656 Y91.565 E0.015
G1 X154.026 Y91.831 E0.015
G1 X154.419 Y92.058 E0.015
G1 X154.834 Y92.245 E0.015
G1 X155.265 Y92.39 E0.015
G1 X155.707 Y92.491 E0.015
G1 X156.159 Y92.548 E0.016
G1 X156.614 Y92.56 E0.015
;rapid-leaky
G0 X162.252 Y90.082 F7200
;bead-solid_infill
G1 X158.58 Y93.754 F720 E0.172
G1 X158.984 Y93.592 E0.015
G1 X159.393 Y93.392 E0.015
G1 X159.67 Y93.23 E0.011
G1 X161.733 Y91.166 E0.097
G1 F2100 E-0.5
;rapid-dry
G0 X156.307 Y81.885 F7200
G1 F2100 E0.5
;bead-solid_infill
G1 X154.746 Y83.446 F720 E0.073
G1 X155.179 Y83.301 E0.015
G1 X155.539 Y83.219 E0.013
G1 X156.864 Y81.894 E0.062
G1 X157.236 Y81.925 E0.012
G1 X157.376 Y81.947 E0.005
G1 X156.192 Y83.131 E0.056
G1 X156.622 Y83.12 E0.014
G1 X156.759 Y83.13 E0.005
G1 X157.853 Y82.036 E0.051
G1 X158.129 Y82.101 E0.01
G1 X158.3 Y82.155 E0.006
G1 X157.269 Y83.185 E0.048
G1 X157.36 Y83.201 E0.003
G1 X157.586 Y83.241 E0.008
G1 X157.737 Y83.283 E0.005
G1 X158.719 Y82.301 E0.046
G1 X158.773 Y82.323 E0.002
G1 X158.984 Y82.407 E0.008
G1 X159.115 Y82.472 E0.004
G1 X158.169 Y83.418 E0.045
G1 X158.419 Y83.516 E0.009
G1 X158.499 Y83.548 E0.003
G1 X158.515 Y83.555
G1 X158.524 Y83.559 E0.001
G1 X158.569 Y83.583 E0.001
G1 X159.488 Y82.664 E0.044
G1 X159.817 Y82.858 E0.012
G1 X159.842 Y82.875 E0.001
G1 X158.943 Y83.775 E0.043
G1 X159.287 Y83.996 E0.013
G1 X160.175 Y83.108 E0.042
G1 X160.488 Y83.361 E0.013
G1 X159.607 Y84.242 E0.042
G1 X159.73 Y84.341 E0.005
G1 X159.904 Y84.51 E0.008
G1 X160.782 Y83.632 E0.042
G1 X160.847 Y83.692 E0.002
G1 X160.984 Y83.842 E0.007
G1 X161.058 Y83.922 E0.004
G1 X160.179 Y84.801 E0.041
G1 X160.391 Y85.053 E0.011
G1 X160.432 Y85.113 E0.003
G1 X161.315 Y84.231 E0.041
G1 X161.436 Y84.384 E0.007
G1 X161.554 Y84.558 E0.007
G1 X160.662 Y85.45 E0.042
G1 X160.665 Y85.454
G1 X160.862 Y85.816 E0.013
G1 X161.774 Y84.904 E0.043
G1 X161.918 Y85.156 E0.01
G1 X161.973 Y85.27 E0.004
G1 X161.035 Y86.208 E0.044
G1 X161.087 Y86.331 E0.005
G1 X161.125 Y86.455 E0.004
G1 X161.179 Y86.63 E0.006
G1 X162.151 Y85.658 E0.046
G1 X162.187 Y85.751 E0.003
G1 X162.28 Y85.99 E0.009
G1 X162.305 Y86.07 E0.002
G1 X161.288 Y87.086 E0.048
G1 X161.326 Y87.272 E0.007
G1 X161.358 Y87.582 E0.01
G1 X162.432 Y86.508 E0.05
G1 X162.514 Y86.869 E0.013
G1 X162.53 Y86.976 E0.003
G1 X161.375 Y88.131 E0.055
G1 Y88.243 E0.003
G1 X161.326 Y88.728 E0.017
G1 X161.322 Y88.75
G1 X162.593 Y87.478 E0.06
G1 X162.615 Y87.772 E0.01
G1 Y88.022 E0.008
G1 X161.14 Y89.497 E0.07
G1 X161.132 Y89.522 E0.001
G1 X161.087 Y89.669 E0.005
G1 X160.998 Y89.881 E0.007
G1 X160.898 Y90.117 E0.009
G1 X160.674 Y90.529 E0.015
G1 X162.587 Y88.616 E0.09
G1 X162.582 Y88.681 E0.003
G1 X162.554 Y88.866 E0.006
G1 X162.514 Y89.131 E0.009
G1 X162.477 Y89.291 E0.005
G1 X157.79 Y93.979 E0.221
G1 X157.686 Y94.003 E0.003
G1 X157.638 Y94.011 E0.002
G1 X157.236 Y94.075 E0.013
G1 X157.118 Y94.085 E0.004
G1 X159.04 Y92.163 E0.091
G1 X158.94 Y92.227 E0.004
G1 X158.508 Y92.449 E0.016
G1 X158.055 Y92.627 E0.016
G1 X157.992 Y92.645 E0.002
G1 X156.522 Y94.115 E0.069
G1 X156.328 Y94.117 E0.007
G1 X155.978 Y94.094 E0.011
G1 X157.254 Y92.817 E0.06
G1 X157.107 Y92.843 E0.005
G1 X156.626 Y92.88 E0.016
G1 X155.474 Y94.031 E0.055
G1 X155.423 Y94.024 E0.001
G1 X155.007 Y93.933 E0.015
G1 X156.079 Y92.861 E0.05
G1 X155.651 Y92.807 E0.014
G1 X155.583 Y92.791 E0.003
G1 X154.569 Y93.805 E0.047
G1 X154.543 Y93.798 E0.001
G1 X154.157 Y93.651 E0.014
G1 X155.128 Y92.681 E0.046
G1 X154.717 Y92.543 E0.014
G1 X154.705 Y92.538
G1 X153.705 Y93.538 E0.048
G1 X153.229 Y93.449 E0.016
G1 X154.315 Y92.362 E0.051
G1 X154.273 Y92.343 E0.001
G1 X153.953 Y92.158 E0.013
G1 X152.753 Y93.359 E0.056
G1 X152.277 Y93.269 E0.016
G1 X153.616 Y91.93 E0.063
G1 X153.457 Y91.816 E0.007
G1 X153.301 Y91.679 E0.007
G1 X151.8 Y93.18 E0.07
G1 X151.319 Y93.095 E0.016
G1 X153.009 Y91.405 E0.08
G1 X152.761 Y91.137 E0.012
G1 X152.74 Y91.109 E0.001
G1 X150.838 Y93.01 E0.09
G1 X150.358 Y92.926 E0.016
G1 X152.496 Y90.787 E0.1
G1 X152.467 Y90.75 E0.002
G1 X152.278 Y90.44 E0.012
G1 X149.877 Y92.841 E0.113
G1 X149.785 Y92.824 E0.003
G1 X149.392 Y92.76 E0.013
G1 X152.084 Y90.067 E0.127
G1 X152.002 Y89.896 E0.006
G1 X151.919 Y89.667 E0.008
G1 X148.906 Y92.68 E0.142
G1 X148.42 Y92.601 E0.017
G1 X151.785 Y89.235 E0.158
G1 X151.711 Y88.935 E0.01
G1 X151.686 Y88.769 E0.006
G1 X147.934 Y92.521 E0.176
G1 X147.706 Y92.484 E0.008
G1 X147.445 Y92.444 E0.009
G1 X151.632 Y88.257 E0.197
G1 X151.619 Y88 E0.008
G1 X151.635 Y87.689 E0.011
G1 X146.953 Y92.37 E0.22
G1 X146.462 Y92.296 E0.016
G1 X151.714 Y87.044 E0.247
G1 X151.715 Y87.032 E0.001
G1 X151.8 Y86.701 E0.011
G1 X151.836 Y86.561 E0.005
G1 X151.882 Y86.435 E0.004
G1 X151.953 Y86.239 E0.007
G1 X146.38 Y91.812 E0.262
G1 Y91.246 E0.019
G1 X152.753 Y84.873 E0.3
G1 X152.761 Y84.863
G1 X152.93 Y84.68 E0.009
G1 X153.091 Y84.506 E0.008
G1 X153.342 Y84.285 E0.011
G1 X155.687 Y81.939 E0.11
G1 X155.423 Y81.976 E0.009
G1 X154.99 Y82.07 E0.015
G1 X146.38 Y90.681 E0.405
G1 Y90.115 E0.018
G1 X154.141 Y82.354 E0.365
G1 X154.013 Y82.402 E0.005
G1 X153.499 Y82.5 E0.017
G1 X153.413 Y82.516 E0.003
G1 X146.38 Y89.549 E0.331
G1 Y88.984 E0.019
G1 X152.716 Y82.648 E0.298
G1 X152.018 Y82.78 E0.024
G1 X146.38 Y88.418 E0.265
G1 Y87.852 E0.019
G1 X151.329 Y82.903 E0.232
G1 X150.642 Y83.024 E0.024
G1 X146.38 Y87.286 E0.2
G1 Y86.721 E0.019
G1 X149.955 Y83.145 E0.168
G1 X149.785 Y83.176 E0.006
G1 X149.276 Y83.259 E0.017
G1 X146.38 Y86.155 E0.136
G1 Y85.589 E0.019
G1 X148.6 Y83.37 E0.104
G1 X147.923 Y83.481 E0.023
G1 X146.38 Y85.024 E0.073
G1 Y84.458 E0.019
G1 X147.253 Y83.585 E0.041
G1 X146.587 Y83.686 E0.022
G1 X146.38 Y83.892 E0.01
G1 F2100 E-0.5
;rapid-dry
G0 X144.93 Y84.594 F7200
G1 F2100 E0.5
;bead-support
G1 X144.279 Y83.466 F1320 E0.043
G1 X143.564 Y83.561 E0.024
G1 X144.93 Y85.927 E0.091
G1 Y87.26 E0.044
G1 X142.849 Y83.655 E0.139
G1 X142.828 Y83.658 E0.001
G1 X142.811 Y84.923 E0.042
G1 X144.93 Y88.594 E0.141
G1 Y89.927 E0.044
G1 X142.255 Y85.293 E0.178
G1 X141.485 E0.026
G1 X144.93 Y91.26 E0.229
G1 Y92.594 E0.044
G1 X140.715 Y85.293 E0.28
G1 X140.197 E0.018
G1 X140.176 Y84.359 E0.031
G1 X139.961 Y83.987 E0.014
G1 X139.231 Y84.055 E0.024
G1 X144.117 Y92.519 E0.325
G1 X143.281 Y92.405 E0.028
G1 X142.818 Y91.602 E0.031
G1 X142.806 Y90.707 E0.03
G1 X142.301 E0.017
G1 X138.5 Y84.124 E0.253
G1 X137.77 Y84.192 E0.024
G1 X141.531 Y90.707 E0.25
G1 X140.762 E0.026
G1 X137.04 Y84.261 E0.247
G1 X136.31 Y84.329 E0.025
G1 X140.189 Y91.049 E0.258
G1 X140.167 Y92.032 E0.033
G1 X139.977 Y92.014 E0.006
G1 X135.579 Y84.398 E0.292
G1 X134.991 Y84.453 E0.02
G1 X134.846 Y84.461 E0.005
G1 X139.163 Y91.938 E0.287
G1 X138.349 Y91.862 E0.027
G1 X134.1 Y84.502 E0.283
G1 X133.353 Y84.542 E0.025
G1 X137.535 Y91.785 E0.278
G1 X136.721 Y91.709 E0.027
G1 X132.607 Y84.583 E0.274
G1 X131.861 Y84.623 E0.025
G1 X135.907 Y91.633 E0.269
G1 X135.094 Y91.556 E0.027
G1 X131.114 Y84.664 E0.265
G1 X130.368 Y84.705 E0.025
G1 X134.296 Y91.509 E0.261
G1 X133.502 Y91.466 E0.027
G1 X129.621 Y84.745 E0.258
G1 X129.445 Y84.755 E0.006
G1 X128.863 Y84.765 E0.019
G1 X132.707 Y91.423 E0.256
G1 X131.912 Y91.379 E0.026
G1 X128.101 Y84.779 E0.254
G1 F2100 E-0.5
G0 X128.601 Y85.645 F2400
G0 X128.101 Y84.779 F2400
;rapid-dry
G0 X126.976 Y89.496 F7200
G1 F2100 E0.5
;bead-support
G1 X126.912 Y89.386 F1320 E0.004
G1 F2100 E-0.5
G0 X126.976 Y89.496 F2400
