;distantiere
;Printer name: Prusa i3 MK3
;TIME:1400
;Print time: 23m:20s
;Extruder 1 material used: 968mm
;Extruder 1 material name: 
;Extruder 1 filament diameter: 1.75mm
;Extruder 1 nozzle diameter: 0.4mm
;Extruder 1 offset x: 0mm
;Extruder 1 offset y: 0mm
;Extruder 1 offset z: 0mm
;Extruder 1 max temp: 200
;Bed temp: 70
;Layer count: 80
;Width: 250mm
;Depth: 210mm
;Height: 210mm
;Center x: 125mm
;Center y: 105mm
;Center z: 0mm
;Count of bodies: 6
;Fusion version: 2.0.19440
G21
M115 U3.0.10 ;tell printer latest fw version
G28 W ;home all without mesh bed level
;--------------------------------
;Selected Profile: PLA Direct Drive
;--------------------------------
;Selected Printer: Prusa, i3 MK3
;--------------------------------
T0
M140 S70
M104 S200 T0
M190 S70
M109 S200 T0
G80 ;mesh bed leveling
G92 E0
G90
M83
G0 X10 Y10 Z10 F7200
G92 E0
;--------------------------------
;Part 1
;LAYER_COUNT:80
;LAYER:1
M107
;rapid-leaky
G0 X20 Y20.5 Z0.2 F7200
;bead-prime
G1 X120 F720 E8.315
G1 F2100 E-0.5
;rapid-dry
G0 X144.126 Y41.06 F7200
G1 F2100 E0.5
;bead-skirt/brim
G1 X144.657 Y40.502 F960 E0.026
G1 X145.24 Y40.002 E0.025
G1 X145.87 Y39.564 E0.026
G1 X146.54 Y39.192 E0.025
G1 X147.25 Y38.888 E0.026
G1 X147.968 Y38.664 E0.025
G1 X148.715 Y38.508 E0.025
G1 X149.494 Y38.428 E0.026
G1 X150.264 E0.026
G1 X151.033 Y38.507 E0.026
G1 X151.782 Y38.662 E0.025
G1 X152.512 Y38.89 E0.026
G1 X153.223 Y39.197 E0.025
G1 X153.894 Y39.571 E0.026
G1 X154.517 Y40.005 E0.025
G1 X155.107 Y40.509 E0.026
G1 X155.633 Y41.068 E0.025
G1 X156.095 Y41.663 E0.025
G1 X156.506 Y42.325 E0.026
G1 X156.845 Y43.015 E0.026
G1 X157.112 Y43.739 E0.026
G1 X157.303 Y44.482 E0.025
G1 X157.415 Y45.221 E0.025
G1 X157.458 Y45.99 E0.026
G1 X157.416 Y46.773 E0.026
G1 X157.303 Y47.513 E0.025
G1 X157.113 Y48.255 E0.025
G1 X156.845 Y48.983 E0.026
G1 X156.506 Y49.671 E0.025
G1 X156.094 Y50.337 E0.026
G1 X155.622 Y50.94 E0.026
G1 X155.105 Y51.488 E0.025
G1 X154.52 Y51.989 E0.026
G1 X153.894 Y52.426 E0.025
G1 X153.219 Y52.801 E0.026
G1 X152.516 Y53.104 E0.025
G1 X151.786 Y53.334 E0.026
G1 X151.028 Y53.491 E0.025
G1 X150.259 Y53.568 E0.026
G1 X149.498 E0.025
G1 X148.719 Y53.49 E0.026
G1 X147.964 Y53.332 E0.026
G1 X147.246 Y53.107 E0.025
G1 X146.544 Y52.806 E0.025
G1 X145.87 Y52.433 E0.026
G1 X145.236 Y51.992 E0.026
G1 X144.657 Y51.494 E0.025
G1 X144.128 Y50.938 E0.026
G1 X143.649 Y50.32 E0.026
G1 X143.247 Y49.674 E0.025
G1 X142.91 Y48.986 E0.026
G1 X142.645 Y48.267 E0.025
G1 X142.452 Y47.525 E0.025
G1 X142.335 Y46.763 E0.026
G1 X142.297 Y45.998 E0.026
G1 X142.335 Y45.233 E0.025
G1 X142.452 Y44.471 E0.026
G1 X142.645 Y43.728 E0.025
G1 X142.91 Y43.011 E0.026
G1 X143.248 Y42.321 E0.025
G1 X143.649 Y41.678 E0.025
G1 X144.126 Y41.06 E0.026
;rapid-leaky
G0 X144.429 Y41.321 F7200
;bead-skirt/brim
G1 X144.933 Y40.792 F960 E0.025
G1 X145.485 Y40.319 E0.024
G1 X146.082 Y39.904 E0.024
G1 X146.717 Y39.552 E0.024
G1 X147.389 Y39.263 E0.025
G1 X148.069 Y39.051 E0.023
G1 X148.776 Y38.904 E0.024
G1 X149.514 Y38.828 E0.025
G1 X150.244 E0.024
G1 X150.972 Y38.903 E0.025
G1 X151.681 Y39.05 E0.024
G1 X152.373 Y39.266 E0.024
G1 X153.046 Y39.556 E0.024
G1 X153.682 Y39.911 E0.024
G1 X154.272 Y40.322 E0.024
G1 X154.83 Y40.799 E0.025
G1 X155.329 Y41.329 E0.024
G1 X155.766 Y41.892 E0.024
G1 X156.156 Y42.519 E0.024
G1 X156.477 Y43.173 E0.024
G1 X156.73 Y43.859 E0.025
G1 X156.911 Y44.562 E0.024
G1 X157.017 Y45.262 E0.023
G1 X157.057 Y45.991 E0.025
G1 X157.017 Y46.732 E0.024
G1 X156.911 Y47.434 E0.024
G1 X156.73 Y48.136 E0.024
G1 X156.477 Y48.825 E0.024
G1 X156.156 Y49.477 E0.025
G1 X155.765 Y50.107 E0.024
G1 X155.319 Y50.679 E0.024
G1 X154.829 Y51.198 E0.024
G1 X154.275 Y51.672 E0.024
G1 X153.682 Y52.087 E0.025
G1 X153.043 Y52.442 E0.024
G1 X152.377 Y52.728 E0.024
G1 X151.685 Y52.946 E0.024
G1 X150.967 Y53.095 E0.024
G1 X150.239 Y53.168 E0.025
G1 X149.518 E0.024
G1 X148.78 Y53.094 E0.024
G1 X148.065 Y52.945 E0.025
G1 X147.385 Y52.731 E0.023
G1 X146.72 Y52.446 E0.024
G1 X146.082 Y52.093 E0.025
G1 X145.482 Y51.675 E0.024
G1 X144.933 Y51.204 E0.024
G1 X144.431 Y50.677 E0.024
G1 X143.978 Y50.091 E0.025
G1 X143.598 Y49.48 E0.024
G1 X143.279 Y48.828 E0.024
G1 X143.027 Y48.147 E0.024
G1 X142.845 Y47.445 E0.024
G1 X142.734 Y46.723 E0.025
G1 X142.698 Y45.998 E0.024
G1 X142.734 Y45.273 E0.024
G1 X142.845 Y44.551 E0.024
G1 X143.027 Y43.848 E0.024
G1 X143.279 Y43.169 E0.024
G1 X143.598 Y42.515 E0.025
G1 X143.978 Y41.906 E0.024
G1 X144.429 Y41.321 E0.024
;rapid-leaky
G0 X144.733 Y41.581 F7200
;bead-skirt/brim
G1 X145.209 Y41.083 F960 E0.023
G1 X145.73 Y40.636 E0.023
G1 X146.293 Y40.244 E0.023
G1 X146.893 Y39.911 E0.023
G1 X147.527 Y39.639 E0.022
G1 X148.169 Y39.439 E0.023
G1 X148.837 Y39.299 E0.023
G1 X149.535 Y39.228 E0.023
G1 X150.223 E0.023
G1 X150.91 Y39.298 E0.023
G1 X151.58 Y39.438 E0.022
G1 X152.234 Y39.642 E0.023
G1 X152.869 Y39.915 E0.023
G1 X153.469 Y40.25 E0.023
G1 X154.027 Y40.639 E0.023
G1 X154.554 Y41.089 E0.023
G1 X155.025 Y41.589 E0.023
G1 X155.437 Y42.121 E0.022
G1 X155.806 Y42.713 E0.023
G1 X156.109 Y43.331 E0.023
G1 X156.348 Y43.978 E0.023
G1 X156.518 Y44.642 E0.023
G1 X156.619 Y45.303 E0.022
G1 X156.656 Y45.991 E0.023
G1 X156.619 Y46.691 E0.023
G1 X156.518 Y47.354 E0.023
G1 X156.348 Y48.017 E0.022
G1 X156.109 Y48.667 E0.023
G1 X155.806 Y49.283 E0.023
G1 X155.436 Y49.878 E0.024
G1 X155.015 Y50.418 E0.022
G1 X154.552 Y50.908 E0.023
G1 X154.029 Y51.355 E0.023
G1 X153.469 Y51.747 E0.022
G1 X152.866 Y52.082 E0.023
G1 X152.237 Y52.353 E0.023
G1 X151.584 Y52.559 E0.023
G1 X150.907 Y52.699 E0.023
G1 X150.219 Y52.768 E0.023
G1 X149.538 E0.022
G1 X148.841 Y52.698 E0.024
G1 X148.166 Y52.557 E0.023
G1 X147.524 Y52.356 E0.022
G1 X146.896 Y52.086 E0.023
G1 X146.293 Y51.753 E0.023
G1 X145.727 Y51.358 E0.023
G1 X145.209 Y50.913 E0.022
G1 X144.735 Y50.416 E0.023
G1 X144.306 Y49.863 E0.024
G1 X143.948 Y49.286 E0.022
G1 X143.647 Y48.671 E0.023
G1 X143.409 Y48.027 E0.023
G1 X143.237 Y47.364 E0.023
G1 X143.132 Y46.683 E0.022
G1 X143.098 Y45.998 E0.023
G1 X143.132 Y45.313 E0.023
G1 X143.237 Y44.632 E0.023
G1 X143.409 Y43.968 E0.023
G1 X143.647 Y43.327 E0.023
G1 X143.948 Y42.709 E0.022
G1 X144.306 Y42.135 E0.023
G1 X144.733 Y41.581 E0.023
;rapid-leaky
G0 X145.037 Y41.842 F7200
;bead-skirt/brim
G1 X145.485 Y41.373 F960 E0.022
G1 X145.975 Y40.952 E0.021
G1 X146.505 Y40.584 E0.022
G1 X147.069 Y40.271 E0.021
G1 X147.666 Y40.015 E0.022
G1 X148.27 Y39.826 E0.021
G1 X148.899 Y39.695 E0.021
G1 X149.555 Y39.628 E0.022
G1 X150.203 E0.022
G1 X150.849 Y39.694 E0.021
G1 X151.48 Y39.825 E0.022
G1 X152.095 Y40.017 E0.021
G1 X152.692 Y40.275 E0.022
G1 X153.257 Y40.59 E0.021
G1 X153.782 Y40.955 E0.022
G1 X154.277 Y41.379 E0.021
G1 X154.721 Y41.849 E0.022
G1 X155.109 Y42.35 E0.021
G1 X155.455 Y42.907 E0.022
G1 X155.741 Y43.488 E0.021
G1 X155.965 Y44.097 E0.022
G1 X156.126 Y44.722 E0.021
G1 X156.22 Y45.344 E0.021
G1 X156.256 Y45.991 E0.022
G1 X156.221 Y46.65 E0.022
G1 X156.126 Y47.274 E0.021
G1 X155.966 Y47.898 E0.021
G1 X155.741 Y48.509 E0.022
G1 X155.455 Y49.088 E0.021
G1 X155.108 Y49.649 E0.022
G1 X154.711 Y50.157 E0.022
G1 X154.276 Y50.618 E0.021
G1 X153.784 Y51.039 E0.021
G1 X153.257 Y51.408 E0.022
G1 X152.69 Y51.723 E0.021
G1 X152.098 Y51.977 E0.022
G1 X151.483 Y52.171 E0.021
G1 X150.846 Y52.304 E0.022
G1 X150.199 Y52.368 E0.021
G1 X149.558 E0.022
G1 X148.902 Y52.302 E0.021
G1 X148.267 Y52.17 E0.022
G1 X147.663 Y51.98 E0.021
G1 X147.072 Y51.727 E0.022
G1 X146.505 Y51.413 E0.021
G1 X145.972 Y51.042 E0.022
G1 X145.485 Y50.623 E0.021
G1 X145.039 Y50.155 E0.022
G1 X144.635 Y49.634 E0.021
G1 X144.299 Y49.092 E0.022
G1 X144.015 Y48.513 E0.021
G1 X143.791 Y47.907 E0.022
G1 X143.629 Y47.283 E0.021
G1 X143.531 Y46.642 E0.022
G1 X143.499 Y45.998 E0.021
G1 X143.531 Y45.354 E0.022
G1 X143.629 Y44.713 E0.021
G1 X143.791 Y44.088 E0.022
G1 X144.015 Y43.484 E0.021
G1 X144.299 Y42.903 E0.021
G1 X144.635 Y42.363 E0.022
G1 X145.037 Y41.842 E0.022
;rapid-leaky
G0 X145.341 Y42.103 F7200
;bead-skirt/brim
G1 X145.76 Y41.664 F960 E0.02
G1 X146.22 Y41.269 E0.02
G1 X146.717 Y40.924 E0.02
G1 X147.246 Y40.63 E0.02
G1 X147.805 Y40.39 E0.02
G1 X148.371 Y40.214 E0.02
G1 X148.96 Y40.091 E0.02
G1 X149.575 Y40.028 E0.021
G1 X150.182 E0.02
G1 X150.788 Y40.09 E0.02
G1 X151.379 Y40.213 E0.02
G1 X151.956 Y40.393 E0.02
G1 X152.515 Y40.634 E0.021
G1 X153.045 Y40.929 E0.02
G1 X153.537 Y41.272 E0.02
G1 X154.001 Y41.669 E0.02
G1 X154.416 Y42.11 E0.02
G1 X154.78 Y42.578 E0.02
G1 X155.105 Y43.102 E0.02
G1 X155.373 Y43.646 E0.021
G1 X155.583 Y44.216 E0.02
G1 X155.733 Y44.802 E0.02
G1 X155.822 Y45.385 E0.019
G1 X155.855 Y45.992 E0.021
G1 X155.822 Y46.609 E0.02
G1 X155.733 Y47.194 E0.02
G1 X155.583 Y47.779 E0.02
G1 X155.373 Y48.351 E0.02
G1 X155.105 Y48.894 E0.02
G1 X154.779 Y49.42 E0.021
G1 X154.407 Y49.896 E0.02
G1 X154 Y50.328 E0.02
G1 X153.539 Y50.722 E0.02
G1 X153.045 Y51.068 E0.02
G1 X152.513 Y51.363 E0.02
G1 X151.958 Y51.602 E0.02
G1 X151.382 Y51.783 E0.02
G1 X150.785 Y51.908 E0.021
G1 X150.179 Y51.968 E0.02
G1 X149.578 E0.02
G1 X148.963 Y51.906 E0.021
G1 X148.368 Y51.782 E0.02
G1 X147.802 Y51.604 E0.019
G1 X147.248 Y51.367 E0.021
G1 X146.717 Y51.073 E0.02
G1 X146.218 Y50.725 E0.02
G1 X145.76 Y50.332 E0.02
G1 X145.343 Y49.894 E0.02
G1 X144.964 Y49.405 E0.021
G1 X144.649 Y48.898 E0.02
G1 X144.383 Y48.355 E0.02
G1 X144.173 Y47.787 E0.02
G1 X144.021 Y47.202 E0.02
G1 X143.929 Y46.602 E0.02
G1 X143.899 Y45.998 E0.02
G1 X143.929 Y45.394 E0.02
G1 X144.021 Y44.794 E0.021
G1 X144.173 Y44.208 E0.02
G1 X144.383 Y43.642 E0.02
G1 X144.649 Y43.097 E0.02
G1 X144.964 Y42.592 E0.02
G1 X145.341 Y42.103 E0.02
;rapid-leaky
G0 X145.645 Y42.364 F7200
;bead-skirt/brim
G1 X146.036 Y41.954 F960 E0.019
G1 X146.465 Y41.586 E0.019
G1 X146.928 Y41.264 E0.019
G1 X147.422 Y40.99 E0.018
G1 X147.944 Y40.766 E0.019
G1 X148.471 Y40.602 E0.019
G1 X149.022 Y40.487 E0.018
G1 X149.596 Y40.428 E0.02
G1 X150.162 E0.018
G1 X150.727 Y40.486 E0.019
G1 X151.279 Y40.601 E0.019
G1 X151.817 Y40.769 E0.019
G1 X152.338 Y40.993 E0.019
G1 X152.832 Y41.269 E0.019
G1 X153.292 Y41.589 E0.018
G1 X153.725 Y41.959 E0.019
G1 X154.112 Y42.37 E0.019
G1 X154.451 Y42.807 E0.018
G1 X154.755 Y43.296 E0.019
G1 X155.005 Y43.804 E0.019
G1 X155.201 Y44.335 E0.019
G1 X155.341 Y44.882 E0.019
G1 X155.424 Y45.426 E0.018
G1 X155.455 Y45.992 E0.019
G1 X155.424 Y46.569 E0.019
G1 X155.341 Y47.114 E0.019
G1 X155.201 Y47.66 E0.018
G1 X155.005 Y48.193 E0.019
G1 X154.755 Y48.7 E0.019
G1 X154.451 Y49.191 E0.019
G1 X154.104 Y49.635 E0.019
G1 X153.724 Y50.038 E0.018
G1 X153.294 Y50.406 E0.019
G1 X152.832 Y50.728 E0.019
G1 X152.337 Y51.004 E0.019
G1 X151.819 Y51.226 E0.019
G1 X151.281 Y51.396 E0.018
G1 X150.724 Y51.512 E0.019
G1 X150.16 Y51.568 E0.019
G1 X149.598 E0.019
G1 X149.024 Y51.511 E0.019
G1 X148.469 Y51.395 E0.019
G1 X147.942 Y51.229 E0.018
G1 X147.424 Y51.007 E0.019
G1 X146.928 Y50.733 E0.019
G1 X146.463 Y50.409 E0.019
G1 X146.036 Y50.042 E0.018
G1 X145.646 Y49.633 E0.019
G1 X145.293 Y49.177 E0.019
G1 X144.999 Y48.704 E0.019
G1 X144.751 Y48.198 E0.019
G1 X144.555 Y47.667 E0.018
G1 X144.414 Y47.122 E0.019
G1 X144.328 Y46.562 E0.019
G1 X144.3 Y45.998 E0.019
G1 X144.328 Y45.434 E0.019
G1 X144.414 Y44.875 E0.018
G1 X144.556 Y44.328 E0.019
G1 X144.751 Y43.8 E0.019
G1 X144.999 Y43.292 E0.019
G1 X145.293 Y42.82 E0.018
G1 X145.645 Y42.364 E0.019
;rapid-leaky
G0 X145.949 Y42.625 F7200
;bead-skirt/brim
G1 X146.312 Y42.244 F960 E0.018
G1 X146.71 Y41.903 E0.017
G1 X147.14 Y41.604 E0.018
G1 X147.599 Y41.349 E0.017
G1 X148.082 Y41.142 E0.018
G1 X148.572 Y40.989 E0.017
G1 X149.083 Y40.883 E0.017
G1 X149.616 Y40.828 E0.018
G1 X150.141 E0.017
G1 X150.665 Y40.882 E0.018
G1 X151.178 Y40.988 E0.017
G1 X151.678 Y41.144 E0.018
G1 X152.161 Y41.352 E0.017
G1 X152.62 Y41.608 E0.018
G1 X153.047 Y41.906 E0.017
G1 X153.448 Y42.249 E0.018
G1 X153.808 Y42.631 E0.017
G1 X154.123 Y43.036 E0.017
G1 X154.405 Y43.49 E0.018
G1 X154.637 Y43.962 E0.017
G1 X154.818 Y44.455 E0.018
G1 X154.949 Y44.962 E0.017
G1 X155.025 Y45.467 E0.017
G1 X155.054 Y45.992 E0.018
G1 X155.025 Y46.528 E0.018
G1 X154.949 Y47.034 E0.017
G1 X154.818 Y47.541 E0.017
G1 X154.637 Y48.035 E0.017
G1 X154.405 Y48.506 E0.018
G1 X154.122 Y48.962 E0.018
G1 X153.8 Y49.374 E0.017
G1 X153.448 Y49.747 E0.017
G1 X153.048 Y50.089 E0.018
G1 X152.62 Y50.389 E0.017
G1 X152.16 Y50.644 E0.018
G1 X151.679 Y50.851 E0.017
G1 X151.18 Y51.008 E0.017
G1 X150.664 Y51.116 E0.018
G1 X150.14 Y51.168 E0.017
G1 X149.618 E0.018
G1 X149.085 Y51.115 E0.018
G1 X148.57 Y51.007 E0.017
G1 X148.081 Y50.853 E0.017
G1 X147.6 Y50.647 E0.018
G1 X147.14 Y50.393 E0.017
G1 X146.708 Y50.092 E0.018
G1 X146.312 Y49.752 E0.017
G1 X145.95 Y49.372 E0.017
G1 X145.622 Y48.948 E0.018
G1 X145.35 Y48.51 E0.017
G1 X145.119 Y48.04 E0.018
G1 X144.937 Y47.547 E0.017
G1 X144.806 Y47.041 E0.018
G1 X144.726 Y46.521 E0.017
G1 X144.7 Y45.998 E0.018
G1 X144.726 Y45.475 E0.017
G1 X144.806 Y44.955 E0.017
G1 X144.938 Y44.448 E0.018
G1 X145.119 Y43.957 E0.017
G1 X145.35 Y43.486 E0.018
G1 X145.622 Y43.049 E0.017
G1 X145.949 Y42.625 E0.018
;rapid-leaky
G0 X146.253 Y42.886 F7200
;bead-skirt/brim
G1 X146.588 Y42.535 F960 E0.016
G1 X146.955 Y42.22 E0.016
G1 X147.352 Y41.944 E0.016
G1 X147.775 Y41.709 E0.016
G1 X148.221 Y41.518 E0.016
G1 X148.673 Y41.377 E0.016
G1 X149.145 Y41.278 E0.016
G1 X149.637 Y41.228 E0.016
G1 X150.121 E0.017
G1 X150.604 Y41.277 E0.016
G1 X151.077 Y41.376 E0.016
G1 X151.539 Y41.52 E0.016
G1 X151.984 Y41.712 E0.016
G1 X152.408 Y41.948 E0.016
G1 X152.802 Y42.223 E0.016
G1 X153.172 Y42.539 E0.016
G1 X153.504 Y42.891 E0.016
G1 X153.794 Y43.265 E0.016
G1 X154.055 Y43.684 E0.017
G1 X154.268 Y44.12 E0.016
G1 X154.436 Y44.574 E0.016
G1 X154.556 Y45.042 E0.016
G1 X154.627 Y45.508 E0.016
G1 X154.653 Y45.992 E0.016
G1 X154.627 Y46.487 E0.016
G1 X154.556 Y46.954 E0.016
G1 X154.436 Y47.422 E0.016
G1 X154.268 Y47.878 E0.016
G1 X154.055 Y48.312 E0.016
G1 X153.793 Y48.733 E0.017
G1 X153.496 Y49.113 E0.016
G1 X153.171 Y49.457 E0.015
G1 X152.803 Y49.772 E0.017
G1 X152.408 Y50.049 E0.016
G1 X151.983 Y50.285 E0.016
G1 X151.54 Y50.476 E0.016
G1 X151.079 Y50.621 E0.016
G1 X150.603 Y50.72 E0.016
G1 X150.12 Y50.768 E0.016
G1 X149.638 E0.016
G1 X149.146 Y50.719 E0.017
G1 X148.671 Y50.62 E0.016
G1 X148.22 Y50.478 E0.016
G1 X147.776 Y50.287 E0.016
G1 X147.352 Y50.053 E0.016
G1 X146.954 Y49.775 E0.016
G1 X146.588 Y49.461 E0.016
G1 X146.254 Y49.111 E0.016
G1 X145.951 Y48.72 E0.016
G1 X145.7 Y48.316 E0.016
G1 X145.488 Y47.882 E0.016
G1 X145.32 Y47.428 E0.016
G1 X145.198 Y46.96 E0.017
G1 X145.125 Y46.481 E0.016
G1 X145.101 Y45.998 E0.016
G1 X145.125 Y45.515 E0.016
G1 X145.198 Y45.036 E0.016
G1 X145.32 Y44.568 E0.016
G1 X145.488 Y44.115 E0.016
G1 X145.7 Y43.68 E0.016
G1 X145.951 Y43.278 E0.016
G1 X146.253 Y42.886 E0.016
;rapid-leaky
G0 X146.557 Y43.147 F7200
;bead-skirt/brim
G1 X146.863 Y42.825 F960 E0.015
G1 X147.199 Y42.537 E0.015
G1 X147.563 Y42.284 E0.015
G1 X147.951 Y42.069 E0.014
G1 X148.36 Y41.893 E0.015
G1 X148.773 Y41.765 E0.015
G1 X149.206 Y41.674 E0.014
G1 X149.657 Y41.628 E0.015
G1 X150.101 E0.015
G1 X150.543 Y41.673 E0.015
G1 X150.977 Y41.764 E0.015
G1 X151.4 Y41.896 E0.014
G1 X151.807 Y42.071 E0.015
G1 X152.195 Y42.288 E0.015
G1 X152.557 Y42.54 E0.015
G1 X152.896 Y42.829 E0.014
G1 X153.199 Y43.151 E0.015
G1 X153.465 Y43.494 E0.015
G1 X153.704 Y43.879 E0.015
G1 X153.9 Y44.277 E0.014
G1 X154.054 Y44.693 E0.015
G1 X154.164 Y45.122 E0.015
G1 X154.229 Y45.549 E0.014
G1 X154.253 Y45.993 E0.015
G1 X154.229 Y46.446 E0.015
G1 X154.164 Y46.874 E0.015
G1 X154.054 Y47.303 E0.014
G1 X153.9 Y47.72 E0.015
G1 X153.704 Y48.117 E0.015
G1 X153.465 Y48.504 E0.015
G1 X153.193 Y48.852 E0.015
G1 X152.895 Y49.167 E0.014
G1 X152.558 Y49.456 E0.015
G1 X152.195 Y49.709 E0.014
G1 X151.807 Y49.925 E0.015
G1 X151.4 Y50.1 E0.015
G1 X150.978 Y50.233 E0.015
G1 X150.542 Y50.324 E0.015
G1 X150.1 Y50.368 E0.014
G1 X149.658 E0.015
G1 X149.207 Y50.323 E0.015
G1 X148.772 Y50.232 E0.015
G1 X148.359 Y50.102 E0.014
G1 X147.952 Y49.928 E0.015
G1 X147.563 Y49.713 E0.015
G1 X147.199 Y49.459 E0.015
G1 X146.863 Y49.171 E0.014
G1 X146.557 Y48.85 E0.015
G1 X146.28 Y48.491 E0.015
G1 X146.05 Y48.122 E0.015
G1 X145.856 Y47.725 E0.014
G1 X145.702 Y47.308 E0.015
G1 X145.591 Y46.879 E0.015
G1 X145.523 Y46.441 E0.015
G1 X145.501 Y45.998 E0.014
G1 X145.523 Y45.555 E0.015
G1 X145.591 Y45.117 E0.015
G1 X145.702 Y44.688 E0.014
G1 X145.856 Y44.273 E0.015
G1 X146.05 Y43.874 E0.015
G1 X146.28 Y43.506 E0.014
G1 X146.557 Y43.147 E0.015
;rapid-leaky
G0 X146.861 Y43.408 F7200
;bead-skirt/brim
G1 X147.139 Y43.116 F960 E0.014
G1 X147.444 Y42.854 E0.013
G1 X147.775 Y42.624 E0.014
G1 X148.128 Y42.428 E0.013
G1 X148.499 Y42.269 E0.014
G1 X148.874 Y42.152 E0.013
G1 X149.267 Y42.07 E0.013
G1 X149.678 Y42.028 E0.014
G1 X150.08 E0.013
G1 X150.482 Y42.069 E0.013
G1 X150.876 Y42.151 E0.014
G1 X151.261 Y42.271 E0.013
G1 X151.63 Y42.43 E0.014
G1 X151.983 Y42.627 E0.013
G1 X152.312 Y42.857 E0.013
G1 X152.619 Y43.119 E0.014
G1 X152.895 Y43.412 E0.013
G1 X153.136 Y43.723 E0.013
G1 X153.354 Y44.073 E0.014
G1 X153.532 Y44.435 E0.013
G1 X153.671 Y44.812 E0.014
G1 X153.771 Y45.202 E0.013
G1 X153.83 Y45.59 E0.013
G1 X153.852 Y45.993 E0.014
G1 X153.83 Y46.405 E0.013
G1 X153.771 Y46.794 E0.014
G1 X153.671 Y47.184 E0.013
G1 X153.532 Y47.562 E0.013
G1 X153.354 Y47.923 E0.014
G1 X153.136 Y48.275 E0.013
G1 X152.889 Y48.591 E0.014
G1 X152.619 Y48.877 E0.013
G1 X152.313 Y49.139 E0.013
G1 X151.983 Y49.37 E0.014
G1 X151.63 Y49.566 E0.013
G1 X151.261 Y49.725 E0.013
G1 X150.877 Y49.846 E0.014
G1 X150.481 Y49.928 E0.013
G1 X150.08 Y49.968 E0.014
G1 X149.678 E0.013
G1 X149.268 Y49.927 E0.014
G1 X148.873 Y49.845 E0.013
G1 X148.498 Y49.727 E0.013
G1 X148.128 Y49.568 E0.014
G1 X147.775 Y49.373 E0.013
G1 X147.444 Y49.142 E0.014
G1 X147.139 Y48.88 E0.013
G1 X146.861 Y48.589 E0.013
G1 X146.609 Y48.262 E0.014
G1 X146.401 Y47.928 E0.013
G1 X146.224 Y47.567 E0.013
G1 X146.084 Y47.188 E0.014
G1 X145.983 Y46.798 E0.013
G1 X145.922 Y46.4 E0.014
G1 X145.902 Y45.998 E0.013
G1 X145.922 Y45.596 E0.013
G1 X145.983 Y45.198 E0.014
G1 X146.084 Y44.808 E0.013
G1 X146.224 Y44.43 E0.014
G1 X146.401 Y44.068 E0.013
G1 X146.609 Y43.735 E0.013
G1 X146.861 Y43.408 E0.014
;rapid-leaky
G0 X93.869 Y45.988 F7200
;bead-skirt/brim
G1 X93.831 Y46.753 F960 E0.025
G1 X93.716 Y47.516 E0.026
G1 X93.523 Y48.26 E0.026
G1 X93.259 Y48.978 E0.025
G1 X92.922 Y49.667 E0.026
G1 X92.505 Y50.34 E0.026
G1 X92.032 Y50.943 E0.025
G1 X91.519 Y51.486 E0.025
G1 X90.934 Y51.988 E0.026
G1 X90.302 Y52.429 E0.025
G1 X89.619 Y52.807 E0.026
G1 X88.926 Y53.104 E0.026
G1 X88.199 Y53.333 E0.025
G1 X87.442 Y53.491 E0.026
G1 X86.67 Y53.568 E0.025
G1 X85.911 E0.026
G1 X85.131 Y53.49 E0.026
G1 X84.376 Y53.332 E0.025
G1 X83.656 Y53.106 E0.025
G1 X82.958 Y52.806 E0.026
G1 X82.284 Y52.435 E0.025
G1 X81.649 Y51.992 E0.026
G1 X81.067 Y51.492 E0.026
G1 X80.538 Y50.936 E0.025
G1 X80.064 Y50.323 E0.026
G1 X79.661 Y49.678 E0.025
G1 X79.322 Y48.986 E0.026
G1 X79.057 Y48.266 E0.025
G1 X78.864 Y47.525 E0.026
G1 X78.747 Y46.763 E0.025
G1 X78.709 Y45.998 E0.026
G1 X78.747 Y45.233 E0.025
G1 X78.864 Y44.471 E0.026
G1 X79.057 Y43.728 E0.026
G1 X79.322 Y43.011 E0.025
G1 X79.661 Y42.317 E0.026
G1 X80.064 Y41.674 E0.025
G1 X80.536 Y41.064 E0.026
G1 X81.056 Y40.515 E0.025
G1 X81.649 Y40.004 E0.026
G1 X82.284 Y39.563 E0.025
G1 X82.954 Y39.192 E0.026
G1 X83.66 Y38.888 E0.026
G1 X84.38 Y38.664 E0.025
G1 X85.127 Y38.508 E0.025
G1 X85.906 Y38.428 E0.026
G1 X86.676 E0.026
G1 X87.446 Y38.507 E0.025
G1 X88.195 Y38.663 E0.026
G1 X88.922 Y38.89 E0.025
G1 X89.637 Y39.197 E0.026
G1 X90.305 Y39.571 E0.026
G1 X90.93 Y40.005 E0.025
G1 X91.519 Y40.51 E0.026
G1 X92.034 Y41.055 E0.025
G1 X92.505 Y41.658 E0.025
G1 X92.922 Y42.328 E0.026
G1 X93.259 Y43.019 E0.026
G1 X93.523 Y43.735 E0.025
G1 X93.716 Y44.478 E0.026
G1 X93.829 Y45.226 E0.025
G1 X93.869 Y45.988 E0.025
;rapid-leaky
G0 X93.468 Y45.989 F7200
;bead-skirt/brim
G1 X93.432 Y46.713 F960 E0.024
G1 X93.324 Y47.436 E0.025
G1 X93.141 Y48.14 E0.024
G1 X92.891 Y48.821 E0.024
G1 X92.571 Y49.473 E0.024
G1 X92.176 Y50.11 E0.025
G1 X91.728 Y50.682 E0.024
G1 X91.243 Y51.196 E0.024
G1 X90.688 Y51.672 E0.024
G1 X90.09 Y52.089 E0.024
G1 X89.443 Y52.447 E0.025
G1 X88.786 Y52.729 E0.024
G1 X88.098 Y52.946 E0.024
G1 X87.381 Y53.095 E0.024
G1 X86.651 Y53.168 E0.024
G1 X85.931 E0.024
G1 X85.192 Y53.094 E0.025
G1 X84.477 Y52.945 E0.024
G1 X83.795 Y52.731 E0.024
G1 X83.134 Y52.446 E0.024
G1 X82.496 Y52.095 E0.024
G1 X81.894 Y51.675 E0.025
G1 X81.343 Y51.202 E0.024
G1 X80.842 Y50.675 E0.024
G1 X80.393 Y50.094 E0.025
G1 X80.012 Y49.484 E0.023
G1 X79.691 Y48.828 E0.025
G1 X79.439 Y48.147 E0.024
G1 X79.257 Y47.445 E0.024
G1 X79.146 Y46.723 E0.024
G1 X79.11 Y45.998 E0.024
G1 X79.146 Y45.273 E0.025
G1 X79.257 Y44.551 E0.024
G1 X79.439 Y43.848 E0.024
G1 X79.691 Y43.169 E0.024
G1 X80.012 Y42.512 E0.024
G1 X80.393 Y41.903 E0.024
G1 X80.84 Y41.324 E0.025
G1 X81.332 Y40.804 E0.023
G1 X81.894 Y40.32 E0.025
G1 X82.496 Y39.903 E0.025
G1 X83.13 Y39.552 E0.024
G1 X83.799 Y39.264 E0.024
G1 X84.481 Y39.051 E0.024
G1 X85.188 Y38.904 E0.024
G1 X85.926 Y38.828 E0.024
G1 X86.655 E0.025
G1 X87.385 Y38.903 E0.024
G1 X88.094 Y39.05 E0.024
G1 X88.783 Y39.266 E0.024
G1 X89.46 Y39.556 E0.025
G1 X90.093 Y39.911 E0.024
G1 X90.685 Y40.322 E0.024
G1 X91.243 Y40.8 E0.024
G1 X91.73 Y41.316 E0.024
G1 X92.176 Y41.887 E0.024
G1 X92.571 Y42.522 E0.025
G1 X92.891 Y43.176 E0.024
G1 X93.141 Y43.854 E0.024
G1 X93.323 Y44.558 E0.024
G1 X93.431 Y45.266 E0.024
G1 X93.468 Y45.989 E0.024
;rapid-leaky
G0 X93.068 F7200
;bead-skirt/brim
G1 X93.034 Y46.673 F960 E0.023
G1 X92.931 Y47.355 E0.023
G1 X92.759 Y48.021 E0.023
G1 X92.522 Y48.664 E0.022
G1 X92.221 Y49.28 E0.023
G1 X91.848 Y49.881 E0.024
G1 X91.425 Y50.421 E0.023
G1 X90.966 Y50.906 E0.022
G1 X90.443 Y51.355 E0.023
G1 X89.878 Y51.749 E0.023
G1 X89.267 Y52.088 E0.023
G1 X88.647 Y52.353 E0.022
G1 X87.997 Y52.558 E0.023
G1 X87.32 Y52.699 E0.023
G1 X86.631 Y52.768 E0.023
G1 X85.95 E0.023
G1 X85.253 Y52.698 E0.023
G1 X84.578 Y52.557 E0.023
G1 X83.934 Y52.355 E0.022
G1 X83.31 Y52.086 E0.023
G1 X82.707 Y51.754 E0.023
G1 X82.139 Y51.358 E0.023
G1 X81.619 Y50.911 E0.023
G1 X81.146 Y50.414 E0.022
G1 X80.722 Y49.865 E0.024
G1 X80.362 Y49.289 E0.022
G1 X80.059 Y48.671 E0.023
G1 X79.821 Y48.027 E0.023
G1 X79.649 Y47.364 E0.023
G1 X79.544 Y46.683 E0.023
G1 X79.51 Y45.998 E0.022
G1 X79.544 Y45.313 E0.023
G1 X79.649 Y44.632 E0.023
G1 X79.821 Y43.968 E0.023
G1 X80.059 Y43.327 E0.023
G1 X80.362 Y42.706 E0.023
G1 X80.722 Y42.132 E0.022
G1 X81.144 Y41.585 E0.023
G1 X81.609 Y41.094 E0.023
G1 X82.139 Y40.637 E0.023
G1 X82.707 Y40.243 E0.023
G1 X83.306 Y39.911 E0.023
G1 X83.938 Y39.639 E0.023
G1 X84.582 Y39.439 E0.022
G1 X85.249 Y39.299 E0.023
G1 X85.947 Y39.228 E0.023
G1 X86.635 E0.023
G1 X87.324 Y39.298 E0.023
G1 X87.993 Y39.438 E0.023
G1 X88.644 Y39.641 E0.022
G1 X89.283 Y39.915 E0.023
G1 X89.881 Y40.25 E0.023
G1 X90.44 Y40.639 E0.023
G1 X90.966 Y41.09 E0.023
G1 X91.426 Y41.577 E0.022
G1 X91.848 Y42.117 E0.023
G1 X92.221 Y42.716 E0.023
G1 X92.522 Y43.334 E0.023
G1 X92.758 Y43.974 E0.023
G1 X92.931 Y44.639 E0.023
G1 X93.032 Y45.307 E0.022
G1 X93.068 Y45.989 E0.023
;rapid-leaky
G0 X92.667 Y45.99 F7200
;bead-skirt/brim
G1 X92.635 Y46.634 F960 E0.022
G1 X92.539 Y47.275 E0.021
G1 X92.377 Y47.901 E0.022
G1 X92.154 Y48.506 E0.021
G1 X91.87 Y49.086 E0.021
G1 X91.519 Y49.651 E0.023
G1 X91.121 Y50.159 E0.021
G1 X90.69 Y50.616 E0.021
G1 X90.198 Y51.039 E0.022
G1 X89.666 Y51.409 E0.021
G1 X89.091 Y51.728 E0.022
G1 X88.508 Y51.978 E0.021
G1 X87.896 Y52.171 E0.021
G1 X87.259 Y52.304 E0.022
G1 X86.611 Y52.368 E0.022
G1 X85.97 E0.021
G1 X85.314 Y52.302 E0.022
G1 X84.679 Y52.17 E0.022
G1 X84.074 Y51.98 E0.021
G1 X83.486 Y51.726 E0.021
G1 X82.919 Y51.414 E0.021
G1 X82.384 Y51.042 E0.022
G1 X81.895 Y50.621 E0.022
G1 X81.45 Y50.153 E0.021
G1 X81.05 Y49.636 E0.022
G1 X80.712 Y49.095 E0.021
G1 X80.427 Y48.513 E0.022
G1 X80.203 Y47.907 E0.021
G1 X80.041 Y47.283 E0.022
G1 X79.943 Y46.642 E0.021
G1 X79.911 Y45.998 E0.022
G1 X79.943 Y45.354 E0.021
G1 X80.041 Y44.713 E0.022
G1 X80.203 Y44.088 E0.021
G1 X80.427 Y43.484 E0.021
G1 X80.712 Y42.901 E0.022
G1 X81.05 Y42.361 E0.021
G1 X81.448 Y41.845 E0.022
G1 X81.885 Y41.384 E0.021
G1 X82.385 Y40.954 E0.022
G1 X82.919 Y40.583 E0.022
G1 X83.483 Y40.271 E0.021
G1 X84.077 Y40.015 E0.022
G1 X84.682 Y39.826 E0.021
G1 X85.311 Y39.695 E0.021
G1 X85.967 Y39.628 E0.022
G1 X86.614 E0.021
G1 X87.263 Y39.694 E0.022
G1 X87.893 Y39.826 E0.022
G1 X88.505 Y40.017 E0.021
G1 X89.106 Y40.274 E0.022
G1 X89.669 Y40.59 E0.021
G1 X90.195 Y40.955 E0.021
G1 X90.69 Y41.38 E0.022
G1 X91.123 Y41.838 E0.021
G1 X91.52 Y42.346 E0.021
G1 X91.87 Y42.91 E0.023
G1 X92.154 Y43.491 E0.021
G1 X92.376 Y44.094 E0.021
G1 X92.538 Y44.719 E0.022
G1 X92.634 Y45.347 E0.021
G1 X92.667 Y45.99 E0.021
;rapid-leaky
G0 X92.267 F7200
;bead-skirt/brim
G1 X92.237 Y46.594 F960 E0.021
G1 X92.146 Y47.195 E0.02
G1 X91.994 Y47.781 E0.02
G1 X91.786 Y48.349 E0.02
G1 X91.52 Y48.892 E0.02
G1 X91.191 Y49.422 E0.021
G1 X90.818 Y49.898 E0.02
G1 X90.413 Y50.326 E0.02
G1 X89.952 Y50.722 E0.02
G1 X89.454 Y51.069 E0.02
G1 X88.915 Y51.368 E0.021
G1 X88.369 Y51.602 E0.019
G1 X87.795 Y51.783 E0.02
G1 X87.198 Y51.908 E0.021
G1 X86.591 Y51.968 E0.02
G1 X85.99 E0.02
G1 X85.375 Y51.907 E0.02
G1 X84.78 Y51.782 E0.021
G1 X84.213 Y51.604 E0.019
G1 X83.661 Y51.367 E0.02
G1 X83.13 Y51.074 E0.021
G1 X82.63 Y50.725 E0.02
G1 X82.171 Y50.331 E0.02
G1 X81.754 Y49.892 E0.02
G1 X81.379 Y49.407 E0.02
G1 X81.062 Y48.9 E0.02
G1 X80.795 Y48.355 E0.021
G1 X80.585 Y47.787 E0.02
G1 X80.433 Y47.202 E0.02
G1 X80.341 Y46.602 E0.02
G1 X80.311 Y45.998 E0.02
G1 X80.341 Y45.394 E0.02
G1 X80.433 Y44.794 E0.02
G1 X80.585 Y44.208 E0.021
G1 X80.795 Y43.642 E0.02
G1 X81.062 Y43.095 E0.02
G1 X81.379 Y42.59 E0.02
G1 X81.753 Y42.105 E0.02
G1 X82.162 Y41.674 E0.02
G1 X82.63 Y41.27 E0.02
G1 X83.13 Y40.923 E0.021
G1 X83.659 Y40.63 E0.02
G1 X84.216 Y40.391 E0.02
G1 X84.783 Y40.214 E0.02
G1 X85.372 Y40.091 E0.02
G1 X85.987 Y40.028 E0.02
G1 X86.594 E0.02
G1 X87.201 Y40.09 E0.021
G1 X87.792 Y40.213 E0.02
G1 X88.367 Y40.393 E0.02
G1 X88.929 Y40.634 E0.02
G1 X89.456 Y40.929 E0.02
G1 X89.95 Y41.272 E0.02
G1 X90.413 Y41.67 E0.021
G1 X90.819 Y42.099 E0.019
G1 X91.191 Y42.575 E0.02
G1 X91.52 Y43.104 E0.021
G1 X91.786 Y43.648 E0.02
G1 X91.994 Y44.214 E0.02
G1 X92.146 Y44.799 E0.02
G1 X92.235 Y45.388 E0.02
G1 X92.267 Y45.99 E0.02
;rapid-leaky
G0 X91.866 Y45.991 F7200
;bead-skirt/brim
G1 X91.838 Y46.554 F960 E0.019
G1 X91.754 Y47.115 E0.019
G1 X91.612 Y47.662 E0.019
G1 X91.417 Y48.191 E0.018
G1 X91.169 Y48.698 E0.019
G1 X90.863 Y49.193 E0.019
G1 X90.514 Y49.637 E0.019
G1 X90.137 Y50.036 E0.019
G1 X89.707 Y50.406 E0.018
G1 X89.243 Y50.73 E0.019
G1 X88.739 Y51.009 E0.019
G1 X88.23 Y51.227 E0.019
G1 X87.693 Y51.396 E0.019
G1 X87.138 Y51.512 E0.018
G1 X86.571 Y51.568 E0.019
G1 X86.01 E0.019
G1 X85.436 Y51.511 E0.019
G1 X84.881 Y51.395 E0.019
G1 X84.353 Y51.229 E0.018
G1 X83.837 Y51.007 E0.019
G1 X83.341 Y50.734 E0.019
G1 X82.875 Y50.409 E0.019
G1 X82.447 Y50.041 E0.019
G1 X82.058 Y49.632 E0.018
G1 X81.707 Y49.178 E0.019
G1 X81.412 Y48.706 E0.019
G1 X81.163 Y48.198 E0.019
G1 X80.967 Y47.667 E0.019
G1 X80.826 Y47.121 E0.018
G1 X80.74 Y46.562 E0.019
G1 X80.712 Y45.998 E0.019
G1 X80.74 Y45.434 E0.019
G1 X80.826 Y44.875 E0.019
G1 X80.968 Y44.328 E0.018
G1 X81.163 Y43.8 E0.019
G1 X81.412 Y43.29 E0.019
G1 X81.707 Y42.819 E0.018
G1 X82.057 Y42.366 E0.019
G1 X82.438 Y41.964 E0.019
G1 X82.875 Y41.587 E0.019
G1 X83.341 Y41.263 E0.019
G1 X83.835 Y40.99 E0.019
G1 X84.355 Y40.766 E0.019
G1 X84.883 Y40.602 E0.018
G1 X85.434 Y40.487 E0.019
G1 X86.008 Y40.428 E0.019
G1 X86.574 E0.019
G1 X87.14 Y40.486 E0.019
G1 X87.691 Y40.601 E0.018
G1 X88.228 Y40.768 E0.019
G1 X88.752 Y40.993 E0.019
G1 X89.244 Y41.269 E0.019
G1 X89.705 Y41.589 E0.018
G1 X90.137 Y41.96 E0.019
G1 X90.515 Y42.36 E0.019
G1 X90.863 Y42.805 E0.018
G1 X91.169 Y43.298 E0.02
G1 X91.417 Y43.806 E0.019
G1 X91.612 Y44.333 E0.018
G1 X91.754 Y44.88 E0.019
G1 X91.837 Y45.429 E0.019
G1 X91.866 Y45.991 E0.018
;rapid-leaky
G0 X91.466 F7200
;bead-skirt/brim
G1 X91.44 Y46.514 F960 E0.018
G1 X91.362 Y47.035 E0.017
G1 X91.23 Y47.542 E0.018
G1 X91.049 Y48.034 E0.017
G1 X90.819 Y48.504 E0.017
G1 X90.534 Y48.963 E0.018
G1 X90.211 Y49.376 E0.018
G1 X89.861 Y49.747 E0.017
G1 X89.462 Y50.089 E0.017
G1 X89.031 Y50.39 E0.018
G1 X88.562 Y50.649 E0.018
G1 X88.09 Y50.851 E0.017
G1 X87.592 Y51.008 E0.017
G1 X87.077 Y51.116 E0.018
G1 X86.551 Y51.168 E0.017
G1 X86.03 E0.017
G1 X85.497 Y51.115 E0.018
G1 X84.982 Y51.007 E0.018
G1 X84.492 Y50.853 E0.017
G1 X84.013 Y50.647 E0.017
G1 X83.553 Y50.394 E0.018
G1 X83.12 Y50.092 E0.017
G1 X82.723 Y49.751 E0.018
G1 X82.362 Y49.371 E0.017
G1 X82.036 Y48.949 E0.018
G1 X81.762 Y48.512 E0.017
G1 X81.531 Y48.04 E0.017
G1 X81.349 Y47.547 E0.018
G1 X81.218 Y47.041 E0.017
G1 X81.138 Y46.521 E0.018
G1 X81.112 Y45.998 E0.017
G1 X81.138 Y45.475 E0.018
G1 X81.218 Y44.955 E0.017
G1 X81.35 Y44.448 E0.018
G1 X81.531 Y43.957 E0.017
G1 X81.762 Y43.484 E0.017
G1 X82.036 Y43.048 E0.018
G1 X82.361 Y42.626 E0.017
G1 X82.715 Y42.254 E0.017
G1 X83.12 Y41.904 E0.018
G1 X83.553 Y41.604 E0.018
G1 X84.012 Y41.349 E0.017
G1 X84.494 Y41.142 E0.018
G1 X84.984 Y40.989 E0.017
G1 X85.495 Y40.883 E0.017
G1 X86.028 Y40.828 E0.018
G1 X86.553 E0.017
G1 X87.079 Y40.882 E0.018
G1 X87.59 Y40.988 E0.017
G1 X88.089 Y41.144 E0.018
G1 X88.575 Y41.352 E0.017
G1 X89.032 Y41.608 E0.018
G1 X89.46 Y41.906 E0.017
G1 X89.861 Y42.249 E0.018
G1 X90.212 Y42.621 E0.017
G1 X90.534 Y43.034 E0.017
G1 X90.819 Y43.492 E0.018
G1 X91.049 Y43.963 E0.017
G1 X91.23 Y44.453 E0.018
G1 X91.361 Y44.96 E0.017
G1 X91.439 Y45.469 E0.017
G1 X91.466 Y45.991 E0.018
;rapid-leaky
G0 X91.065 Y45.992 F7200
;bead-skirt/brim
G1 X91.041 Y46.474 F960 E0.016
G1 X90.969 Y46.954 E0.016
G1 X90.848 Y47.423 E0.016
G1 X90.681 Y47.877 E0.016
G1 X90.468 Y48.311 E0.016
G1 X90.206 Y48.734 E0.017
G1 X89.908 Y49.114 E0.016
G1 X89.584 Y49.457 E0.015
G1 X89.216 Y49.772 E0.017
G1 X88.819 Y50.05 E0.016
G1 X88.386 Y50.289 E0.016
G1 X87.951 Y50.476 E0.016
G1 X87.491 Y50.621 E0.016
G1 X87.016 Y50.72 E0.016
G1 X86.532 Y50.768 E0.016
G1 X86.05 E0.016
G1 X85.558 Y50.719 E0.017
G1 X85.083 Y50.62 E0.016
G1 X84.631 Y50.478 E0.016
G1 X84.189 Y50.287 E0.016
G1 X83.764 Y50.053 E0.016
G1 X83.366 Y49.775 E0.016
G1 X82.999 Y49.46 E0.016
G1 X82.666 Y49.11 E0.016
G1 X82.365 Y48.72 E0.016
G1 X82.113 Y48.317 E0.016
G1 X81.9 Y47.882 E0.016
G1 X81.732 Y47.428 E0.016
G1 X81.61 Y46.96 E0.017
G1 X81.537 Y46.481 E0.016
G1 X81.513 Y45.998 E0.016
G1 X81.537 Y45.515 E0.016
G1 X81.61 Y45.036 E0.016
G1 X81.732 Y44.568 E0.016
G1 X81.9 Y44.115 E0.016
G1 X82.113 Y43.679 E0.016
G1 X82.365 Y43.277 E0.016
G1 X82.665 Y42.887 E0.016
G1 X82.991 Y42.543 E0.016
G1 X83.366 Y42.22 E0.017
G1 X83.764 Y41.944 E0.016
G1 X84.188 Y41.709 E0.016
G1 X84.633 Y41.518 E0.016
G1 X85.085 Y41.377 E0.016
G1 X85.557 Y41.278 E0.016
G1 X86.049 Y41.228 E0.016
G1 X86.533 E0.016
G1 X87.017 Y41.277 E0.016
G1 X87.49 Y41.376 E0.017
G1 X87.95 Y41.52 E0.016
G1 X88.398 Y41.712 E0.016
G1 X88.82 Y41.948 E0.016
G1 X89.215 Y42.223 E0.016
G1 X89.584 Y42.539 E0.016
G1 X89.908 Y42.882 E0.016
G1 X90.206 Y43.264 E0.016
G1 X90.468 Y43.685 E0.016
G1 X90.681 Y44.121 E0.016
G1 X90.847 Y44.573 E0.016
G1 X90.969 Y45.041 E0.017
G1 X91.04 Y45.51 E0.015
G1 X91.065 Y45.992 E0.016
;rapid-leaky
G0 X90.665 F7200
;bead-skirt/brim
G1 X90.643 Y46.435 F960 E0.015
G1 X90.577 Y46.874 E0.015
G1 X90.465 Y47.303 E0.015
G1 X90.312 Y47.719 E0.014
G1 X90.118 Y48.117 E0.015
G1 X89.878 Y48.504 E0.015
G1 X89.604 Y48.853 E0.015
G1 X89.308 Y49.167 E0.014
G1 X88.971 Y49.456 E0.015
G1 X88.607 Y49.71 E0.015
G1 X88.21 Y49.93 E0.015
G1 X87.812 Y50.1 E0.014
G1 X87.39 Y50.233 E0.015
G1 X86.955 Y50.324 E0.015
G1 X86.512 Y50.368 E0.015
G1 X86.07 E0.014
G1 X85.619 Y50.323 E0.016
G1 X85.184 Y50.232 E0.014
G1 X84.771 Y50.102 E0.015
G1 X84.365 Y49.928 E0.014
G1 X83.976 Y49.713 E0.015
G1 X83.611 Y49.459 E0.015
G1 X83.275 Y49.17 E0.015
G1 X82.97 Y48.849 E0.014
G1 X82.693 Y48.491 E0.015
G1 X82.463 Y48.123 E0.015
G1 X82.268 Y47.725 E0.015
G1 X82.114 Y47.308 E0.014
G1 X82.003 Y46.879 E0.015
G1 X81.935 Y46.441 E0.015
G1 X81.913 Y45.998 E0.015
G1 X81.935 Y45.555 E0.014
G1 X82.003 Y45.117 E0.015
G1 X82.114 Y44.688 E0.015
G1 X82.268 Y44.273 E0.015
G1 X82.463 Y43.873 E0.014
G1 X82.693 Y43.506 E0.015
G1 X82.97 Y43.147 E0.015
G1 X83.267 Y42.833 E0.014
G1 X83.611 Y42.537 E0.015
G1 X83.976 Y42.284 E0.015
G1 X84.365 Y42.069 E0.015
G1 X84.772 Y41.893 E0.015
G1 X85.185 Y41.765 E0.014
G1 X85.618 Y41.674 E0.015
G1 X86.069 Y41.628 E0.015
G1 X86.513 E0.015
G1 X86.956 Y41.673 E0.014
G1 X87.389 Y41.764 E0.015
G1 X87.811 Y41.895 E0.015
G1 X88.221 Y42.071 E0.015
G1 X88.607 Y42.288 E0.014
G1 X88.97 Y42.54 E0.015
G1 X89.308 Y42.829 E0.015
G1 X89.604 Y43.143 E0.014
G1 X89.878 Y43.493 E0.015
G1 X90.118 Y43.879 E0.015
G1 X90.312 Y44.278 E0.015
G1 X90.465 Y44.692 E0.015
G1 X90.577 Y45.121 E0.014
G1 X90.642 Y45.55 E0.015
G1 X90.665 Y45.992 E0.014
;rapid-leaky
G0 X90.264 Y45.993 F7200
;bead-skirt/brim
G1 X90.244 Y46.395 F960 E0.014
G1 X90.184 Y46.794 E0.013
G1 X90.083 Y47.184 E0.014
G1 X89.944 Y47.562 E0.013
G1 X89.767 Y47.923 E0.013
G1 X89.549 Y48.275 E0.014
G1 X89.301 Y48.592 E0.014
G1 X89.031 Y48.877 E0.013
G1 X88.726 Y49.139 E0.013
G1 X88.395 Y49.37 E0.013
G1 X88.034 Y49.57 E0.014
G1 X87.673 Y49.725 E0.013
G1 X87.289 Y49.846 E0.014
G1 X86.894 Y49.928 E0.013
G1 X86.492 Y49.968 E0.014
G1 X86.09 E0.013
G1 X85.68 Y49.927 E0.014
G1 X85.285 Y49.845 E0.013
G1 X84.91 Y49.727 E0.013
G1 X84.541 Y49.568 E0.013
G1 X84.187 Y49.373 E0.014
G1 X83.856 Y49.142 E0.013
G1 X83.551 Y48.88 E0.014
G1 X83.274 Y48.588 E0.013
G1 X83.022 Y48.262 E0.014
G1 X82.813 Y47.928 E0.013
G1 X82.636 Y47.567 E0.013
G1 X82.496 Y47.188 E0.014
G1 X82.395 Y46.798 E0.013
G1 X82.334 Y46.4 E0.013
G1 X82.314 Y45.998 E0.014
G1 X82.334 Y45.596 E0.013
G1 X82.395 Y45.198 E0.014
G1 X82.496 Y44.808 E0.013
G1 X82.636 Y44.43 E0.013
G1 X82.813 Y44.068 E0.014
G1 X83.022 Y43.735 E0.013
G1 X83.274 Y43.408 E0.014
G1 X83.544 Y43.123 E0.013
G1 X83.856 Y42.854 E0.013
G1 X84.187 Y42.624 E0.014
G1 X84.541 Y42.428 E0.013
G1 X84.911 Y42.269 E0.014
G1 X85.286 Y42.152 E0.013
G1 X85.679 Y42.07 E0.013
G1 X86.09 Y42.028 E0.014
G1 X86.492 E0.013
G1 X86.895 Y42.069 E0.014
G1 X87.288 Y42.151 E0.013
G1 X87.672 Y42.271 E0.013
G1 X88.044 Y42.43 E0.014
G1 X88.395 Y42.627 E0.013
G1 X88.725 Y42.857 E0.014
G1 X89.031 Y43.119 E0.013
G1 X89.301 Y43.404 E0.013
G1 X89.549 Y43.722 E0.014
G1 X89.767 Y44.073 E0.013
G1 X89.944 Y44.435 E0.014
G1 X90.083 Y44.812 E0.013
G1 X90.184 Y45.202 E0.013
G1 X90.243 Y45.591 E0.014
G1 X90.264 Y45.993 E0.013
;rapid-leaky
G0 X89.071 Y148.872 F7200
;bead-skirt/brim
G1 X89.835 Y148.95 F960 E0.025
G1 X90.587 Y149.103 E0.026
G1 X91.328 Y149.335 E0.026
G1 X92.039 Y149.641 E0.026
G1 X92.721 Y150.02 E0.025
G1 X93.344 Y150.456 E0.026
G1 X93.927 Y150.957 E0.025
G1 X94.458 Y151.516 E0.026
G1 X94.936 Y152.135 E0.026
G1 X95.335 Y152.777 E0.025
G1 X95.673 Y153.463 E0.026
G1 X95.943 Y154.191 E0.025
G1 X96.136 Y154.94 E0.026
G1 X96.251 Y155.696 E0.026
G1 X96.291 Y156.467 E0.025
G1 X96.251 Y157.237 E0.026
G1 X96.136 Y157.995 E0.025
G1 X95.943 Y158.743 E0.026
G1 X95.673 Y159.468 E0.026
G1 X95.336 Y160.156 E0.025
G1 X94.929 Y160.811 E0.026
G1 X94.455 Y161.422 E0.026
G1 X93.927 Y161.977 E0.025
G1 X93.342 Y162.48 E0.026
G1 X92.705 Y162.923 E0.026
G1 X92.033 Y163.295 E0.025
G1 X91.328 Y163.598 E0.026
G1 X90.592 Y163.828 E0.025
G1 X89.84 Y163.984 E0.026
G1 X89.071 Y164.062 E0.026
G1 X88.3 E0.025
G1 X87.531 Y163.984 E0.026
G1 X86.778 Y163.828 E0.026
G1 X86.045 Y163.598 E0.025
G1 X85.338 Y163.295 E0.026
G1 X84.665 Y162.922 E0.025
G1 X84.03 Y162.48 E0.026
G1 X83.445 Y161.977 E0.026
G1 X82.917 Y161.422 E0.025
G1 X82.446 Y160.814 E0.026
G1 X82.035 Y160.156 E0.025
G1 X81.697 Y159.464 E0.026
G1 X81.429 Y158.743 E0.026
G1 X81.238 Y157.999 E0.025
G1 X81.119 Y157.237 E0.026
G1 X81.081 Y156.467 E0.026
G1 X81.119 Y155.696 E0.025
G1 X81.238 Y154.935 E0.026
G1 X81.429 Y154.191 E0.025
G1 X81.698 Y153.467 E0.026
G1 X82.036 Y152.777 E0.026
G1 X82.446 Y152.12 E0.025
G1 X82.917 Y151.512 E0.026
G1 X83.445 Y150.957 E0.025
G1 X84.032 Y150.453 E0.026
G1 X84.673 Y150.007 E0.026
G1 X85.336 Y149.639 E0.025
G1 X86.045 Y149.335 E0.026
G1 X86.782 Y149.104 E0.026
G1 X87.536 Y148.95 E0.025
G1 X88.3 Y148.872 E0.026
G1 X89.071 E0.025
;rapid-leaky
G0 X89.051 Y149.272 F7200
;bead-skirt/brim
G1 X89.775 Y149.346 F960 E0.025
G1 X90.487 Y149.491 E0.024
G1 X91.189 Y149.71 E0.024
G1 X91.862 Y150 E0.025
G1 X92.508 Y150.36 E0.024
G1 X93.098 Y150.772 E0.024
G1 X93.651 Y151.247 E0.024
G1 X94.154 Y151.776 E0.025
G1 X94.607 Y152.363 E0.024
G1 X94.984 Y152.971 E0.024
G1 X95.305 Y153.622 E0.024
G1 X95.561 Y154.311 E0.025
G1 X95.743 Y155.02 E0.024
G1 X95.853 Y155.736 E0.024
G1 X95.891 Y156.467 E0.025
G1 X95.853 Y157.196 E0.024
G1 X95.743 Y157.914 E0.024
G1 X95.56 Y158.623 E0.024
G1 X95.306 Y159.31 E0.025
G1 X94.985 Y159.961 E0.024
G1 X94.6 Y160.582 E0.024
G1 X94.151 Y161.161 E0.025
G1 X93.651 Y161.687 E0.024
G1 X93.097 Y162.163 E0.024
G1 X92.494 Y162.583 E0.024
G1 X91.856 Y162.935 E0.025
G1 X91.189 Y163.223 E0.024
G1 X90.492 Y163.44 E0.024
G1 X89.779 Y163.588 E0.024
G1 X89.051 Y163.662 E0.025
G1 X88.32 E0.024
G1 X87.592 Y163.588 E0.024
G1 X86.878 Y163.44 E0.025
G1 X86.184 Y163.223 E0.024
G1 X85.514 Y162.935 E0.024
G1 X84.877 Y162.582 E0.024
G1 X84.275 Y162.163 E0.025
G1 X83.721 Y161.687 E0.024
G1 X83.221 Y161.161 E0.024
G1 X82.774 Y160.585 E0.024
G1 X82.385 Y159.961 E0.025
G1 X82.065 Y159.306 E0.024
G1 X81.812 Y158.623 E0.024
G1 X81.63 Y157.919 E0.024
G1 X81.518 Y157.196 E0.025
G1 X81.482 Y156.467 E0.024
G1 X81.518 Y155.736 E0.024
G1 X81.63 Y155.016 E0.025
G1 X81.811 Y154.311 E0.024
G1 X82.066 Y153.625 E0.024
G1 X82.386 Y152.971 E0.024
G1 X82.774 Y152.349 E0.025
G1 X83.221 Y151.773 E0.024
G1 X83.721 Y151.247 E0.024
G1 X84.277 Y150.769 E0.025
G1 X84.885 Y150.347 E0.024
G1 X85.513 Y149.999 E0.024
G1 X86.184 Y149.71 E0.024
G1 X86.882 Y149.492 E0.025
G1 X87.596 Y149.346 E0.024
G1 X88.32 Y149.272 E0.024
G1 X89.051 E0.024
;rapid-leaky
G0 X89.03 Y149.672 F7200
;bead-skirt/brim
G1 X89.714 Y149.742 F960 E0.023
G1 X90.387 Y149.879 E0.023
G1 X91.049 Y150.086 E0.023
G1 X91.685 Y150.36 E0.023
G1 X92.296 Y150.7 E0.023
G1 X92.853 Y151.089 E0.023
G1 X93.375 Y151.537 E0.023
G1 X93.85 Y152.037 E0.023
G1 X94.278 Y152.591 E0.023
G1 X94.634 Y153.166 E0.023
G1 X94.937 Y153.78 E0.022
G1 X95.179 Y154.431 E0.024
G1 X95.351 Y155.1 E0.023
G1 X95.454 Y155.777 E0.022
G1 X95.49 Y156.467 E0.023
G1 X95.454 Y157.156 E0.023
G1 X95.351 Y157.834 E0.023
G1 X95.178 Y158.503 E0.023
G1 X94.938 Y159.152 E0.023
G1 X94.635 Y159.767 E0.023
G1 X94.271 Y160.354 E0.023
G1 X93.847 Y160.9 E0.023
G1 X93.375 Y161.397 E0.023
G1 X92.852 Y161.847 E0.023
G1 X92.282 Y162.243 E0.023
G1 X91.68 Y162.575 E0.022
G1 X91.049 Y162.847 E0.023
G1 X90.391 Y163.053 E0.023
G1 X89.718 Y163.192 E0.023
G1 X89.03 Y163.262 E0.023
G1 X88.341 E0.023
G1 X87.653 Y163.192 E0.023
G1 X86.979 Y163.052 E0.023
G1 X86.323 Y162.847 E0.023
G1 X85.69 Y162.575 E0.023
G1 X85.088 Y162.242 E0.023
G1 X84.52 Y161.847 E0.023
G1 X83.997 Y161.397 E0.023
G1 X83.525 Y160.9 E0.022
G1 X83.103 Y160.356 E0.023
G1 X82.736 Y159.767 E0.023
G1 X82.433 Y159.148 E0.023
G1 X82.194 Y158.503 E0.023
G1 X82.022 Y157.838 E0.023
G1 X81.916 Y157.156 E0.023
G1 X81.882 Y156.467 E0.023
G1 X81.916 Y155.777 E0.023
G1 X82.022 Y155.097 E0.023
G1 X82.193 Y154.431 E0.023
G1 X82.434 Y153.783 E0.023
G1 X82.736 Y153.165 E0.022
G1 X83.103 Y152.578 E0.023
G1 X83.525 Y152.034 E0.023
G1 X83.997 Y151.537 E0.023
G1 X84.522 Y151.086 E0.023
G1 X85.097 Y150.687 E0.023
G1 X85.689 Y150.358 E0.023
G1 X86.323 Y150.086 E0.023
G1 X86.982 Y149.879 E0.023
G1 X87.657 Y149.742 E0.023
G1 X88.341 Y149.672 E0.023
G1 X89.03 E0.023
;rapid-leaky
G0 X89.01 Y150.072 F7200
;bead-skirt/brim
G1 X89.654 Y150.138 F960 E0.021
G1 X90.288 Y150.267 E0.022
G1 X90.91 Y150.462 E0.021
G1 X91.508 Y150.719 E0.022
G1 X92.084 Y151.039 E0.022
G1 X92.608 Y151.405 E0.021
G1 X93.099 Y151.827 E0.022
G1 X93.546 Y152.298 E0.021
G1 X93.949 Y152.82 E0.022
G1 X94.284 Y153.36 E0.021
G1 X94.569 Y153.938 E0.022
G1 X94.796 Y154.551 E0.022
G1 X94.959 Y155.18 E0.021
G1 X95.056 Y155.818 E0.022
G1 X95.09 Y156.467 E0.021
G1 X95.056 Y157.115 E0.022
G1 X94.959 Y157.754 E0.021
G1 X94.796 Y158.383 E0.022
G1 X94.57 Y158.993 E0.022
G1 X94.285 Y159.573 E0.021
G1 X93.942 Y160.125 E0.022
G1 X93.543 Y160.639 E0.021
G1 X93.099 Y161.107 E0.022
G1 X92.606 Y161.53 E0.021
G1 X92.071 Y161.903 E0.022
G1 X91.504 Y162.216 E0.022
G1 X90.91 Y162.471 E0.021
G1 X90.291 Y162.665 E0.022
G1 X89.657 Y162.796 E0.021
G1 X89.01 Y162.862 E0.022
G1 X88.361 E0.021
G1 X87.714 Y162.796 E0.022
G1 X87.079 Y162.665 E0.022
G1 X86.462 Y162.471 E0.021
G1 X85.867 Y162.216 E0.022
G1 X85.3 Y161.902 E0.021
G1 X84.766 Y161.53 E0.022
G1 X84.273 Y161.107 E0.021
G1 X83.829 Y160.639 E0.022
G1 X83.432 Y160.127 E0.022
G1 X83.086 Y159.573 E0.021
G1 X82.801 Y158.99 E0.022
G1 X82.576 Y158.383 E0.021
G1 X82.414 Y157.757 E0.022
G1 X82.315 Y157.115 E0.021
G1 X82.283 Y156.467 E0.022
G1 X82.315 Y155.818 E0.022
G1 X82.414 Y155.177 E0.021
G1 X82.576 Y154.551 E0.022
G1 X82.802 Y153.941 E0.021
G1 X83.087 Y153.36 E0.022
G1 X83.432 Y152.807 E0.022
G1 X83.829 Y152.295 E0.021
G1 X84.273 Y151.827 E0.022
G1 X84.767 Y151.403 E0.021
G1 X85.308 Y151.027 E0.022
G1 X85.865 Y150.718 E0.021
G1 X86.462 Y150.462 E0.022
G1 X87.082 Y150.267 E0.022
G1 X87.717 Y150.138 E0.021
G1 X88.361 Y150.072 E0.022
G1 X89.01 E0.021
;rapid-leaky
G0 X88.99 Y150.472 F7200
;bead-skirt/brim
G1 X89.593 Y150.533 F960 E0.02
G1 X90.188 Y150.655 E0.021
G1 X90.771 Y150.837 E0.02
G1 X91.332 Y151.078 E0.02
G1 X91.872 Y151.379 E0.021
G1 X92.362 Y151.721 E0.02
G1 X92.822 Y152.117 E0.02
G1 X93.241 Y152.558 E0.02
G1 X93.62 Y153.048 E0.021
G1 X93.934 Y153.554 E0.019
G1 X94.201 Y154.097 E0.021
G1 X94.414 Y154.67 E0.02
G1 X94.566 Y155.261 E0.02
G1 X94.657 Y155.858 E0.02
G1 X94.689 Y156.467 E0.021
G1 X94.657 Y157.074 E0.02
G1 X94.566 Y157.674 E0.02
G1 X94.414 Y158.263 E0.02
G1 X94.202 Y158.835 E0.021
G1 X93.935 Y159.379 E0.02
G1 X93.613 Y159.896 E0.02
G1 X93.24 Y160.378 E0.02
G1 X92.822 Y160.817 E0.02
G1 X92.361 Y161.213 E0.021
G1 X91.859 Y161.563 E0.02
G1 X91.328 Y161.856 E0.02
G1 X90.771 Y162.096 E0.02
G1 X90.19 Y162.277 E0.021
G1 X89.596 Y162.4 E0.02
G1 X88.99 Y162.462 E0.02
G1 X88.381 E0.02
G1 X87.775 Y162.4 E0.02
G1 X87.18 Y162.277 E0.021
G1 X86.601 Y162.096 E0.02
G1 X86.043 Y161.856 E0.02
G1 X85.512 Y161.562 E0.02
G1 X85.011 Y161.213 E0.021
G1 X84.549 Y160.817 E0.02
G1 X84.132 Y160.378 E0.02
G1 X83.76 Y159.898 E0.02
G1 X83.436 Y159.379 E0.02
G1 X83.169 Y158.833 E0.021
G1 X82.958 Y158.263 E0.02
G1 X82.807 Y157.676 E0.02
G1 X82.713 Y157.074 E0.02
G1 X82.683 Y156.467 E0.021
G1 X82.713 Y155.858 E0.02
G1 X82.807 Y155.258 E0.02
G1 X82.958 Y154.67 E0.02
G1 X83.17 Y154.099 E0.02
G1 X83.437 Y153.554 E0.021
G1 X83.76 Y153.036 E0.02
G1 X84.132 Y152.556 E0.02
G1 X84.55 Y152.117 E0.02
G1 X85.012 Y151.72 E0.021
G1 X85.52 Y151.367 E0.02
G1 X86.042 Y151.077 E0.02
G1 X86.601 Y150.837 E0.02
G1 X87.183 Y150.655 E0.021
G1 X87.778 Y150.533 E0.02
G1 X88.381 Y150.472 E0.02
G1 X88.99 E0.02
;rapid-leaky
G0 X88.969 Y150.872 F7200
;bead-skirt/brim
G1 X89.533 Y150.929 F960 E0.019
G1 X90.088 Y151.043 E0.019
G1 X90.632 Y151.213 E0.019
G1 X91.155 Y151.438 E0.019
G1 X91.659 Y151.719 E0.019
G1 X92.117 Y152.038 E0.018
G1 X92.546 Y152.407 E0.019
G1 X92.937 Y152.819 E0.019
G1 X93.291 Y153.277 E0.019
G1 X93.584 Y153.749 E0.019
G1 X93.833 Y154.255 E0.019
G1 X94.032 Y154.79 E0.019
G1 X94.174 Y155.341 E0.019
G1 X94.259 Y155.899 E0.018
G1 X94.288 Y156.467 E0.019
G1 X94.259 Y157.034 E0.019
G1 X94.174 Y157.593 E0.019
G1 X94.032 Y158.144 E0.019
G1 X93.834 Y158.677 E0.019
G1 X93.584 Y159.185 E0.019
G1 X93.285 Y159.667 E0.019
G1 X92.936 Y160.117 E0.018
G1 X92.546 Y160.527 E0.019
G1 X92.116 Y160.897 E0.019
G1 X91.648 Y161.223 E0.019
G1 X91.152 Y161.496 E0.019
G1 X90.632 Y161.72 E0.019
G1 X90.09 Y161.89 E0.019
G1 X89.535 Y162.004 E0.018
G1 X88.969 Y162.062 E0.019
G1 X88.402 E0.019
G1 X87.836 Y162.004 E0.019
G1 X87.28 Y161.889 E0.019
G1 X86.74 Y161.72 E0.019
G1 X86.219 Y161.496 E0.019
G1 X85.723 Y161.222 E0.019
G1 X85.256 Y160.897 E0.019
G1 X84.826 Y160.527 E0.018
G1 X84.436 Y160.117 E0.019
G1 X84.089 Y159.669 E0.019
G1 X83.787 Y159.185 E0.019
G1 X83.537 Y158.675 E0.019
G1 X83.34 Y158.143 E0.019
G1 X83.199 Y157.596 E0.019
G1 X83.112 Y157.034 E0.019
G1 X83.084 Y156.467 E0.018
G1 X83.112 Y155.899 E0.019
G1 X83.199 Y155.339 E0.019
G1 X83.34 Y154.79 E0.019
G1 X83.538 Y154.257 E0.019
G1 X83.787 Y153.748 E0.019
G1 X84.089 Y153.265 E0.019
G1 X84.436 Y152.817 E0.019
G1 X84.826 Y152.407 E0.018
G1 X85.257 Y152.036 E0.019
G1 X85.732 Y151.707 E0.02
G1 X86.218 Y151.437 E0.018
G1 X86.74 Y151.213 E0.019
G1 X87.283 Y151.043 E0.019
G1 X87.838 Y150.929 E0.019
G1 X88.402 Y150.872 E0.019
G1 X88.969 E0.018
;rapid-leaky
G0 X88.949 Y151.272 F7200
;bead-skirt/brim
G1 X89.472 Y151.325 F960 E0.018
G1 X89.988 Y151.431 E0.017
G1 X90.493 Y151.588 E0.018
G1 X90.978 Y151.797 E0.018
G1 X91.447 Y152.058 E0.017
G1 X91.871 Y152.354 E0.018
G1 X92.27 Y152.697 E0.017
G1 X92.633 Y153.08 E0.018
G1 X92.962 Y153.505 E0.018
G1 X93.234 Y153.943 E0.017
G1 X93.466 Y154.414 E0.017
G1 X93.65 Y154.91 E0.018
G1 X93.781 Y155.421 E0.017
G1 X93.861 Y155.94 E0.018
G1 X93.888 Y156.467 E0.017
G1 X93.861 Y156.993 E0.018
G1 X93.781 Y157.513 E0.017
G1 X93.65 Y158.024 E0.018
G1 X93.466 Y158.519 E0.017
G1 X93.234 Y158.991 E0.018
G1 X92.956 Y159.439 E0.017
G1 X92.632 Y159.856 E0.018
G1 X92.27 Y160.237 E0.017
G1 X91.87 Y160.58 E0.018
G1 X91.436 Y160.883 E0.018
G1 X90.976 Y161.137 E0.017
G1 X90.493 Y161.345 E0.018
G1 X89.99 Y161.502 E0.017
G1 X89.474 Y161.609 E0.018
G1 X88.949 Y161.662 E0.017
G1 X88.422 E0.018
G1 X87.897 Y161.609 E0.017
G1 X87.381 Y161.502 E0.018
G1 X86.879 Y161.345 E0.017
G1 X86.395 Y161.137 E0.018
G1 X85.935 Y160.882 E0.017
G1 X85.502 Y160.58 E0.018
G1 X85.102 Y160.236 E0.017
G1 X84.74 Y159.856 E0.018
G1 X84.417 Y159.44 E0.017
G1 X84.137 Y158.991 E0.018
G1 X83.906 Y158.517 E0.018
G1 X83.722 Y158.024 E0.017
G1 X83.591 Y157.515 E0.018
G1 X83.51 Y156.993 E0.017
G1 X83.484 Y156.467 E0.018
G1 X83.51 Y155.94 E0.017
G1 X83.591 Y155.419 E0.018
G1 X83.722 Y154.91 E0.017
G1 X83.906 Y154.415 E0.018
G1 X84.137 Y153.943 E0.017
G1 X84.417 Y153.494 E0.018
G1 X84.74 Y153.078 E0.017
G1 X85.102 Y152.697 E0.018
G1 X85.502 Y152.353 E0.017
G1 X85.943 Y152.047 E0.018
G1 X86.395 Y151.797 E0.017
G1 X86.879 Y151.588 E0.018
G1 X87.383 Y151.431 E0.017
G1 X87.898 Y151.325 E0.018
G1 X88.422 Y151.272 E0.017
G1 X88.949 E0.018
;rapid-leaky
G0 X88.929 Y151.672 F7200
;bead-skirt/brim
G1 X89.412 Y151.721 F960 E0.016
G1 X89.888 Y151.818 E0.016
G1 X90.354 Y151.964 E0.017
G1 X90.801 Y152.157 E0.016
G1 X91.235 Y152.398 E0.016
G1 X91.626 Y152.671 E0.016
G1 X91.994 Y152.988 E0.016
G1 X92.329 Y153.34 E0.016
G1 X92.633 Y153.733 E0.017
G1 X92.883 Y154.137 E0.016
G1 X93.098 Y154.572 E0.016
G1 X93.268 Y155.03 E0.016
G1 X93.389 Y155.501 E0.016
G1 X93.462 Y155.98 E0.016
G1 X93.487 Y156.467 E0.017
G1 X93.462 Y156.953 E0.016
G1 X93.389 Y157.433 E0.016
G1 X93.267 Y157.904 E0.016
G1 X93.098 Y158.361 E0.016
G1 X92.884 Y158.796 E0.017
G1 X92.627 Y159.21 E0.016
G1 X92.328 Y159.595 E0.016
G1 X91.994 Y159.946 E0.016
G1 X91.625 Y160.264 E0.016
G1 X91.225 Y160.542 E0.016
G1 X90.799 Y160.777 E0.017
G1 X90.354 Y160.969 E0.016
G1 X89.889 Y161.114 E0.016
G1 X89.413 Y161.213 E0.016
G1 X88.929 Y161.262 E0.016
G1 X88.442 E0.016
G1 X87.958 Y161.213 E0.017
G1 X87.482 Y161.114 E0.016
G1 X87.018 Y160.969 E0.016
G1 X86.571 Y160.777 E0.016
G1 X86.147 Y160.542 E0.016
G1 X85.747 Y160.264 E0.017
G1 X85.378 Y159.946 E0.016
G1 X85.044 Y159.595 E0.016
G1 X84.746 Y159.211 E0.016
G1 X84.487 Y158.796 E0.016
G1 X84.274 Y158.359 E0.016
G1 X84.105 Y157.904 E0.017
G1 X83.983 Y157.434 E0.016
G1 X83.909 Y156.953 E0.016
G1 X83.885 Y156.467 E0.016
G1 X83.909 Y155.98 E0.016
G1 X83.983 Y155.5 E0.016
G1 X84.104 Y155.03 E0.017
G1 X84.274 Y154.573 E0.016
G1 X84.487 Y154.137 E0.016
G1 X84.746 Y153.723 E0.016
G1 X85.044 Y153.339 E0.016
G1 X85.378 Y152.988 E0.016
G1 X85.747 Y152.67 E0.017
G1 X86.155 Y152.387 E0.016
G1 X86.571 Y152.156 E0.016
G1 X87.018 Y151.964 E0.016
G1 X87.483 Y151.818 E0.016
G1 X87.959 Y151.721 E0.017
G1 X88.442 Y151.672 E0.016
G1 X88.929 E0.016
;rapid-leaky
G0 X88.908 Y152.072 F7200
;bead-skirt/brim
G1 X89.352 Y152.117 F960 E0.015
G1 X89.788 Y152.206 E0.015
G1 X90.215 Y152.34 E0.014
G1 X90.624 Y152.516 E0.015
G1 X91.022 Y152.738 E0.015
G1 X91.38 Y152.987 E0.015
G1 X91.718 Y153.278 E0.015
G1 X92.025 Y153.601 E0.015
G1 X92.304 Y153.961 E0.015
G1 X92.533 Y154.331 E0.014
G1 X92.73 Y154.73 E0.015
G1 X92.885 Y155.149 E0.015
G1 X92.997 Y155.582 E0.015
G1 X93.064 Y156.021 E0.014
G1 X93.087 Y156.467 E0.015
G1 X93.064 Y156.912 E0.015
G1 X92.997 Y157.352 E0.015
G1 X92.885 Y157.784 E0.015
G1 X92.73 Y158.202 E0.015
G1 X92.533 Y158.602 E0.014
G1 X92.298 Y158.981 E0.015
G1 X92.025 Y159.334 E0.015
G1 X91.718 Y159.656 E0.015
G1 X91.38 Y159.947 E0.015
G1 X91.013 Y160.202 E0.015
G1 X90.623 Y160.417 E0.014
G1 X90.215 Y160.593 E0.015
G1 X89.789 Y160.727 E0.015
G1 X89.352 Y160.817 E0.015
G1 X88.908 Y160.862 E0.015
G1 X88.463 E0.015
G1 X88.019 Y160.817 E0.014
G1 X87.582 Y160.726 E0.015
G1 X87.157 Y160.593 E0.015
G1 X86.748 Y160.417 E0.015
G1 X86.358 Y160.202 E0.015
G1 X85.992 Y159.947 E0.015
G1 X85.654 Y159.656 E0.014
G1 X85.347 Y159.334 E0.015
G1 X85.074 Y158.982 E0.015
G1 X84.838 Y158.602 E0.015
G1 X84.642 Y158.202 E0.015
G1 X84.487 Y157.784 E0.014
G1 X84.376 Y157.353 E0.015
G1 X84.307 Y156.912 E0.015
G1 X84.285 Y156.467 E0.015
G1 X84.307 Y156.021 E0.015
G1 X84.376 Y155.581 E0.015
G1 X84.487 Y155.149 E0.014
G1 X84.642 Y154.731 E0.015
G1 X84.838 Y154.331 E0.015
G1 X85.074 Y153.952 E0.015
G1 X85.347 Y153.6 E0.015
G1 X85.654 Y153.278 E0.015
G1 X85.992 Y152.987 E0.014
G1 X86.367 Y152.727 E0.016
G1 X86.747 Y152.516 E0.014
G1 X87.157 Y152.34 E0.015
G1 X87.583 Y152.206 E0.015
G1 X88.019 Y152.117 E0.015
G1 X88.463 Y152.072 E0.014
G1 X88.908 E0.015
;rapid-leaky
G0 X88.888 Y152.472 F7200
;bead-skirt/brim
G1 X89.291 Y152.513 F960 E0.014
G1 X89.688 Y152.594 E0.013
G1 X90.076 Y152.715 E0.014
G1 X90.447 Y152.875 E0.013
G1 X90.81 Y153.077 E0.014
G1 X91.135 Y153.304 E0.013
G1 X91.442 Y153.568 E0.014
G1 X91.721 Y153.862 E0.013
G1 X91.975 Y154.19 E0.014
G1 X92.183 Y154.526 E0.013
G1 X92.362 Y154.889 E0.013
G1 X92.503 Y155.269 E0.014
G1 X92.604 Y155.662 E0.013
G1 X92.665 Y156.062 E0.014
G1 X92.686 Y156.467 E0.013
G1 X92.665 Y156.871 E0.014
G1 X92.604 Y157.272 E0.013
G1 X92.503 Y157.664 E0.014
G1 X92.362 Y158.044 E0.013
G1 X92.183 Y158.408 E0.014
G1 X91.969 Y158.752 E0.013
G1 X91.721 Y159.073 E0.014
G1 X91.442 Y159.366 E0.013
G1 X91.135 Y159.63 E0.014
G1 X90.802 Y159.862 E0.013
G1 X90.447 Y160.058 E0.014
G1 X90.076 Y160.218 E0.013
G1 X89.688 Y160.339 E0.014
G1 X89.291 Y160.421 E0.013
G1 X88.888 Y160.462 E0.014
G1 X88.483 E0.013
G1 X88.08 Y160.421 E0.013
G1 X87.683 Y160.339 E0.014
G1 X87.296 Y160.218 E0.013
G1 X86.924 Y160.058 E0.014
G1 X86.57 Y159.862 E0.013
G1 X86.237 Y159.63 E0.014
G1 X85.93 Y159.366 E0.013
G1 X85.651 Y159.073 E0.014
G1 X85.403 Y158.753 E0.013
G1 X85.188 Y158.408 E0.014
G1 X85.01 Y158.044 E0.013
G1 X84.869 Y157.664 E0.014
G1 X84.768 Y157.272 E0.013
G1 X84.706 Y156.871 E0.014
G1 X84.686 Y156.467 E0.013
G1 X84.706 Y156.062 E0.014
G1 X84.768 Y155.662 E0.013
G1 X84.869 Y155.269 E0.014
G1 X85.01 Y154.889 E0.013
G1 X85.188 Y154.526 E0.014
G1 X85.403 Y154.181 E0.013
G1 X85.651 Y153.861 E0.014
G1 X85.93 Y153.568 E0.013
G1 X86.237 Y153.304 E0.013
G1 X86.578 Y153.067 E0.014
G1 X86.924 Y152.875 E0.013
G1 X87.296 Y152.715 E0.014
G1 X87.683 Y152.594 E0.013
G1 X88.08 Y152.513 E0.014
G1 X88.483 Y152.472 E0.013
G1 X88.888 E0.014
;rapid-leaky
G0 X106.429 Y159.251 F7200
;bead-skirt/brim
G1 X106.698 Y158.527 F960 E0.025
G1 X107.036 Y157.837 E0.026
G1 X107.446 Y157.18 E0.026
G1 X107.917 Y156.572 E0.025
G1 X108.445 Y156.017 E0.026
G1 X109.032 Y155.513 E0.026
G1 X109.673 Y155.067 E0.026
G1 X110.336 Y154.699 E0.025
G1 X111.045 Y154.395 E0.025
G1 X111.782 Y154.164 E0.026
G1 X112.536 Y154.01 E0.026
G1 X113.3 Y153.932 E0.025
G1 X114.071 E0.026
G1 X114.835 Y154.01 E0.025
G1 X115.587 Y154.163 E0.026
G1 X116.328 Y154.395 E0.026
G1 X117.039 Y154.701 E0.026
G1 X117.721 Y155.08 E0.025
G1 X118.344 Y155.516 E0.026
G1 X118.927 Y156.017 E0.025
G1 X119.458 Y156.576 E0.026
G1 X119.936 Y157.195 E0.026
G1 X120.335 Y157.837 E0.025
G1 X120.673 Y158.523 E0.026
G1 X120.943 Y159.251 E0.025
G1 X121.136 Y160 E0.026
G1 X121.251 Y160.756 E0.026
G1 X121.291 Y161.527 E0.025
G1 X121.251 Y162.297 E0.026
G1 X121.136 Y163.055 E0.025
G1 X120.943 Y163.803 E0.026
G1 X120.673 Y164.528 E0.026
G1 X120.336 Y165.216 E0.025
G1 X119.929 Y165.871 E0.026
G1 X119.455 Y166.482 E0.026
G1 X118.927 Y167.037 E0.025
G1 X118.342 Y167.54 E0.026
G1 X117.705 Y167.984 E0.026
G1 X117.033 Y168.355 E0.025
G1 X116.328 Y168.658 E0.026
G1 X115.592 Y168.888 E0.025
G1 X114.84 Y169.044 E0.026
G1 X114.071 Y169.122 E0.026
G1 X113.3 E0.025
G1 X112.531 Y169.044 E0.026
G1 X111.778 Y168.888 E0.026
G1 X111.045 Y168.658 E0.025
G1 X110.338 Y168.355 E0.026
G1 X109.665 Y167.982 E0.025
G1 X109.03 Y167.54 E0.026
G1 X108.445 Y167.037 E0.026
G1 X107.917 Y166.482 E0.025
G1 X107.446 Y165.874 E0.026
G1 X107.035 Y165.216 E0.026
G1 X106.697 Y164.524 E0.025
G1 X106.429 Y163.803 E0.026
G1 X106.238 Y163.059 E0.025
G1 X106.119 Y162.297 E0.026
G1 X106.081 Y161.527 E0.026
G1 X106.119 Y160.756 E0.025
G1 X106.238 Y159.995 E0.026
G1 X106.429 Y159.251 E0.025
;rapid-leaky
G0 X106.811 Y159.371 F7200
;bead-skirt/brim
G1 X107.066 Y158.685 F960 E0.025
G1 X107.386 Y158.031 E0.024
G1 X107.775 Y157.409 E0.024
G1 X108.221 Y156.833 E0.025
G1 X108.721 Y156.307 E0.024
G1 X109.277 Y155.829 E0.024
G1 X109.885 Y155.407 E0.025
G1 X110.513 Y155.059 E0.024
G1 X111.184 Y154.77 E0.024
G1 X111.882 Y154.552 E0.024
G1 X112.596 Y154.406 E0.024
G1 X113.32 Y154.332 E0.025
G1 X114.051 E0.024
G1 X114.775 Y154.406 E0.024
G1 X115.487 Y154.551 E0.024
G1 X116.189 Y154.77 E0.025
G1 X116.862 Y155.06 E0.024
G1 X117.508 Y155.42 E0.025
G1 X118.098 Y155.832 E0.024
G1 X118.651 Y156.307 E0.024
G1 X119.154 Y156.836 E0.024
G1 X119.607 Y157.423 E0.025
G1 X119.984 Y158.031 E0.024
G1 X120.305 Y158.682 E0.024
G1 X120.561 Y159.371 E0.024
G1 X120.743 Y160.08 E0.025
G1 X120.853 Y160.796 E0.024
G1 X120.891 Y161.527 E0.024
G1 X120.853 Y162.256 E0.024
G1 X120.743 Y162.974 E0.024
G1 X120.56 Y163.683 E0.025
G1 X120.306 Y164.37 E0.024
G1 X119.985 Y165.021 E0.024
G1 X119.6 Y165.642 E0.025
G1 X119.151 Y166.221 E0.024
G1 X118.651 Y166.747 E0.024
G1 X118.097 Y167.223 E0.024
G1 X117.494 Y167.643 E0.025
G1 X116.856 Y167.995 E0.024
G1 X116.189 Y168.283 E0.024
G1 X115.492 Y168.5 E0.025
G1 X114.779 Y168.648 E0.024
G1 X114.051 Y168.722 E0.024
G1 X113.32 E0.024
G1 X112.592 Y168.648 E0.025
G1 X111.878 Y168.5 E0.024
G1 X111.184 Y168.283 E0.024
G1 X110.514 Y167.995 E0.024
G1 X109.877 Y167.642 E0.025
G1 X109.275 Y167.223 E0.024
G1 X108.721 Y166.747 E0.024
G1 X108.221 Y166.221 E0.025
G1 X107.774 Y165.645 E0.024
G1 X107.385 Y165.021 E0.024
G1 X107.065 Y164.366 E0.024
G1 X106.812 Y163.683 E0.025
G1 X106.63 Y162.979 E0.024
G1 X106.518 Y162.256 E0.024
G1 X106.482 Y161.527 E0.024
G1 X106.518 Y160.796 E0.025
G1 X106.63 Y160.076 E0.024
G1 X106.811 Y159.371 E0.024
;rapid-leaky
G0 X107.193 Y159.491 F7200
;bead-skirt/brim
G1 X107.434 Y158.843 F960 E0.023
G1 X107.736 Y158.225 E0.023
G1 X108.103 Y157.638 E0.023
G1 X108.525 Y157.094 E0.023
G1 X108.997 Y156.597 E0.023
G1 X109.522 Y156.146 E0.023
G1 X110.097 Y155.747 E0.023
G1 X110.689 Y155.418 E0.023
G1 X111.323 Y155.146 E0.023
G1 X111.982 Y154.939 E0.023
G1 X112.657 Y154.802 E0.022
G1 X113.341 Y154.732 E0.023
G1 X114.03 E0.023
G1 X114.714 Y154.802 E0.023
G1 X115.387 Y154.939 E0.023
G1 X116.05 Y155.146 E0.023
G1 X116.685 Y155.42 E0.023
G1 X117.296 Y155.76 E0.023
G1 X117.853 Y156.148 E0.023
G1 X118.375 Y156.597 E0.023
G1 X118.85 Y157.097 E0.023
G1 X119.278 Y157.652 E0.023
G1 X119.634 Y158.225 E0.023
G1 X119.937 Y158.84 E0.022
G1 X120.179 Y159.491 E0.023
G1 X120.351 Y160.16 E0.023
G1 X120.454 Y160.837 E0.023
G1 X120.49 Y161.527 E0.023
G1 X120.454 Y162.215 E0.023
G1 X120.351 Y162.894 E0.023
G1 X120.178 Y163.563 E0.023
G1 X119.938 Y164.212 E0.023
G1 X119.635 Y164.827 E0.023
G1 X119.271 Y165.414 E0.023
G1 X118.847 Y165.96 E0.023
G1 X118.375 Y166.457 E0.022
G1 X117.852 Y166.907 E0.023
G1 X117.282 Y167.303 E0.024
G1 X116.68 Y167.635 E0.022
G1 X116.049 Y167.907 E0.023
G1 X115.391 Y168.113 E0.023
G1 X114.718 Y168.252 E0.023
G1 X114.03 Y168.322 E0.023
G1 X113.341 E0.023
G1 X112.653 Y168.252 E0.023
G1 X111.979 Y168.112 E0.023
G1 X111.323 Y167.907 E0.023
G1 X110.69 Y167.635 E0.023
G1 X110.088 Y167.302 E0.022
G1 X109.52 Y166.907 E0.023
G1 X108.997 Y166.457 E0.023
G1 X108.525 Y165.96 E0.023
G1 X108.103 Y165.416 E0.023
G1 X107.736 Y164.827 E0.023
G1 X107.433 Y164.208 E0.023
G1 X107.194 Y163.563 E0.023
G1 X107.022 Y162.898 E0.023
G1 X106.916 Y162.216 E0.023
G1 X106.882 Y161.527 E0.023
G1 X106.916 Y160.837 E0.023
G1 X107.022 Y160.157 E0.023
G1 X107.193 Y159.491 E0.023
;rapid-leaky
G0 X107.576 Y159.61 F7200
;bead-skirt/brim
G1 X107.802 Y159.001 F960 E0.021
G1 X108.087 Y158.42 E0.022
G1 X108.432 Y157.867 E0.021
G1 X108.829 Y157.355 E0.022
G1 X109.273 Y156.887 E0.021
G1 X109.767 Y156.463 E0.022
G1 X110.308 Y156.087 E0.022
G1 X110.865 Y155.778 E0.021
G1 X111.462 Y155.522 E0.022
G1 X112.082 Y155.327 E0.021
G1 X112.717 Y155.198 E0.022
G1 X113.361 Y155.132 E0.021
G1 X114.01 E0.022
G1 X114.654 Y155.198 E0.022
G1 X115.288 Y155.327 E0.021
G1 X115.91 Y155.522 E0.022
G1 X116.508 Y155.779 E0.021
G1 X117.084 Y156.099 E0.022
G1 X117.608 Y156.465 E0.022
G1 X118.099 Y156.887 E0.021
G1 X118.546 Y157.358 E0.022
G1 X118.949 Y157.88 E0.022
G1 X119.284 Y158.42 E0.021
G1 X119.569 Y158.998 E0.021
G1 X119.796 Y159.611 E0.022
G1 X119.959 Y160.24 E0.022
G1 X120.056 Y160.878 E0.021
G1 X120.09 Y161.527 E0.022
G1 X120.056 Y162.175 E0.021
G1 X119.959 Y162.814 E0.022
G1 X119.796 Y163.443 E0.021
G1 X119.57 Y164.053 E0.022
G1 X119.285 Y164.633 E0.021
G1 X118.942 Y165.185 E0.022
G1 X118.543 Y165.699 E0.022
G1 X118.099 Y166.167 E0.021
G1 X117.606 Y166.59 E0.022
G1 X117.071 Y166.963 E0.021
G1 X116.504 Y167.276 E0.022
G1 X115.91 Y167.531 E0.021
G1 X115.291 Y167.725 E0.022
G1 X114.657 Y167.856 E0.022
G1 X114.01 Y167.922 E0.021
G1 X113.361 E0.022
G1 X112.714 Y167.856 E0.021
G1 X112.079 Y167.725 E0.022
G1 X111.462 Y167.531 E0.022
G1 X110.867 Y167.276 E0.021
G1 X110.3 Y166.962 E0.022
G1 X109.766 Y166.59 E0.021
G1 X109.273 Y166.167 E0.022
G1 X108.829 Y165.699 E0.021
G1 X108.432 Y165.187 E0.022
G1 X108.086 Y164.633 E0.022
G1 X107.801 Y164.05 E0.021
G1 X107.576 Y163.443 E0.022
G1 X107.414 Y162.817 E0.021
G1 X107.315 Y162.175 E0.022
G1 X107.283 Y161.527 E0.021
G1 X107.315 Y160.878 E0.022
G1 X107.414 Y160.237 E0.022
G1 X107.576 Y159.61 E0.021
;rapid-leaky
G0 X107.958 Y159.73 F7200
;bead-skirt/brim
G1 X108.17 Y159.159 F960 E0.02
G1 X108.437 Y158.614 E0.021
G1 X108.76 Y158.096 E0.02
G1 X109.132 Y157.616 E0.02
G1 X109.55 Y157.177 E0.02
G1 X110.012 Y156.78 E0.02
G1 X110.52 Y156.427 E0.021
G1 X111.042 Y156.137 E0.02
G1 X111.601 Y155.897 E0.02
G1 X112.183 Y155.715 E0.02
G1 X112.778 Y155.593 E0.021
G1 X113.381 Y155.532 E0.02
G1 X113.99 E0.02
G1 X114.593 Y155.593 E0.02
G1 X115.188 Y155.715 E0.02
G1 X115.771 Y155.897 E0.021
G1 X116.331 Y156.138 E0.02
G1 X116.872 Y156.439 E0.021
G1 X117.362 Y156.781 E0.019
G1 X117.822 Y157.177 E0.021
G1 X118.241 Y157.618 E0.02
G1 X118.62 Y158.108 E0.02
G1 X118.934 Y158.614 E0.02
G1 X119.201 Y159.157 E0.02
G1 X119.414 Y159.73 E0.021
G1 X119.566 Y160.321 E0.02
G1 X119.657 Y160.918 E0.02
G1 X119.689 Y161.527 E0.02
G1 X119.657 Y162.134 E0.021
G1 X119.566 Y162.734 E0.02
G1 X119.414 Y163.323 E0.02
G1 X119.202 Y163.895 E0.02
G1 X118.935 Y164.439 E0.02
G1 X118.613 Y164.956 E0.021
G1 X118.24 Y165.438 E0.02
G1 X117.823 Y165.877 E0.02
G1 X117.361 Y166.273 E0.02
G1 X116.859 Y166.623 E0.021
G1 X116.328 Y166.916 E0.02
G1 X115.771 Y167.156 E0.02
G1 X115.19 Y167.337 E0.02
G1 X114.596 Y167.46 E0.02
G1 X113.99 Y167.522 E0.021
G1 X113.381 E0.02
G1 X112.775 Y167.46 E0.02
G1 X112.18 Y167.337 E0.02
G1 X111.601 Y167.156 E0.021
G1 X111.043 Y166.916 E0.02
G1 X110.512 Y166.622 E0.02
G1 X110.011 Y166.273 E0.02
G1 X109.55 Y165.877 E0.021
G1 X109.132 Y165.438 E0.02
G1 X108.76 Y164.958 E0.02
G1 X108.436 Y164.439 E0.02
G1 X108.169 Y163.893 E0.021
G1 X107.958 Y163.323 E0.02
G1 X107.807 Y162.736 E0.02
G1 X107.713 Y162.134 E0.02
G1 X107.683 Y161.527 E0.02
G1 X107.713 Y160.918 E0.021
G1 X107.807 Y160.318 E0.02
G1 X107.958 Y159.73 E0.02
;rapid-leaky
G0 X108.34 Y159.85 F7200
;bead-skirt/brim
G1 X108.538 Y159.317 F960 E0.019
G1 X108.787 Y158.808 E0.019
G1 X109.089 Y158.325 E0.019
G1 X109.436 Y157.877 E0.019
G1 X109.826 Y157.467 E0.018
G1 X110.257 Y157.096 E0.019
G1 X110.732 Y156.767 E0.02
G1 X111.218 Y156.497 E0.018
G1 X111.74 Y156.273 E0.019
G1 X112.283 Y156.103 E0.019
G1 X112.838 Y155.989 E0.019
G1 X113.402 Y155.932 E0.019
G1 X113.969 E0.018
G1 X114.533 Y155.989 E0.019
G1 X115.088 Y156.103 E0.019
G1 X115.632 Y156.273 E0.019
G1 X116.155 Y156.498 E0.019
G1 X116.659 Y156.779 E0.019
G1 X117.117 Y157.098 E0.019
G1 X117.546 Y157.467 E0.019
G1 X117.937 Y157.879 E0.018
G1 X118.291 Y158.337 E0.02
G1 X118.584 Y158.808 E0.018
G1 X118.833 Y159.315 E0.019
G1 X119.032 Y159.85 E0.019
G1 X119.174 Y160.401 E0.019
G1 X119.259 Y160.959 E0.019
G1 X119.288 Y161.527 E0.019
G1 X119.259 Y162.094 E0.018
G1 X119.174 Y162.653 E0.019
G1 X119.032 Y163.203 E0.019
G1 X118.834 Y163.737 E0.019
G1 X118.584 Y164.245 E0.019
G1 X118.285 Y164.727 E0.019
G1 X117.936 Y165.177 E0.019
G1 X117.546 Y165.587 E0.019
G1 X117.116 Y165.957 E0.018
G1 X116.648 Y166.283 E0.019
G1 X116.152 Y166.556 E0.019
G1 X115.632 Y166.78 E0.019
G1 X115.09 Y166.95 E0.019
G1 X114.535 Y167.064 E0.019
G1 X113.969 Y167.122 E0.019
G1 X113.402 E0.019
G1 X112.836 Y167.064 E0.018
G1 X112.28 Y166.949 E0.019
G1 X111.74 Y166.78 E0.019
G1 X111.219 Y166.556 E0.019
G1 X110.723 Y166.282 E0.019
G1 X110.256 Y165.957 E0.019
G1 X109.826 Y165.587 E0.019
G1 X109.436 Y165.177 E0.018
G1 X109.089 Y164.729 E0.019
G1 X108.787 Y164.245 E0.019
G1 X108.538 Y163.735 E0.019
G1 X108.34 Y163.204 E0.019
G1 X108.199 Y162.656 E0.019
G1 X108.112 Y162.094 E0.019
G1 X108.084 Y161.527 E0.019
G1 X108.112 Y160.959 E0.019
G1 X108.199 Y160.399 E0.018
G1 X108.34 Y159.85 E0.019
;rapid-leaky
G0 X108.722 Y159.97 F7200
;bead-skirt/brim
G1 X108.906 Y159.475 F960 E0.018
G1 X109.137 Y159.003 E0.017
G1 X109.417 Y158.554 E0.018
G1 X109.74 Y158.138 E0.017
G1 X110.102 Y157.757 E0.018
G1 X110.502 Y157.413 E0.017
G1 X110.943 Y157.107 E0.018
G1 X111.395 Y156.857 E0.017
G1 X111.879 Y156.648 E0.018
G1 X112.383 Y156.491 E0.018
G1 X112.898 Y156.385 E0.017
G1 X113.422 Y156.332 E0.018
G1 X113.949 E0.017
G1 X114.473 Y156.385 E0.018
G1 X114.988 Y156.491 E0.017
G1 X115.493 Y156.648 E0.018
G1 X115.978 Y156.857 E0.017
G1 X116.447 Y157.118 E0.018
G1 X116.871 Y157.414 E0.017
G1 X117.27 Y157.757 E0.018
G1 X117.633 Y158.14 E0.017
G1 X117.962 Y158.565 E0.018
G1 X118.234 Y159.003 E0.017
G1 X118.466 Y159.474 E0.018
G1 X118.65 Y159.97 E0.017
G1 X118.781 Y160.481 E0.018
G1 X118.861 Y161 E0.017
G1 X118.888 Y161.527 E0.018
G1 X118.861 Y162.053 E0.018
G1 X118.781 Y162.573 E0.017
G1 X118.65 Y163.084 E0.018
G1 X118.466 Y163.579 E0.017
G1 X118.234 Y164.051 E0.018
G1 X117.956 Y164.499 E0.017
G1 X117.632 Y164.916 E0.018
G1 X117.27 Y165.296 E0.017
G1 X116.871 Y165.64 E0.018
G1 X116.436 Y165.943 E0.017
G1 X115.976 Y166.197 E0.018
G1 X115.493 Y166.405 E0.017
G1 X114.989 Y166.562 E0.018
G1 X114.474 Y166.669 E0.017
G1 X113.949 Y166.722 E0.018
G1 X113.422 E0.017
G1 X112.897 Y166.669 E0.018
G1 X112.381 Y166.562 E0.018
G1 X111.879 Y166.405 E0.017
G1 X111.395 Y166.197 E0.018
G1 X110.935 Y165.942 E0.017
G1 X110.502 Y165.64 E0.018
G1 X110.102 Y165.296 E0.017
G1 X109.74 Y164.916 E0.018
G1 X109.417 Y164.5 E0.017
G1 X109.137 Y164.051 E0.018
G1 X108.906 Y163.577 E0.017
G1 X108.722 Y163.084 E0.018
G1 X108.591 Y162.575 E0.017
G1 X108.51 Y162.053 E0.018
G1 X108.484 Y161.527 E0.017
G1 X108.51 Y161 E0.018
G1 X108.591 Y160.479 E0.017
G1 X108.722 Y159.97 E0.018
;rapid-leaky
G0 X109.104 Y160.09 F7200
;bead-skirt/brim
G1 X109.274 Y159.633 F960 E0.016
G1 X109.488 Y159.197 E0.016
G1 X109.746 Y158.783 E0.016
G1 X110.044 Y158.399 E0.017
G1 X110.378 Y158.048 E0.016
G1 X110.747 Y157.73 E0.016
G1 X111.155 Y157.447 E0.016
G1 X111.571 Y157.216 E0.016
G1 X112.018 Y157.024 E0.016
G1 X112.483 Y156.878 E0.017
G1 X112.959 Y156.781 E0.016
G1 X113.442 Y156.732 E0.016
G1 X113.929 E0.016
G1 X114.412 Y156.781 E0.016
G1 X114.888 Y156.878 E0.016
G1 X115.354 Y157.024 E0.017
G1 X115.801 Y157.217 E0.016
G1 X116.235 Y157.458 E0.016
G1 X116.626 Y157.731 E0.016
G1 X116.994 Y158.048 E0.016
G1 X117.329 Y158.4 E0.017
G1 X117.633 Y158.793 E0.016
G1 X117.883 Y159.197 E0.016
G1 X118.098 Y159.632 E0.016
G1 X118.268 Y160.09 E0.016
G1 X118.389 Y160.561 E0.016
G1 X118.462 Y161.04 E0.017
G1 X118.487 Y161.527 E0.016
G1 X118.462 Y162.013 E0.016
G1 X118.389 Y162.493 E0.016
G1 X118.267 Y162.964 E0.016
G1 X118.098 Y163.421 E0.017
G1 X117.884 Y163.856 E0.016
G1 X117.627 Y164.27 E0.016
G1 X117.328 Y164.655 E0.016
G1 X116.994 Y165.006 E0.016
G1 X116.625 Y165.324 E0.016
G1 X116.225 Y165.602 E0.017
G1 X115.799 Y165.837 E0.016
G1 X115.354 Y166.029 E0.016
G1 X114.889 Y166.174 E0.016
G1 X114.413 Y166.273 E0.016
G1 X113.929 Y166.322 E0.016
G1 X113.442 E0.017
G1 X112.958 Y166.273 E0.016
G1 X112.482 Y166.174 E0.016
G1 X112.018 Y166.029 E0.016
G1 X111.571 Y165.837 E0.016
G1 X111.147 Y165.602 E0.016
G1 X110.747 Y165.324 E0.017
G1 X110.378 Y165.006 E0.016
G1 X110.044 Y164.655 E0.016
G1 X109.746 Y164.271 E0.016
G1 X109.487 Y163.856 E0.016
G1 X109.274 Y163.419 E0.017
G1 X109.105 Y162.964 E0.016
G1 X108.983 Y162.494 E0.016
G1 X108.909 Y162.013 E0.016
G1 X108.885 Y161.527 E0.016
G1 X108.909 Y161.04 E0.016
G1 X108.983 Y160.56 E0.017
G1 X109.104 Y160.09 E0.016
;rapid-leaky
G0 X109.487 Y160.209 F7200
;bead-skirt/brim
G1 X109.642 Y159.791 F960 E0.015
G1 X109.838 Y159.391 E0.014
G1 X110.074 Y159.012 E0.015
G1 X110.347 Y158.66 E0.015
G1 X110.654 Y158.338 E0.015
G1 X110.992 Y158.047 E0.015
G1 X111.367 Y157.787 E0.015
G1 X111.747 Y157.576 E0.014
G1 X112.157 Y157.4 E0.015
G1 X112.583 Y157.266 E0.015
G1 X113.019 Y157.177 E0.015
G1 X113.463 Y157.132 E0.015
G1 X113.908 E0.015
G1 X114.352 Y157.177 E0.014
G1 X114.788 Y157.266 E0.015
G1 X115.215 Y157.4 E0.015
G1 X115.624 Y157.576 E0.015
G1 X116.022 Y157.798 E0.015
G1 X116.38 Y158.047 E0.015
G1 X116.718 Y158.338 E0.014
G1 X117.025 Y158.661 E0.015
G1 X117.304 Y159.022 E0.015
G1 X117.533 Y159.391 E0.015
G1 X117.73 Y159.79 E0.015
G1 X117.885 Y160.209 E0.014
G1 X117.997 Y160.642 E0.015
G1 X118.064 Y161.081 E0.015
G1 X118.087 Y161.527 E0.015
G1 X118.064 Y161.972 E0.015
G1 X117.997 Y162.412 E0.015
G1 X117.885 Y162.844 E0.014
G1 X117.73 Y163.262 E0.015
G1 X117.533 Y163.662 E0.015
G1 X117.298 Y164.041 E0.015
G1 X117.025 Y164.394 E0.015
G1 X116.718 Y164.716 E0.015
G1 X116.38 Y165.007 E0.014
G1 X116.013 Y165.262 E0.015
G1 X115.623 Y165.477 E0.015
G1 X115.215 Y165.653 E0.015
G1 X114.789 Y165.787 E0.015
G1 X114.352 Y165.877 E0.015
G1 X113.909 Y165.922 E0.014
G1 X113.463 E0.015
G1 X113.019 Y165.877 E0.015
G1 X112.582 Y165.786 E0.015
G1 X112.157 Y165.653 E0.015
G1 X111.748 Y165.477 E0.014
G1 X111.358 Y165.262 E0.015
G1 X110.992 Y165.007 E0.015
G1 X110.654 Y164.716 E0.015
G1 X110.347 Y164.394 E0.015
G1 X110.074 Y164.042 E0.015
G1 X109.838 Y163.662 E0.014
G1 X109.642 Y163.262 E0.015
G1 X109.487 Y162.844 E0.015
G1 X109.376 Y162.413 E0.015
G1 X109.307 Y161.972 E0.015
G1 X109.285 Y161.527 E0.015
G1 X109.307 Y161.081 E0.014
G1 X109.376 Y160.641 E0.015
G1 X109.487 Y160.209 E0.015
;rapid-leaky
G0 X109.869 Y160.329 F7200
;bead-skirt/brim
G1 X110.01 Y159.949 F960 E0.014
G1 X110.188 Y159.586 E0.013
G1 X110.403 Y159.241 E0.013
G1 X110.651 Y158.921 E0.014
G1 X110.93 Y158.628 E0.013
G1 X111.237 Y158.364 E0.014
G1 X111.578 Y158.127 E0.014
G1 X111.924 Y157.935 E0.013
G1 X112.296 Y157.775 E0.013
G1 X112.683 Y157.654 E0.014
G1 X113.08 Y157.573 E0.013
G1 X113.483 Y157.532 E0.014
G1 X113.888 E0.013
G1 X114.291 Y157.573 E0.014
G1 X114.688 Y157.654 E0.013
G1 X115.076 Y157.775 E0.014
G1 X115.447 Y157.935 E0.013
G1 X115.81 Y158.137 E0.014
G1 X116.135 Y158.364 E0.013
G1 X116.442 Y158.628 E0.014
G1 X116.721 Y158.922 E0.013
G1 X116.975 Y159.25 E0.014
G1 X117.183 Y159.586 E0.013
G1 X117.362 Y159.949 E0.013
G1 X117.503 Y160.329 E0.014
G1 X117.604 Y160.722 E0.013
G1 X117.665 Y161.122 E0.014
G1 X117.686 Y161.527 E0.013
G1 X117.665 Y161.931 E0.014
G1 X117.604 Y162.332 E0.013
G1 X117.503 Y162.724 E0.014
G1 X117.362 Y163.104 E0.013
G1 X117.183 Y163.468 E0.014
G1 X116.969 Y163.812 E0.013
G1 X116.721 Y164.133 E0.014
G1 X116.442 Y164.426 E0.013
G1 X116.135 Y164.69 E0.014
G1 X115.802 Y164.922 E0.013
G1 X115.447 Y165.118 E0.014
G1 X115.076 Y165.278 E0.013
G1 X114.688 Y165.399 E0.014
G1 X114.291 Y165.481 E0.013
G1 X113.888 Y165.522 E0.014
G1 X113.483 E0.013
G1 X113.08 Y165.481 E0.014
G1 X112.683 Y165.399 E0.013
G1 X112.296 Y165.278 E0.014
G1 X111.924 Y165.118 E0.013
G1 X111.57 Y164.922 E0.013
G1 X111.237 Y164.69 E0.014
G1 X110.93 Y164.426 E0.013
G1 X110.651 Y164.133 E0.014
G1 X110.403 Y163.813 E0.013
G1 X110.188 Y163.468 E0.014
G1 X110.01 Y163.104 E0.013
G1 X109.869 Y162.724 E0.014
G1 X109.768 Y162.332 E0.013
G1 X109.706 Y161.931 E0.014
G1 X109.686 Y161.527 E0.013
G1 X109.706 Y161.122 E0.014
G1 X109.768 Y160.722 E0.013
G1 X109.869 Y160.329 E0.014
;rapid-leaky
G0 X131.119 Y163.206 F7200
;bead-skirt/brim
G1 X131.238 Y162.445 F960 E0.025
G1 X131.429 Y161.701 E0.026
G1 X131.698 Y160.977 E0.025
G1 X132.036 Y160.287 E0.026
G1 X132.446 Y159.629 E0.026
G1 X132.917 Y159.022 E0.025
G1 X133.445 Y158.467 E0.026
G1 X134.031 Y157.963 E0.026
G1 X134.673 Y157.517 E0.026
G1 X135.336 Y157.149 E0.025
G1 X136.045 Y156.845 E0.025
G1 X136.782 Y156.614 E0.026
G1 X137.536 Y156.46 E0.026
G1 X138.3 Y156.382 E0.025
G1 X139.071 E0.026
G1 X139.835 Y156.46 E0.025
G1 X140.587 Y156.613 E0.026
G1 X141.328 Y156.845 E0.026
G1 X142.039 Y157.151 E0.026
G1 X142.721 Y157.531 E0.026
G1 X143.344 Y157.966 E0.025
G1 X143.927 Y158.467 E0.025
G1 X144.458 Y159.026 E0.026
G1 X144.936 Y159.645 E0.026
G1 X145.335 Y160.287 E0.025
G1 X145.673 Y160.973 E0.026
G1 X145.943 Y161.701 E0.025
G1 X146.136 Y162.45 E0.026
G1 X146.251 Y163.206 E0.026
G1 X146.291 Y163.977 E0.025
G1 X146.251 Y164.747 E0.026
G1 X146.136 Y165.505 E0.025
G1 X145.943 Y166.253 E0.026
G1 X145.673 Y166.978 E0.026
G1 X145.336 Y167.665 E0.025
G1 X144.929 Y168.321 E0.026
G1 X144.455 Y168.932 E0.026
G1 X143.927 Y169.487 E0.025
G1 X143.342 Y169.99 E0.026
G1 X142.705 Y170.434 E0.026
G1 X142.033 Y170.805 E0.025
G1 X141.328 Y171.108 E0.026
G1 X140.592 Y171.338 E0.025
G1 X139.84 Y171.494 E0.026
G1 X139.071 Y171.572 E0.026
G1 X138.3 E0.025
G1 X137.531 Y171.494 E0.026
G1 X136.778 Y171.338 E0.026
G1 X136.045 Y171.108 E0.025
G1 X135.338 Y170.805 E0.026
G1 X134.665 Y170.432 E0.025
G1 X134.03 Y169.99 E0.026
G1 X133.445 Y169.487 E0.026
G1 X132.917 Y168.932 E0.025
G1 X132.446 Y168.324 E0.026
G1 X132.035 Y167.665 E0.026
G1 X131.697 Y166.974 E0.025
G1 X131.429 Y166.253 E0.026
G1 X131.238 Y165.509 E0.025
G1 X131.119 Y164.747 E0.026
G1 X131.081 Y163.977 E0.026
G1 X131.119 Y163.206 E0.025
;rapid-leaky
G0 X131.518 Y163.246 F7200
;bead-skirt/brim
G1 X131.63 Y162.526 F960 E0.024
G1 X131.811 Y161.821 E0.025
G1 X132.066 Y161.135 E0.024
G1 X132.386 Y160.481 E0.024
G1 X132.775 Y159.859 E0.025
G1 X133.221 Y159.283 E0.024
G1 X133.721 Y158.757 E0.024
G1 X134.277 Y158.279 E0.024
G1 X134.885 Y157.857 E0.025
G1 X135.513 Y157.509 E0.024
G1 X136.184 Y157.22 E0.024
G1 X136.882 Y157.002 E0.025
G1 X137.596 Y156.856 E0.024
G1 X138.32 Y156.782 E0.024
G1 X139.051 E0.024
G1 X139.775 Y156.856 E0.024
G1 X140.487 Y157.001 E0.025
G1 X141.189 Y157.22 E0.024
G1 X141.862 Y157.51 E0.024
G1 X142.508 Y157.87 E0.025
G1 X143.099 Y158.282 E0.024
G1 X143.651 Y158.757 E0.024
G1 X144.154 Y159.286 E0.025
G1 X144.607 Y159.873 E0.024
G1 X144.984 Y160.481 E0.024
G1 X145.305 Y161.132 E0.024
G1 X145.561 Y161.821 E0.025
G1 X145.743 Y162.53 E0.024
G1 X145.853 Y163.246 E0.024
G1 X145.891 Y163.977 E0.024
G1 X145.853 Y164.706 E0.025
G1 X145.743 Y165.424 E0.024
G1 X145.56 Y166.133 E0.024
G1 X145.306 Y166.82 E0.025
G1 X144.985 Y167.471 E0.024
G1 X144.6 Y168.092 E0.024
G1 X144.151 Y168.671 E0.024
G1 X143.651 Y169.197 E0.024
G1 X143.097 Y169.673 E0.025
G1 X142.494 Y170.093 E0.024
G1 X141.856 Y170.445 E0.024
G1 X141.189 Y170.733 E0.025
G1 X140.492 Y170.95 E0.024
G1 X139.779 Y171.098 E0.024
G1 X139.051 Y171.172 E0.024
G1 X138.32 E0.025
G1 X137.592 Y171.098 E0.024
G1 X136.878 Y170.95 E0.024
G1 X136.184 Y170.733 E0.025
G1 X135.514 Y170.445 E0.024
G1 X134.877 Y170.092 E0.024
G1 X134.275 Y169.673 E0.024
G1 X133.721 Y169.197 E0.025
G1 X133.221 Y168.671 E0.024
G1 X132.775 Y168.095 E0.024
G1 X132.385 Y167.471 E0.025
G1 X132.065 Y166.816 E0.024
G1 X131.812 Y166.133 E0.024
G1 X131.63 Y165.429 E0.024
G1 X131.518 Y164.706 E0.025
G1 X131.482 Y163.977 E0.024
G1 X131.518 Y163.246 E0.024
;rapid-leaky
G0 X131.916 Y163.287 F7200
;bead-skirt/brim
G1 X132.022 Y162.607 F960 E0.023
G1 X132.193 Y161.941 E0.023
G1 X132.434 Y161.293 E0.023
G1 X132.736 Y160.675 E0.023
G1 X133.103 Y160.088 E0.023
G1 X133.525 Y159.544 E0.023
G1 X133.997 Y159.047 E0.023
G1 X134.522 Y158.596 E0.023
G1 X135.097 Y158.197 E0.023
G1 X135.689 Y157.868 E0.022
G1 X136.323 Y157.596 E0.023
G1 X136.982 Y157.389 E0.023
G1 X137.657 Y157.252 E0.023
G1 X138.341 Y157.182 E0.023
G1 X139.03 E0.023
G1 X139.714 Y157.252 E0.023
G1 X140.387 Y157.389 E0.023
G1 X141.049 Y157.596 E0.023
G1 X141.685 Y157.87 E0.023
G1 X142.296 Y158.21 E0.023
G1 X142.853 Y158.599 E0.023
G1 X143.375 Y159.047 E0.022
G1 X143.85 Y159.547 E0.023
G1 X144.278 Y160.102 E0.024
G1 X144.634 Y160.676 E0.022
G1 X144.937 Y161.29 E0.023
G1 X145.179 Y161.941 E0.023
G1 X145.351 Y162.61 E0.023
G1 X145.454 Y163.287 E0.023
G1 X145.49 Y163.977 E0.023
G1 X145.454 Y164.666 E0.023
G1 X145.351 Y165.344 E0.023
G1 X145.178 Y166.013 E0.023
G1 X144.938 Y166.662 E0.023
G1 X144.635 Y167.277 E0.022
G1 X144.271 Y167.864 E0.023
G1 X143.847 Y168.41 E0.023
G1 X143.375 Y168.907 E0.023
G1 X142.852 Y169.357 E0.023
G1 X142.282 Y169.753 E0.023
G1 X141.68 Y170.085 E0.023
G1 X141.049 Y170.357 E0.023
G1 X140.391 Y170.563 E0.023
G1 X139.718 Y170.702 E0.023
G1 X139.03 Y170.772 E0.023
G1 X138.341 E0.023
G1 X137.653 Y170.702 E0.023
G1 X136.979 Y170.563 E0.022
G1 X136.323 Y170.357 E0.023
G1 X135.69 Y170.085 E0.023
G1 X135.088 Y169.752 E0.023
G1 X134.52 Y169.357 E0.023
G1 X133.997 Y168.907 E0.023
G1 X133.525 Y168.41 E0.023
G1 X133.103 Y167.866 E0.023
G1 X132.736 Y167.277 E0.023
G1 X132.433 Y166.658 E0.023
G1 X132.194 Y166.013 E0.023
G1 X132.022 Y165.348 E0.023
G1 X131.916 Y164.666 E0.022
G1 X131.882 Y163.977 E0.023
G1 X131.916 Y163.287 E0.023
;rapid-leaky
G0 X132.315 Y163.328 F7200
;bead-skirt/brim
G1 X132.414 Y162.687 F960 E0.022
G1 X132.576 Y162.061 E0.021
G1 X132.802 Y161.451 E0.022
G1 X133.087 Y160.87 E0.022
G1 X133.432 Y160.317 E0.021
G1 X133.829 Y159.805 E0.022
G1 X134.273 Y159.337 E0.021
G1 X134.767 Y158.913 E0.022
G1 X135.308 Y158.537 E0.022
G1 X135.865 Y158.228 E0.021
G1 X136.462 Y157.972 E0.022
G1 X137.082 Y157.777 E0.021
G1 X137.717 Y157.648 E0.022
G1 X138.361 Y157.582 E0.021
G1 X139.01 E0.022
G1 X139.654 Y157.648 E0.021
G1 X140.288 Y157.777 E0.022
G1 X140.91 Y157.972 E0.022
G1 X141.508 Y158.229 E0.021
G1 X142.084 Y158.549 E0.022
G1 X142.608 Y158.915 E0.022
G1 X143.099 Y159.337 E0.021
G1 X143.545 Y159.808 E0.022
G1 X143.949 Y160.33 E0.022
G1 X144.284 Y160.87 E0.021
G1 X144.569 Y161.448 E0.021
G1 X144.796 Y162.061 E0.022
G1 X144.958 Y162.69 E0.022
G1 X145.056 Y163.328 E0.021
G1 X145.09 Y163.977 E0.022
G1 X145.056 Y164.625 E0.021
G1 X144.959 Y165.264 E0.022
G1 X144.796 Y165.893 E0.021
G1 X144.57 Y166.503 E0.022
G1 X144.285 Y167.083 E0.021
G1 X143.942 Y167.635 E0.022
G1 X143.543 Y168.149 E0.022
G1 X143.099 Y168.617 E0.021
G1 X142.606 Y169.04 E0.022
G1 X142.071 Y169.413 E0.021
G1 X141.504 Y169.726 E0.022
G1 X140.91 Y169.981 E0.021
G1 X140.291 Y170.175 E0.022
G1 X139.657 Y170.306 E0.022
G1 X139.01 Y170.372 E0.021
G1 X138.361 E0.022
G1 X137.714 Y170.306 E0.021
G1 X137.079 Y170.175 E0.022
G1 X136.462 Y169.981 E0.021
G1 X135.867 Y169.726 E0.022
G1 X135.3 Y169.412 E0.022
G1 X134.766 Y169.04 E0.021
G1 X134.273 Y168.617 E0.022
G1 X133.829 Y168.149 E0.021
G1 X133.432 Y167.637 E0.022
G1 X133.086 Y167.083 E0.022
G1 X132.801 Y166.5 E0.021
G1 X132.576 Y165.893 E0.022
G1 X132.414 Y165.267 E0.021
G1 X132.315 Y164.625 E0.022
G1 X132.283 Y163.977 E0.021
G1 X132.315 Y163.328 E0.022
;rapid-leaky
G0 X132.713 Y163.368 F7200
;bead-skirt/brim
G1 X132.807 Y162.768 F960 E0.02
G1 X132.958 Y162.18 E0.02
G1 X133.17 Y161.609 E0.021
G1 X133.437 Y161.064 E0.02
G1 X133.76 Y160.546 E0.02
G1 X134.132 Y160.066 E0.02
G1 X134.549 Y159.627 E0.02
G1 X135.012 Y159.23 E0.021
G1 X135.52 Y158.877 E0.02
G1 X136.042 Y158.587 E0.02
G1 X136.601 Y158.347 E0.02
G1 X137.183 Y158.165 E0.021
G1 X137.778 Y158.043 E0.02
G1 X138.381 Y157.982 E0.02
G1 X138.99 E0.02
G1 X139.593 Y158.043 E0.02
G1 X140.188 Y158.165 E0.021
G1 X140.771 Y158.347 E0.02
G1 X141.331 Y158.588 E0.02
G1 X141.872 Y158.889 E0.021
G1 X142.362 Y159.231 E0.02
G1 X142.822 Y159.627 E0.02
G1 X143.241 Y160.068 E0.02
G1 X143.62 Y160.558 E0.021
G1 X143.934 Y161.064 E0.02
G1 X144.201 Y161.607 E0.02
G1 X144.414 Y162.18 E0.02
G1 X144.566 Y162.771 E0.02
G1 X144.657 Y163.368 E0.02
G1 X144.689 Y163.977 E0.021
G1 X144.657 Y164.584 E0.02
G1 X144.566 Y165.184 E0.02
G1 X144.414 Y165.773 E0.02
G1 X144.202 Y166.345 E0.021
G1 X143.935 Y166.889 E0.02
G1 X143.613 Y167.406 E0.02
G1 X143.24 Y167.888 E0.02
G1 X142.822 Y168.327 E0.02
G1 X142.361 Y168.723 E0.021
G1 X141.859 Y169.073 E0.02
G1 X141.328 Y169.366 E0.02
G1 X140.771 Y169.606 E0.02
G1 X140.19 Y169.787 E0.021
G1 X139.596 Y169.91 E0.02
G1 X138.99 Y169.972 E0.02
G1 X138.381 E0.02
G1 X137.775 Y169.91 E0.021
G1 X137.18 Y169.787 E0.02
G1 X136.601 Y169.606 E0.02
G1 X136.043 Y169.366 E0.02
G1 X135.512 Y169.072 E0.02
G1 X135.011 Y168.723 E0.021
G1 X134.549 Y168.327 E0.02
G1 X134.132 Y167.888 E0.02
G1 X133.76 Y167.408 E0.02
G1 X133.436 Y166.889 E0.021
G1 X133.169 Y166.343 E0.02
G1 X132.958 Y165.773 E0.02
G1 X132.807 Y165.186 E0.02
G1 X132.713 Y164.584 E0.02
G1 X132.683 Y163.977 E0.021
G1 X132.713 Y163.368 E0.02
;rapid-leaky
G0 X133.112 Y163.409 F7200
;bead-skirt/brim
G1 X133.199 Y162.849 F960 E0.019
G1 X133.34 Y162.3 E0.019
G1 X133.538 Y161.767 E0.019
G1 X133.787 Y161.258 E0.018
G1 X134.089 Y160.775 E0.019
G1 X134.436 Y160.327 E0.019
G1 X134.826 Y159.917 E0.019
G1 X135.257 Y159.546 E0.019
G1 X135.732 Y159.217 E0.019
G1 X136.218 Y158.947 E0.019
G1 X136.74 Y158.723 E0.018
G1 X137.283 Y158.553 E0.019
G1 X137.838 Y158.439 E0.019
G1 X138.402 Y158.382 E0.019
G1 X138.969 E0.019
G1 X139.533 Y158.439 E0.019
G1 X140.088 Y158.553 E0.019
G1 X140.632 Y158.723 E0.019
G1 X141.155 Y158.948 E0.019
G1 X141.659 Y159.229 E0.019
G1 X142.117 Y159.548 E0.018
G1 X142.546 Y159.917 E0.019
G1 X142.937 Y160.329 E0.019
G1 X143.291 Y160.787 E0.019
G1 X143.584 Y161.259 E0.019
G1 X143.833 Y161.765 E0.019
G1 X144.032 Y162.3 E0.019
G1 X144.174 Y162.851 E0.018
G1 X144.259 Y163.409 E0.019
G1 X144.288 Y163.977 E0.019
G1 X144.259 Y164.544 E0.019
G1 X144.174 Y165.103 E0.019
G1 X144.032 Y165.653 E0.019
G1 X143.834 Y166.187 E0.019
G1 X143.584 Y166.695 E0.018
G1 X143.285 Y167.177 E0.019
G1 X142.936 Y167.627 E0.019
G1 X142.546 Y168.037 E0.019
G1 X142.116 Y168.407 E0.019
G1 X141.648 Y168.733 E0.019
G1 X141.152 Y169.006 E0.019
G1 X140.632 Y169.23 E0.019
G1 X140.09 Y169.4 E0.018
G1 X139.535 Y169.514 E0.019
G1 X138.969 Y169.572 E0.019
G1 X138.402 E0.019
G1 X137.836 Y169.514 E0.019
G1 X137.28 Y169.4 E0.019
G1 X136.74 Y169.23 E0.019
G1 X136.219 Y169.006 E0.019
G1 X135.723 Y168.732 E0.018
G1 X135.256 Y168.407 E0.019
G1 X134.826 Y168.037 E0.019
G1 X134.436 Y167.627 E0.019
G1 X134.089 Y167.179 E0.019
G1 X133.787 Y166.695 E0.019
G1 X133.538 Y166.185 E0.019
G1 X133.34 Y165.653 E0.019
G1 X133.199 Y165.106 E0.018
G1 X133.112 Y164.544 E0.019
G1 X133.084 Y163.977 E0.019
G1 X133.112 Y163.409 E0.019
;rapid-leaky
G0 X133.51 Y163.45 F7200
;bead-skirt/brim
G1 X133.591 Y162.929 F960 E0.018
G1 X133.722 Y162.42 E0.017
G1 X133.906 Y161.925 E0.018
G1 X134.137 Y161.453 E0.017
G1 X134.417 Y161.004 E0.018
G1 X134.74 Y160.588 E0.017
G1 X135.102 Y160.208 E0.018
G1 X135.502 Y159.863 E0.017
G1 X135.943 Y159.557 E0.018
G1 X136.395 Y159.306 E0.017
G1 X136.879 Y159.098 E0.018
G1 X137.383 Y158.941 E0.017
G1 X137.898 Y158.835 E0.018
G1 X138.422 Y158.782 E0.017
G1 X138.949 E0.018
G1 X139.473 Y158.835 E0.018
G1 X139.988 Y158.941 E0.017
G1 X140.493 Y159.098 E0.018
G1 X140.978 Y159.307 E0.017
G1 X141.447 Y159.568 E0.018
G1 X141.871 Y159.864 E0.017
G1 X142.27 Y160.208 E0.018
G1 X142.633 Y160.59 E0.017
G1 X142.962 Y161.015 E0.018
G1 X143.234 Y161.453 E0.017
G1 X143.466 Y161.924 E0.018
G1 X143.65 Y162.42 E0.017
G1 X143.781 Y162.931 E0.018
G1 X143.861 Y163.45 E0.017
G1 X143.888 Y163.977 E0.018
G1 X143.86 Y164.503 E0.017
G1 X143.781 Y165.023 E0.018
G1 X143.65 Y165.534 E0.017
G1 X143.466 Y166.029 E0.018
G1 X143.234 Y166.501 E0.018
G1 X142.956 Y166.949 E0.017
G1 X142.632 Y167.366 E0.018
G1 X142.27 Y167.747 E0.017
G1 X141.87 Y168.09 E0.018
G1 X141.436 Y168.393 E0.017
G1 X140.976 Y168.647 E0.018
G1 X140.493 Y168.855 E0.017
G1 X139.989 Y169.012 E0.018
G1 X139.474 Y169.119 E0.017
G1 X138.949 Y169.172 E0.018
G1 X138.422 E0.017
G1 X137.897 Y169.119 E0.018
G1 X137.381 Y169.012 E0.017
G1 X136.879 Y168.855 E0.018
G1 X136.395 Y168.647 E0.017
G1 X135.935 Y168.392 E0.018
G1 X135.502 Y168.09 E0.017
G1 X135.102 Y167.746 E0.018
G1 X134.74 Y167.366 E0.017
G1 X134.417 Y166.95 E0.018
G1 X134.137 Y166.501 E0.018
G1 X133.906 Y166.027 E0.017
G1 X133.722 Y165.534 E0.018
G1 X133.591 Y165.025 E0.017
G1 X133.51 Y164.503 E0.018
G1 X133.484 Y163.977 E0.017
G1 X133.51 Y163.45 E0.018
;rapid-leaky
G0 X133.909 Y163.49 F7200
;bead-skirt/brim
G1 X133.983 Y163.01 F960 E0.016
G1 X134.104 Y162.54 E0.016
G1 X134.274 Y162.083 E0.016
G1 X134.487 Y161.647 E0.016
G1 X134.746 Y161.233 E0.017
G1 X135.044 Y160.849 E0.016
G1 X135.378 Y160.498 E0.016
G1 X135.747 Y160.18 E0.016
G1 X136.155 Y159.897 E0.017
G1 X136.571 Y159.666 E0.015
G1 X137.018 Y159.474 E0.017
G1 X137.483 Y159.328 E0.016
G1 X137.959 Y159.231 E0.016
G1 X138.442 Y159.182 E0.016
G1 X138.929 E0.016
G1 X139.412 Y159.231 E0.017
G1 X139.888 Y159.328 E0.016
G1 X140.354 Y159.474 E0.016
G1 X140.801 Y159.667 E0.016
G1 X141.235 Y159.908 E0.017
G1 X141.626 Y160.181 E0.015
G1 X141.994 Y160.498 E0.017
G1 X142.329 Y160.85 E0.016
G1 X142.633 Y161.243 E0.016
G1 X142.883 Y161.647 E0.016
G1 X143.098 Y162.082 E0.016
G1 X143.268 Y162.54 E0.016
G1 X143.389 Y163.011 E0.017
G1 X143.462 Y163.49 E0.016
G1 X143.487 Y163.977 E0.016
G1 X143.462 Y164.463 E0.016
G1 X143.389 Y164.943 E0.016
G1 X143.267 Y165.414 E0.017
G1 X143.098 Y165.87 E0.016
G1 X142.884 Y166.306 E0.016
G1 X142.627 Y166.72 E0.016
G1 X142.328 Y167.105 E0.016
G1 X141.994 Y167.456 E0.016
G1 X141.625 Y167.774 E0.017
G1 X141.225 Y168.052 E0.016
G1 X140.799 Y168.287 E0.016
G1 X140.354 Y168.479 E0.016
G1 X139.889 Y168.624 E0.016
G1 X139.413 Y168.723 E0.016
G1 X138.929 Y168.772 E0.017
G1 X138.442 E0.016
G1 X137.958 Y168.723 E0.016
G1 X137.482 Y168.624 E0.016
G1 X137.018 Y168.479 E0.016
G1 X136.571 Y168.287 E0.017
G1 X136.147 Y168.052 E0.016
G1 X135.747 Y167.774 E0.016
G1 X135.378 Y167.456 E0.016
G1 X135.044 Y167.105 E0.016
G1 X134.746 Y166.721 E0.016
G1 X134.487 Y166.306 E0.017
G1 X134.274 Y165.869 E0.016
G1 X134.105 Y165.414 E0.016
G1 X133.983 Y164.944 E0.016
G1 X133.909 Y164.463 E0.016
G1 X133.885 Y163.977 E0.016
G1 X133.909 Y163.49 E0.017
;rapid-leaky
G0 X134.307 Y163.531 F7200
;bead-skirt/brim
G1 X134.376 Y163.091 F960 E0.014
G1 X134.487 Y162.659 E0.015
G1 X134.642 Y162.241 E0.015
G1 X134.838 Y161.841 E0.015
G1 X135.074 Y161.462 E0.015
G1 X135.347 Y161.11 E0.015
G1 X135.654 Y160.788 E0.014
G1 X135.992 Y160.497 E0.015
G1 X136.367 Y160.237 E0.015
G1 X136.747 Y160.026 E0.015
G1 X137.157 Y159.85 E0.015
G1 X137.583 Y159.716 E0.015
G1 X138.019 Y159.627 E0.014
G1 X138.463 Y159.582 E0.015
G1 X138.908 E0.015
G1 X139.352 Y159.627 E0.015
G1 X139.788 Y159.716 E0.015
G1 X140.215 Y159.85 E0.015
G1 X140.624 Y160.026 E0.014
G1 X141.022 Y160.248 E0.016
G1 X141.38 Y160.497 E0.014
G1 X141.718 Y160.788 E0.015
G1 X142.025 Y161.111 E0.015
G1 X142.304 Y161.472 E0.015
G1 X142.533 Y161.842 E0.014
G1 X142.73 Y162.24 E0.015
G1 X142.885 Y162.659 E0.015
G1 X142.997 Y163.092 E0.015
G1 X143.064 Y163.531 E0.015
G1 X143.087 Y163.977 E0.014
G1 X143.064 Y164.422 E0.015
G1 X142.997 Y164.862 E0.015
G1 X142.885 Y165.294 E0.015
G1 X142.73 Y165.712 E0.015
G1 X142.533 Y166.112 E0.015
G1 X142.298 Y166.491 E0.014
G1 X142.025 Y166.844 E0.015
G1 X141.718 Y167.166 E0.015
G1 X141.38 Y167.457 E0.015
G1 X141.013 Y167.712 E0.015
G1 X140.623 Y167.927 E0.015
G1 X140.215 Y168.103 E0.014
G1 X139.789 Y168.237 E0.015
G1 X139.352 Y168.327 E0.015
G1 X138.908 Y168.372 E0.015
G1 X138.463 E0.015
G1 X138.019 Y168.327 E0.015
G1 X137.582 Y168.237 E0.014
G1 X137.157 Y168.103 E0.015
G1 X136.748 Y167.927 E0.015
G1 X136.358 Y167.712 E0.015
G1 X135.992 Y167.457 E0.015
G1 X135.654 Y167.166 E0.014
G1 X135.347 Y166.844 E0.015
G1 X135.074 Y166.492 E0.015
G1 X134.838 Y166.112 E0.015
G1 X134.642 Y165.712 E0.015
G1 X134.487 Y165.294 E0.015
G1 X134.376 Y164.863 E0.014
G1 X134.307 Y164.422 E0.015
G1 X134.285 Y163.977 E0.015
G1 X134.307 Y163.531 E0.015
;rapid-leaky
G0 X134.706 Y163.572 F7200
;bead-skirt/brim
G1 X134.768 Y163.172 F960 E0.013
G1 X134.869 Y162.779 E0.014
G1 X135.01 Y162.399 E0.013
G1 X135.188 Y162.036 E0.014
G1 X135.403 Y161.691 E0.013
G1 X135.651 Y161.371 E0.014
G1 X135.93 Y161.078 E0.013
G1 X136.237 Y160.814 E0.014
G1 X136.578 Y160.577 E0.014
G1 X136.924 Y160.385 E0.013
G1 X137.296 Y160.225 E0.013
G1 X137.683 Y160.104 E0.014
G1 X138.08 Y160.023 E0.013
G1 X138.483 Y159.982 E0.014
G1 X138.888 E0.013
G1 X139.291 Y160.023 E0.014
G1 X139.688 Y160.104 E0.013
G1 X140.076 Y160.225 E0.014
G1 X140.447 Y160.385 E0.013
G1 X140.81 Y160.587 E0.014
G1 X141.135 Y160.814 E0.013
G1 X141.442 Y161.078 E0.013
G1 X141.721 Y161.372 E0.014
G1 X141.975 Y161.7 E0.014
G1 X142.183 Y162.036 E0.013
G1 X142.362 Y162.399 E0.013
G1 X142.503 Y162.779 E0.014
G1 X142.604 Y163.172 E0.013
G1 X142.665 Y163.572 E0.014
G1 X142.686 Y163.977 E0.013
G1 X142.665 Y164.381 E0.014
G1 X142.604 Y164.782 E0.013
G1 X142.503 Y165.174 E0.014
G1 X142.362 Y165.554 E0.013
G1 X142.183 Y165.918 E0.014
G1 X141.969 Y166.262 E0.013
G1 X141.721 Y166.583 E0.014
G1 X141.442 Y166.876 E0.013
G1 X141.135 Y167.14 E0.014
G1 X140.802 Y167.372 E0.013
G1 X140.447 Y167.568 E0.014
G1 X140.076 Y167.728 E0.013
G1 X139.688 Y167.849 E0.013
G1 X139.291 Y167.931 E0.014
G1 X138.888 Y167.972 E0.013
G1 X138.483 E0.014
G1 X138.08 Y167.931 E0.013
G1 X137.683 Y167.849 E0.014
G1 X137.296 Y167.728 E0.013
G1 X136.924 Y167.568 E0.014
G1 X136.57 Y167.372 E0.013
G1 X136.237 Y167.14 E0.014
G1 X135.93 Y166.876 E0.013
G1 X135.651 Y166.583 E0.014
G1 X135.403 Y166.263 E0.013
G1 X135.188 Y165.918 E0.014
G1 X135.01 Y165.554 E0.013
G1 X134.869 Y165.174 E0.014
G1 X134.768 Y164.782 E0.013
G1 X134.706 Y164.381 E0.014
G1 X134.686 Y163.977 E0.013
G1 X134.706 Y163.572 E0.014
;rapid-leaky
G0 X156.119 Y162.297 F7200
;bead-skirt/brim
G1 X156.081 Y161.527 F960 E0.025
G1 X156.119 Y160.756 E0.026
G1 X156.238 Y159.995 E0.025
G1 X156.429 Y159.251 E0.026
G1 X156.698 Y158.527 E0.026
G1 X157.036 Y157.837 E0.025
G1 X157.446 Y157.18 E0.026
G1 X157.917 Y156.572 E0.026
G1 X158.445 Y156.017 E0.025
G1 X159.031 Y155.513 E0.026
G1 X159.673 Y155.067 E0.026
G1 X160.336 Y154.699 E0.025
G1 X161.045 Y154.395 E0.026
G1 X161.782 Y154.164 E0.025
G1 X162.536 Y154.01 E0.026
G1 X163.3 Y153.932 E0.025
G1 X164.071 E0.026
G1 X164.835 Y154.01 E0.026
G1 X165.587 Y154.163 E0.025
G1 X166.328 Y154.395 E0.026
G1 X167.039 Y154.701 E0.026
G1 X167.721 Y155.08 E0.026
G1 X168.344 Y155.516 E0.025
G1 X168.927 Y156.017 E0.026
G1 X169.458 Y156.575 E0.025
G1 X169.936 Y157.195 E0.026
G1 X170.335 Y157.837 E0.025
G1 X170.673 Y158.523 E0.026
G1 X170.943 Y159.251 E0.026
G1 X171.136 Y160 E0.025
G1 X171.251 Y160.756 E0.026
G1 X171.291 Y161.527 E0.025
G1 X171.251 Y162.297 E0.026
G1 X171.136 Y163.055 E0.026
G1 X170.943 Y163.803 E0.025
G1 X170.673 Y164.528 E0.026
G1 X170.336 Y165.216 E0.026
G1 X169.929 Y165.871 E0.025
G1 X169.455 Y166.482 E0.026
G1 X168.927 Y167.037 E0.025
G1 X168.342 Y167.54 E0.026
G1 X167.705 Y167.984 E0.026
G1 X167.033 Y168.355 E0.025
G1 X166.328 Y168.658 E0.026
G1 X165.592 Y168.888 E0.026
G1 X164.84 Y169.044 E0.025
G1 X164.071 Y169.122 E0.026
G1 X163.3 E0.025
G1 X162.531 Y169.044 E0.026
G1 X161.778 Y168.888 E0.026
G1 X161.045 Y168.658 E0.025
G1 X160.338 Y168.355 E0.026
G1 X159.665 Y167.982 E0.025
G1 X159.03 Y167.54 E0.026
G1 X158.445 Y167.037 E0.026
G1 X157.917 Y166.482 E0.025
G1 X157.446 Y165.875 E0.026
G1 X157.035 Y165.216 E0.026
G1 X156.697 Y164.524 E0.025
G1 X156.429 Y163.803 E0.026
G1 X156.238 Y163.059 E0.025
G1 X156.119 Y162.297 E0.026
;rapid-leaky
G0 X156.518 Y162.256 F7200
;bead-skirt/brim
G1 X156.482 Y161.527 F960 E0.024
G1 X156.518 Y160.796 E0.025
G1 X156.63 Y160.076 E0.024
G1 X156.811 Y159.371 E0.024
G1 X157.066 Y158.685 E0.025
G1 X157.386 Y158.031 E0.024
G1 X157.774 Y157.409 E0.024
G1 X158.221 Y156.833 E0.024
G1 X158.721 Y156.307 E0.025
G1 X159.277 Y155.829 E0.024
G1 X159.885 Y155.407 E0.025
G1 X160.513 Y155.059 E0.023
G1 X161.184 Y154.77 E0.025
G1 X161.882 Y154.552 E0.024
G1 X162.596 Y154.406 E0.024
G1 X163.32 Y154.332 E0.024
G1 X164.051 E0.025
G1 X164.775 Y154.406 E0.024
G1 X165.487 Y154.551 E0.024
G1 X166.189 Y154.77 E0.025
G1 X166.862 Y155.06 E0.024
G1 X167.508 Y155.42 E0.025
G1 X168.099 Y155.832 E0.024
G1 X168.651 Y156.307 E0.024
G1 X169.154 Y156.836 E0.024
G1 X169.607 Y157.423 E0.025
G1 X169.984 Y158.031 E0.024
G1 X170.305 Y158.682 E0.024
G1 X170.561 Y159.371 E0.024
G1 X170.743 Y160.08 E0.024
G1 X170.853 Y160.796 E0.025
G1 X170.891 Y161.527 E0.024
G1 X170.853 Y162.256 E0.024
G1 X170.743 Y162.974 E0.024
G1 X170.56 Y163.683 E0.025
G1 X170.306 Y164.37 E0.024
G1 X169.985 Y165.021 E0.024
G1 X169.6 Y165.642 E0.024
G1 X169.151 Y166.221 E0.025
G1 X168.651 Y166.747 E0.024
G1 X168.097 Y167.223 E0.024
G1 X167.493 Y167.643 E0.025
G1 X166.856 Y167.995 E0.024
G1 X166.189 Y168.283 E0.024
G1 X165.492 Y168.5 E0.024
G1 X164.779 Y168.648 E0.025
G1 X164.051 Y168.722 E0.024
G1 X163.32 E0.024
G1 X162.592 Y168.648 E0.025
G1 X161.878 Y168.5 E0.024
G1 X161.184 Y168.283 E0.024
G1 X160.514 Y167.995 E0.024
G1 X159.877 Y167.642 E0.025
G1 X159.275 Y167.223 E0.024
G1 X158.721 Y166.747 E0.024
G1 X158.221 Y166.221 E0.024
G1 X157.775 Y165.645 E0.025
G1 X157.385 Y165.021 E0.024
G1 X157.065 Y164.366 E0.024
G1 X156.812 Y163.683 E0.025
G1 X156.63 Y162.979 E0.024
G1 X156.518 Y162.256 E0.024
;rapid-leaky
G0 X156.916 Y162.216 F7200
;bead-skirt/brim
G1 X156.882 Y161.527 F960 E0.023
G1 X156.916 Y160.837 E0.023
G1 X157.022 Y160.157 E0.023
G1 X157.193 Y159.491 E0.023
G1 X157.434 Y158.843 E0.023
G1 X157.736 Y158.225 E0.023
G1 X158.103 Y157.638 E0.023
G1 X158.525 Y157.094 E0.022
G1 X158.997 Y156.597 E0.023
G1 X159.522 Y156.146 E0.023
G1 X160.097 Y155.747 E0.024
G1 X160.689 Y155.418 E0.022
G1 X161.323 Y155.146 E0.023
G1 X161.982 Y154.939 E0.023
G1 X162.657 Y154.802 E0.023
G1 X163.341 Y154.732 E0.023
G1 X164.03 E0.023
G1 X164.714 Y154.802 E0.023
G1 X165.387 Y154.939 E0.022
G1 X166.05 Y155.146 E0.024
G1 X166.685 Y155.42 E0.023
G1 X167.296 Y155.76 E0.023
G1 X167.853 Y156.149 E0.022
G1 X168.375 Y156.597 E0.023
G1 X168.85 Y157.097 E0.023
G1 X169.278 Y157.652 E0.024
G1 X169.634 Y158.226 E0.022
G1 X169.937 Y158.84 E0.023
G1 X170.179 Y159.491 E0.023
G1 X170.351 Y160.16 E0.023
G1 X170.454 Y160.837 E0.023
G1 X170.49 Y161.527 E0.023
G1 X170.454 Y162.216 E0.023
G1 X170.351 Y162.894 E0.022
G1 X170.178 Y163.563 E0.023
G1 X169.938 Y164.212 E0.023
G1 X169.635 Y164.827 E0.023
G1 X169.271 Y165.414 E0.023
G1 X168.847 Y165.96 E0.023
G1 X168.375 Y166.457 E0.023
G1 X167.852 Y166.907 E0.023
G1 X167.282 Y167.303 E0.023
G1 X166.68 Y167.635 E0.023
G1 X166.049 Y167.907 E0.023
G1 X165.391 Y168.113 E0.023
G1 X164.718 Y168.252 E0.022
G1 X164.03 Y168.322 E0.023
G1 X163.341 E0.023
G1 X162.653 Y168.252 E0.023
G1 X161.979 Y168.112 E0.023
G1 X161.323 Y167.907 E0.023
G1 X160.69 Y167.635 E0.023
G1 X160.088 Y167.302 E0.023
G1 X159.52 Y166.907 E0.023
G1 X158.997 Y166.457 E0.023
G1 X158.525 Y165.96 E0.023
G1 X158.103 Y165.416 E0.023
G1 X157.736 Y164.827 E0.023
G1 X157.433 Y164.208 E0.023
G1 X157.194 Y163.563 E0.022
G1 X157.022 Y162.898 E0.023
G1 X156.916 Y162.216 E0.023
;rapid-leaky
G0 X157.315 Y162.175 F7200
;bead-skirt/brim
G1 X157.283 Y161.527 F960 E0.022
G1 X157.315 Y160.878 E0.021
G1 X157.414 Y160.237 E0.022
G1 X157.576 Y159.61 E0.022
G1 X157.802 Y159.001 E0.021
G1 X158.087 Y158.42 E0.022
G1 X158.432 Y157.867 E0.021
G1 X158.829 Y157.355 E0.022
G1 X159.273 Y156.887 E0.021
G1 X159.767 Y156.463 E0.022
G1 X160.308 Y156.087 E0.022
G1 X160.865 Y155.778 E0.021
G1 X161.462 Y155.522 E0.022
G1 X162.082 Y155.327 E0.021
G1 X162.717 Y155.198 E0.022
G1 X163.361 Y155.132 E0.021
G1 X164.01 E0.022
G1 X164.654 Y155.198 E0.022
G1 X165.288 Y155.327 E0.021
G1 X165.91 Y155.522 E0.022
G1 X166.508 Y155.779 E0.021
G1 X167.084 Y156.099 E0.022
G1 X167.608 Y156.465 E0.022
G1 X168.099 Y156.887 E0.021
G1 X168.545 Y157.358 E0.022
G1 X168.949 Y157.88 E0.022
G1 X169.284 Y158.42 E0.021
G1 X169.569 Y158.998 E0.021
G1 X169.796 Y159.611 E0.022
G1 X169.959 Y160.241 E0.022
G1 X170.056 Y160.878 E0.021
G1 X170.09 Y161.527 E0.022
G1 X170.056 Y162.175 E0.021
G1 X169.958 Y162.814 E0.022
G1 X169.796 Y163.443 E0.021
G1 X169.57 Y164.053 E0.022
G1 X169.285 Y164.633 E0.021
G1 X168.942 Y165.185 E0.022
G1 X168.543 Y165.699 E0.022
G1 X168.099 Y166.167 E0.021
G1 X167.606 Y166.59 E0.022
G1 X167.071 Y166.963 E0.022
G1 X166.504 Y167.276 E0.021
G1 X165.91 Y167.531 E0.022
G1 X165.291 Y167.725 E0.021
G1 X164.657 Y167.856 E0.022
G1 X164.01 Y167.922 E0.021
G1 X163.361 E0.022
G1 X162.714 Y167.856 E0.021
G1 X162.079 Y167.725 E0.022
G1 X161.462 Y167.531 E0.022
G1 X160.867 Y167.276 E0.021
G1 X160.3 Y166.962 E0.022
G1 X159.766 Y166.59 E0.021
G1 X159.273 Y166.167 E0.022
G1 X158.829 Y165.699 E0.021
G1 X158.432 Y165.187 E0.022
G1 X158.086 Y164.633 E0.022
G1 X157.801 Y164.05 E0.021
G1 X157.576 Y163.443 E0.022
G1 X157.414 Y162.817 E0.021
G1 X157.315 Y162.175 E0.022
;rapid-leaky
G0 X157.713 Y162.134 F7200
;bead-skirt/brim
G1 X157.683 Y161.527 F960 E0.02
G1 X157.713 Y160.918 E0.02
G1 X157.807 Y160.318 E0.021
G1 X157.958 Y159.73 E0.02
G1 X158.17 Y159.159 E0.02
G1 X158.437 Y158.614 E0.02
G1 X158.76 Y158.096 E0.021
G1 X159.132 Y157.616 E0.02
G1 X159.55 Y157.177 E0.02
G1 X160.012 Y156.78 E0.02
G1 X160.52 Y156.427 E0.021
G1 X161.042 Y156.137 E0.02
G1 X161.601 Y155.897 E0.02
G1 X162.183 Y155.715 E0.02
G1 X162.778 Y155.593 E0.02
G1 X163.381 Y155.532 E0.02
G1 X163.99 E0.021
G1 X164.593 Y155.593 E0.02
G1 X165.188 Y155.715 E0.02
G1 X165.771 Y155.897 E0.02
G1 X166.331 Y156.138 E0.021
G1 X166.872 Y156.439 E0.02
G1 X167.362 Y156.781 E0.02
G1 X167.822 Y157.177 E0.02
G1 X168.241 Y157.618 E0.021
G1 X168.62 Y158.108 E0.02
G1 X168.934 Y158.614 E0.02
G1 X169.201 Y159.157 E0.02
G1 X169.414 Y159.73 E0.02
G1 X169.566 Y160.321 E0.021
G1 X169.657 Y160.918 E0.02
G1 X169.689 Y161.527 E0.02
G1 X169.657 Y162.134 E0.02
G1 X169.566 Y162.734 E0.02
G1 X169.414 Y163.323 E0.021
G1 X169.202 Y163.895 E0.02
G1 X168.935 Y164.439 E0.02
G1 X168.613 Y164.956 E0.02
G1 X168.24 Y165.438 E0.021
G1 X167.823 Y165.877 E0.02
G1 X167.361 Y166.273 E0.02
G1 X166.859 Y166.623 E0.02
G1 X166.328 Y166.916 E0.021
G1 X165.771 Y167.156 E0.02
G1 X165.19 Y167.337 E0.02
G1 X164.596 Y167.46 E0.02
G1 X163.99 Y167.522 E0.02
G1 X163.381 E0.021
G1 X162.775 Y167.46 E0.02
G1 X162.18 Y167.337 E0.02
G1 X161.601 Y167.156 E0.02
G1 X161.043 Y166.916 E0.021
G1 X160.512 Y166.622 E0.02
G1 X160.011 Y166.273 E0.02
G1 X159.55 Y165.877 E0.02
G1 X159.132 Y165.438 E0.02
G1 X158.76 Y164.958 E0.021
G1 X158.436 Y164.439 E0.02
G1 X158.169 Y163.893 E0.02
G1 X157.958 Y163.323 E0.02
G1 X157.807 Y162.736 E0.021
G1 X157.713 Y162.134 E0.02
;rapid-leaky
G0 X158.112 Y162.094 F7200
;bead-skirt/brim
G1 X158.084 Y161.527 F960 E0.019
G1 X158.112 Y160.959 E0.019
G1 X158.199 Y160.399 E0.018
G1 X158.34 Y159.85 E0.019
G1 X158.538 Y159.317 E0.019
G1 X158.787 Y158.808 E0.019
G1 X159.089 Y158.325 E0.019
G1 X159.436 Y157.877 E0.019
G1 X159.826 Y157.467 E0.019
G1 X160.257 Y157.097 E0.019
G1 X160.732 Y156.767 E0.019
G1 X161.218 Y156.497 E0.018
G1 X161.74 Y156.273 E0.019
G1 X162.283 Y156.103 E0.019
G1 X162.838 Y155.989 E0.019
G1 X163.402 Y155.932 E0.019
G1 X163.969 E0.019
G1 X164.533 Y155.989 E0.018
G1 X165.088 Y156.103 E0.019
G1 X165.632 Y156.273 E0.019
G1 X166.155 Y156.498 E0.019
G1 X166.659 Y156.779 E0.019
G1 X167.117 Y157.098 E0.019
G1 X167.546 Y157.467 E0.019
G1 X167.937 Y157.879 E0.019
G1 X168.291 Y158.337 E0.019
G1 X168.584 Y158.809 E0.018
G1 X168.833 Y159.315 E0.019
G1 X169.032 Y159.85 E0.019
G1 X169.174 Y160.401 E0.019
G1 X169.259 Y160.959 E0.019
G1 X169.288 Y161.527 E0.019
G1 X169.259 Y162.094 E0.019
G1 X169.174 Y162.653 E0.018
G1 X169.032 Y163.203 E0.019
G1 X168.834 Y163.737 E0.019
G1 X168.584 Y164.245 E0.019
G1 X168.285 Y164.727 E0.019
G1 X167.936 Y165.177 E0.019
G1 X167.546 Y165.587 E0.019
G1 X167.116 Y165.957 E0.019
G1 X166.648 Y166.283 E0.019
G1 X166.152 Y166.556 E0.018
G1 X165.632 Y166.78 E0.019
G1 X165.09 Y166.95 E0.019
G1 X164.535 Y167.064 E0.019
G1 X163.969 Y167.122 E0.019
G1 X163.402 E0.019
G1 X162.836 Y167.064 E0.019
G1 X162.28 Y166.949 E0.019
G1 X161.74 Y166.78 E0.018
G1 X161.219 Y166.556 E0.019
G1 X160.723 Y166.282 E0.019
G1 X160.256 Y165.957 E0.019
G1 X159.826 Y165.587 E0.019
G1 X159.436 Y165.177 E0.019
G1 X159.089 Y164.729 E0.019
G1 X158.787 Y164.245 E0.019
G1 X158.537 Y163.735 E0.018
G1 X158.34 Y163.203 E0.019
G1 X158.199 Y162.655 E0.019
G1 X158.112 Y162.094 E0.019
;rapid-leaky
G0 X158.51 Y162.053 F7200
;bead-skirt/brim
G1 X158.484 Y161.527 F960 E0.018
G1 X158.51 Y161 E0.017
G1 X158.591 Y160.479 E0.018
G1 X158.722 Y159.97 E0.017
G1 X158.906 Y159.475 E0.018
G1 X159.137 Y159.003 E0.017
G1 X159.417 Y158.554 E0.018
G1 X159.74 Y158.138 E0.017
G1 X160.102 Y157.758 E0.018
G1 X160.502 Y157.413 E0.017
G1 X160.943 Y157.107 E0.018
G1 X161.395 Y156.856 E0.017
G1 X161.879 Y156.648 E0.018
G1 X162.383 Y156.491 E0.017
G1 X162.898 Y156.385 E0.018
G1 X163.422 Y156.332 E0.017
G1 X163.949 E0.018
G1 X164.473 Y156.385 E0.017
G1 X164.988 Y156.491 E0.018
G1 X165.493 Y156.648 E0.018
G1 X165.978 Y156.857 E0.017
G1 X166.447 Y157.118 E0.018
G1 X166.871 Y157.414 E0.017
G1 X167.27 Y157.757 E0.018
G1 X167.633 Y158.14 E0.017
G1 X167.962 Y158.565 E0.018
G1 X168.234 Y159.003 E0.017
G1 X168.466 Y159.474 E0.018
G1 X168.65 Y159.97 E0.017
G1 X168.781 Y160.481 E0.018
G1 X168.86 Y161 E0.017
G1 X168.888 Y161.527 E0.018
G1 X168.86 Y162.053 E0.017
G1 X168.781 Y162.573 E0.018
G1 X168.65 Y163.084 E0.017
G1 X168.466 Y163.579 E0.018
G1 X168.234 Y164.051 E0.017
G1 X167.956 Y164.499 E0.018
G1 X167.632 Y164.916 E0.018
G1 X167.27 Y165.296 E0.017
G1 X166.87 Y165.64 E0.018
G1 X166.436 Y165.943 E0.017
G1 X165.976 Y166.197 E0.018
G1 X165.493 Y166.405 E0.017
G1 X164.989 Y166.562 E0.018
G1 X164.474 Y166.669 E0.017
G1 X163.949 Y166.722 E0.018
G1 X163.422 E0.017
G1 X162.897 Y166.669 E0.018
G1 X162.381 Y166.562 E0.017
G1 X161.879 Y166.405 E0.018
G1 X161.395 Y166.197 E0.017
G1 X160.935 Y165.942 E0.018
G1 X160.502 Y165.64 E0.017
G1 X160.102 Y165.296 E0.018
G1 X159.74 Y164.916 E0.017
G1 X159.417 Y164.5 E0.018
G1 X159.137 Y164.051 E0.018
G1 X158.906 Y163.577 E0.017
G1 X158.722 Y163.084 E0.018
G1 X158.591 Y162.575 E0.017
G1 X158.51 Y162.053 E0.018
;rapid-leaky
G0 X158.909 Y162.013 F7200
;bead-skirt/brim
G1 X158.885 Y161.527 F960 E0.016
G1 X158.909 Y161.04 E0.016
G1 X158.983 Y160.56 E0.016
G1 X159.104 Y160.09 E0.016
G1 X159.274 Y159.633 E0.017
G1 X159.487 Y159.197 E0.016
G1 X159.746 Y158.783 E0.016
G1 X160.044 Y158.399 E0.016
G1 X160.378 Y158.048 E0.016
G1 X160.747 Y157.73 E0.016
G1 X161.155 Y157.447 E0.017
G1 X161.571 Y157.216 E0.016
G1 X162.018 Y157.024 E0.016
G1 X162.483 Y156.878 E0.016
G1 X162.959 Y156.781 E0.016
G1 X163.442 Y156.732 E0.016
G1 X163.929 E0.017
G1 X164.412 Y156.781 E0.016
G1 X164.888 Y156.878 E0.016
G1 X165.354 Y157.024 E0.016
G1 X165.801 Y157.217 E0.016
G1 X166.235 Y157.458 E0.017
G1 X166.626 Y157.731 E0.016
G1 X166.994 Y158.048 E0.016
G1 X167.329 Y158.4 E0.016
G1 X167.633 Y158.793 E0.017
G1 X167.883 Y159.197 E0.015
G1 X168.098 Y159.632 E0.017
G1 X168.268 Y160.09 E0.016
G1 X168.389 Y160.561 E0.016
G1 X168.462 Y161.04 E0.016
G1 X168.487 Y161.527 E0.016
G1 X168.462 Y162.013 E0.016
G1 X168.389 Y162.493 E0.017
G1 X168.267 Y162.964 E0.016
G1 X168.098 Y163.421 E0.016
G1 X167.884 Y163.856 E0.016
G1 X167.627 Y164.27 E0.016
