;dop
;Printer name: Prusa i3 MK3
;TIME:2507
;Print time: 41m:47s
;Extruder 1 material used: 2007mm
;Extruder 1 material name: 
;Extruder 1 filament diameter: 1.75mm
;Extruder 1 nozzle diameter: 0.4mm
;Extruder 1 offset x: 0mm
;Extruder 1 offset y: 0mm
;Extruder 1 offset z: 0mm
;Extruder 1 max temp: 200
;Bed temp: 70
;Layer count: 233
;Width: 250mm
;Depth: 210mm
;Height: 210mm
;Center x: 125mm
;Center y: 105mm
;Center z: 0mm
;Count of bodies: 1
;Fusion version: 2.0.19440
G21
M115 U3.0.10 ;tell printer latest fw version
G28 W ;home all without mesh bed level
;--------------------------------
;Selected Profile: PLA Direct Drive
;--------------------------------
;Selected Printer: Prusa, i3 MK3
;--------------------------------
T0
M140 S70
M104 S200 T0
M190 S70
M109 S200 T0
G80 ;mesh bed leveling
G92 E0
G90
M83
G0 X10 Y10 Z10 F7200
G92 E0
;--------------------------------
;Part 1
;LAYER_COUNT:233
;LAYER:1
M107
;rapid-leaky
G0 X20 Y20.5 Z0.2 F7200
;bead-prime
G1 X120 F720 E8.315
G1 F2100 E-0.5
;rapid-dry
G0 X124.085 Y89.225 F7200
G1 F2100 E0.5
;bead-skirt/brim
G1 X125.006 Y89.198 F960 E0.031
G1 X125.916 Y89.225 E0.03
G1 X126.812 Y89.303 E0.03
G1 X127.714 Y89.433 E0.03
G1 X128.617 Y89.618 E0.031
G1 X129.485 Y89.849 E0.03
G1 X130.35 Y90.132 E0.03
G1 X131.21 Y90.47 E0.031
G1 X132.038 Y90.852 E0.03
G1 X132.83 Y91.275 E0.03
G1 X133.607 Y91.748 E0.03
G1 X134.356 Y92.267 E0.03
G1 X135.084 Y92.834 E0.031
G1 X135.768 Y93.436 E0.03
G1 X136.407 Y94.065 E0.03
G1 X137.018 Y94.741 E0.031
G1 X137.589 Y95.45 E0.03
G1 X138.126 Y96.201 E0.031
G1 X138.612 Y96.974 E0.03
G1 X139.046 Y97.762 E0.03
G1 X139.439 Y98.581 E0.03
G1 X139.79 Y99.435 E0.031
G1 X140.081 Y100.285 E0.03
G1 X140.329 Y101.16 E0.03
G1 X140.526 Y102.064 E0.031
G1 X140.67 Y102.961 E0.03
G1 X140.761 Y103.856 E0.03
G1 X140.8 Y104.767 E0.03
G1 X140.787 Y105.692 E0.031
G1 X140.72 Y106.596 E0.03
G1 X140.605 Y107.486 E0.03
G1 X140.433 Y108.396 E0.031
G1 X140.212 Y109.279 E0.03
G1 X139.943 Y110.138 E0.03
G1 X139.618 Y111.001 E0.031
G1 X139.248 Y111.833 E0.03
G1 X138.837 Y112.629 E0.03
G1 X138.375 Y113.415 E0.03
G1 X137.859 Y114.183 E0.031
G1 X137.309 Y114.908 E0.03
G1 X136.717 Y115.601 E0.03
G1 X136.089 Y116.257 E0.031
G1 X135.43 Y116.871 E0.03
G1 X134.719 Y117.458 E0.03
G1 X133.988 Y117.997 E0.03
G1 X133.223 Y118.494 E0.031
G1 X132.442 Y118.94 E0.03
G1 X131.625 Y119.346 E0.03
G1 X130.777 Y119.707 E0.031
G1 X129.923 Y120.015 E0.03
G1 X129.059 Y120.272 E0.03
G1 X128.172 Y120.48 E0.03
G1 X127.26 Y120.64 E0.031
G1 X126.357 Y120.742 E0.03
G1 X125.463 Y120.795 E0.03
G1 X124.537 E0.031
G1 X123.643 Y120.742 E0.03
G1 X122.74 Y120.64 E0.03
G1 X121.828 Y120.48 E0.031
G1 X120.941 Y120.272 E0.03
G1 X120.077 Y120.015 E0.03
G1 X119.223 Y119.707 E0.03
G1 X118.375 Y119.346 E0.031
G1 X117.558 Y118.94 E0.03
G1 X116.777 Y118.494 E0.03
G1 X116.012 Y117.997 E0.03
G1 X115.271 Y117.451 E0.031
G1 X114.569 Y116.871 E0.03
G1 X113.912 Y116.258 E0.03
G1 X113.282 Y115.601 E0.03
G1 X112.69 Y114.906 E0.031
G1 X112.141 Y114.183 E0.03
G1 X111.625 Y113.415 E0.031
G1 X111.163 Y112.629 E0.03
G1 X110.752 Y111.832 E0.03
G1 X110.378 Y110.99 E0.031
G1 X110.057 Y110.138 E0.03
G1 X109.788 Y109.279 E0.03
G1 X109.567 Y108.396 E0.03
G1 X109.395 Y107.486 E0.031
G1 X109.28 Y106.596 E0.03
G1 X109.213 Y105.691 E0.03
G1 X109.2 Y104.767 E0.031
G1 X109.239 Y103.856 E0.03
G1 X109.33 Y102.961 E0.03
G1 X109.474 Y102.064 E0.03
G1 X109.671 Y101.16 E0.031
G1 X109.919 Y100.285 E0.03
G1 X110.21 Y99.435 E0.03
G1 X110.561 Y98.581 E0.031
G1 X110.954 Y97.762 E0.03
G1 X111.388 Y96.974 E0.03
G1 X111.874 Y96.201 E0.03
G1 X112.411 Y95.45 E0.031
G1 X112.982 Y94.741 E0.03
G1 X113.593 Y94.065 E0.03
G1 X114.232 Y93.437 E0.03
G1 X114.916 Y92.834 E0.031
G1 X115.642 Y92.268 E0.03
G1 X116.392 Y91.748 E0.031
G1 X117.171 Y91.275 E0.03
G1 X117.963 Y90.852 E0.03
G1 X118.802 Y90.465 E0.03
G1 X119.65 Y90.132 E0.031
G1 X120.515 Y89.849 E0.03
G1 X121.383 Y89.618 E0.03
G1 X122.286 Y89.433 E0.031
G1 X123.188 Y89.303 E0.03
G1 X124.085 Y89.225 E0.03
;rapid-leaky
G0 X124.108 Y89.624 F7200
;bead-skirt/brim
G1 X125.006 Y89.599 F960 E0.03
G1 X125.893 Y89.624 E0.029
G1 X126.766 Y89.7 E0.029
G1 X127.645 Y89.827 E0.03
G1 X128.526 Y90.008 E0.03
G1 X129.372 Y90.233 E0.029
G1 X130.214 Y90.508 E0.029
G1 X131.053 Y90.838 E0.03
G1 X131.86 Y91.211 E0.03
G1 X132.632 Y91.623 E0.029
G1 X133.389 Y92.084 E0.03
G1 X134.119 Y92.589 E0.029
G1 X134.829 Y93.142 E0.03
G1 X135.495 Y93.729 E0.03
G1 X136.118 Y94.342 E0.029
G1 X136.714 Y95.001 E0.029
G1 X137.271 Y95.692 E0.03
G1 X137.794 Y96.424 E0.03
G1 X138.267 Y97.177 E0.029
G1 X138.69 Y97.945 E0.029
G1 X139.073 Y98.743 E0.03
G1 X139.415 Y99.576 E0.03
G1 X139.699 Y100.404 E0.029
G1 X139.941 Y101.258 E0.029
G1 X140.133 Y102.138 E0.03
G1 X140.273 Y103.013 E0.03
G1 X140.362 Y103.885 E0.029
G1 X140.4 Y104.772 E0.029
G1 X140.387 Y105.674 E0.03
G1 X140.322 Y106.556 E0.03
G1 X140.21 Y107.424 E0.029
G1 X140.042 Y108.31 E0.03
G1 X139.826 Y109.17 E0.029
G1 X139.565 Y110.008 E0.03
G1 X139.247 Y110.849 E0.03
G1 X138.887 Y111.66 E0.029
G1 X138.487 Y112.436 E0.029
G1 X138.036 Y113.202 E0.03
G1 X137.534 Y113.95 E0.03
G1 X136.997 Y114.657 E0.029
G1 X136.421 Y115.333 E0.03
G1 X135.808 Y115.972 E0.029
G1 X135.166 Y116.571 E0.029
G1 X134.473 Y117.143 E0.03
G1 X133.76 Y117.668 E0.03
G1 X133.015 Y118.152 E0.029
G1 X132.253 Y118.587 E0.029
G1 X131.457 Y118.983 E0.03
G1 X130.631 Y119.335 E0.03
G1 X129.798 Y119.635 E0.029
G1 X128.956 Y119.885 E0.03
G1 X128.092 Y120.088 E0.029
G1 X127.203 Y120.244 E0.03
G1 X126.323 Y120.344 E0.03
G1 X125.451 Y120.395 E0.029
G1 X124.549 E0.03
G1 X123.677 Y120.344 E0.029
G1 X122.797 Y120.244 E0.029
G1 X121.908 Y120.088 E0.03
G1 X121.044 Y119.885 E0.03
G1 X120.202 Y119.635 E0.029
G1 X119.369 Y119.335 E0.029
G1 X118.543 Y118.983 E0.03
G1 X117.746 Y118.587 E0.03
G1 X116.985 Y118.152 E0.029
G1 X116.24 Y117.668 E0.029
G1 X115.518 Y117.136 E0.03
G1 X114.834 Y116.57 E0.03
G1 X114.193 Y115.973 E0.029
G1 X113.578 Y115.333 E0.029
G1 X113.002 Y114.656 E0.03
G1 X112.466 Y113.95 E0.029
G1 X111.964 Y113.202 E0.03
G1 X111.513 Y112.436 E0.03
G1 X111.113 Y111.659 E0.029
G1 X110.748 Y110.838 E0.03
G1 X110.435 Y110.008 E0.029
G1 X110.174 Y109.17 E0.03
G1 X109.958 Y108.31 E0.029
G1 X109.79 Y107.424 E0.03
G1 X109.678 Y106.556 E0.029
G1 X109.613 Y105.674 E0.03
G1 X109.6 Y104.772 E0.03
G1 X109.638 Y103.885 E0.029
G1 X109.727 Y103.013 E0.029
G1 X109.867 Y102.138 E0.03
G1 X110.059 Y101.258 E0.03
G1 X110.301 Y100.404 E0.029
G1 X110.585 Y99.576 E0.029
G1 X110.927 Y98.743 E0.03
G1 X111.31 Y97.945 E0.03
G1 X111.733 Y97.177 E0.029
G1 X112.206 Y96.424 E0.03
G1 X112.729 Y95.692 E0.029
G1 X113.286 Y95.001 E0.03
G1 X113.882 Y94.342 E0.03
G1 X114.505 Y93.729 E0.029
G1 X115.171 Y93.142 E0.029
G1 X115.879 Y92.59 E0.03
G1 X116.61 Y92.084 E0.03
G1 X117.369 Y91.622 E0.029
G1 X118.141 Y91.21 E0.029
G1 X118.959 Y90.833 E0.03
G1 X119.786 Y90.508 E0.03
G1 X120.628 Y90.233 E0.029
G1 X121.474 Y90.008 E0.029
G1 X122.355 Y89.827 E0.03
G1 X123.234 Y89.7 E0.03
G1 X124.108 Y89.624 E0.029
;rapid-leaky
G0 X124.131 Y90.024 F7200
;bead-skirt/brim
G1 X125.006 Y89.999 F960 E0.029
G1 X125.869 Y90.024 E0.029
G1 X126.72 Y90.098 E0.028
G1 X127.577 Y90.221 E0.029
G1 X128.434 Y90.398 E0.029
G1 X129.258 Y90.616 E0.028
G1 X130.079 Y90.885 E0.029
G1 X130.895 Y91.206 E0.029
G1 X131.682 Y91.569 E0.029
G1 X132.434 Y91.97 E0.029
G1 X133.171 Y92.419 E0.028
G1 X133.882 Y92.912 E0.029
G1 X134.573 Y93.45 E0.029
G1 X135.223 Y94.022 E0.029
G1 X135.829 Y94.619 E0.028
G1 X136.41 Y95.26 E0.029
G1 X136.952 Y95.934 E0.029
G1 X137.461 Y96.647 E0.029
G1 X137.923 Y97.38 E0.029
G1 X138.335 Y98.128 E0.028
G1 X138.707 Y98.906 E0.029
G1 X139.041 Y99.717 E0.029
G1 X139.317 Y100.523 E0.028
G1 X139.552 Y101.355 E0.029
G1 X139.74 Y102.213 E0.029
G1 X139.876 Y103.064 E0.029
G1 X139.962 Y103.914 E0.028
G1 X140 Y104.778 E0.029
G1 X139.987 Y105.656 E0.029
G1 X139.924 Y106.515 E0.029
G1 X139.815 Y107.361 E0.028
G1 X139.651 Y108.224 E0.03
G1 X139.441 Y109.062 E0.028
G1 X139.187 Y109.878 E0.029
G1 X138.877 Y110.697 E0.029
G1 X138.526 Y111.487 E0.029
G1 X138.136 Y112.243 E0.028
G1 X137.697 Y112.989 E0.029
G1 X137.208 Y113.718 E0.029
G1 X136.686 Y114.406 E0.029
G1 X136.124 Y115.064 E0.028
G1 X135.527 Y115.687 E0.029
G1 X134.902 Y116.27 E0.029
G1 X134.227 Y116.827 E0.029
G1 X133.532 Y117.339 E0.028
G1 X132.807 Y117.81 E0.029
G1 X132.065 Y118.234 E0.029
G1 X131.29 Y118.619 E0.028
G1 X130.485 Y118.962 E0.029
G1 X129.673 Y119.255 E0.029
G1 X128.854 Y119.499 E0.029
G1 X128.012 Y119.696 E0.028
G1 X127.146 Y119.848 E0.03
G1 X126.288 Y119.945 E0.028
G1 X125.439 Y119.995 E0.029
G1 X124.561 E0.029
G1 X123.712 Y119.945 E0.028
G1 X122.854 Y119.848 E0.029
G1 X121.988 Y119.696 E0.029
G1 X121.146 Y119.499 E0.029
G1 X120.327 Y119.255 E0.028
G1 X119.515 Y118.962 E0.029
G1 X118.71 Y118.619 E0.029
G1 X117.935 Y118.234 E0.029
G1 X117.193 Y117.81 E0.028
G1 X116.468 Y117.339 E0.029
G1 X115.764 Y116.821 E0.029
G1 X115.098 Y116.269 E0.029
G1 X114.474 Y115.688 E0.028
G1 X113.875 Y115.064 E0.029
G1 X113.313 Y114.405 E0.029
G1 X112.792 Y113.718 E0.028
G1 X112.303 Y112.989 E0.03
G1 X111.864 Y112.243 E0.028
G1 X111.474 Y111.486 E0.029
G1 X111.118 Y110.686 E0.029
G1 X110.813 Y109.877 E0.029
G1 X110.559 Y109.062 E0.028
G1 X110.349 Y108.224 E0.029
G1 X110.185 Y107.361 E0.029
G1 X110.076 Y106.515 E0.028
G1 X110.013 Y105.656 E0.029
G1 X110 Y104.778 E0.029
G1 X110.038 Y103.914 E0.029
G1 X110.124 Y103.064 E0.028
G1 X110.26 Y102.213 E0.029
G1 X110.448 Y101.355 E0.029
G1 X110.683 Y100.523 E0.029
G1 X110.959 Y99.717 E0.028
G1 X111.293 Y98.906 E0.029
G1 X111.665 Y98.128 E0.029
G1 X112.077 Y97.38 E0.029
G1 X112.539 Y96.647 E0.028
G1 X113.048 Y95.934 E0.03
G1 X113.59 Y95.26 E0.028
G1 X114.171 Y94.619 E0.029
G1 X114.777 Y94.022 E0.028
G1 X115.427 Y93.45 E0.029
G1 X116.117 Y92.913 E0.029
G1 X116.828 Y92.419 E0.029
G1 X117.567 Y91.97 E0.029
G1 X118.319 Y91.568 E0.028
G1 X119.116 Y91.201 E0.029
G1 X119.921 Y90.885 E0.029
G1 X120.742 Y90.616 E0.029
G1 X121.566 Y90.398 E0.028
G1 X122.423 Y90.221 E0.029
G1 X123.28 Y90.098 E0.029
G1 X124.131 Y90.024 E0.029
;rapid-leaky
G0 X124.154 Y90.423 F7200
;bead-skirt/brim
G1 X125.006 Y90.399 F960 E0.028
G1 X125.846 Y90.423 E0.028
G1 X126.674 Y90.495 E0.027
G1 X127.508 Y90.616 E0.028
G1 X128.343 Y90.787 E0.029
G1 X129.145 Y91 E0.027
G1 X129.944 Y91.261 E0.028
G1 X130.738 Y91.574 E0.029
G1 X131.503 Y91.927 E0.028
G1 X132.235 Y92.318 E0.027
G1 X132.953 Y92.755 E0.028
G1 X133.645 Y93.234 E0.028
G1 X134.318 Y93.758 E0.029
G1 X134.95 Y94.315 E0.028
G1 X135.54 Y94.896 E0.027
G1 X136.105 Y95.52 E0.028
G1 X136.633 Y96.176 E0.028
G1 X137.129 Y96.87 E0.029
G1 X137.578 Y97.583 E0.028
G1 X137.979 Y98.311 E0.027
G1 X138.342 Y99.068 E0.028
G1 X138.666 Y99.858 E0.029
G1 X138.935 Y100.643 E0.027
G1 X139.164 Y101.452 E0.028
G1 X139.347 Y102.287 E0.029
G1 X139.479 Y103.116 E0.028
G1 X139.563 Y103.943 E0.027
G1 X139.6 Y104.784 E0.028
G1 X139.588 Y105.639 E0.029
G1 X139.526 Y106.475 E0.028
G1 X139.42 Y107.298 E0.027
G1 X139.26 Y108.138 E0.029
G1 X139.056 Y108.954 E0.028
G1 X138.808 Y109.747 E0.027
G1 X138.507 Y110.545 E0.029
G1 X138.165 Y111.314 E0.028
G1 X137.786 Y112.05 E0.027
G1 X137.359 Y112.776 E0.028
G1 X136.883 Y113.485 E0.028
G1 X136.374 Y114.155 E0.028
G1 X135.827 Y114.796 E0.028
G1 X135.246 Y115.402 E0.028
G1 X134.638 Y115.969 E0.028
G1 X133.981 Y116.512 E0.028
G1 X133.304 Y117.01 E0.028
G1 X132.598 Y117.469 E0.028
G1 X131.877 Y117.881 E0.028
G1 X131.122 Y118.256 E0.028
G1 X130.338 Y118.59 E0.028
G1 X129.548 Y118.875 E0.028
G1 X128.751 Y119.112 E0.028
G1 X127.931 Y119.304 E0.028
G1 X127.089 Y119.452 E0.028
G1 X126.254 Y119.546 E0.028
G1 X125.427 Y119.595 E0.028
G1 X124.573 E0.028
G1 X123.746 Y119.546 E0.028
G1 X122.911 Y119.452 E0.028
G1 X122.069 Y119.304 E0.028
G1 X121.249 Y119.112 E0.028
G1 X120.452 Y118.875 E0.028
G1 X119.662 Y118.59 E0.028
G1 X118.878 Y118.256 E0.028
G1 X118.123 Y117.881 E0.028
G1 X117.402 Y117.469 E0.028
G1 X116.695 Y117.01 E0.028
G1 X116.01 Y116.505 E0.028
G1 X115.362 Y115.968 E0.028
G1 X114.754 Y115.403 E0.028
G1 X114.172 Y114.796 E0.028
G1 X113.625 Y114.154 E0.028
G1 X113.117 Y113.485 E0.028
G1 X112.641 Y112.776 E0.028
G1 X112.214 Y112.05 E0.028
G1 X111.834 Y111.313 E0.028
G1 X111.488 Y110.534 E0.028
G1 X111.192 Y109.747 E0.028
G1 X110.944 Y108.954 E0.028
G1 X110.74 Y108.138 E0.028
G1 X110.58 Y107.298 E0.028
G1 X110.474 Y106.475 E0.028
G1 X110.412 Y105.639 E0.028
G1 X110.4 Y104.784 E0.028
G1 X110.437 Y103.943 E0.028
G1 X110.521 Y103.116 E0.028
G1 X110.653 Y102.287 E0.028
G1 X110.836 Y101.452 E0.028
G1 X111.065 Y100.643 E0.028
G1 X111.334 Y99.858 E0.028
G1 X111.658 Y99.068 E0.028
G1 X112.021 Y98.311 E0.028
G1 X112.422 Y97.583 E0.028
G1 X112.871 Y96.87 E0.028
G1 X113.367 Y96.176 E0.028
G1 X113.895 Y95.52 E0.028
G1 X114.46 Y94.896 E0.028
G1 X115.05 Y94.315 E0.027
G1 X115.682 Y93.758 E0.029
G1 X116.354 Y93.235 E0.028
G1 X117.046 Y92.755 E0.028
G1 X117.766 Y92.318 E0.028
G1 X118.498 Y91.927 E0.027
G1 X119.273 Y91.569 E0.029
G1 X120.057 Y91.261 E0.028
G1 X120.855 Y91 E0.028
G1 X121.658 Y90.787 E0.027
G1 X122.492 Y90.616 E0.029
G1 X123.326 Y90.495 E0.028
G1 X124.154 Y90.423 E0.027
;rapid-leaky
G0 X124.177 Y90.823 F7200
;bead-skirt/brim
G1 X125.005 Y90.799 F960 E0.028
G1 X125.823 Y90.823 E0.027
G1 X126.628 Y90.893 E0.027
G1 X127.439 Y91.01 E0.027
G1 X128.251 Y91.177 E0.028
G1 X129.031 Y91.384 E0.027
G1 X129.808 Y91.638 E0.027
G1 X130.581 Y91.942 E0.028
G1 X131.325 Y92.285 E0.027
G1 X132.037 Y92.666 E0.027
G1 X132.735 Y93.09 E0.027
G1 X133.408 Y93.557 E0.027
G1 X134.063 Y94.066 E0.028
G1 X134.678 Y94.608 E0.027
G1 X135.252 Y95.173 E0.027
G1 X135.801 Y95.78 E0.027
G1 X136.314 Y96.418 E0.027
G1 X136.797 Y97.093 E0.028
G1 X137.233 Y97.786 E0.027
G1 X137.623 Y98.494 E0.027
G1 X137.976 Y99.231 E0.027
G1 X138.292 Y99.999 E0.028
G1 X138.554 Y100.762 E0.027
G1 X138.776 Y101.549 E0.027
G1 X138.954 Y102.361 E0.027
G1 X139.082 Y103.168 E0.028
G1 X139.164 Y103.972 E0.026
G1 X139.2 Y104.79 E0.028
G1 X139.188 Y105.621 E0.027
G1 X139.128 Y106.435 E0.027
G1 X139.025 Y107.235 E0.027
G1 X138.87 Y108.052 E0.028
G1 X138.671 Y108.846 E0.027
G1 X138.43 Y109.617 E0.027
G1 X138.137 Y110.393 E0.028
G1 X137.804 Y111.141 E0.027
G1 X137.435 Y111.856 E0.027
G1 X137.02 Y112.563 E0.027
G1 X136.557 Y113.252 E0.027
G1 X136.062 Y113.904 E0.028
G1 X135.53 Y114.527 E0.027
G1 X134.965 Y115.117 E0.027
G1 X134.374 Y115.668 E0.027
G1 X133.735 Y116.196 E0.028
G1 X133.077 Y116.681 E0.027
G1 X132.39 Y117.127 E0.027
G1 X131.688 Y117.528 E0.027
G1 X130.955 Y117.893 E0.027
G1 X130.192 Y118.217 E0.028
G1 X129.423 Y118.495 E0.027
G1 X128.648 Y118.725 E0.027
G1 X127.851 Y118.912 E0.027
G1 X127.032 Y119.056 E0.028
G1 X126.22 Y119.148 E0.027
G1 X125.416 Y119.195 E0.027
G1 X124.584 E0.027
G1 X123.78 Y119.148 E0.027
G1 X122.968 Y119.055 E0.027
G1 X122.149 Y118.912 E0.028
G1 X121.352 Y118.725 E0.027
G1 X120.577 Y118.495 E0.027
G1 X119.808 Y118.217 E0.027
G1 X119.045 Y117.893 E0.028
G1 X118.312 Y117.528 E0.027
G1 X117.61 Y117.127 E0.027
G1 X116.923 Y116.681 E0.027
G1 X116.257 Y116.19 E0.028
G1 X115.626 Y115.668 E0.027
G1 X115.035 Y115.118 E0.027
G1 X114.469 Y114.527 E0.027
G1 X113.937 Y113.903 E0.027
G1 X113.443 Y113.252 E0.027
G1 X112.98 Y112.563 E0.028
G1 X112.565 Y111.856 E0.027
G1 X112.195 Y111.14 E0.027
G1 X111.859 Y110.382 E0.028
G1 X111.57 Y109.617 E0.027
G1 X111.329 Y108.846 E0.027
G1 X111.13 Y108.052 E0.027
G1 X110.975 Y107.235 E0.028
G1 X110.872 Y106.435 E0.027
G1 X110.812 Y105.621 E0.027
G1 X110.8 Y104.79 E0.027
G1 X110.836 Y103.972 E0.028
G1 X110.918 Y103.168 E0.026
G1 X111.046 Y102.361 E0.028
G1 X111.224 Y101.549 E0.027
G1 X111.446 Y100.762 E0.027
G1 X111.708 Y99.999 E0.027
G1 X112.024 Y99.231 E0.028
G1 X112.377 Y98.494 E0.027
G1 X112.767 Y97.786 E0.027
G1 X113.203 Y97.093 E0.027
G1 X113.686 Y96.418 E0.028
G1 X114.199 Y95.78 E0.027
G1 X114.749 Y95.173 E0.027
G1 X115.322 Y94.608 E0.027
G1 X115.938 Y94.066 E0.027
G1 X116.591 Y93.557 E0.028
G1 X117.264 Y93.09 E0.027
G1 X117.964 Y92.665 E0.027
G1 X118.676 Y92.285 E0.027
G1 X119.43 Y91.938 E0.028
G1 X120.192 Y91.638 E0.027
G1 X120.969 Y91.384 E0.027
G1 X121.749 Y91.177 E0.027
G1 X122.561 Y91.01 E0.028
G1 X123.372 Y90.893 E0.027
G1 X124.177 Y90.823 E0.027
;rapid-leaky
G0 X124.2 Y91.222 F7200
;bead-skirt/brim
G1 X125.005 Y91.199 F960 E0.027
G1 X125.8 Y91.222 E0.026
G1 X126.582 Y91.29 E0.026
G1 X127.37 Y91.404 E0.027
G1 X128.159 Y91.566 E0.026
G1 X128.917 Y91.767 E0.026
G1 X129.673 Y92.015 E0.027
G1 X130.424 Y92.31 E0.027
G1 X131.147 Y92.644 E0.026
G1 X131.839 Y93.013 E0.026
G1 X132.517 Y93.426 E0.027
G1 X133.171 Y93.879 E0.026
G1 X133.807 Y94.375 E0.027
G1 X134.405 Y94.901 E0.026
G1 X134.963 Y95.45 E0.027
G1 X135.497 Y96.04 E0.026
G1 X135.995 Y96.659 E0.026
G1 X136.464 Y97.316 E0.027
G1 X136.888 Y97.99 E0.027
G1 X137.267 Y98.677 E0.026
G1 X137.61 Y99.394 E0.026
G1 X137.917 Y100.14 E0.027
G1 X138.172 Y100.882 E0.026
G1 X138.388 Y101.647 E0.027
G1 X138.56 Y102.436 E0.027
G1 X138.686 Y103.22 E0.026
G1 X138.765 Y104.001 E0.026
G1 X138.8 Y104.796 E0.026
G1 X138.788 Y105.603 E0.027
G1 X138.729 Y106.394 E0.027
G1 X138.629 Y107.172 E0.026
G1 X138.479 Y107.966 E0.027
G1 X138.286 Y108.737 E0.026
G1 X138.052 Y109.487 E0.026
G1 X137.767 Y110.241 E0.027
G1 X137.444 Y110.968 E0.027
G1 X137.085 Y111.663 E0.026
G1 X136.681 Y112.35 E0.026
G1 X136.231 Y113.02 E0.027
G1 X135.751 Y113.653 E0.026
G1 X135.233 Y114.259 E0.027
G1 X134.684 Y114.832 E0.026
G1 X134.11 Y115.367 E0.026
G1 X133.489 Y115.881 E0.027
G1 X132.849 Y116.352 E0.027
G1 X132.182 Y116.785 E0.026
G1 X131.5 Y117.175 E0.026
G1 X130.787 Y117.529 E0.027
G1 X130.046 Y117.845 E0.026
G1 X129.298 Y118.115 E0.027
G1 X128.545 Y118.338 E0.026
G1 X127.771 Y118.52 E0.026
G1 X126.975 Y118.659 E0.027
G1 X126.185 Y118.749 E0.027
G1 X125.404 Y118.795 E0.026
G1 X124.596 E0.027
G1 X123.815 Y118.749 E0.026
G1 X123.025 Y118.659 E0.026
G1 X122.229 Y118.52 E0.027
G1 X121.455 Y118.338 E0.026
G1 X120.702 Y118.115 E0.027
G1 X119.954 Y117.845 E0.026
G1 X119.213 Y117.529 E0.027
G1 X118.5 Y117.175 E0.026
G1 X117.818 Y116.785 E0.026
G1 X117.151 Y116.352 E0.027
G1 X116.503 Y115.874 E0.027
G1 X115.89 Y115.367 E0.026
G1 X115.316 Y114.833 E0.026
G1 X114.765 Y114.259 E0.027
G1 X114.249 Y113.653 E0.026
G1 X113.769 Y113.02 E0.027
G1 X113.319 Y112.35 E0.026
G1 X112.915 Y111.663 E0.027
G1 X112.556 Y110.967 E0.026
G1 X112.229 Y110.23 E0.027
G1 X111.948 Y109.486 E0.026
G1 X111.714 Y108.737 E0.026
G1 X111.521 Y107.966 E0.027
G1 X111.371 Y107.172 E0.027
G1 X111.271 Y106.394 E0.026
G1 X111.212 Y105.603 E0.026
G1 X111.2 Y104.796 E0.027
G1 X111.235 Y104.001 E0.026
G1 X111.314 Y103.22 E0.026
G1 X111.44 Y102.436 E0.027
G1 X111.612 Y101.647 E0.027
G1 X111.828 Y100.882 E0.026
G1 X112.083 Y100.14 E0.026
G1 X112.39 Y99.394 E0.027
G1 X112.733 Y98.677 E0.027
G1 X113.112 Y97.99 E0.026
G1 X113.536 Y97.316 E0.026
G1 X114.005 Y96.659 E0.027
G1 X114.503 Y96.04 E0.026
G1 X115.037 Y95.45 E0.027
G1 X115.595 Y94.901 E0.026
G1 X116.193 Y94.374 E0.026
G1 X116.828 Y93.88 E0.027
G1 X117.482 Y93.426 E0.027
G1 X118.162 Y93.013 E0.026
G1 X118.854 Y92.643 E0.026
G1 X119.587 Y92.306 E0.027
G1 X120.327 Y92.015 E0.027
G1 X121.083 Y91.767 E0.026
G1 X121.841 Y91.566 E0.026
G1 X122.63 Y91.404 E0.027
G1 X123.418 Y91.29 E0.026
G1 X124.2 Y91.222 E0.026
;rapid-leaky
G0 X124.223 Y91.622 F7200
;bead-skirt/brim
G1 X125.005 Y91.599 F960 E0.026
G1 X125.777 Y91.622 E0.026
G1 X126.536 Y91.688 E0.025
G1 X127.301 Y91.798 E0.026
G1 X128.068 Y91.956 E0.026
G1 X128.804 Y92.151 E0.026
G1 X129.537 Y92.391 E0.025
G1 X130.267 Y92.678 E0.026
G1 X130.969 Y93.002 E0.026
G1 X131.64 Y93.361 E0.025
G1 X132.299 Y93.761 E0.026
G1 X132.934 Y94.201 E0.026
G1 X133.552 Y94.683 E0.026
G1 X134.132 Y95.194 E0.025
G1 X134.674 Y95.727 E0.026
G1 X135.192 Y96.3 E0.025
G1 X135.677 Y96.901 E0.026
G1 X136.132 Y97.539 E0.026
G1 X136.544 Y98.193 E0.026
G1 X136.911 Y98.86 E0.025
G1 X137.245 Y99.556 E0.026
G1 X137.543 Y100.281 E0.026
G1 X137.79 Y101.001 E0.025
G1 X138 Y101.744 E0.026
G1 X138.167 Y102.51 E0.026
G1 X138.289 Y103.272 E0.026
G1 X138.366 Y104.03 E0.025
G1 X138.399 Y104.802 E0.026
G1 X138.388 Y105.586 E0.026
G1 X138.331 Y106.354 E0.025
G1 X138.234 Y107.109 E0.026
G1 X138.088 Y107.88 E0.026
G1 X137.9 Y108.629 E0.026
G1 X137.673 Y109.356 E0.025
G1 X137.397 Y110.089 E0.026
G1 X137.083 Y110.795 E0.026
G1 X136.735 Y111.47 E0.025
G1 X136.343 Y112.137 E0.026
G1 X135.906 Y112.787 E0.026
G1 X135.439 Y113.402 E0.025
G1 X134.937 Y113.991 E0.026
G1 X134.403 Y114.547 E0.026
G1 X133.846 Y115.067 E0.025
G1 X133.242 Y115.565 E0.026
G1 X132.621 Y116.023 E0.026
G1 X131.973 Y116.444 E0.025
G1 X131.311 Y116.822 E0.026
G1 X130.619 Y117.166 E0.025
G1 X129.899 Y117.472 E0.027
G1 X129.173 Y117.735 E0.025
G1 X128.443 Y117.952 E0.026
G1 X127.691 Y118.128 E0.025
G1 X126.918 Y118.263 E0.026
G1 X126.151 Y118.35 E0.026
G1 X125.392 Y118.395 E0.025
G1 X124.608 E0.026
G1 X123.849 Y118.35 E0.026
G1 X123.082 Y118.263 E0.025
G1 X122.309 Y118.128 E0.026
G1 X121.557 Y117.952 E0.026
G1 X120.827 Y117.735 E0.025
G1 X120.101 Y117.473 E0.026
G1 X119.38 Y117.166 E0.026
G1 X118.689 Y116.822 E0.026
G1 X118.027 Y116.444 E0.025
G1 X117.379 Y116.023 E0.026
G1 X116.749 Y115.559 E0.026
G1 X116.154 Y115.066 E0.026
G1 X115.597 Y114.548 E0.025
G1 X115.062 Y113.991 E0.026
G1 X114.561 Y113.402 E0.025
G1 X114.094 Y112.787 E0.026
G1 X113.657 Y112.137 E0.026
G1 X113.265 Y111.47 E0.026
G1 X112.917 Y110.794 E0.025
G1 X112.599 Y110.078 E0.026
G1 X112.327 Y109.356 E0.026
G1 X112.1 Y108.629 E0.025
G1 X111.912 Y107.88 E0.026
G1 X111.766 Y107.109 E0.026
G1 X111.669 Y106.354 E0.025
G1 X111.612 Y105.586 E0.026
G1 X111.601 Y104.802 E0.026
G1 X111.634 Y104.03 E0.026
G1 X111.711 Y103.272 E0.025
G1 X111.833 Y102.51 E0.026
G1 X112 Y101.744 E0.026
G1 X112.21 Y101.001 E0.025
G1 X112.457 Y100.281 E0.026
G1 X112.755 Y99.556 E0.026
G1 X113.089 Y98.86 E0.025
G1 X113.456 Y98.193 E0.026
G1 X113.868 Y97.539 E0.026
G1 X114.323 Y96.901 E0.026
G1 X114.808 Y96.3 E0.025
G1 X115.326 Y95.727 E0.026
G1 X115.868 Y95.194 E0.025
G1 X116.448 Y94.683 E0.026
G1 X117.065 Y94.202 E0.026
G1 X117.7 Y93.761 E0.026
G1 X118.36 Y93.36 E0.025
G1 X119.032 Y93.002 E0.026
G1 X119.744 Y92.674 E0.026
G1 X120.463 Y92.391 E0.025
G1 X121.196 Y92.151 E0.026
G1 X121.932 Y91.956 E0.025
G1 X122.699 Y91.798 E0.026
G1 X123.464 Y91.688 E0.026
G1 X124.223 Y91.622 E0.026
;rapid-leaky
G0 X124.246 Y92.021 F7200
;bead-skirt/brim
G1 X125.005 Y92 F960 E0.025
G1 X125.754 Y92.021 E0.025
G1 X126.49 Y92.085 E0.024
G1 X127.232 Y92.192 E0.025
G1 X127.976 Y92.345 E0.025
G1 X128.69 Y92.535 E0.025
G1 X129.402 Y92.768 E0.025
G1 X130.11 Y93.046 E0.025
G1 X130.791 Y93.36 E0.025
G1 X131.442 Y93.708 E0.025
G1 X132.081 Y94.097 E0.025
G1 X132.697 Y94.524 E0.025
G1 X133.296 Y94.991 E0.025
G1 X133.86 Y95.487 E0.025
G1 X134.385 Y96.004 E0.024
G1 X134.888 Y96.559 E0.025
G1 X135.358 Y97.143 E0.025
G1 X135.8 Y97.762 E0.025
G1 X136.199 Y98.396 E0.025
G1 X136.556 Y99.043 E0.025
G1 X136.879 Y99.719 E0.025
G1 X137.168 Y100.422 E0.025
G1 X137.408 Y101.121 E0.025
G1 X137.611 Y101.841 E0.025
G1 X137.774 Y102.584 E0.025
G1 X137.892 Y103.323 E0.025
G1 X137.967 Y104.059 E0.024
G1 X137.999 Y104.807 E0.025
G1 X137.988 Y105.568 E0.026
G1 X137.933 Y106.314 E0.024
G1 X137.839 Y107.046 E0.025
G1 X137.697 Y107.794 E0.025
G1 X137.515 Y108.521 E0.025
G1 X137.295 Y109.226 E0.025
G1 X137.026 Y109.937 E0.025
G1 X136.722 Y110.622 E0.025
G1 X136.384 Y111.277 E0.025
G1 X136.004 Y111.924 E0.025
G1 X135.58 Y112.554 E0.025
G1 X135.127 Y113.151 E0.025
G1 X134.64 Y113.722 E0.025
G1 X134.122 Y114.262 E0.025
G1 X133.582 Y114.766 E0.024
G1 X132.996 Y115.25 E0.025
G1 X132.393 Y115.694 E0.025
G1 X131.765 Y116.102 E0.025
G1 X131.123 Y116.469 E0.025
G1 X130.452 Y116.802 E0.025
G1 X129.753 Y117.1 E0.025
G1 X129.048 Y117.354 E0.025
G1 X128.34 Y117.565 E0.025
G1 X127.611 Y117.736 E0.024
G1 X126.861 Y117.867 E0.026
G1 X126.117 Y117.952 E0.025
G1 X125.38 Y117.995 E0.024
G1 X124.62 E0.025
G1 X123.883 Y117.952 E0.025
G1 X123.139 Y117.867 E0.025
G1 X122.39 Y117.736 E0.025
G1 X121.66 Y117.565 E0.025
G1 X120.952 Y117.354 E0.025
G1 X120.247 Y117.1 E0.025
G1 X119.548 Y116.802 E0.025
G1 X118.877 Y116.469 E0.025
G1 X118.235 Y116.102 E0.024
G1 X117.607 Y115.694 E0.025
G1 X116.995 Y115.243 E0.026
G1 X116.418 Y114.766 E0.025
G1 X115.878 Y114.263 E0.024
G1 X115.359 Y113.722 E0.025
G1 X114.872 Y113.151 E0.025
G1 X114.42 Y112.554 E0.025
G1 X113.996 Y111.924 E0.025
G1 X113.616 Y111.277 E0.025
G1 X113.278 Y110.621 E0.025
G1 X112.969 Y109.927 E0.025
G1 X112.705 Y109.226 E0.025
G1 X112.485 Y108.521 E0.024
G1 X112.303 Y107.794 E0.025
G1 X112.161 Y107.046 E0.026
G1 X112.067 Y106.314 E0.024
G1 X112.012 Y105.568 E0.025
G1 X112.001 Y104.807 E0.025
G1 X112.033 Y104.059 E0.025
G1 X112.108 Y103.323 E0.025
G1 X112.226 Y102.584 E0.025
G1 X112.389 Y101.841 E0.025
G1 X112.592 Y101.121 E0.025
G1 X112.832 Y100.422 E0.025
G1 X113.121 Y99.719 E0.025
G1 X113.444 Y99.043 E0.025
G1 X113.801 Y98.396 E0.024
G1 X114.2 Y97.762 E0.025
G1 X114.642 Y97.143 E0.026
G1 X115.112 Y96.559 E0.024
G1 X115.615 Y96.004 E0.025
G1 X116.14 Y95.487 E0.025
G1 X116.704 Y94.991 E0.025
G1 X117.302 Y94.524 E0.025
G1 X117.918 Y94.097 E0.025
G1 X118.558 Y93.708 E0.025
G1 X119.21 Y93.36 E0.025
G1 X119.901 Y93.042 E0.025
G1 X120.598 Y92.768 E0.025
G1 X121.31 Y92.535 E0.025
G1 X122.024 Y92.345 E0.024
G1 X122.768 Y92.192 E0.025
G1 X123.51 Y92.085 E0.025
G1 X124.246 Y92.021 E0.025
;rapid-leaky
G0 X124.269 Y92.421 F7200
;bead-skirt/brim
G1 X125.005 Y92.4 F960 E0.024
G1 X125.731 Y92.421 E0.025
G1 X126.444 Y92.483 E0.023
G1 X127.163 Y92.587 E0.025
G1 X127.884 Y92.735 E0.024
G1 X128.576 Y92.918 E0.024
G1 X129.266 Y93.144 E0.024
G1 X129.953 Y93.414 E0.025
G1 X130.612 Y93.719 E0.024
G1 X131.244 Y94.056 E0.024
G1 X131.863 Y94.433 E0.024
G1 X132.46 Y94.846 E0.024
G1 X133.041 Y95.299 E0.024
G1 X133.587 Y95.78 E0.025
G1 X134.096 Y96.281 E0.023
G1 X134.584 Y96.819 E0.024
G1 X135.039 Y97.385 E0.025
G1 X135.467 Y97.985 E0.024
G1 X135.854 Y98.599 E0.024
G1 X136.2 Y99.226 E0.024
G1 X136.513 Y99.881 E0.024
G1 X136.794 Y100.563 E0.025
G1 X137.026 Y101.24 E0.024
G1 X137.223 Y101.938 E0.024
G1 X137.381 Y102.659 E0.024
G1 X137.495 Y103.375 E0.024
G1 X137.568 Y104.088 E0.024
G1 X137.599 Y104.813 E0.024
G1 X137.589 Y105.55 E0.025
G1 X137.535 Y106.273 E0.024
G1 X137.444 Y106.983 E0.024
G1 X137.306 Y107.708 E0.024
G1 X137.13 Y108.412 E0.024
G1 X136.916 Y109.096 E0.024
G1 X136.656 Y109.785 E0.025
G1 X136.361 Y110.449 E0.024
G1 X136.034 Y111.084 E0.024
G1 X135.665 Y111.711 E0.024
G1 X135.254 Y112.322 E0.024
G1 X134.816 Y112.9 E0.025
G1 X134.343 Y113.454 E0.024
G1 X133.841 Y113.977 E0.024
G1 X133.318 Y114.465 E0.024
G1 X132.75 Y114.934 E0.024
G1 X132.166 Y115.365 E0.024
G1 X131.557 Y115.76 E0.024
G1 X130.935 Y116.116 E0.024
G1 X130.284 Y116.439 E0.024
G1 X129.607 Y116.728 E0.025
G1 X128.923 Y116.974 E0.024
G1 X128.237 Y117.178 E0.024
G1 X127.53 Y117.344 E0.024
G1 X126.804 Y117.471 E0.025
G1 X126.082 Y117.553 E0.024
G1 X125.369 Y117.595 E0.023
G1 X124.631 E0.025
G1 X123.918 Y117.553 E0.024
G1 X123.196 Y117.471 E0.024
G1 X122.47 Y117.344 E0.024
G1 X121.763 Y117.178 E0.025
G1 X121.077 Y116.974 E0.023
G1 X120.394 Y116.728 E0.025
G1 X119.716 Y116.439 E0.024
G1 X119.065 Y116.116 E0.024
G1 X118.443 Y115.76 E0.024
G1 X117.834 Y115.365 E0.024
G1 X117.242 Y114.928 E0.025
G1 X116.682 Y114.465 E0.024
G1 X116.159 Y113.978 E0.024
G1 X115.656 Y113.454 E0.024
G1 X115.184 Y112.9 E0.024
G1 X114.746 Y112.322 E0.024
G1 X114.335 Y111.711 E0.025
G1 X113.966 Y111.084 E0.024
G1 X113.639 Y110.448 E0.024
G1 X113.34 Y109.775 E0.024
G1 X113.083 Y109.095 E0.024
G1 X112.87 Y108.412 E0.024
G1 X112.694 Y107.708 E0.024
G1 X112.556 Y106.983 E0.025
G1 X112.465 Y106.273 E0.024
G1 X112.411 Y105.55 E0.024
G1 X112.401 Y104.813 E0.024
G1 X112.432 Y104.088 E0.024
G1 X112.505 Y103.375 E0.024
G1 X112.619 Y102.659 E0.024
G1 X112.777 Y101.938 E0.025
G1 X112.974 Y101.24 E0.024
G1 X113.206 Y100.563 E0.024
G1 X113.487 Y99.881 E0.024
G1 X113.8 Y99.226 E0.024
G1 X114.146 Y98.599 E0.024
G1 X114.533 Y97.985 E0.024
G1 X114.961 Y97.385 E0.025
G1 X115.416 Y96.819 E0.024
G1 X115.904 Y96.281 E0.024
G1 X116.413 Y95.78 E0.024
G1 X116.959 Y95.299 E0.024
G1 X117.539 Y94.847 E0.025
G1 X118.136 Y94.433 E0.024
G1 X118.757 Y94.056 E0.024
G1 X119.388 Y93.718 E0.024
G1 X120.058 Y93.41 E0.024
G1 X120.734 Y93.144 E0.024
G1 X121.424 Y92.918 E0.025
G1 X122.116 Y92.735 E0.023
G1 X122.837 Y92.587 E0.025
G1 X123.556 Y92.483 E0.024
G1 X124.269 Y92.421 E0.024
;rapid-leaky
G0 X124.292 Y92.82 F7200
;bead-skirt/brim
G1 X125.005 Y92.8 F960 E0.024
G1 X125.708 Y92.82 E0.023
G1 X126.398 Y92.88 E0.023
G1 X127.094 Y92.981 E0.023
G1 X127.793 Y93.124 E0.024
G1 X128.463 Y93.302 E0.023
G1 X129.131 Y93.521 E0.024
G1 X129.796 Y93.782 E0.023
G1 X130.434 Y94.077 E0.024
G1 X131.045 Y94.403 E0.023
G1 X131.645 Y94.768 E0.023
G1 X132.223 Y95.169 E0.023
G1 X132.786 Y95.607 E0.024
G1 X133.314 Y96.073 E0.024
G1 X133.807 Y96.558 E0.023
G1 X134.279 Y97.079 E0.023
G1 X134.72 Y97.627 E0.023
G1 X135.135 Y98.208 E0.024
G1 X135.509 Y98.802 E0.024
G1 X135.844 Y99.409 E0.023
G1 X136.148 Y100.044 E0.023
G1 X136.419 Y100.704 E0.024
G1 X136.644 Y101.359 E0.023
G1 X136.835 Y102.035 E0.023
G1 X136.988 Y102.733 E0.024
G1 X137.098 Y103.427 E0.023
G1 X137.169 Y104.117 E0.023
G1 X137.199 Y104.819 E0.024
G1 X137.189 Y105.533 E0.023
G1 X137.137 Y106.233 E0.024
G1 X137.049 Y106.92 E0.023
G1 X136.915 Y107.622 E0.024
G1 X136.745 Y108.304 E0.023
G1 X136.538 Y108.965 E0.023
G1 X136.286 Y109.633 E0.024
G1 X136 Y110.276 E0.023
G1 X135.683 Y110.891 E0.023
G1 X135.326 Y111.498 E0.024
G1 X134.929 Y112.089 E0.023
G1 X134.504 Y112.649 E0.024
G1 X134.046 Y113.185 E0.023
G1 X133.56 Y113.692 E0.023
G1 X133.054 Y114.164 E0.023
G1 X132.504 Y114.619 E0.024
G1 X131.938 Y115.035 E0.024
G1 X131.348 Y115.419 E0.023
G1 X130.746 Y115.763 E0.023
G1 X130.117 Y116.076 E0.023
G1 X129.46 Y116.355 E0.024
G1 X128.798 Y116.594 E0.024
G1 X128.134 Y116.791 E0.023
G1 X127.45 Y116.952 E0.023
G1 X126.747 Y117.075 E0.024
G1 X126.048 Y117.154 E0.023
G1 X125.357 Y117.195 E0.023
G1 X124.643 E0.024
G1 X123.952 Y117.154 E0.023
G1 X123.253 Y117.075 E0.023
G1 X122.55 Y116.952 E0.024
G1 X121.866 Y116.791 E0.023
G1 X121.202 Y116.594 E0.023
G1 X120.54 Y116.355 E0.024
G1 X119.883 Y116.076 E0.024
G1 X119.254 Y115.763 E0.023
G1 X118.652 Y115.419 E0.023
G1 X118.062 Y115.035 E0.023
G1 X117.488 Y114.613 E0.024
G1 X116.946 Y114.164 E0.024
G1 X116.44 Y113.692 E0.023
G1 X115.953 Y113.185 E0.023
G1 X115.496 Y112.649 E0.023
G1 X115.071 Y112.089 E0.024
G1 X114.674 Y111.498 E0.023
G1 X114.317 Y110.891 E0.024
G1 X114 Y110.275 E0.023
G1 X113.71 Y109.623 E0.024
G1 X113.462 Y108.965 E0.023
G1 X113.255 Y108.304 E0.023
G1 X113.085 Y107.622 E0.023
G1 X112.951 Y106.92 E0.024
G1 X112.863 Y106.233 E0.023
G1 X112.811 Y105.533 E0.024
G1 X112.801 Y104.819 E0.023
G1 X112.831 Y104.117 E0.024
G1 X112.902 Y103.427 E0.023
G1 X113.012 Y102.733 E0.023
G1 X113.165 Y102.035 E0.024
G1 X113.356 Y101.359 E0.023
G1 X113.581 Y100.704 E0.023
G1 X113.852 Y100.044 E0.024
G1 X114.156 Y99.409 E0.023
G1 X114.491 Y98.802 E0.024
G1 X114.865 Y98.208 E0.023
G1 X115.28 Y97.627 E0.024
G1 X115.721 Y97.079 E0.023
G1 X116.193 Y96.558 E0.023
G1 X116.686 Y96.073 E0.023
G1 X117.214 Y95.607 E0.024
G1 X117.776 Y95.169 E0.024
G1 X118.354 Y94.768 E0.023
G1 X118.955 Y94.403 E0.023
G1 X119.566 Y94.077 E0.023
G1 X120.215 Y93.778 E0.024
G1 X120.869 Y93.521 E0.023
G1 X121.537 Y93.302 E0.024
G1 X122.207 Y93.124 E0.023
G1 X122.906 Y92.981 E0.024
G1 X123.602 Y92.88 E0.023
G1 X124.292 Y92.82 E0.023
G1 F2100 E-0.5
;rapid-dry
G0 X118.508 Y97.166 F7200
G1 F2100 E0.5
;bead-support
G1 X121.471 Y95.454 F1320 E0.114
G1 X121.976 Y95.28 E0.018
G1 X122.568 Y95.115 E0.02
G1 X123.169 Y94.986 E0.021
G1 X123.777 Y94.894 E0.02
G1 X124.381 Y94.839 E0.02
G1 X124.995 Y94.82 E0.021
G1 X125.619 Y94.839 E0.02
G1 X126.232 Y94.895 E0.021
G1 X126.83 Y94.986 E0.02
G1 X127.404 Y95.109 E0.019
G1 X115.236 Y102.134 E0.468
G1 X115.114 Y102.57 E0.015
G1 X114.986 Y103.172 E0.02
G1 X114.894 Y103.77 E0.02
G1 X114.839 Y104.382 E0.021
G1 X114.82 Y105.007 E0.021
G1 X114.834 Y105.445 E0.014
G1 X121.684 Y101.49 E0.263
G1 X121.704 Y101.468 E0.001
G1 X122.423 Y100.913 E0.031
G1 X123.228 Y100.505 E0.03
G1 X123.552 Y100.412 E0.011
G1 X130.468 Y96.419 E0.265
G1 X130.788 Y96.625 E0.013
G1 X131.283 Y96.99 E0.021
G1 X131.754 Y97.384 E0.02
G1 X132.202 Y97.806 E0.02
G1 X132.617 Y98.246 E0.021
G1 X132.623 Y98.254
G1 X127.765 Y101.058 E0.186
G1 X128.296 Y101.468 E0.023
G1 X128.902 Y102.151 E0.03
G1 X129.448 Y103.166 E0.038
G1 X134.113 Y100.473 E0.18
G1 X134.286 Y100.828 E0.013
G1 X134.517 Y101.387 E0.02
G1 X134.718 Y101.969 E0.02
G1 X134.886 Y102.57 E0.021
G1 X134.988 Y103.047 E0.016
G1 X129.695 Y106.103 E0.204
G1 X129.452 Y106.876 E0.027
G1 X129.024 Y107.675 E0.03
G1 X128.458 Y108.375 E0.03
G1 X127.757 Y108.968 E0.03
G1 X126.568 Y109.572 E0.045
G1 X125.675 Y109.784 E0.03
G1 X124.772 Y109.826 E0.03
G1 X123.88 Y109.7 E0.03
G1 X123.619 Y109.611 E0.009
G1 X118.314 Y112.673 E0.204
G1 X118.248 Y112.618 E0.003
G1 X117.801 Y112.197 E0.02
G1 X117.38 Y111.75 E0.021
G1 X116.986 Y111.277 E0.02
G1 X116.621 Y110.782 E0.021
G1 X116.522 Y110.629 E0.006
G1 X121.187 Y107.935 E0.179
G1 X120.976 Y107.675 E0.011
G1 X120.548 Y106.876 E0.03
G1 X120.276 Y106.008 E0.03
G1 X120.207 Y105.422 E0.02
G1 X115.35 Y108.227 E0.187
G1 F2100 E-0.5
G0 X116.216 Y107.727 F2400
G0 X115.35 Y108.227 F2400
;rapid-leaky
G0 X120.843 Y114.292 F7200
G1 F2100 E0.5
;bead-support
G1 X135.122 Y106.049 F1320 E0.548
G1 X135.105 Y106.234 E0.006
G1 X135.013 Y106.833 E0.02
G1 X134.882 Y107.444 E0.021
G1 X134.72 Y108.026 E0.02
G1 X134.519 Y108.608 E0.021
G1 X134.28 Y109.185 E0.02
G1 X134.015 Y109.729 E0.02
G1 X133.983 Y109.785 E0.003
G1 X124.658 Y115.169 E0.358
G1 F2100 E-0.5
G0 X125.524 Y114.669 F2400
G0 X124.658 Y115.169 F2400
;rapid-dry
G0 X121.116 Y115.238 F7200
G1 F2100 E0.5
;bead-perimeter_outer
G1 X121.751 Y115.457 F720 E0.022
G1 X122.379 Y115.632 E0.022
G1 X123.026 Y115.771 E0.022
G1 X123.68 Y115.871 E0.022
G1 X124.339 Y115.93 E0.022
G1 X125.01 Y115.95 E0.022
G1 X125.661 Y115.93 E0.022
G1 X126.32 Y115.871 E0.022
G1 X126.974 Y115.771 E0.022
G1 X127.612 Y115.634 E0.022
G1 X128.248 Y115.457 E0.021
G1 X128.884 Y115.238 E0.023
G1 X129.495 Y114.986 E0.022
G1 X130.09 Y114.696 E0.022
G1 X130.666 Y114.371 E0.022
G1 X131.214 Y114.017 E0.022
G1 X131.754 Y113.619 E0.022
G1 X132.255 Y113.202 E0.022
G1 X132.736 Y112.749 E0.022
G1 X133.197 Y112.261 E0.022
G1 X133.62 Y111.752 E0.022
G1 X134.013 Y111.22 E0.022
G1 X134.367 Y110.672 E0.022
G1 X134.697 Y110.087 E0.022
G1 X134.982 Y109.501 E0.022
G1 X135.239 Y108.881 E0.022
G1 X135.455 Y108.256 E0.022
G1 X135.63 Y107.628 E0.022
G1 X135.771 Y106.972 E0.022
G1 X135.87 Y106.327 E0.022
G1 X135.93 Y105.659 E0.022
G1 X135.95 Y104.998 E0.022
G1 X135.93 Y104.336 E0.022
G1 X135.871 Y103.677 E0.022
G1 X135.772 Y103.033 E0.022
G1 X135.634 Y102.386 E0.022
G1 X135.453 Y101.739 E0.022
G1 X135.237 Y101.114 E0.022
G1 X134.988 Y100.512 E0.022
G1 X134.694 Y99.908 E0.022
G1 X134.369 Y99.333 E0.022
G1 X134.016 Y98.784 E0.022
G1 X133.617 Y98.244 E0.022
G1 X133.194 Y97.735 E0.022
G1 X132.746 Y97.261 E0.022
G1 X132.266 Y96.808 E0.022
G1 X131.759 Y96.385 E0.022
G1 X131.226 Y95.991 E0.022
G1 X130.661 Y95.627 E0.022
G1 X130.085 Y95.302 E0.022
G1 X129.499 Y95.017 E0.022
G1 X128.888 Y94.764 E0.022
G1 X128.254 Y94.545 E0.022
G1 X127.626 Y94.369 E0.022
G1 X126.969 Y94.228 E0.022
G1 X126.325 Y94.13 E0.022
G1 X125.666 Y94.07 E0.022
G1 X124.995 Y94.05 E0.022
G1 X124.334 Y94.07 E0.022
G1 X123.685 Y94.129 E0.022
G1 X123.031 Y94.228 E0.022
G1 X122.383 Y94.367 E0.022
G1 X121.746 Y94.545 E0.022
G1 X121.112 Y94.764 E0.022
G1 X120.51 Y95.013 E0.022
G1 X119.906 Y95.307 E0.022
G1 X119.339 Y95.627 E0.022
G1 X118.774 Y95.991 E0.022
G1 X118.241 Y96.385 E0.022
G1 X117.734 Y96.808 E0.022
G1 X117.261 Y97.254 E0.022
G1 X116.806 Y97.735 E0.022
G1 X116.383 Y98.244 E0.022
G1 X115.984 Y98.784 E0.022
G1 X115.631 Y99.333 E0.022
G1 X115.301 Y99.917 E0.022
G1 X115.016 Y100.503 E0.022
G1 X114.763 Y101.114 E0.022
G1 X114.547 Y101.739 E0.022
G1 X114.366 Y102.386 E0.022
G1 X114.228 Y103.033 E0.022
G1 X114.129 Y103.677 E0.022
G1 X114.07 Y104.336 E0.022
G1 X114.05 Y105.007 E0.022
G1 X114.07 Y105.659 E0.022
G1 X114.13 Y106.327 E0.022
G1 X114.229 Y106.972 E0.022
G1 X114.37 Y107.628 E0.022
G1 X114.545 Y108.256 E0.022
G1 X114.761 Y108.881 E0.022
G1 X115.018 Y109.501 E0.022
G1 X115.303 Y110.087 E0.022
G1 X115.628 Y110.663 E0.022
G1 X115.987 Y111.22 E0.022
G1 X116.38 Y111.752 E0.022
G1 X116.803 Y112.261 E0.022
G1 X117.257 Y112.741 E0.022
G1 X117.737 Y113.195 E0.022
G1 X118.246 Y113.618 E0.022
G1 X118.786 Y114.017 E0.022
G1 X119.334 Y114.371 E0.022
G1 X119.91 Y114.696 E0.022
G1 X120.505 Y114.986 E0.022
G1 X121.116 Y115.238 E0.022
;rapid-leaky
G0 X120.989 Y115.575 F7200
;bead-perimeter_inner
G1 X121.644 Y115.801 F960 E0.023
G1 X122.293 Y115.982 E0.022
G1 X122.961 Y116.125 E0.023
G1 X123.637 Y116.228 E0.023
G1 X124.317 Y116.289 E0.022
G1 X125.01 Y116.31 E0.024
G1 X125.683 Y116.289 E0.022
G1 X126.363 Y116.228 E0.023
G1 X127.039 Y116.125 E0.022
G1 X127.698 Y115.984 E0.023
G1 X128.355 Y115.801 E0.022
G1 X129.011 Y115.575 E0.024
G1 X129.643 Y115.314 E0.022
G1 X130.257 Y115.015 E0.023
G1 X130.852 Y114.679 E0.023
G1 X131.418 Y114.313 E0.022
G1 X131.977 Y113.902 E0.023
G1 X132.493 Y113.471 E0.023
G1 X132.991 Y113.003 E0.022
G1 X133.466 Y112.5 E0.023
G1 X133.904 Y111.975 E0.023
G1 X134.309 Y111.424 E0.023
G1 X134.675 Y110.858 E0.022
G1 X135.016 Y110.254 E0.023
G1 X135.311 Y109.649 E0.023
G1 X135.576 Y109.009 E0.023
G1 X135.799 Y108.363 E0.022
G1 X135.98 Y107.714 E0.023
G1 X136.125 Y107.037 E0.023
G1 X136.227 Y106.371 E0.022
G1 X136.289 Y105.681 E0.023
G1 X136.31 Y104.998 E0.023
G1 X136.289 Y104.314 E0.023
G1 X136.228 Y103.633 E0.023
G1 X136.126 Y102.968 E0.022
G1 X135.984 Y102.3 E0.023
G1 X135.797 Y101.632 E0.023
G1 X135.574 Y100.987 E0.022
G1 X135.317 Y100.364 E0.023
G1 X135.013 Y99.74 E0.023
G1 X134.678 Y99.146 E0.023
G1 X134.312 Y98.58 E0.022
G1 X133.901 Y98.021 E0.023
G1 X133.463 Y97.496 E0.023
G1 X133.001 Y97.007 E0.022
G1 X132.505 Y96.539 E0.023
G1 X131.981 Y96.101 E0.023
G1 X131.431 Y95.695 E0.022
G1 X130.848 Y95.318 E0.023
G1 X130.252 Y94.983 E0.023
G1 X129.647 Y94.688 E0.023
G1 X129.015 Y94.427 E0.022
G1 X128.361 Y94.201 E0.023
G1 X127.712 Y94.019 E0.023
G1 X127.034 Y93.874 E0.023
G1 X126.369 Y93.773 E0.022
G1 X125.688 Y93.711 E0.023
G1 X124.995 Y93.69 E0.023
G1 X124.312 Y93.711 E0.023
G1 X123.642 Y93.772 E0.022
G1 X122.967 Y93.874 E0.023
G1 X122.297 Y94.017 E0.023
G1 X121.639 Y94.201 E0.022
G1 X120.985 Y94.427 E0.023
G1 X120.362 Y94.684 E0.023
G1 X119.739 Y94.988 E0.023
G1 X119.152 Y95.318 E0.022
G1 X118.569 Y95.695 E0.023
G1 X118.019 Y96.101 E0.023
G1 X117.495 Y96.539 E0.023
G1 X117.006 Y97 E0.022
G1 X116.537 Y97.496 E0.023
G1 X116.099 Y98.021 E0.023
G1 X115.688 Y98.58 E0.023
G1 X115.322 Y99.146 E0.022
G1 X114.982 Y99.75 E0.023
G1 X114.687 Y100.355 E0.022
G1 X114.426 Y100.986 E0.023
G1 X114.203 Y101.632 E0.023
G1 X114.016 Y102.3 E0.023
G1 X113.874 Y102.968 E0.023
G1 X113.772 Y103.633 E0.022
G1 X113.711 Y104.314 E0.023
G1 X113.69 Y105.007 E0.023
G1 X113.711 Y105.681 E0.022
G1 X113.773 Y106.371 E0.023
G1 X113.875 Y107.037 E0.023
G1 X114.02 Y107.714 E0.023
G1 X114.201 Y108.363 E0.022
G1 X114.424 Y109.009 E0.023
G1 X114.689 Y109.649 E0.023
G1 X114.984 Y110.254 E0.022
G1 X115.32 Y110.85 E0.023
G1 X115.691 Y111.424 E0.023
G1 X116.096 Y111.975 E0.023
G1 X116.534 Y112.5 E0.022
G1 X117.002 Y112.996 E0.023
G1 X117.498 Y113.464 E0.023
G1 X118.023 Y113.902 E0.022
G1 X118.582 Y114.313 E0.023
G1 X119.148 Y114.679 E0.023
G1 X119.743 Y115.015 E0.023
G1 X120.357 Y115.314 E0.022
G1 X120.989 Y115.575 E0.023
;rapid-leaky
G0 X120.686 Y115.983 F7200
;bead-perimeter_outer
G1 X120.051 Y115.712 F720 E0.023
G1 X119.442 Y115.409 E0.023
G1 X118.86 Y115.077 E0.022
G1 X118.29 Y114.706 E0.023
G1 X117.734 Y114.297 E0.023
G1 X117.21 Y113.864 E0.022
G1 X116.72 Y113.407 E0.022
G1 X116.249 Y112.917 E0.023
G1 X115.808 Y112.399 E0.023
G1 X115.397 Y111.857 E0.022
G1 X115.012 Y111.284 E0.023
G1 X114.667 Y110.697 E0.023
G1 X114.36 Y110.103 E0.022
G1 X114.08 Y109.471 E0.023
G1 X113.84 Y108.835 E0.023
G1 X113.641 Y108.196 E0.022
G1 X113.475 Y107.536 E0.023
G1 X113.347 Y106.858 E0.023
G1 X113.261 Y106.193 E0.022
G1 X113.211 Y105.515 E0.022
G1 X113.201 Y104.825 E0.023
G1 X113.231 Y104.145 E0.023
G1 X113.298 Y103.479 E0.022
G1 X113.406 Y102.807 E0.023
G1 X113.553 Y102.133 E0.023
G1 X113.738 Y101.479 E0.023
G1 X113.955 Y100.846 E0.022
G1 X114.218 Y100.206 E0.023
G1 X114.512 Y99.593 E0.022
G1 X114.835 Y99.006 E0.023
G1 X115.197 Y98.43 E0.022
G1 X115.598 Y97.869 E0.023
G1 X116.025 Y97.339 E0.023
G1 X116.481 Y96.835 E0.023
G1 X116.958 Y96.365 E0.022
G1 X117.47 Y95.915 E0.022
G1 X118.014 Y95.491 E0.023
G1 X118.572 Y95.104 E0.023
G1 X119.153 Y94.751 E0.023
G1 X119.744 Y94.435 E0.022
G1 X120.371 Y94.146 E0.023
G1 X121.005 Y93.897 E0.022
G1 X121.651 Y93.686 E0.023
G1 X122.299 Y93.514 E0.022
G1 X122.974 Y93.375 E0.023
G1 X123.648 Y93.278 E0.023
G1 X124.316 Y93.22 E0.022
G1 X125.005 Y93.2 E0.023
G1 X125.684 Y93.22 E0.023
G1 X126.352 Y93.278 E0.022
G1 X127.026 Y93.375 E0.023
G1 X127.701 Y93.514 E0.023
G1 X128.349 Y93.686 E0.022
G1 X128.995 Y93.897 E0.023
G1 X129.638 Y94.15 E0.023
G1 X130.256 Y94.435 E0.022
G1 X130.847 Y94.751 E0.022
G1 X131.427 Y95.104 E0.023
G1 X131.987 Y95.491 E0.023
G1 X132.53 Y95.915 E0.023
G1 X133.042 Y96.365 E0.022
G1 X133.519 Y96.835 E0.023
G1 X133.975 Y97.339 E0.022
G1 X134.402 Y97.869 E0.023
G1 X134.803 Y98.43 E0.023
G1 X135.165 Y99.006 E0.022
G1 X135.488 Y99.593 E0.023
G1 X135.782 Y100.206 E0.022
G1 X136.045 Y100.846 E0.023
G1 X136.262 Y101.479 E0.023
G1 X136.447 Y102.133 E0.022
G1 X136.594 Y102.807 E0.023
G1 X136.702 Y103.479 E0.023
G1 X136.769 Y104.145 E0.022
G1 X136.799 Y104.825 E0.023
G1 X136.789 Y105.515 E0.023
G1 X136.739 Y106.193 E0.022
G1 X136.653 Y106.858 E0.022
G1 X136.525 Y107.536 E0.023
G1 X136.359 Y108.196 E0.023
G1 X136.16 Y108.835 E0.022
G1 X135.916 Y109.481 E0.023
G1 X135.64 Y110.102 E0.023
G1 X135.333 Y110.697 E0.022
G1 X134.988 Y111.284 E0.023
G1 X134.603 Y111.857 E0.023
G1 X134.192 Y112.399 E0.022
G1 X133.75 Y112.917 E0.023
G1 X133.28 Y113.408 E0.023
G1 X132.79 Y113.864 E0.022
G1 X132.258 Y114.303 E0.023
G1 X131.71 Y114.706 E0.022
G1 X131.14 Y115.077 E0.023
G1 X130.558 Y115.409 E0.022
G1 X129.949 Y115.712 E0.023
G1 X129.314 Y115.983 E0.023
G1 X128.674 Y116.214 E0.023
G1 X128.032 Y116.405 E0.022
G1 X127.37 Y116.56 E0.022
G1 X126.689 Y116.679 E0.023
G1 X126.014 Y116.756 E0.023
G1 X125.345 Y116.795 E0.022
G1 X124.655 E0.023
G1 X123.986 Y116.756 E0.023
G1 X123.311 Y116.679 E0.022
G1 X122.63 Y116.56 E0.023
G1 X121.968 Y116.405 E0.023
G1 X121.326 Y116.214 E0.022
G1 X120.686 Y115.983 E0.023
;rapid-leaky
G0 X120.818 Y115.648 F7200
;bead-perimeter_inner
G1 X120.202 Y115.385 F960 E0.022
G1 X119.612 Y115.092 E0.022
G1 X119.048 Y114.77 E0.021
G1 X118.495 Y114.41 E0.022
G1 X117.956 Y114.013 E0.023
G1 X117.448 Y113.593 E0.022
G1 X116.973 Y113.151 E0.021
G1 X116.517 Y112.675 E0.022
G1 X116.089 Y112.173 E0.022
G1 X115.69 Y111.647 E0.022
G1 X115.317 Y111.093 E0.022
G1 X114.983 Y110.524 E0.022
G1 X114.685 Y109.947 E0.022
G1 X114.413 Y109.334 E0.022
G1 X114.181 Y108.718 E0.022
G1 X113.987 Y108.098 E0.022
G1 X113.827 Y107.459 E0.022
G1 X113.702 Y106.801 E0.022
G1 X113.619 Y106.157 E0.021
G1 X113.571 Y105.499 E0.022
G1 X113.561 Y104.83 E0.023
G1 X113.59 Y104.172 E0.021
G1 X113.656 Y103.526 E0.022
G1 X113.759 Y102.874 E0.022
G1 X113.902 Y102.22 E0.022
G1 X114.082 Y101.586 E0.022
G1 X114.292 Y100.972 E0.022
G1 X114.547 Y100.353 E0.022
G1 X114.832 Y99.757 E0.022
G1 X115.146 Y99.188 E0.022
G1 X115.496 Y98.631 E0.022
G1 X115.885 Y98.087 E0.022
G1 X116.299 Y97.573 E0.022
G1 X116.741 Y97.084 E0.022
G1 X117.204 Y96.629 E0.021
G1 X117.7 Y96.192 E0.022
G1 X118.227 Y95.781 E0.022
G1 X118.768 Y95.406 E0.022
G1 X119.332 Y95.064 E0.022
G1 X119.904 Y94.758 E0.022
G1 X120.513 Y94.477 E0.022
G1 X121.127 Y94.236 E0.022
G1 X121.753 Y94.031 E0.022
G1 X122.381 Y93.864 E0.022
G1 X123.036 Y93.73 E0.022
G1 X123.689 Y93.636 E0.022
G1 X124.336 Y93.579 E0.021
G1 X125.005 Y93.56 E0.023
G1 X125.664 Y93.579 E0.022
G1 X126.311 Y93.636 E0.021
G1 X126.964 Y93.73 E0.022
G1 X127.619 Y93.864 E0.022
G1 X128.247 Y94.031 E0.022
G1 X128.873 Y94.236 E0.022
G1 X129.497 Y94.481 E0.022
G1 X130.096 Y94.758 E0.022
G1 X130.668 Y95.064 E0.022
G1 X131.231 Y95.406 E0.022
G1 X131.773 Y95.781 E0.022
G1 X132.3 Y96.192 E0.022
G1 X132.796 Y96.629 E0.022
G1 X133.259 Y97.084 E0.021
G1 X133.701 Y97.573 E0.022
G1 X134.115 Y98.087 E0.022
G1 X134.504 Y98.631 E0.022
G1 X134.854 Y99.188 E0.022
G1 X135.168 Y99.757 E0.022
G1 X135.453 Y100.353 E0.022
G1 X135.708 Y100.972 E0.022
G1 X135.918 Y101.586 E0.022
G1 X136.098 Y102.22 E0.022
G1 X136.241 Y102.874 E0.022
G1 X136.344 Y103.526 E0.022
G1 X136.41 Y104.172 E0.022
G1 X136.439 Y104.83 E0.021
G1 X136.429 Y105.499 E0.023
G1 X136.381 Y106.157 E0.022
G1 X136.298 Y106.801 E0.021
G1 X136.173 Y107.459 E0.022
G1 X136.013 Y108.098 E0.022
G1 X135.819 Y108.718 E0.022
G1 X135.583 Y109.344 E0.022
G1 X135.315 Y109.947 E0.022
G1 X135.017 Y110.524 E0.022
G1 X134.683 Y111.093 E0.022
G1 X134.31 Y111.647 E0.022
G1 X133.912 Y112.173 E0.022
G1 X133.483 Y112.675 E0.022
G1 X133.027 Y113.151 E0.022
G1 X132.552 Y113.593 E0.021
G1 X132.036 Y114.019 E0.023
G1 X131.505 Y114.41 E0.022
G1 X130.952 Y114.77 E0.022
G1 X130.388 Y115.092 E0.021
G1 X129.798 Y115.385 E0.022
G1 X129.182 Y115.648 E0.022
G1 X128.561 Y115.872 E0.022
G1 X127.939 Y116.057 E0.022
G1 X127.298 Y116.207 E0.022
G1 X126.638 Y116.322 E0.022
G1 X125.983 Y116.397 E0.022
G1 X125.335 Y116.435 E0.022
G1 X124.665 E0.022
G1 X124.017 Y116.397 E0.021
G1 X123.362 Y116.322 E0.022
G1 X122.702 Y116.207 E0.023
G1 X122.061 Y116.057 E0.022
G1 X121.439 Y115.872 E0.021
G1 X120.818 Y115.648 E0.022
G1 F2100 E-0.5
;LAYER:2
M107
;rapid-dry
G0 X124.658 Y115.169 Z0.35 F7200
G1 F2100 E0.5
;bead-support
G1 X133.984 Y109.785 F3300 E0.269
G1 X134.016 Y109.728 E0.001
G1 X134.284 Y109.175 E0.016
G1 X134.512 Y108.625 E0.015
G1 X134.72 Y108.024 E0.015
G1 X134.88 Y107.451 E0.015
G1 X135.014 Y106.831 E0.016
G1 X135.107 Y106.223 E0.015
G1 X135.122 Y106.048 E0.005
G1 X120.844 Y114.292 E0.411
G1 F2100 E-0.5
G0 X121.71 Y113.792 F2400
G0 X120.844 Y114.292 F2400
;rapid-leaky
G0 X115.35 Y108.226 F7200
G1 F2100 E0.5
;bead-support
G1 X120.207 Y105.422 F3300 E0.14
G1 X120.276 Y106.008 E0.015
G1 X120.548 Y106.876 E0.022
G1 X120.976 Y107.675 E0.023
G1 X121.187 Y107.935 E0.008
G1 X116.522 Y110.629 E0.135
G1 X116.62 Y110.78 E0.004
G1 X116.985 Y111.276 E0.015
G1 X117.379 Y111.749 E0.016
G1 X117.8 Y112.196 E0.015
G1 X118.248 Y112.619 E0.016
G1 X118.314 Y112.674 E0.002
G1 X123.619 Y109.611 E0.152
G1 X123.88 Y109.7 E0.007
G1 X124.772 Y109.826 E0.023
G1 X125.675 Y109.784 E0.022
G1 X126.568 Y109.572 E0.023
G1 X127.757 Y108.968 E0.034
G1 X128.458 Y108.375 E0.022
G1 X129.024 Y107.675 E0.023
G1 X129.452 Y106.876 E0.023
G1 X129.695 Y106.103 E0.02
G1 X134.988 Y103.047 E0.152
G1 X134.883 Y102.559 E0.013
G1 X134.723 Y101.985 E0.015
G1 X134.523 Y101.403 E0.015
G1 X134.28 Y100.816 E0.016
G1 X134.113 Y100.473 E0.009
G1 X129.448 Y103.166 E0.135
G1 X128.902 Y102.151 E0.028
G1 X128.296 Y101.468 E0.023
G1 X127.765 Y101.058 E0.017
G1 X132.623 Y98.254 E0.14
G1 X132.206 Y97.811 E0.015
G1 X131.759 Y97.388 E0.015
G1 X131.272 Y96.982 E0.016
G1 X130.792 Y96.629 E0.015
G1 X130.468 Y96.419 E0.01
G1 X123.552 Y100.412 E0.199
G1 X123.228 Y100.505 E0.008
G1 X122.423 Y100.913 E0.023
G1 X121.704 Y101.468 E0.022
G1 X121.684 Y101.49 E0.001
G1 X114.834 Y105.445 E0.197
G1 X114.82 Y105.014 E0.011
G1 X114.839 Y104.38 E0.016
G1 X114.895 Y103.768 E0.015
G1 X114.988 Y103.16 E0.016
G1 X115.117 Y102.559 E0.015
G1 X115.236 Y102.134 E0.011
G1 X127.404 Y95.109 E0.351
G1 X126.845 Y94.989 E0.014
G1 X126.219 Y94.893 E0.016
G1 X125.624 Y94.84 E0.014
G1 X125.01 Y94.82 E0.016
G1 X124.375 Y94.84 E0.016
G1 X123.781 Y94.893 E0.015
G1 X123.155 Y94.989 E0.015
G1 X122.572 Y95.114 E0.015
G1 X121.98 Y95.278 E0.016
G1 X121.474 Y95.453 E0.013
G1 X118.507 Y97.166 E0.085
G1 F2100 E-0.5
G0 X119.373 Y96.666 F2400
G0 X118.507 Y97.166 F2400
;rapid-dry
G0 X131.23 Y95.995 F7200
G1 F2100 E0.5
;bead-perimeter_outer
G1 X130.675 Y95.635 F1800 E0.017
G1 X130.082 Y95.3 E0.017
G1 X129.504 Y95.02 E0.016
G1 X128.893 Y94.766 E0.016
G1 X128.25 Y94.543 E0.017
G1 X127.612 Y94.366 E0.017
G1 X126.984 Y94.231 E0.016
G1 X126.311 Y94.128 E0.017
G1 X125.671 Y94.071 E0.016
G1 X125.01 Y94.05 E0.016
G1 X124.329 Y94.071 E0.017
G1 X123.689 Y94.128 E0.016
G1 X123.016 Y94.231 E0.017
G1 X122.388 Y94.366 E0.016
G1 X121.751 Y94.543 E0.017
G1 X121.125 Y94.759 E0.016
G1 X120.514 Y95.011 E0.017
G1 X119.901 Y95.309 E0.017
G1 X119.325 Y95.635 E0.016
G1 X118.77 Y95.995 E0.017
G1 X118.253 Y96.375 E0.016
G1 X117.744 Y96.799 E0.016
G1 X117.248 Y97.267 E0.017
G1 X116.796 Y97.747 E0.017
G1 X116.372 Y98.257 E0.016
G1 X115.992 Y98.773 E0.016
G1 X115.632 Y99.329 E0.017
G1 X115.298 Y99.923 E0.017
G1 X115.018 Y100.5 E0.016
G1 X114.764 Y101.111 E0.016
G1 X114.542 Y101.755 E0.017
G1 X114.369 Y102.374 E0.017
G1 X114.23 Y103.021 E0.016
G1 X114.13 Y103.675 E0.017
G1 X114.07 Y104.334 E0.016
G1 X114.05 Y105.015 E0.017
G1 X114.071 Y105.676 E0.017
G1 X114.128 Y106.315 E0.016
G1 X114.228 Y106.97 E0.016
G1 X114.367 Y107.617 E0.017
G1 X114.545 Y108.254 E0.016
G1 X114.768 Y108.898 E0.017
G1 X115.013 Y109.491 E0.016
G1 X115.302 Y110.086 E0.017
G1 X115.627 Y110.662 E0.016
G1 X115.986 Y111.218 E0.017
G1 X116.378 Y111.751 E0.016
G1 X116.802 Y112.26 E0.017
G1 X117.255 Y112.74 E0.016
G1 X117.736 Y113.195 E0.017
G1 X118.245 Y113.618 E0.016
G1 X118.777 Y114.011 E0.017
G1 X119.335 Y114.37 E0.016
G1 X119.927 Y114.704 E0.017
G1 X120.505 Y114.984 E0.016
G1 X121.116 Y115.238 E0.017
G1 X121.741 Y115.454 E0.016
G1 X122.378 Y115.632 E0.017
G1 X123.025 Y115.771 E0.016
G1 X123.68 Y115.871 E0.017
G1 X124.339 Y115.93 E0.016
G1 X125 Y115.95 E0.017
G1 X125.661 Y115.93 E0.016
G1 X126.32 Y115.871 E0.017
G1 X126.975 Y115.771 E0.016
G1 X127.622 Y115.632 E0.017
G1 X128.259 Y115.454 E0.016
G1 X128.884 Y115.238 E0.017
G1 X129.495 Y114.984 E0.016
G1 X130.073 Y114.704 E0.016
G1 X130.648 Y114.38 E0.017
G1 X131.223 Y114.011 E0.017
G1 X131.755 Y113.618 E0.016
G1 X132.264 Y113.195 E0.017
G1 X132.745 Y112.74 E0.016
G1 X133.198 Y112.26 E0.017
G1 X133.622 Y111.751 E0.016
G1 X134.014 Y111.218 E0.017
G1 X134.373 Y110.662 E0.016
G1 X134.698 Y110.086 E0.017
G1 X134.987 Y109.491 E0.016
G1 X135.232 Y108.898 E0.016
G1 X135.455 Y108.254 E0.017
G1 X135.628 Y107.636 E0.016
G1 X135.772 Y106.97 E0.017
G1 X135.872 Y106.315 E0.017
G1 X135.929 Y105.676 E0.016
G1 X135.95 Y104.995 E0.017
G1 X135.93 Y104.334 E0.016
G1 X135.87 Y103.675 E0.017
G1 X135.77 Y103.021 E0.016
G1 X135.631 Y102.374 E0.017
G1 X135.458 Y101.755 E0.016
G1 X135.243 Y101.13 E0.016
G1 X134.982 Y100.5 E0.017
G1 X134.693 Y99.905 E0.017
G1 X134.368 Y99.329 E0.016
G1 X134.008 Y98.773 E0.017
G1 X133.628 Y98.257 E0.016
G1 X133.204 Y97.747 E0.016
G1 X132.752 Y97.267 E0.017
G1 X132.271 Y96.812 E0.016
G1 X131.747 Y96.375 E0.017
G1 X131.23 Y95.995 E0.016
;rapid-leaky
G0 X131.435 Y95.699 F7200
;bead-perimeter_inner
G1 X130.862 Y95.327 F2400 E0.017
G1 X130.249 Y94.981 E0.018
G1 X129.652 Y94.691 E0.017
G1 X129.021 Y94.429 E0.017
G1 X128.357 Y94.199 E0.017
G1 X127.698 Y94.016 E0.017
G1 X127.049 Y93.877 E0.017
G1 X126.354 Y93.771 E0.017
G1 X125.693 Y93.712 E0.017
G1 X125.01 Y93.69 E0.017
G1 X124.307 Y93.712 E0.017
G1 X123.646 Y93.771 E0.017
G1 X122.951 Y93.877 E0.017
G1 X122.302 Y94.016 E0.017
G1 X121.643 Y94.199 E0.017
G1 X120.997 Y94.422 E0.017
G1 X120.367 Y94.683 E0.017
G1 X119.734 Y94.99 E0.018
G1 X119.138 Y95.327 E0.017
G1 X118.565 Y95.699 E0.017
G1 X118.031 Y96.092 E0.016
G1 X117.505 Y96.53 E0.017
G1 X116.994 Y97.012 E0.018
G1 X116.526 Y97.509 E0.017
G1 X116.089 Y98.035 E0.017
G1 X115.696 Y98.568 E0.017
G1 X115.324 Y99.143 E0.017
G1 X114.979 Y99.756 E0.017
G1 X114.689 Y100.352 E0.017
G1 X114.427 Y100.983 E0.017
G1 X114.198 Y101.648 E0.017
G1 X114.019 Y102.288 E0.017
G1 X113.876 Y102.956 E0.017
G1 X113.773 Y103.631 E0.017
G1 X113.711 Y104.312 E0.017
G1 X113.69 Y105.016 E0.018
G1 X113.712 Y105.698 E0.017
G1 X113.771 Y106.358 E0.016
G1 X113.874 Y107.035 E0.017
G1 X114.017 Y107.703 E0.017
G1 X114.201 Y108.361 E0.017
G1 X114.431 Y109.026 E0.018
G1 X114.685 Y109.638 E0.016
G1 X114.983 Y110.253 E0.017
G1 X115.319 Y110.848 E0.017
G1 X115.69 Y111.422 E0.018
G1 X116.095 Y111.973 E0.017
G1 X116.533 Y112.499 E0.017
G1 X117.001 Y112.995 E0.017
G1 X117.497 Y113.464 E0.017
G1 X118.022 Y113.902 E0.017
G1 X118.573 Y114.307 E0.017
G1 X119.148 Y114.679 E0.017
G1 X119.76 Y115.023 E0.017
G1 X120.357 Y115.313 E0.017
G1 X120.988 Y115.575 E0.017
G1 X121.634 Y115.798 E0.017
G1 X122.292 Y115.982 E0.017
G1 X122.96 Y116.125 E0.017
G1 X123.637 Y116.228 E0.017
G1 X124.317 Y116.289 E0.017
G1 X125 Y116.31 E0.017
G1 X125.683 Y116.289 E0.017
G1 X126.363 Y116.228 E0.017
G1 X127.04 Y116.125 E0.017
G1 X127.708 Y115.982 E0.018
G1 X128.366 Y115.798 E0.017
G1 X129.012 Y115.575 E0.017
G1 X129.643 Y115.313 E0.017
G1 X130.24 Y115.023 E0.016
G1 X130.834 Y114.689 E0.017
G1 X131.427 Y114.307 E0.018
G1 X131.978 Y113.902 E0.017
G1 X132.503 Y113.464 E0.017
G1 X132.999 Y112.995 E0.017
G1 X133.467 Y112.499 E0.017
G1 X133.905 Y111.973 E0.017
G1 X134.31 Y111.422 E0.017
G1 X134.681 Y110.848 E0.017
G1 X135.017 Y110.253 E0.017
G1 X135.315 Y109.638 E0.017
G1 X135.569 Y109.026 E0.017
G1 X135.799 Y108.361 E0.017
G1 X135.978 Y107.723 E0.017
G1 X136.126 Y107.035 E0.017
G1 X136.229 Y106.358 E0.017
G1 X136.288 Y105.698 E0.017
G1 X136.31 Y104.995 E0.018
G1 X136.289 Y104.312 E0.017
G1 X136.227 Y103.631 E0.017
G1 X136.124 Y102.956 E0.017
G1 X135.981 Y102.288 E0.017
G1 X135.802 Y101.648 E0.016
G1 X135.58 Y101.003 E0.017
G1 X135.311 Y100.352 E0.018
G1 X135.012 Y99.738 E0.017
G1 X134.676 Y99.143 E0.017
G1 X134.304 Y98.568 E0.017
G1 X133.911 Y98.035 E0.017
G1 X133.474 Y97.509 E0.017
G1 X133.007 Y97.012 E0.017
G1 X132.51 Y96.543 E0.017
G1 X131.969 Y96.092 E0.017
G1 X131.435 Y95.699 E0.017
;rapid-leaky
G0 X131.44 Y95.113 F7200
;bead-perimeter_outer
G1 X131.982 Y95.488 F1800 E0.016
G1 X132.534 Y95.919 E0.018
G1 X133.03 Y96.355 E0.016
G1 X133.516 Y96.832 E0.017
G1 X133.985 Y97.351 E0.018
G1 X134.399 Y97.865 E0.016
G1 X134.806 Y98.435 E0.018
G1 X135.157 Y98.993 E0.016
G1 X135.495 Y99.606 E0.017
G1 X135.788 Y100.22 E0.017
G1 X136.039 Y100.831 E0.017
G1 X136.267 Y101.494 E0.017
G1 X136.45 Y102.147 E0.017
G1 X136.595 Y102.812 E0.017
G1 X136.7 Y103.464 E0.017
G1 X136.768 Y104.141 E0.017
G1 X136.799 Y104.84 E0.017
G1 X136.789 Y105.5 E0.017
G1 X136.739 Y106.198 E0.017
G1 X136.65 Y106.872 E0.017
G1 X136.528 Y107.521 E0.017
G1 X136.357 Y108.201 E0.017
G1 X136.155 Y108.85 E0.017
G1 X135.922 Y109.466 E0.016
G1 X135.645 Y110.089 E0.017
G1 X135.336 Y110.693 E0.017
G1 X134.979 Y111.297 E0.018
G1 X134.612 Y111.845 E0.016
G1 X134.201 Y112.387 E0.017
G1 X133.76 Y112.905 E0.017
G1 X133.277 Y113.411 E0.018
G1 X132.794 Y113.86 E0.016
G1 X132.27 Y114.294 E0.017
G1 X131.705 Y114.71 E0.018
G1 X131.153 Y115.069 E0.016
G1 X130.544 Y115.416 E0.018
G1 X129.953 Y115.71 E0.016
G1 X129.309 Y115.985 E0.017
G1 X128.688 Y116.209 E0.017
G1 X128.037 Y116.403 E0.017
G1 X127.355 Y116.563 E0.017
G1 X126.685 Y116.679 E0.017
G1 X126.009 Y116.757 E0.017
G1 X125.35 Y116.795 E0.017
G1 X124.65 E0.017
G1 X123.971 Y116.755 E0.017
G1 X123.316 Y116.679 E0.017
G1 X122.645 Y116.563 E0.017
G1 X121.963 Y116.403 E0.017
G1 X121.312 Y116.209 E0.017
G1 X120.691 Y115.985 E0.017
G1 X120.047 Y115.71 E0.017
G1 X119.456 Y115.416 E0.016
G1 X118.847 Y115.069 E0.018
G1 X118.295 Y114.71 E0.016
G1 X117.73 Y114.294 E0.018
G1 X117.206 Y113.86 E0.017
G1 X116.724 Y113.411 E0.016
G1 X116.24 Y112.905 E0.018
G1 X115.799 Y112.387 E0.017
G1 X115.388 Y111.845 E0.017
G1 X115.021 Y111.297 E0.016
G1 X114.674 Y110.711 E0.017
G1 X114.354 Y110.089 E0.018
G1 X114.078 Y109.466 E0.017
G1 X113.845 Y108.85 E0.016
G1 X113.637 Y108.181 E0.017
G1 X113.476 Y107.541 E0.017
G1 X113.35 Y106.872 E0.017
G1 X113.261 Y106.198 E0.017
G1 X113.211 Y105.5 E0.017
G1 X113.201 Y104.84 E0.017
G1 X113.232 Y104.14 E0.017
G1 X113.3 Y103.464 E0.017
G1 X113.405 Y102.812 E0.017
G1 X113.55 Y102.147 E0.017
G1 X113.733 Y101.494 E0.017
G1 X113.961 Y100.831 E0.017
G1 X114.212 Y100.22 E0.017
G1 X114.505 Y99.606 E0.017
G1 X114.843 Y98.993 E0.017
G1 X115.194 Y98.435 E0.016
G1 X115.601 Y97.865 E0.018
G1 X116.015 Y97.351 E0.016
G1 X116.484 Y96.832 E0.018
G1 X116.97 Y96.355 E0.017
G1 X117.466 Y95.919 E0.016
G1 X118.018 Y95.488 E0.018
G1 X118.559 Y95.113 E0.016
G1 X119.158 Y94.748 E0.018
G1 X119.758 Y94.429 E0.017
G1 X120.358 Y94.152 E0.016
G1 X120.99 Y93.903 E0.017
G1 X121.656 Y93.684 E0.018
G1 X122.294 Y93.515 E0.016
G1 X122.979 Y93.374 E0.017
G1 X123.633 Y93.28 E0.017
G1 X124.311 Y93.221 E0.017
G1 X125.01 Y93.2 E0.017
G1 X125.689 Y93.221 E0.017
G1 X126.347 Y93.278 E0.017
G1 X127.041 Y93.378 E0.017
G1 X127.706 Y93.515 E0.017
G1 X128.364 Y93.69 E0.017
G1 X129.01 Y93.903 E0.017
G1 X129.642 Y94.152 E0.017
G1 X130.242 Y94.429 E0.017
G1 X130.86 Y94.758 E0.017
G1 X131.44 Y95.113 E0.017
;rapid-leaky
G0 X131.243 Y95.414 F7200
;bead-perimeter_inner
G1 X131.769 Y95.778 F2400 E0.016
G1 X132.305 Y96.196 E0.017
G1 X132.785 Y96.618 E0.016
G1 X133.256 Y97.081 E0.016
G1 X133.711 Y97.585 E0.017
G1 X134.112 Y98.083 E0.016
G1 X134.507 Y98.636 E0.017
G1 X134.846 Y99.176 E0.016
G1 X135.175 Y99.771 E0.017
G1 X135.459 Y100.366 E0.016
G1 X135.702 Y100.958 E0.016
G1 X135.923 Y101.601 E0.017
G1 X136.1 Y102.234 E0.017
G1 X136.242 Y102.879 E0.016
G1 X136.342 Y103.511 E0.016
G1 X136.409 Y104.167 E0.017
G1 X136.439 Y104.845 E0.017
G1 X136.429 Y105.485 E0.016
G1 X136.381 Y106.161 E0.016
G1 X136.295 Y106.815 E0.017
G1 X136.176 Y107.444 E0.016
G1 X136.011 Y108.103 E0.017
G1 X135.814 Y108.732 E0.016
G1 X135.589 Y109.329 E0.016
G1 X135.32 Y109.934 E0.017
G1 X135.02 Y110.52 E0.016
G1 X134.674 Y111.105 E0.017
G1 X134.319 Y111.636 E0.016
G1 X133.92 Y112.161 E0.016
G1 X133.493 Y112.664 E0.017
G1 X133.024 Y113.154 E0.017
G1 X132.556 Y113.589 E0.016
G1 X132.048 Y114.01 E0.016
G1 X131.5 Y114.413 E0.017
G1 X130.965 Y114.762 E0.016
G1 X130.374 Y115.099 E0.017
G1 X129.802 Y115.383 E0.016
G1 X129.177 Y115.65 E0.017
G1 X128.576 Y115.867 E0.016
G1 X127.944 Y116.055 E0.016
G1 X127.283 Y116.21 E0.017
G1 X126.633 Y116.323 E0.017
G1 X125.978 Y116.398 E0.016
G1 X125.34 Y116.435 E0.016
G1 X124.661 E0.017
G1 X124.003 Y116.396 E0.017
G1 X123.367 Y116.323 E0.016
G1 X122.717 Y116.21 E0.016
G1 X122.056 Y116.055 E0.017
G1 X121.424 Y115.867 E0.016
G1 X120.823 Y115.65 E0.016
G1 X120.198 Y115.383 E0.017
G1 X119.626 Y115.099 E0.016
G1 X119.035 Y114.762 E0.017
G1 X118.5 Y114.413 E0.016
G1 X117.952 Y114.01 E0.017
G1 X117.444 Y113.589 E0.017
G1 X116.976 Y113.154 E0.015
G1 X116.507 Y112.664 E0.017
G1 X116.08 Y112.161 E0.017
G1 X115.681 Y111.636 E0.016
G1 X115.326 Y111.105 E0.016
G1 X114.989 Y110.537 E0.017
G1 X114.679 Y109.933 E0.017
G1 X114.411 Y109.329 E0.016
G1 X114.186 Y108.732 E0.016
G1 X113.983 Y108.084 E0.017
G1 X113.828 Y107.464 E0.016
G1 X113.705 Y106.815 E0.016
G1 X113.619 Y106.161 E0.017
G1 X113.571 Y105.485 E0.017
G1 X113.561 Y104.845 E0.016
G1 X113.591 Y104.167 E0.017
G1 X113.658 Y103.511 E0.016
G1 X113.758 Y102.879 E0.016
G1 X113.9 Y102.234 E0.017
G1 X114.077 Y101.601 E0.016
G1 X114.298 Y100.958 E0.017
G1 X114.541 Y100.366 E0.016
G1 X114.825 Y99.771 E0.016
G1 X115.154 Y99.176 E0.017
G1 X115.493 Y98.636 E0.016
G1 X115.888 Y98.083 E0.017
G1 X116.289 Y97.585 E0.016
G1 X116.744 Y97.081 E0.017
G1 X117.215 Y96.618 E0.016
G1 X117.695 Y96.196 E0.016
G1 X118.231 Y95.778 E0.017
G1 X118.755 Y95.415 E0.016
G1 X119.336 Y95.061 E0.017
G1 X119.918 Y94.752 E0.017
G1 X120.499 Y94.483 E0.016
G1 X121.112 Y94.242 E0.016
G1 X121.758 Y94.029 E0.017
G1 X122.376 Y93.865 E0.016
G1 X123.041 Y93.729 E0.017
G1 X123.674 Y93.638 E0.016
G1 X124.332 Y93.58 E0.016
G1 X125.01 Y93.56 E0.017
G1 X125.668 Y93.58 E0.017
G1 X126.306 Y93.636 E0.016
G1 X126.979 Y93.733 E0.017
G1 X127.624 Y93.865 E0.016
G1 X128.261 Y94.035 E0.017
G1 X128.887 Y94.242 E0.016
G1 X129.501 Y94.483 E0.016
G1 X130.082 Y94.752 E0.016
G1 X130.681 Y95.071 E0.017
G1 X131.243 Y95.414 E0.017
G1 F2100 E-0.5
;LAYER:3
M107
;rapid-leaky
G0 X133.189 Y97.73 Z0.5 F7200
G1 F2100 E0.5
;bead-perimeter_outer
G1 X132.756 Y97.271 F1800 E0.016
G1 X132.275 Y96.817 E0.016
G1 X131.768 Y96.392 E0.017
G1 X131.211 Y95.981 E0.017
G1 X130.68 Y95.638 E0.016
G1 X130.078 Y95.298 E0.017
G1 X129.509 Y95.022 E0.016
G1 X128.898 Y94.768 E0.016
G1 X128.245 Y94.542 E0.017
G1 X127.608 Y94.365 E0.017
G1 X126.989 Y94.232 E0.016
G1 X126.306 Y94.128 E0.017
G1 X125.647 Y94.069 E0.016
G1 X125.015 Y94.05 E0.016
G1 X124.353 Y94.069 E0.017
G1 X123.694 Y94.128 E0.016
G1 X123.011 Y94.232 E0.017
G1 X122.392 Y94.365 E0.016
G1 X121.755 Y94.542 E0.017
G1 X121.102 Y94.768 E0.017
G1 X120.518 Y95.009 E0.016
G1 X119.896 Y95.312 E0.017
G1 X119.32 Y95.638 E0.016
G1 X118.789 Y95.981 E0.016
G1 X118.232 Y96.392 E0.017
G1 X117.725 Y96.817 E0.017
G1 X117.244 Y97.271 E0.016
G1 X116.811 Y97.73 E0.016
G1 X116.388 Y98.239 E0.017
G1 X115.977 Y98.795 E0.017
G1 X115.634 Y99.328 E0.016
G1 X115.295 Y99.929 E0.017
G1 X115.006 Y100.524 E0.016
G1 X114.765 Y101.109 E0.016
G1 X114.54 Y101.763 E0.017
G1 X114.363 Y102.399 E0.017
G1 X114.231 Y103.018 E0.016
G1 X114.13 Y103.672 E0.016
G1 X114.07 Y104.331 E0.017
G1 X114.05 Y105.022 E0.017
G1 X114.07 Y105.654 E0.016
G1 X114.128 Y106.313 E0.016
G1 X114.228 Y106.968 E0.017
G1 X114.367 Y107.615 E0.016
G1 X114.544 Y108.251 E0.017
G1 X114.76 Y108.878 E0.016
G1 X115.013 Y109.489 E0.017
G1 X115.316 Y110.11 E0.017
G1 X115.642 Y110.686 E0.017
G1 X115.985 Y111.217 E0.015
G1 X116.377 Y111.75 E0.017
G1 X116.801 Y112.259 E0.016
G1 X117.254 Y112.739 E0.017
G1 X117.735 Y113.194 E0.016
G1 X118.245 Y113.618 E0.017
G1 X118.777 Y114.01 E0.016
G1 X119.334 Y114.37 E0.017
G1 X119.935 Y114.708 E0.017
G1 X120.504 Y114.985 E0.016
G1 X121.115 Y115.237 E0.016
G1 X121.741 Y115.454 E0.017
G1 X122.378 Y115.632 E0.016
G1 X123.025 Y115.771 E0.017
G1 X123.679 Y115.871 E0.016
G1 X124.339 Y115.93 E0.017
G1 X125 Y115.95 E0.016
G1 X125.661 Y115.93 E0.017
G1 X126.321 Y115.871 E0.016
G1 X126.975 Y115.771 E0.017
G1 X127.622 Y115.632 E0.016
G1 X128.259 Y115.454 E0.017
G1 X128.885 Y115.237 E0.017
G1 X129.469 Y114.997 E0.015
G1 X130.091 Y114.695 E0.018
G1 X130.667 Y114.37 E0.016
G1 X131.223 Y114.01 E0.017
G1 X131.755 Y113.618 E0.016
G1 X132.265 Y113.194 E0.017
G1 X132.745 Y112.739 E0.016
G1 X133.179 Y112.281 E0.016
G1 X133.622 Y111.751 E0.017
G1 X134.015 Y111.217 E0.017
G1 X134.358 Y110.686 E0.015
G1 X134.698 Y110.084 E0.018
G1 X134.975 Y109.516 E0.015
G1 X135.24 Y108.878 E0.018
G1 X135.456 Y108.252 E0.016
G1 X135.626 Y107.643 E0.016
G1 X135.772 Y106.968 E0.017
G1 X135.868 Y106.342 E0.016
G1 X135.93 Y105.654 E0.017
G1 X135.95 Y104.993 E0.017
G1 X135.93 Y104.331 E0.016
G1 X135.87 Y103.672 E0.017
G1 X135.769 Y103.018 E0.016
G1 X135.637 Y102.399 E0.016
G1 X135.46 Y101.763 E0.016
G1 X135.245 Y101.136 E0.017
G1 X134.982 Y100.498 E0.017
G1 X134.705 Y99.929 E0.016
G1 X134.381 Y99.353 E0.016
G1 X134.006 Y98.771 E0.018
G1 X133.612 Y98.238 E0.016
G1 X133.189 Y97.73 E0.017
;rapid-leaky
G0 X133.458 Y97.491 F7200
;bead-perimeter_inner
G1 X133.01 Y97.016 F2400 E0.016
G1 X132.514 Y96.547 E0.017
G1 X131.99 Y96.108 E0.017
G1 X131.415 Y95.685 E0.018
G1 X130.866 Y95.33 E0.016
G1 X130.245 Y94.979 E0.018
G1 X129.657 Y94.693 E0.016
G1 X129.026 Y94.431 E0.017
G1 X128.352 Y94.198 E0.018
G1 X127.694 Y94.015 E0.017
G1 X127.054 Y93.878 E0.017
G1 X126.349 Y93.771 E0.017
G1 X125.669 Y93.71 E0.017
G1 X125.015 Y93.69 E0.017
G1 X124.332 Y93.71 E0.017
G1 X123.651 Y93.771 E0.017
G1 X122.946 Y93.878 E0.018
G1 X122.306 Y94.015 E0.016
G1 X121.648 Y94.198 E0.017
G1 X120.974 Y94.431 E0.018
G1 X120.37 Y94.681 E0.016
G1 X119.728 Y94.993 E0.018
G1 X119.134 Y95.33 E0.017
G1 X118.585 Y95.685 E0.016
G1 X118.01 Y96.108 E0.018
G1 X117.486 Y96.547 E0.017
G1 X116.99 Y97.016 E0.017
G1 X116.542 Y97.491 E0.016
G1 X116.104 Y98.016 E0.017
G1 X115.681 Y98.591 E0.018
G1 X115.325 Y99.141 E0.017
G1 X114.976 Y99.762 E0.017
G1 X114.678 Y100.377 E0.017
G1 X114.428 Y100.982 E0.017
G1 X114.196 Y101.656 E0.017
G1 X114.013 Y102.314 E0.018
G1 X113.877 Y102.953 E0.016
G1 X113.773 Y103.628 E0.017
G1 X113.711 Y104.309 E0.017
G1 X113.69 Y105.023 E0.018
G1 X113.711 Y105.676 E0.016
G1 X113.771 Y106.356 E0.017
G1 X113.874 Y107.033 E0.017
G1 X114.017 Y107.701 E0.017
G1 X114.2 Y108.358 E0.017
G1 X114.423 Y109.005 E0.017
G1 X114.684 Y109.637 E0.017
G1 X114.997 Y110.278 E0.018
G1 X115.334 Y110.872 E0.017
G1 X115.689 Y111.421 E0.016
G1 X116.094 Y111.972 E0.018
G1 X116.532 Y112.498 E0.017
G1 X117 Y112.994 E0.017
G1 X117.496 Y113.463 E0.017
G1 X118.023 Y113.901 E0.017
G1 X118.572 Y114.306 E0.017
G1 X119.147 Y114.679 E0.017
G1 X119.768 Y115.027 E0.018
G1 X120.357 Y115.313 E0.016
G1 X120.987 Y115.574 E0.017
G1 X121.634 Y115.798 E0.017
G1 X122.292 Y115.982 E0.017
G1 X122.96 Y116.125 E0.017
G1 X123.636 Y116.228 E0.017
G1 X124.317 Y116.289 E0.017
G1 X125 Y116.31 E0.017
G1 X125.683 Y116.289 E0.017
G1 X126.364 Y116.228 E0.017
G1 X127.04 Y116.125 E0.017
G1 X127.708 Y115.982 E0.017
G1 X128.366 Y115.798 E0.018
G1 X129.012 Y115.574 E0.017
G1 X129.616 Y115.325 E0.016
G1 X130.258 Y115.014 E0.018
G1 X130.853 Y114.678 E0.017
G1 X131.428 Y114.306 E0.017
G1 X131.977 Y113.901 E0.017
G1 X132.504 Y113.463 E0.017
G1 X133 Y112.994 E0.017
G1 X133.448 Y112.52 E0.016
G1 X133.906 Y111.973 E0.018
G1 X134.311 Y111.421 E0.017
G1 X134.666 Y110.872 E0.016
G1 X135.017 Y110.252 E0.018
G1 X135.304 Y109.664 E0.016
G1 X135.577 Y109.006 E0.018
G1 X135.8 Y108.359 E0.017
G1 X135.976 Y107.73 E0.017
G1 X136.126 Y107.034 E0.017
G1 X136.225 Y106.386 E0.017
G1 X136.289 Y105.676 E0.018
G1 X136.31 Y104.993 E0.017
G1 X136.289 Y104.309 E0.017
G1 X136.227 Y103.628 E0.017
G1 X136.123 Y102.953 E0.017
G1 X135.987 Y102.314 E0.016
G1 X135.804 Y101.656 E0.017
G1 X135.582 Y101.009 E0.017
G1 X135.31 Y100.351 E0.018
G1 X135.024 Y99.762 E0.016
G1 X134.69 Y99.167 E0.017
G1 X134.302 Y98.566 E0.018
G1 X133.896 Y98.016 E0.017
G1 X133.458 Y97.491 E0.017
;rapid-leaky
G0 X133.988 Y97.355 F7200
;bead-perimeter_outer
G1 X134.414 Y97.886 F1800 E0.017
G1 X134.791 Y98.414 E0.016
G1 X135.17 Y99.016 E0.018
G1 X135.483 Y99.584 E0.016
G1 X135.79 Y100.225 E0.018
G1 X136.048 Y100.855 E0.017
G1 X136.259 Y101.469 E0.016
G1 X136.452 Y102.152 E0.018
G1 X136.596 Y102.817 E0.017
G1 X136.703 Y103.489 E0.017
G1 X136.768 Y104.135 E0.016
G1 X136.799 Y104.846 E0.018
G1 X136.788 Y105.525 E0.017
G1 X136.738 Y106.203 E0.017
G1 X136.654 Y106.848 E0.016
G1 X136.529 Y107.516 E0.017
G1 X136.356 Y108.206 E0.018
G1 X136.153 Y108.855 E0.017
G1 X135.924 Y109.462 E0.016
G1 X135.648 Y110.084 E0.017
G1 X135.338 Y110.688 E0.017
G1 X134.977 Y111.301 E0.017
G1 X134.597 Y111.865 E0.017
G1 X134.185 Y112.406 E0.017
G1 X133.764 Y112.901 E0.017
G1 X133.273 Y113.415 E0.017
G1 X132.797 Y113.857 E0.016
G1 X132.25 Y114.309 E0.018
G1 X131.701 Y114.712 E0.017
G1 X131.131 Y115.082 E0.017
G1 X130.567 Y115.405 E0.016
G1 X129.958 Y115.707 E0.017
G1 X129.332 Y115.975 E0.017
G1 X128.693 Y116.207 E0.017
G1 X128.012 Y116.41 E0.018
G1 X127.38 Y116.558 E0.016
G1 X126.709 Y116.676 E0.017
G1 X126.004 Y116.757 E0.018
G1 X125.324 Y116.795 E0.017
G1 X124.676 E0.016
G1 X123.996 Y116.757 E0.017
G1 X123.32 Y116.68 E0.017
G1 X122.62 Y116.558 E0.018
G1 X121.988 Y116.41 E0.016
G1 X121.336 Y116.217 E0.017
G1 X120.667 Y115.975 E0.018
G1 X120.07 Y115.72 E0.016
G1 X119.433 Y115.404 E0.018
G1 X118.869 Y115.082 E0.016
G1 X118.299 Y114.712 E0.017
G1 X117.75 Y114.309 E0.017
G1 X117.226 Y113.877 E0.017
G1 X116.706 Y113.393 E0.017
G1 X116.237 Y112.901 E0.017
G1 X115.795 Y112.383 E0.017
G1 X115.403 Y111.866 E0.016
G1 X115.023 Y111.301 E0.017
G1 X114.662 Y110.688 E0.018
G1 X114.365 Y110.112 E0.016
G1 X114.076 Y109.462 E0.018
G1 X113.847 Y108.855 E0.016
G1 X113.644 Y108.206 E0.017
G1 X113.471 Y107.516 E0.018
G1 X113.351 Y106.877 E0.016
G1 X113.259 Y106.173 E0.018
G1 X113.212 Y105.525 E0.016
G1 X113.201 Y104.814 E0.018
G1 X113.232 Y104.136 E0.017
G1 X113.297 Y103.489 E0.016
G1 X113.404 Y102.817 E0.017
G1 X113.548 Y102.152 E0.017
G1 X113.741 Y101.469 E0.018
G1 X113.952 Y100.855 E0.016
G1 X114.21 Y100.225 E0.017
G1 X114.517 Y99.584 E0.018
G1 X114.83 Y99.016 E0.016
G1 X115.209 Y98.414 E0.017
G1 X115.605 Y97.861 E0.017
G1 X116.032 Y97.331 E0.017
G1 X116.488 Y96.828 E0.017
G1 X116.973 Y96.352 E0.017
G1 X117.486 Y95.902 E0.017
G1 X117.998 Y95.503 E0.017
G1 X118.581 Y95.099 E0.017
G1 X119.136 Y94.761 E0.016
G1 X119.735 Y94.44 E0.017
G1 X120.353 Y94.154 E0.017
G1 X120.985 Y93.904 E0.017
G1 X121.661 Y93.683 E0.018
G1 X122.289 Y93.517 E0.016
G1 X122.955 Y93.379 E0.017
G1 X123.658 Y93.277 E0.018
G1 X124.335 Y93.219 E0.017
G1 X124.984 Y93.2 E0.016
G1 X125.665 Y93.219 E0.017
G1 X126.342 Y93.277 E0.017
G1 X127.045 Y93.379 E0.018
G1 X127.711 Y93.517 E0.017
G1 X128.339 Y93.683 E0.016
G1 X129.015 Y93.904 E0.018
G1 X129.647 Y94.154 E0.017
G1 X130.265 Y94.44 E0.017
G1 X130.864 Y94.761 E0.017
G1 X131.418 Y95.099 E0.016
G1 X132.003 Y95.503 E0.017
G1 X132.514 Y95.902 E0.017
G1 X133.027 Y96.352 E0.017
G1 X133.512 Y96.828 E0.017
G1 X133.988 Y97.355 E0.017
;rapid-leaky
G0 X133.713 Y97.588 F7200
;bead-perimeter_inner
G1 X134.126 Y98.103 F2400 E0.017
G1 X134.492 Y98.614 E0.015
G1 X134.859 Y99.199 E0.018
G1 X135.163 Y99.748 E0.015
G1 X135.461 Y100.371 E0.018
G1 X135.711 Y100.982 E0.016
G1 X135.915 Y101.576 E0.016
G1 X136.102 Y102.24 E0.017
G1 X136.242 Y102.883 E0.016
G1 X136.345 Y103.535 E0.017
G1 X136.409 Y104.161 E0.016
G1 X136.439 Y104.851 E0.017
G1 X136.428 Y105.509 E0.016
G1 X136.38 Y106.166 E0.017
G1 X136.299 Y106.791 E0.015
G1 X136.177 Y107.439 E0.017
G1 X136.01 Y108.108 E0.017
G1 X135.812 Y108.737 E0.016
G1 X135.591 Y109.326 E0.016
G1 X135.324 Y109.928 E0.017
G1 X135.022 Y110.515 E0.016
G1 X134.672 Y111.109 E0.017
G1 X134.305 Y111.656 E0.017
G1 X133.905 Y112.18 E0.016
G1 X133.496 Y112.66 E0.016
G1 X133.02 Y113.158 E0.017
G1 X132.56 Y113.586 E0.016
G1 X132.028 Y114.025 E0.017
G1 X131.497 Y114.416 E0.016
G1 X130.944 Y114.775 E0.017
G1 X130.397 Y115.087 E0.015
G1 X129.807 Y115.38 E0.017
G1 X129.2 Y115.64 E0.016
G1 X128.581 Y115.865 E0.017
G1 X127.919 Y116.062 E0.017
G1 X127.307 Y116.205 E0.016
G1 X126.658 Y116.32 E0.016
G1 X125.973 Y116.398 E0.017
G1 X125.314 Y116.435 E0.017
G1 X124.686 E0.015
G1 X124.026 Y116.398 E0.017
G1 X123.372 Y116.323 E0.016
G1 X122.692 Y116.205 E0.018
G1 X122.081 Y116.061 E0.015
G1 X121.449 Y115.875 E0.017
G1 X120.799 Y115.64 E0.017
G1 X120.22 Y115.393 E0.016
G1 X119.603 Y115.087 E0.017
G1 X119.056 Y114.775 E0.016
G1 X118.503 Y114.416 E0.016
G1 X117.971 Y114.025 E0.016
G1 X117.463 Y113.606 E0.017
G1 X116.959 Y113.136 E0.017
G1 X116.504 Y112.66 E0.016
G1 X116.076 Y112.157 E0.017
G1 X115.696 Y111.656 E0.016
G1 X115.328 Y111.109 E0.016
G1 X114.978 Y110.515 E0.017
G1 X114.69 Y109.956 E0.016
G1 X114.409 Y109.325 E0.017
G1 X114.188 Y108.737 E0.016
G1 X113.99 Y108.108 E0.016
G1 X113.823 Y107.439 E0.018
G1 X113.706 Y106.821 E0.015
G1 X113.617 Y106.137 E0.017
G1 X113.572 Y105.509 E0.016
G1 X113.561 Y104.819 E0.017
G1 X113.591 Y104.162 E0.017
G1 X113.655 Y103.535 E0.015
G1 X113.758 Y102.883 E0.017
G1 X113.898 Y102.24 E0.016
G1 X114.085 Y101.576 E0.018
G1 X114.289 Y100.982 E0.015
G1 X114.539 Y100.371 E0.017
G1 X114.837 Y99.748 E0.017
G1 X115.141 Y99.199 E0.016
G1 X115.508 Y98.615 E0.017
G1 X115.892 Y98.079 E0.016
G1 X116.306 Y97.565 E0.017
G1 X116.748 Y97.077 E0.016
G1 X117.218 Y96.616 E0.017
G1 X117.715 Y96.18 E0.016
G1 X118.211 Y95.793 E0.016
G1 X118.777 Y95.401 E0.017
G1 X119.315 Y95.073 E0.016
G1 X119.896 Y94.762 E0.016
G1 X120.495 Y94.485 E0.017
G1 X121.107 Y94.243 E0.016
G1 X121.763 Y94.028 E0.017
G1 X122.371 Y93.867 E0.016
G1 X123.017 Y93.734 E0.016
G1 X123.699 Y93.635 E0.018
G1 X124.356 Y93.578 E0.016
G1 X124.984 Y93.56 E0.016
G1 X125.644 Y93.578 E0.016
G1 X126.301 Y93.635 E0.017
G1 X126.983 Y93.734 E0.017
G1 X127.629 Y93.867 E0.016
G1 X128.237 Y94.028 E0.016
G1 X128.893 Y94.243 E0.017
G1 X129.505 Y94.485 E0.017
G1 X130.104 Y94.762 E0.016
G1 X130.685 Y95.073 E0.016
G1 X131.222 Y95.401 E0.016
G1 X131.789 Y95.793 E0.017
G1 X132.285 Y96.18 E0.016
G1 X132.782 Y96.616 E0.016
G1 X133.252 Y97.077 E0.017
G1 X133.713 Y97.588 E0.017
G1 F2100 E-0.5
;rapid-dry
G0 X118.507 Y97.166 F7200
G1 F2100 E0.5
;bead-support
G1 X121.469 Y95.456 F3300 E0.085
G1 X121.985 Y95.277 E0.014
G1 X122.576 Y95.113 E0.015
G1 X123.15 Y94.99 E0.015
G1 X123.786 Y94.893 E0.016
G1 X124.399 Y94.838 E0.015
G1 X125.015 Y94.82 E0.016
G1 X125.601 Y94.838 E0.014
G1 X126.214 Y94.893 E0.016
G1 X126.85 Y94.99 E0.016
G1 X127.404 Y95.109 E0.014
G1 X115.236 Y102.134 E0.35
G1 X115.111 Y102.583 E0.012
G1 X114.989 Y103.157 E0.015
G1 X114.895 Y103.765 E0.015
G1 X114.839 Y104.377 E0.015
G1 X114.82 Y105.021 E0.016
G1 X114.834 Y105.445 E0.011
G1 X121.684 Y101.49 E0.197
G1 X121.704 Y101.468 E0.001
G1 X122.423 Y100.913 E0.023
G1 X123.228 Y100.505 E0.022
G1 X123.552 Y100.412 E0.009
G1 X130.469 Y96.418 E0.199
G1 X130.773 Y96.615 E0.009
G1 X131.292 Y96.997 E0.016
G1 X131.763 Y97.392 E0.015
G1 X132.211 Y97.815 E0.016
G1 X132.612 Y98.241 E0.014
G1 X132.623 Y98.254 E0.001
G1 X127.765 Y101.058 E0.14
G1 X128.296 Y101.468 E0.016
G1 X128.902 Y102.151 E0.023
G1 X129.448 Y103.166 E0.029
G1 X134.113 Y100.473 E0.134
G1 X134.279 Y100.814 E0.01
G1 X134.525 Y101.409 E0.016
G1 X134.724 Y101.991 E0.015
G1 X134.889 Y102.583 E0.015
G1 X134.988 Y103.047 E0.012
G1 X129.695 Y106.103 E0.153
G1 X129.452 Y106.876 E0.02
G1 X129.024 Y107.675 E0.023
G1 X128.458 Y108.375 E0.022
G1 X127.757 Y108.968 E0.023
G1 X126.568 Y109.572 E0.033
G1 X125.675 Y109.784 E0.023
G1 X124.772 Y109.826 E0.023
G1 X123.88 Y109.7 E0.022
G1 X123.619 Y109.611 E0.007
G1 X118.314 Y112.673 E0.153
G1 X118.246 Y112.617 E0.002
G1 X117.799 Y112.195 E0.015
G1 X117.378 Y111.748 E0.016
G1 X116.984 Y111.275 E0.015
G1 X116.619 Y110.779 E0.015
G1 X116.522 Y110.629 E0.005
G1 X121.187 Y107.935 E0.134
G1 X120.976 Y107.675 E0.009
G1 X120.548 Y106.876 E0.022
G1 X120.276 Y106.008 E0.023
G1 X120.207 Y105.422 E0.015
G1 X115.35 Y108.226 E0.139
G1 F2100 E-0.5
G0 X116.216 Y107.726 F2400
G0 X115.35 Y108.226 F2400
;rapid-leaky
G0 X120.844 Y114.292 F7200
G1 F2100 E0.5
;bead-support
G1 X135.121 Y106.049 F3300 E0.412
G1 X135.103 Y106.249 E0.005
G1 X135.014 Y106.829 E0.014
G1 X134.878 Y107.458 E0.016
G1 X134.721 Y108.022 E0.015
G1 X134.52 Y108.605 E0.015
G1 X134.273 Y109.2 E0.016
G1 X134.016 Y109.725 E0.015
G1 X133.982 Y109.786 E0.002
G1 X124.658 Y115.169 E0.268
G1 F2100 E-0.5
G0 X125.524 Y114.669 F2400
G0 X124.658 Y115.169 F2400
;LAYER:4
M106 S255
;rapid-leaky
G0 X124.659 Y115.168 Z0.65 F7200
G1 F2100 E0.5
;bead-support
G1 X133.983 Y109.785 F3300 E0.269
G1 X134.017 Y109.725 E0.002
G1 X134.286 Y109.171 E0.015
G1 X134.521 Y108.603 E0.015
G1 X134.721 Y108.02 E0.016
G1 X134.877 Y107.465 E0.014
G1 X135.015 Y106.826 E0.016
G1 X135.107 Y106.219 E0.016
G1 X135.122 Y106.048 E0.004
G1 X120.844 Y114.292 E0.411
G1 F2100 E-0.5
G0 X121.71 Y113.792 F2400
G0 X120.844 Y114.292 F2400
;rapid-dry
G0 X118.243 Y113.616 F7200
G1 F2100 E0.5
;bead-perimeter_outer
G1 X118.776 Y114.01 F1800 E0.017
G1 X119.332 Y114.369 E0.016
G1 X119.908 Y114.695 E0.017
G1 X120.504 Y114.985 E0.016
G1 X121.115 Y115.237 E0.017
G1 X121.74 Y115.453 E0.016
G1 X122.378 Y115.632 E0.017
G1 X123.025 Y115.771 E0.016
G1 X123.679 Y115.871 E0.017
G1 X124.339 Y115.93 E0.016
G1 X125.039 Y115.949 E0.018
G1 X125.661 Y115.93 E0.015
G1 X126.321 Y115.871 E0.017
G1 X126.975 Y115.771 E0.016
G1 X127.622 Y115.632 E0.017
G1 X128.26 Y115.453 E0.016
G1 X128.885 Y115.237 E0.017
G1 X129.46 Y115 E0.015
G1 X130.092 Y114.695 E0.018
G1 X130.668 Y114.369 E0.016
G1 X131.224 Y114.01 E0.017
G1 X131.757 Y113.616 E0.016
G1 X132.265 Y113.193 E0.017
G1 X132.745 Y112.74 E0.016
G1 X133.173 Y112.287 E0.016
G1 X133.622 Y111.75 E0.017
G1 X134.015 Y111.216 E0.017
G1 X134.353 Y110.693 E0.016
G1 X134.699 Y110.083 E0.017
G1 X134.989 Y109.487 E0.017
G1 X135.241 Y108.876 E0.016
G1 X135.456 Y108.25 E0.017
G1 X135.624 Y107.651 E0.015
G1 X135.773 Y106.965 E0.018
G1 X135.872 Y106.311 E0.016
G1 X135.931 Y105.652 E0.017
G1 X135.95 Y104.99 E0.016
G1 X135.929 Y104.329 E0.017
G1 X135.87 Y103.67 E0.016
G1 X135.769 Y103.015 E0.017
G1 X135.638 Y102.406 E0.015
G1 X135.45 Y101.731 E0.018
G1 X135.234 Y101.106 E0.016
G1 X134.98 Y100.495 E0.017
G1 X134.69 Y99.9 E0.016
G1 X134.384 Y99.359 E0.016
G1 X134.004 Y98.768 E0.017
G1 X133.61 Y98.235 E0.017
G1 X133.186 Y97.727 E0.016
G1 X132.732 Y97.247 E0.017
G1 X132.28 Y96.82 E0.015
G1 X131.741 Y96.371 E0.018
G1 X131.208 Y95.979 E0.016
G1 X130.685 Y95.641 E0.016
G1 X130.074 Y95.297 E0.017
G1 X129.478 Y95.007 E0.017
G1 X128.867 Y94.756 E0.016
G1 X128.241 Y94.541 E0.017
G1 X127.641 Y94.373 E0.015
G1 X126.994 Y94.233 E0.017
G1 X126.34 Y94.132 E0.016
G1 X125.642 Y94.069 E0.018
G1 X124.98 Y94.05 E0.016
G1 X124.358 Y94.069 E0.016
G1 X123.699 Y94.127 E0.016
G1 X123.006 Y94.233 E0.018
G1 X122.359 Y94.373 E0.016
G1 X121.759 Y94.541 E0.016
G1 X121.133 Y94.756 E0.016
G1 X120.522 Y95.007 E0.017
G1 X119.891 Y95.315 E0.017
G1 X119.315 Y95.641 E0.017
G1 X118.792 Y95.979 E0.015
G1 X118.259 Y96.371 E0.017
G1 X117.749 Y96.794 E0.016
G1 X117.268 Y97.247 E0.017
G1 X116.814 Y97.727 E0.016
G1 X116.39 Y98.236 E0.017
G1 X115.974 Y98.8 E0.017
G1 X115.636 Y99.324 E0.016
G1 X115.31 Y99.9 E0.017
G1 X115.02 Y100.495 E0.016
G1 X114.766 Y101.106 E0.017
G1 X114.538 Y101.769 E0.017
G1 X114.371 Y102.368 E0.016
G1 X114.231 Y103.015 E0.016
G1 X114.126 Y103.709 E0.018
G1 X114.071 Y104.329 E0.015
G1 X114.05 Y104.99 E0.017
G1 X114.069 Y105.652 E0.016
G1 X114.128 Y106.311 E0.017
G1 X114.235 Y107.004 E0.017
G1 X114.366 Y107.613 E0.016
G1 X114.544 Y108.249 E0.016
G1 X114.759 Y108.876 E0.017
G1 X115.012 Y109.487 E0.016
G1 X115.32 Y110.117 E0.018
G1 X115.626 Y110.659 E0.015
G1 X115.985 Y111.216 E0.017
G1 X116.377 Y111.749 E0.016
G1 X116.8 Y112.258 E0.017
G1 X117.255 Y112.74 E0.016
G1 X117.735 Y113.193 E0.017
G1 X118.243 Y113.616 E0.016
;rapid-leaky
G0 X118.021 Y113.9 F7200
;bead-perimeter_inner
G1 X118.571 Y114.306 F2400 E0.017
G1 X119.146 Y114.677 E0.017
G1 X119.74 Y115.014 E0.017
G1 X120.357 Y115.313 E0.017
G1 X120.987 Y115.574 E0.017
G1 X121.633 Y115.797 E0.018
G1 X122.291 Y115.982 E0.017
G1 X122.96 Y116.125 E0.017
G1 X123.636 Y116.228 E0.017
G1 X124.318 Y116.289 E0.017
G1 X125.04 Y116.309 E0.018
G1 X125.683 Y116.289 E0.016
G1 X126.364 Y116.228 E0.017
G1 X127.04 Y116.125 E0.017
G1 X127.709 Y115.982 E0.017
G1 X128.367 Y115.797 E0.017
G1 X129.012 Y115.574 E0.017
G1 X129.607 Y115.328 E0.016
G1 X130.259 Y115.014 E0.018
G1 X130.854 Y114.677 E0.017
G1 X131.429 Y114.306 E0.017
G1 X131.979 Y113.9 E0.017
G1 X132.504 Y113.462 E0.017
G1 X133 Y112.994 E0.017
G1 X133.442 Y112.526 E0.017
G1 X133.906 Y111.972 E0.018
G1 X134.311 Y111.42 E0.017
G1 X134.661 Y110.88 E0.016
G1 X135.018 Y110.251 E0.018
G1 X135.317 Y109.634 E0.017
G1 X135.578 Y109.003 E0.017
G1 X135.8 Y108.357 E0.017
G1 X135.974 Y107.738 E0.016
G1 X136.127 Y107.03 E0.018
G1 X136.229 Y106.354 E0.017
G1 X136.29 Y105.673 E0.017
G1 X136.31 Y104.989 E0.017
G1 X136.288 Y104.307 E0.017
G1 X136.227 Y103.626 E0.017
G1 X136.123 Y102.95 E0.017
G1 X135.988 Y102.32 E0.016
G1 X135.794 Y101.624 E0.018
G1 X135.571 Y100.978 E0.017
G1 X135.309 Y100.347 E0.018
G1 X135.009 Y99.732 E0.017
G1 X134.693 Y99.172 E0.016
G1 X134.3 Y98.564 E0.018
G1 X133.894 Y98.013 E0.017
G1 X133.455 Y97.488 E0.017
G1 X132.987 Y96.993 E0.017
G1 X132.519 Y96.551 E0.016
G1 X131.963 Y96.088 E0.018
G1 X131.412 Y95.683 E0.017
G1 X130.871 Y95.333 E0.016
G1 X130.241 Y94.978 E0.018
G1 X129.625 Y94.679 E0.017
G1 X128.994 Y94.419 E0.017
G1 X128.348 Y94.197 E0.017
G1 X127.728 Y94.023 E0.016
G1 X127.06 Y93.879 E0.017
G1 X126.384 Y93.775 E0.017
G1 X125.663 Y93.71 E0.018
G1 X124.979 Y93.69 E0.018
G1 X124.337 Y93.71 E0.016
G1 X123.656 Y93.77 E0.017
G1 X122.941 Y93.879 E0.018
G1 X122.272 Y94.023 E0.017
G1 X121.652 Y94.197 E0.016
G1 X121.006 Y94.419 E0.017
G1 X120.375 Y94.679 E0.017
G1 X119.723 Y94.996 E0.018
G1 X119.129 Y95.333 E0.017
G1 X118.588 Y95.683 E0.016
G1 X118.037 Y96.088 E0.017
G1 X117.511 Y96.524 E0.017
G1 X117.013 Y96.992 E0.017
G1 X116.545 Y97.488 E0.017
G1 X116.106 Y98.013 E0.017
G1 X115.678 Y98.596 E0.018
G1 X115.328 Y99.138 E0.016
G1 X114.991 Y99.732 E0.017
G1 X114.691 Y100.347 E0.017
G1 X114.429 Y100.978 E0.018
G1 X114.194 Y101.662 E0.018
G1 X114.021 Y102.282 E0.016
G1 X113.877 Y102.95 E0.017
G1 X113.769 Y103.666 E0.018
G1 X113.712 Y104.307 E0.016
G1 X113.69 Y104.989 E0.017
G1 X113.71 Y105.673 E0.017
G1 X113.771 Y106.355 E0.017
G1 X113.881 Y107.069 E0.018
G1 X114.016 Y107.699 E0.016
G1 X114.2 Y108.356 E0.017
G1 X114.422 Y109.003 E0.017
G1 X114.683 Y109.635 E0.017
G1 X115.001 Y110.285 E0.018
G1 X115.318 Y110.845 E0.016
G1 X115.689 Y111.42 E0.017
G1 X116.094 Y111.971 E0.017
G1 X116.531 Y112.496 E0.017
G1 X117 Y112.994 E0.018
G1 X117.496 Y113.462 E0.017
G1 X118.021 Y113.9 E0.017
;rapid-leaky
G0 X117.755 Y114.313 F7200
;bead-perimeter_outer
G1 X117.199 Y113.853 F1800 E0.018
G1 X116.702 Y113.389 E0.017
G1 X116.26 Y112.928 E0.016
G1 X115.792 Y112.379 E0.018
G1 X115.406 Y111.87 E0.015
G1 X115.026 Y111.305 E0.017
G1 X114.679 Y110.72 E0.017
G1 X114.35 Y110.079 E0.018
G1 X114.074 Y109.457 E0.017
G1 X113.849 Y108.859 E0.016
G1 X113.646 Y108.211 E0.017
G1 X113.479 Y107.551 E0.017
G1 X113.345 Y106.842 E0.018
G1 X113.262 Y106.209 E0.016
G1 X113.21 Y105.489 E0.018
G1 X113.201 Y104.851 E0.016
G1 X113.23 Y104.171 E0.017
G1 X113.302 Y103.454 E0.018
G1 X113.403 Y102.822 E0.016
G1 X113.547 Y102.157 E0.017
G1 X113.742 Y101.464 E0.018
G1 X113.95 Y100.86 E0.016
G1 X114.208 Y100.23 E0.017
G1 X114.501 Y99.616 E0.017
G1 X114.828 Y99.019 E0.017
G1 X115.212 Y98.41 E0.018
G1 X115.608 Y97.857 E0.017
G1 X116.036 Y97.327 E0.017
G1 X116.464 Y96.853 E0.016
G1 X116.947 Y96.375 E0.017
G1 X117.489 Y95.899 E0.018
G1 X118.026 Y95.482 E0.017
G1 X118.586 Y95.096 E0.016
G1 X119.167 Y94.743 E0.017
G1 X119.731 Y94.442 E0.016
G1 X120.385 Y94.14 E0.018
G1 X121.02 Y93.892 E0.017
G1 X121.666 Y93.681 E0.017
G1 X122.284 Y93.518 E0.016
G1 X122.989 Y93.373 E0.018
G1 X123.664 Y93.277 E0.017
G1 X124.3 Y93.222 E0.016
G1 X125.021 Y93.2 E0.018
G1 X125.659 Y93.219 E0.016
G1 X126.336 Y93.277 E0.017
G1 X127.05 Y93.38 E0.018
G1 X127.716 Y93.518 E0.017
G1 X128.374 Y93.693 E0.017
G1 X129.019 Y93.906 E0.017
G1 X129.652 Y94.156 E0.017
G1 X130.269 Y94.442 E0.017
G1 X130.833 Y94.743 E0.016
G1 X131.414 Y95.096 E0.017
G1 X131.974 Y95.482 E0.017
G1 X132.542 Y95.925 E0.018
G1 X133.052 Y96.375 E0.017
G1 X133.536 Y96.853 E0.017
G1 X133.964 Y97.327 E0.016
G1 X134.392 Y97.857 E0.017
G1 X134.811 Y98.444 E0.018
G1 X135.151 Y98.984 E0.015
G1 X135.499 Y99.616 E0.018
G1 X135.792 Y100.23 E0.017
G1 X136.05 Y100.86 E0.017
G1 X136.258 Y101.464 E0.016
G1 X136.443 Y102.118 E0.017
G1 X136.597 Y102.822 E0.018
G1 X136.698 Y103.454 E0.016
G1 X136.767 Y104.13 E0.017
G1 X136.799 Y104.851 E0.018
G1 X136.79 Y105.489 E0.016
G1 X136.738 Y106.209 E0.018
G1 X136.655 Y106.843 E0.016
G1 X136.53 Y107.511 E0.017
G1 X136.354 Y108.211 E0.018
G1 X136.151 Y108.859 E0.017
G1 X135.926 Y109.457 E0.016
G1 X135.633 Y110.117 E0.018
G1 X135.341 Y110.684 E0.016
G1 X134.974 Y111.305 E0.018
G1 X134.594 Y111.87 E0.017
G1 X134.208 Y112.379 E0.016
G1 X133.767 Y112.897 E0.017
G1 X133.298 Y113.389 E0.017
G1 X132.801 Y113.853 E0.017
G1 X132.245 Y114.313 E0.018
G1 X131.697 Y114.715 E0.017
G1 X131.126 Y115.085 E0.017
G1 X130.571 Y115.402 E0.016
G1 X129.963 Y115.705 E0.016
G1 X129.337 Y115.973 E0.017
G1 X128.698 Y116.205 E0.017
G1 X128.007 Y116.411 E0.018
G1 X127.385 Y116.557 E0.016
G1 X126.673 Y116.681 E0.018
G1 X126.04 Y116.754 E0.016
G1 X125.361 Y116.794 E0.017
G1 X124.639 E0.018
G1 X123.96 Y116.754 E0.017
G1 X123.327 Y116.681 E0.016
G1 X122.615 Y116.557 E0.018
G1 X121.993 Y116.411 E0.016
G1 X121.302 Y116.205 E0.018
G1 X120.662 Y115.973 E0.017
G1 X120.037 Y115.705 E0.017
G1 X119.429 Y115.402 E0.017
G1 X118.874 Y115.085 E0.016
G1 X118.269 Y114.691 E0.018
G1 X117.755 Y114.313 E0.016
;rapid-leaky
G0 X117.977 Y114.03 F7200
;bead-perimeter_inner
G1 X117.437 Y113.582 F2400 E0.017
G1 X116.955 Y113.132 E0.017
G1 X116.528 Y112.686 E0.015
G1 X116.072 Y112.153 E0.018
G1 X115.699 Y111.66 E0.015
G1 X115.331 Y111.113 E0.017
G1 X114.994 Y110.546 E0.016
G1 X114.674 Y109.923 E0.017
G1 X114.408 Y109.321 E0.017
G1 X114.19 Y108.741 E0.015
G1 X113.992 Y108.113 E0.017
G1 X113.831 Y107.473 E0.016
G1 X113.7 Y106.785 E0.018
G1 X113.62 Y106.173 E0.015
G1 X113.57 Y105.474 E0.018
G1 X113.561 Y104.856 E0.015
G1 X113.589 Y104.197 E0.016
G1 X113.66 Y103.5 E0.018
G1 X113.757 Y102.888 E0.015
G1 X113.897 Y102.244 E0.017
G1 X114.086 Y101.571 E0.017
G1 X114.287 Y100.986 E0.016
G1 X114.537 Y100.376 E0.016
G1 X114.822 Y99.781 E0.017
G1 X115.139 Y99.202 E0.016
G1 X115.511 Y98.611 E0.017
G1 X115.895 Y98.075 E0.017
G1 X116.31 Y97.561 E0.016
G1 X116.724 Y97.102 E0.016
G1 X117.193 Y96.639 E0.016
G1 X117.719 Y96.177 E0.018
G1 X118.239 Y95.773 E0.016
G1 X118.782 Y95.398 E0.017
G1 X119.345 Y95.056 E0.016
G1 X119.891 Y94.765 E0.015
G1 X120.526 Y94.471 E0.018
G1 X121.141 Y94.231 E0.016
G1 X121.768 Y94.026 E0.017
G1 X122.366 Y93.868 E0.015
G1 X123.051 Y93.728 E0.018
G1 X123.705 Y93.635 E0.016
G1 X124.321 Y93.581 E0.016
G1 X125.021 Y93.56 E0.017
G1 X125.638 Y93.578 E0.015
G1 X126.295 Y93.635 E0.017
G1 X126.988 Y93.735 E0.017
G1 X127.633 Y93.868 E0.017
G1 X128.271 Y94.038 E0.016
G1 X128.896 Y94.245 E0.017
G1 X129.51 Y94.487 E0.016
G1 X130.108 Y94.764 E0.017
G1 X130.655 Y95.056 E0.015
G1 X131.218 Y95.398 E0.016
G1 X131.761 Y95.773 E0.017
G1 X132.312 Y96.202 E0.017
G1 X132.807 Y96.638 E0.017
G1 X133.276 Y97.102 E0.016
G1 X133.69 Y97.561 E0.016
G1 X134.105 Y98.075 E0.016
G1 X134.512 Y98.644 E0.018
G1 X134.84 Y99.166 E0.015
G1 X135.179 Y99.781 E0.018
G1 X135.463 Y100.376 E0.016
G1 X135.713 Y100.986 E0.016
G1 X135.914 Y101.572 E0.016
G1 X136.094 Y102.205 E0.016
G1 X136.243 Y102.889 E0.018
G1 X136.341 Y103.501 E0.015
G1 X136.408 Y104.156 E0.017
G1 X136.439 Y104.856 E0.017
G1 X136.43 Y105.474 E0.016
G1 X136.38 Y106.173 E0.017
G1 X136.3 Y106.786 E0.015
G1 X136.178 Y107.434 E0.017
G1 X136.008 Y108.113 E0.017
G1 X135.81 Y108.741 E0.017
G1 X135.593 Y109.32 E0.015
G1 X135.308 Y109.961 E0.018
G1 X135.025 Y110.51 E0.015
G1 X134.669 Y111.113 E0.018
G1 X134.301 Y111.66 E0.016
G1 X133.927 Y112.153 E0.015
G1 X133.5 Y112.656 E0.017
G1 X133.045 Y113.133 E0.016
G1 X132.563 Y113.582 E0.017
G1 X132.023 Y114.029 E0.017
G1 X131.493 Y114.419 E0.017
G1 X130.939 Y114.777 E0.016
G1 X130.401 Y115.084 E0.016
G1 X129.811 Y115.379 E0.016
G1 X129.205 Y115.638 E0.016
G1 X128.585 Y115.863 E0.017
G1 X127.914 Y116.063 E0.017
G1 X127.313 Y116.204 E0.016
G1 X126.622 Y116.325 E0.017
G1 X126.008 Y116.395 E0.016
G1 X125.35 Y116.434 E0.016
G1 X124.65 E0.018
G1 X123.992 Y116.395 E0.016
G1 X123.378 Y116.325 E0.015
G1 X122.687 Y116.204 E0.018
G1 X122.086 Y116.063 E0.015
G1 X121.415 Y115.863 E0.018
G1 X120.795 Y115.638 E0.016
G1 X120.189 Y115.379 E0.017
G1 X119.599 Y115.084 E0.016
G1 X119.062 Y114.778 E0.016
G1 X118.474 Y114.395 E0.017
G1 X117.977 Y114.03 E0.016
G1 F2100 E-0.5
;rapid-dry
G0 X115.35 Y108.226 F7200
G1 F2100 E0.5
;bead-support
G1 X120.207 Y105.422 F3300 E0.139
G1 X120.276 Y106.008 E0.015
G1 X120.548 Y106.876 E0.023
G1 X120.976 Y107.675 E0.022
G1 X121.187 Y107.935 E0.009
G1 X116.523 Y110.628 E0.134
G1 X116.62 Y110.778 E0.005
G1 X116.984 Y111.275 E0.015
G1 X117.377 Y111.747 E0.015
G1 X117.799 Y112.195 E0.016
G1 X118.246 Y112.616 E0.015
G1 X118.314 Y112.673 E0.002
G1 X123.619 Y109.611 E0.153
G1 X123.88 Y109.7 E0.007
G1 X124.772 Y109.826 E0.022
G1 X125.675 Y109.784 E0.023
G1 X126.568 Y109.572 E0.023
G1 X127.757 Y108.968 E0.033
G1 X128.458 Y108.375 E0.023
G1 X129.024 Y107.675 E0.022
G1 X129.452 Y106.876 E0.023
G1 X129.695 Y106.103 E0.02
G1 X134.988 Y103.047 E0.153
G1 X134.89 Y102.59 E0.011
G1 X134.715 Y101.961 E0.017
G1 X134.514 Y101.379 E0.015
G1 X134.278 Y100.811 E0.015
G1 X134.113 Y100.473 E0.01
G1 X129.448 Y103.166 E0.134
G1 X128.902 Y102.151 E0.029
G1 X128.296 Y101.468 E0.023
G1 X127.765 Y101.058 E0.016
G1 X132.622 Y98.254 E0.14
G1 X132.61 Y98.239 E0.001
G1 X132.188 Y97.792 E0.015
G1 X131.769 Y97.397 E0.014
G1 X131.266 Y96.978 E0.017
G1 X130.77 Y96.613 E0.015
G1 X130.469 Y96.418 E0.009
G1 X123.552 Y100.412 E0.199
G1 X123.228 Y100.505 E0.009
G1 X122.423 Y100.913 E0.022
G1 X121.704 Y101.468 E0.023
G1 X121.684 Y101.49 E0.001
G1 X114.834 Y105.445 E0.197
G1 X114.82 Y104.991 E0.011
G1 X114.84 Y104.375 E0.016
G1 X114.891 Y103.801 E0.014
G1 X114.989 Y103.154 E0.016
G1 X115.119 Y102.553 E0.016
G1 X115.235 Y102.134 E0.011
G1 X127.403 Y95.109 E0.35
G1 X126.854 Y94.991 E0.014
G1 X126.247 Y94.897 E0.015
G1 X125.596 Y94.838 E0.017
G1 X124.981 Y94.82 E0.015
G1 X124.404 Y94.838 E0.014
G1 X123.791 Y94.892 E0.016
G1 X123.145 Y94.991 E0.016
G1 X122.544 Y95.121 E0.015
G1 X121.989 Y95.276 E0.015
G1 X121.474 Y95.453 E0.013
G1 X118.507 Y97.166 E0.086
G1 F2100 E-0.5
G0 X119.373 Y96.666 F2400
G0 X118.507 Y97.166 F2400
;LAYER:5
;rapid-leaky
G0 Z0.8 F7200
G1 F2100 E0.5
;bead-support
G1 X121.469 Y95.456 F3300 E0.085
G1 X121.947 Y95.289 E0.013
G1 X122.585 Y95.111 E0.016
G1 X123.186 Y94.983 E0.016
G1 X123.795 Y94.892 E0.015
G1 X124.409 Y94.838 E0.015
G1 X124.975 Y94.82 E0.014
G1 X125.639 Y94.841 E0.017
G1 X126.204 Y94.892 E0.014
G1 X126.813 Y94.983 E0.016
G1 X127.402 Y95.11 E0.015
G1 X115.236 Y102.134 E0.35
G1 X115.108 Y102.596 E0.012
G1 X114.99 Y103.151 E0.014
G1 X114.89 Y103.808 E0.017
G1 X114.84 Y104.372 E0.014
G1 X114.82 Y104.989 E0.015
G1 X114.834 Y105.445 E0.012
G1 X121.684 Y101.49 E0.197
G1 X121.704 Y101.468 E0.001
G1 X122.423 Y100.913 E0.022
G1 X123.228 Y100.505 E0.023
G1 X123.552 Y100.412 E0.008
G1 X130.468 Y96.418 E0.199
G1 X130.768 Y96.612 E0.009
G1 X131.264 Y96.975 E0.016
G1 X131.737 Y97.369 E0.015
G1 X132.185 Y97.789 E0.015
G1 X132.622 Y98.254 E0.016
G1 X127.765 Y101.058 E0.14
G1 X128.296 Y101.468 E0.017
G1 X128.902 Y102.151 E0.023
G1 X129.448 Y103.166 E0.028
G1 X134.112 Y100.473 E0.135
G1 X134.296 Y100.853 E0.01
G1 X134.513 Y101.377 E0.014
G1 X134.715 Y101.958 E0.016
G1 X134.892 Y102.596 E0.016
G1 X134.987 Y103.047 E0.012
G1 X129.695 Y106.103 E0.152
G1 X129.452 Y106.876 E0.02
G1 X129.024 Y107.675 E0.023
G1 X128.458 Y108.375 E0.023
G1 X127.757 Y108.968 E0.022
G1 X126.568 Y109.572 E0.034
G1 X125.675 Y109.784 E0.023
G1 X124.772 Y109.826 E0.022
G1 X123.88 Y109.7 E0.023
G1 X123.619 Y109.611 E0.007
G1 X118.314 Y112.673 E0.152
G1 X118.245 Y112.615 E0.003
G1 X117.833 Y112.227 E0.014
G1 X117.376 Y111.745 E0.016
G1 X116.983 Y111.272 E0.016
G1 X116.618 Y110.777 E0.015
G1 X116.522 Y110.629 E0.004
G1 X121.187 Y107.935 E0.135
G1 X120.976 Y107.675 E0.008
G1 X120.548 Y106.876 E0.023
G1 X120.276 Y106.008 E0.022
G1 X120.207 Y105.422 E0.015
G1 X115.35 Y108.226 E0.14
G1 F2100 E-0.5
G0 X116.216 Y107.726 F2400
G0 X115.35 Y108.226 F2400
;rapid-leaky
G0 X120.844 Y114.292 F7200
G1 F2100 E0.5
;bead-support
G1 X135.122 Y106.049 F3300 E0.411
G1 X135.107 Y106.216 E0.004
G1 X135.005 Y106.872 E0.017
G1 X134.886 Y107.427 E0.014
G1 X134.722 Y108.02 E0.015
G1 X134.521 Y108.601 E0.016
G1 X134.287 Y109.171 E0.015
G1 X134.018 Y109.722 E0.015
G1 X133.982 Y109.786 E0.002
G1 X124.658 Y115.169 E0.269
G1 F2100 E-0.5
G0 X125.524 Y114.669 F2400
G0 X124.658 Y115.169 F2400
;rapid-dry
G0 X135.241 Y108.874 F7200
G1 F2100 E0.5
;bead-perimeter_outer
G1 X135.457 Y108.248 F1800 E0.016
G1 X135.634 Y107.611 E0.017
G1 X135.763 Y107.011 E0.015
G1 X135.872 Y106.309 E0.018
G1 X135.931 Y105.649 E0.016
G1 X135.95 Y104.988 E0.017
G1 X135.929 Y104.326 E0.016
G1 X135.875 Y103.716 E0.016
G1 X135.777 Y103.062 E0.016
G1 X135.64 Y102.414 E0.017
G1 X135.45 Y101.728 E0.018
G1 X135.233 Y101.103 E0.016
G1 X134.999 Y100.537 E0.015
G1 X134.688 Y99.897 E0.018
G1 X134.362 Y99.321 E0.017
G1 X134.002 Y98.765 E0.016
G1 X133.608 Y98.232 E0.017
G1 X133.216 Y97.762 E0.015
G1 X132.729 Y97.244 E0.018
G1 X132.248 Y96.792 E0.016
G1 X131.738 Y96.368 E0.017
G1 X131.204 Y95.977 E0.016
G1 X130.689 Y95.644 E0.015
G1 X130.07 Y95.295 E0.018
G1 X129.475 Y95.006 E0.017
G1 X128.908 Y94.772 E0.015
G1 X128.284 Y94.554 E0.016
G1 X127.647 Y94.375 E0.017
G1 X126.951 Y94.225 E0.018
G1 X126.296 Y94.127 E0.016
G1 X125.686 Y94.072 E0.015
G1 X124.975 Y94.05 E0.018
G1 X124.363 Y94.069 E0.016
G1 X123.704 Y94.127 E0.016
G1 X123.049 Y94.225 E0.017
G1 X122.401 Y94.363 E0.016
G1 X121.716 Y94.554 E0.018
G1 X121.092 Y94.772 E0.016
G1 X120.525 Y95.007 E0.016
G1 X119.886 Y95.318 E0.017
G1 X119.353 Y95.619 E0.016
G1 X118.796 Y95.977 E0.016
G1 X118.262 Y96.368 E0.017
G1 X117.752 Y96.792 E0.016
G1 X117.236 Y97.28 E0.018
G1 X116.816 Y97.725 E0.015
G1 X116.392 Y98.232 E0.017
G1 X115.97 Y98.807 E0.017
G1 X115.638 Y99.321 E0.016
G1 X115.312 Y99.897 E0.016
G1 X115.022 Y100.492 E0.017
G1 X114.767 Y101.103 E0.016
G1 X114.536 Y101.776 E0.018
G1 X114.36 Y102.414 E0.016
G1 X114.232 Y103.013 E0.016
G1 X114.125 Y103.716 E0.018
G1 X114.071 Y104.326 E0.015
G1 X114.05 Y104.988 E0.016
G1 X114.069 Y105.649 E0.017
G1 X114.128 Y106.309 E0.016
G1 X114.237 Y107.011 E0.018
G1 X114.366 Y107.611 E0.015
G1 X114.543 Y108.248 E0.017
G1 X114.759 Y108.874 E0.016
G1 X115.011 Y109.486 E0.017
G1 X115.324 Y110.124 E0.018
G1 X115.625 Y110.657 E0.015
G1 X115.984 Y111.215 E0.016
G1 X116.376 Y111.747 E0.017
G1 X116.8 Y112.257 E0.016
G1 X117.289 Y112.773 E0.018
G1 X117.734 Y113.192 E0.015
G1 X118.242 Y113.616 E0.017
G1 X118.775 Y114.009 E0.016
G1 X119.332 Y114.369 E0.017
G1 X119.952 Y114.716 E0.018
G1 X120.503 Y114.984 E0.015
G1 X121.114 Y115.237 E0.017
G1 X121.74 Y115.453 E0.016
G1 X122.377 Y115.632 E0.017
G1 X123.025 Y115.771 E0.016
G1 X123.679 Y115.871 E0.017
G1 X124.339 Y115.93 E0.016
G1 X125 Y115.95 E0.017
G1 X125.661 Y115.93 E0.016
G1 X126.321 Y115.871 E0.017
G1 X126.975 Y115.771 E0.016
G1 X127.623 Y115.632 E0.017
G1 X128.26 Y115.453 E0.016
G1 X128.886 Y115.237 E0.017
G1 X129.497 Y114.984 E0.016
G1 X130.092 Y114.694 E0.017
G1 X130.669 Y114.369 E0.016
G1 X131.225 Y114.009 E0.017
G1 X131.718 Y113.646 E0.015
G1 X132.266 Y113.192 E0.018
G1 X132.746 Y112.738 E0.016
G1 X133.167 Y112.293 E0.016
G1 X133.623 Y111.748 E0.017
G1 X134.016 Y111.215 E0.017
G1 X134.349 Y110.7 E0.015
G1 X134.7 Y110.081 E0.018
G1 X134.99 Y109.486 E0.016
G1 X135.241 Y108.874 E0.017
;rapid-leaky
G0 X135.578 Y109.001 F7200
;bead-perimeter_inner
G1 X135.801 Y108.356 F2400 E0.017
G1 X135.984 Y107.697 E0.017
G1 X136.117 Y107.077 E0.016
G1 X136.229 Y106.353 E0.018
G1 X136.29 Y105.67 E0.017
G1 X136.31 Y104.987 E0.017
G1 X136.288 Y104.304 E0.017
G1 X136.232 Y103.674 E0.016
G1 X136.131 Y102.998 E0.017
G1 X135.99 Y102.328 E0.017
G1 X135.794 Y101.621 E0.018
G1 X135.57 Y100.975 E0.017
G1 X135.327 Y100.389 E0.016
G1 X135.007 Y99.73 E0.019
G1 X134.67 Y99.134 E0.017
G1 X134.298 Y98.56 E0.017
G1 X133.892 Y98.01 E0.017
G1 X133.485 Y97.524 E0.016
G1 X132.984 Y96.99 E0.018
G1 X132.486 Y96.522 E0.017
G1 X131.96 Y96.084 E0.017
G1 X131.409 Y95.681 E0.017
G1 X130.875 Y95.336 E0.016
G1 X130.237 Y94.976 E0.018
G1 X129.622 Y94.678 E0.017
G1 X129.036 Y94.436 E0.016
G1 X128.392 Y94.211 E0.017
G1 X127.734 Y94.025 E0.017
G1 X127.015 Y93.871 E0.018
G1 X126.339 Y93.77 E0.017
G1 X125.708 Y93.713 E0.016
G1 X124.975 Y93.69 E0.019
G1 X124.342 Y93.71 E0.015
G1 X123.662 Y93.77 E0.017
G1 X122.985 Y93.871 E0.017
G1 X122.315 Y94.013 E0.018
G1 X121.608 Y94.21 E0.018
G1 X120.964 Y94.436 E0.017
G1 X120.377 Y94.678 E0.016
G1 X119.719 Y94.999 E0.018
G1 X119.167 Y95.31 E0.016
G1 X118.592 Y95.68 E0.017
G1 X118.04 Y96.084 E0.017
G1 X117.513 Y96.523 E0.017
G1 X116.982 Y97.025 E0.018
G1 X116.547 Y97.486 E0.016
G1 X116.108 Y98.01 E0.017
G1 X115.674 Y98.602 E0.018
G1 X115.33 Y99.135 E0.016
G1 X114.993 Y99.729 E0.017
G1 X114.693 Y100.343 E0.017
G1 X114.43 Y100.975 E0.017
G1 X114.192 Y101.669 E0.019
G1 X114.01 Y102.328 E0.017
G1 X113.878 Y102.949 E0.016
G1 X113.768 Y103.673 E0.018
G1 X113.712 Y104.304 E0.016
G1 X113.69 Y104.987 E0.017
G1 X113.71 Y105.67 E0.017
G1 X113.771 Y106.353 E0.017
G1 X113.883 Y107.077 E0.018
G1 X114.016 Y107.697 E0.016
G1 X114.199 Y108.356 E0.017
G1 X114.422 Y109.001 E0.017
G1 X114.682 Y109.634 E0.017
G1 X115.005 Y110.292 E0.018
G1 X115.316 Y110.844 E0.016
G1 X115.688 Y111.419 E0.017
G1 X116.093 Y111.969 E0.017
G1 X116.531 Y112.496 E0.017
G1 X117.035 Y113.028 E0.019
G1 X117.495 Y113.461 E0.015
G1 X118.02 Y113.9 E0.018
G1 X118.57 Y114.305 E0.017
G1 X119.146 Y114.678 E0.017
G1 X119.786 Y115.036 E0.018
G1 X120.355 Y115.313 E0.016
G1 X120.987 Y115.574 E0.017
G1 X121.633 Y115.797 E0.017
G1 X122.29 Y115.982 E0.017
G1 X122.96 Y116.125 E0.017
G1 X123.636 Y116.228 E0.017
G1 X124.317 Y116.289 E0.017
G1 X125 Y116.31 E0.017
G1 X125.683 Y116.289 E0.017
G1 X126.364 Y116.228 E0.017
G1 X127.04 Y116.125 E0.017
G1 X127.71 Y115.982 E0.017
G1 X128.367 Y115.797 E0.017
G1 X129.013 Y115.574 E0.017
G1 X129.645 Y115.313 E0.018
G1 X130.26 Y115.013 E0.017
G1 X130.855 Y114.677 E0.017
G1 X131.43 Y114.305 E0.017
G1 X131.94 Y113.929 E0.016
G1 X132.504 Y113.462 E0.018
G1 X133.001 Y112.993 E0.017
G1 X133.436 Y112.532 E0.016
G1 X133.907 Y111.97 E0.018
G1 X134.312 Y111.419 E0.017
G1 X134.657 Y110.887 E0.016
G1 X135.019 Y110.249 E0.018
G1 X135.318 Y109.633 E0.017
G1 X135.578 Y109.001 E0.017
;rapid-leaky
G0 X135.908 Y109.5 F7200
;bead-perimeter_outer
G1 X135.653 Y110.074 F1800 E0.016
G1 X135.318 Y110.725 E0.018
G1 X134.971 Y111.31 E0.017
G1 X134.621 Y111.832 E0.016
G1 X134.211 Y112.375 E0.017
G1 X133.77 Y112.894 E0.017
G1 X133.265 Y113.422 E0.018
G1 X132.805 Y113.85 E0.016
G1 X132.282 Y114.285 E0.017
G1 X131.735 Y114.689 E0.017
G1 X131.166 Y115.06 E0.017
G1 X130.53 Y115.423 E0.018
G1 X129.967 Y115.703 E0.016
G1 X129.295 Y115.99 E0.018
G1 X128.702 Y116.204 E0.015
G1 X128.051 Y116.399 E0.017
G1 X127.34 Y116.566 E0.019
G1 X126.72 Y116.674 E0.015
G1 X125.993 Y116.758 E0.019
G1 X125.366 Y116.794 E0.015
G1 X124.686 Y116.795 E0.017
G1 X123.955 Y116.753 E0.018
G1 X123.28 Y116.674 E0.017
G1 X122.66 Y116.566 E0.016
G1 X121.948 Y116.399 E0.018
G1 X121.347 Y116.22 E0.016
G1 X120.657 Y115.971 E0.018
G1 X120.033 Y115.703 E0.017
G1 X119.424 Y115.4 E0.017
G1 X118.878 Y115.087 E0.016
G1 X118.265 Y114.689 E0.018
G1 X117.718 Y114.284 E0.017
G1 X117.234 Y113.884 E0.016
G1 X116.699 Y113.386 E0.018
G1 X116.23 Y112.894 E0.017
G1 X115.822 Y112.415 E0.016
G1 X115.379 Y111.832 E0.018
G1 X115.029 Y111.31 E0.016
G1 X114.657 Y110.68 E0.018
G1 X114.348 Y110.074 E0.017
G1 X114.072 Y109.452 E0.017
G1 X113.834 Y108.815 E0.017
G1 X113.647 Y108.216 E0.015
G1 X113.469 Y107.506 E0.019
G1 X113.352 Y106.888 E0.015
G1 X113.263 Y106.214 E0.017
G1 X113.21 Y105.484 E0.019
G1 X113.201 Y104.856 E0.015
G1 X113.233 Y104.124 E0.019
G1 X113.296 Y103.5 E0.015
G1 X113.403 Y102.828 E0.017
G1 X113.559 Y102.113 E0.018
G1 X113.744 Y101.459 E0.017
G1 X113.948 Y100.865 E0.016
G1 X114.227 Y100.187 E0.018
G1 X114.498 Y99.621 E0.016
G1 X114.851 Y98.98 E0.018
G1 X115.215 Y98.406 E0.017
G1 X115.611 Y97.853 E0.017
G1 X116.005 Y97.363 E0.016
G1 X116.46 Y96.857 E0.017
G1 X116.944 Y96.379 E0.017
G1 X117.454 Y95.929 E0.017
G1 X117.989 Y95.51 E0.017
G1 X118.547 Y95.121 E0.017
G1 X119.172 Y94.74 E0.018
G1 X119.772 Y94.422 E0.017
G1 X120.343 Y94.158 E0.016
G1 X120.976 Y93.908 E0.017
G1 X121.671 Y93.68 E0.018
G1 X122.328 Y93.507 E0.017
G1 X122.944 Y93.381 E0.015
G1 X123.669 Y93.276 E0.019
G1 X124.295 Y93.222 E0.015
G1 X124.974 Y93.2 E0.017
G1 X125.654 Y93.219 E0.017
G1 X126.331 Y93.276 E0.017
G1 X127.005 Y93.372 E0.017
G1 X127.671 Y93.507 E0.017
G1 X128.379 Y93.695 E0.018
G1 X129.024 Y93.908 E0.017
G1 X129.657 Y94.158 E0.017
G1 X130.228 Y94.422 E0.016
G1 X130.828 Y94.74 E0.017
G1 X131.453 Y95.121 E0.018
G1 X132.011 Y95.51 E0.017
G1 X132.546 Y95.929 E0.017
G1 X133.057 Y96.379 E0.017
G1 X133.505 Y96.82 E0.016
G1 X133.995 Y97.363 E0.018
G1 X134.389 Y97.853 E0.016
G1 X134.785 Y98.406 E0.017
G1 X135.175 Y99.025 E0.018
G1 X135.502 Y99.62 E0.017
G1 X135.773 Y100.187 E0.016
G1 X136.052 Y100.865 E0.018
G1 X136.256 Y101.459 E0.016
G1 X136.454 Y102.162 E0.018
G1 X136.588 Y102.777 E0.015
G1 X136.704 Y103.5 E0.019
G1 X136.767 Y104.124 E0.015
G1 X136.799 Y104.856 E0.019
G1 X136.79 Y105.484 E0.015
G1 X136.737 Y106.214 E0.019
G1 X136.648 Y106.888 E0.017
G1 X136.531 Y107.506 E0.015
G1 X136.367 Y108.166 E0.017
G1 X136.166 Y108.815 E0.017
G1 X135.908 Y109.5 E0.018
;rapid-leaky
G0 X135.575 Y109.363 F7200
;bead-perimeter_inner
G1 X135.328 Y109.918 F2400 E0.016
G1 X135.003 Y110.551 E0.017
G1 X134.666 Y111.118 E0.017
G1 X134.328 Y111.623 E0.015
G1 X133.93 Y112.15 E0.016
G1 X133.503 Y112.653 E0.017
G1 X133.012 Y113.165 E0.018
G1 X132.567 Y113.579 E0.015
G1 X132.059 Y114.001 E0.016
G1 X131.529 Y114.393 E0.017
G1 X130.978 Y114.753 E0.016
G1 X130.36 Y115.106 E0.018
G1 X129.816 Y115.376 E0.015
G1 X129.163 Y115.655 E0.018
G1 X128.589 Y115.862 E0.015
G1 X127.959 Y116.051 E0.016
G1 X127.268 Y116.213 E0.018
G1 X126.669 Y116.318 E0.015
G1 X125.962 Y116.399 E0.018
G1 X125.355 Y116.434 E0.015
G1 X124.696 Y116.435 E0.017
G1 X123.987 Y116.394 E0.017
G1 X123.332 Y116.318 E0.017
G1 X122.732 Y116.213 E0.015
