;fixare role deget
;Printer name: Prusa i3 MK3
;TIME:1340
;Print time: 22m:20s
;Extruder 1 material used: 832mm
;Extruder 1 material name: 
;Extruder 1 filament diameter: 1.75mm
;Extruder 1 nozzle diameter: 0.4mm
;Extruder 1 offset x: 0mm
;Extruder 1 offset y: 0mm
;Extruder 1 offset z: 0mm
;Extruder 1 max temp: 200
;Bed temp: 70
;Layer count: 22
;Width: 250mm
;Depth: 210mm
;Height: 210mm
;Center x: 125mm
;Center y: 105mm
;Center z: 0mm
;Count of bodies: 6
;Fusion version: 2.0.19440
G21
M115 U3.0.10 ;tell printer latest fw version
G28 W ;home all without mesh bed level
;--------------------------------
;Selected Profile: PLA Direct Drive
;--------------------------------
;Selected Printer: Prusa, i3 MK3
;--------------------------------
T0
M140 S70
M104 S200 T0
M190 S70
M109 S200 T0
G80 ;mesh bed leveling
G92 E0
G90
M83
G0 X10 Y10 Z10 F7200
G92 E0
;--------------------------------
;Part 1
;LAYER_COUNT:22
;LAYER:1
M107
;rapid-leaky
G0 X20.5 Y20 Z0.2 F7200
;bead-prime
G1 Y190 F720 E14.136
G1 F2100 E-0.5
;rapid-dry
G0 X117.2 Y193.592 F7200
G1 F2100 E0.5
;bead-skirt/brim
G1 Y177.408 F960 E0.538
G1 X117.233 Y176.72 E0.023
G1 X117.359 Y175.923 E0.027
G1 X117.531 Y175.236 E0.023
G1 X117.788 Y174.514 E0.026
G1 X118.118 Y173.818 E0.025
G1 X118.511 Y173.164 E0.026
G1 X118.969 Y172.546 E0.025
G1 X119.482 Y171.982 E0.026
G1 X120.046 Y171.469 E0.025
G1 X120.681 Y170.999 E0.026
G1 X120.046 Y170.531 E0.026
G1 X119.482 Y170.018 E0.026
G1 X118.969 Y169.454 E0.025
G1 X118.511 Y168.837 E0.026
G1 X118.118 Y168.182 E0.025
G1 X117.788 Y167.486 E0.026
G1 X117.53 Y166.762 E0.025
G1 X117.346 Y166.022 E0.026
G1 X117.233 Y165.266 E0.025
G1 X117.2 Y164.592 E0.023
G1 Y148.408 E0.538
G1 X117.233 Y147.734 E0.022
G1 X117.346 Y146.978 E0.026
G1 X117.53 Y146.238 E0.025
G1 X117.788 Y145.514 E0.026
G1 X118.118 Y144.818 E0.025
G1 X118.511 Y144.163 E0.026
G1 X118.969 Y143.546 E0.025
G1 X119.482 Y142.982 E0.026
G1 X120.046 Y142.468 E0.025
G1 X120.682 Y142 E0.026
G1 X120.046 Y141.531 E0.026
G1 X119.482 Y141.018 E0.026
G1 X118.969 Y140.454 E0.025
G1 X118.511 Y139.836 E0.026
G1 X118.118 Y139.182 E0.025
G1 X117.788 Y138.486 E0.026
G1 X117.53 Y137.762 E0.025
G1 X117.346 Y137.022 E0.026
G1 X117.233 Y136.266 E0.025
G1 X117.2 Y135.592 E0.023
G1 Y119.408 E0.538
G1 X117.233 Y118.734 E0.022
G1 X117.346 Y117.978 E0.026
G1 X117.53 Y117.238 E0.025
G1 X117.788 Y116.514 E0.026
G1 X118.118 Y115.818 E0.025
G1 X118.511 Y115.163 E0.026
G1 X118.969 Y114.546 E0.025
G1 X119.482 Y113.982 E0.026
G1 X120.046 Y113.469 E0.025
G1 X120.682 Y113 E0.026
G1 X120.046 Y112.531 E0.027
G1 X119.482 Y112.018 E0.025
G1 X118.969 Y111.454 E0.025
G1 X118.511 Y110.837 E0.026
G1 X118.118 Y110.182 E0.025
G1 X117.788 Y109.486 E0.026
G1 X117.53 Y108.762 E0.025
G1 X117.346 Y108.022 E0.026
G1 X117.233 Y107.266 E0.025
G1 X117.2 Y106.592 E0.023
G1 Y90.408 E0.538
G1 X117.233 Y89.72 E0.023
G1 X117.359 Y88.923 E0.027
G1 X117.531 Y88.236 E0.023
G1 X117.788 Y87.514 E0.026
G1 X118.118 Y86.818 E0.025
G1 X118.511 Y86.164 E0.026
G1 X118.969 Y85.546 E0.025
G1 X119.482 Y84.982 E0.026
G1 X120.046 Y84.469 E0.025
G1 X120.681 Y83.999 E0.026
G1 X120.046 Y83.531 E0.027
G1 X119.482 Y83.018 E0.025
G1 X118.969 Y82.454 E0.025
G1 X118.511 Y81.837 E0.026
G1 X118.118 Y81.182 E0.025
G1 X117.788 Y80.486 E0.026
G1 X117.53 Y79.762 E0.025
G1 X117.346 Y79.022 E0.026
G1 X117.233 Y78.266 E0.025
G1 X117.2 Y77.592 E0.023
G1 Y53.408 E0.804
G1 X117.233 Y52.72 E0.023
G1 X117.359 Y51.923 E0.027
G1 X117.531 Y51.236 E0.023
G1 X117.788 Y50.514 E0.026
G1 X118.118 Y49.818 E0.025
G1 X118.511 Y49.163 E0.026
G1 X118.969 Y48.546 E0.025
G1 X119.482 Y47.982 E0.026
G1 X120.046 Y47.469 E0.025
G1 X120.682 Y47 E0.026
G1 X120.046 Y46.531 E0.027
G1 X119.482 Y46.018 E0.025
G1 X118.969 Y45.454 E0.025
G1 X118.511 Y44.837 E0.026
G1 X118.118 Y44.182 E0.025
G1 X117.788 Y43.486 E0.026
G1 X117.53 Y42.762 E0.026
G1 X117.346 Y42.022 E0.025
G1 X117.233 Y41.266 E0.025
G1 X117.2 Y40.592 E0.023
G1 Y16.408 E0.804
G1 X117.233 Y15.72 E0.023
G1 X117.359 Y14.923 E0.027
G1 X117.531 Y14.236 E0.023
G1 X117.788 Y13.514 E0.026
G1 X118.118 Y12.818 E0.026
G1 X118.511 Y12.163 E0.025
G1 X118.969 Y11.546 E0.025
G1 X119.482 Y10.982 E0.026
G1 X120.046 Y10.468 E0.025
G1 X120.663 Y10.011 E0.026
G1 X121.318 Y9.618 E0.025
G1 X122.014 Y9.288 E0.026
G1 X122.738 Y9.03 E0.025
G1 X123.478 Y8.846 E0.026
G1 X124.234 Y8.733 E0.025
G1 X125 Y8.696 E0.026
G1 X125.766 Y8.733 E0.025
G1 X126.522 Y8.846 E0.026
G1 X127.262 Y9.03 E0.025
G1 X127.986 Y9.288 E0.026
G1 X128.682 Y9.618 E0.025
G1 X129.337 Y10.011 E0.026
G1 X129.954 Y10.469 E0.025
G1 X130.531 Y10.994 E0.026
G1 X131.065 Y11.591 E0.027
G1 X131.489 Y12.164 E0.023
G1 X131.882 Y12.818 E0.026
G1 X132.212 Y13.514 E0.025
G1 X132.47 Y14.238 E0.026
G1 X132.654 Y14.978 E0.025
G1 X132.767 Y15.734 E0.026
G1 X132.8 Y16.408 E0.022
G1 Y40.592 E0.805
G1 X132.767 Y41.28 E0.022
G1 X132.641 Y42.077 E0.027
G1 X132.469 Y42.764 E0.024
G1 X132.212 Y43.486 E0.025
G1 X131.882 Y44.182 E0.026
G1 X131.48 Y44.85 E0.026
G1 X130.994 Y45.496 E0.027
G1 X130.517 Y46.019 E0.023
G1 X129.954 Y46.531 E0.026
G1 X129.318 Y47 E0.026
G1 X129.954 Y47.469 E0.026
G1 X130.531 Y47.994 E0.026
G1 X131.065 Y48.591 E0.027
G1 X131.489 Y49.164 E0.023
G1 X131.882 Y49.818 E0.026
G1 X132.212 Y50.514 E0.026
G1 X132.47 Y51.238 E0.025
G1 X132.654 Y51.978 E0.025
G1 X132.767 Y52.734 E0.026
G1 X132.8 Y53.408 E0.022
G1 Y77.592 E0.805
G1 X132.767 Y78.28 E0.023
G1 X132.641 Y79.077 E0.026
G1 X132.469 Y79.764 E0.024
G1 X132.212 Y80.486 E0.025
G1 X131.882 Y81.182 E0.026
G1 X131.48 Y81.85 E0.026
G1 X130.994 Y82.496 E0.027
G1 X130.517 Y83.019 E0.023
G1 X129.954 Y83.531 E0.026
G1 X129.318 Y84 E0.026
G1 X129.954 Y84.469 E0.026
G1 X130.518 Y84.982 E0.026
G1 X131.031 Y85.546 E0.025
G1 X131.489 Y86.163 E0.026
G1 X131.882 Y86.818 E0.025
G1 X132.212 Y87.514 E0.026
G1 X132.47 Y88.238 E0.025
G1 X132.654 Y88.978 E0.026
G1 X132.767 Y89.734 E0.025
G1 X132.8 Y90.408 E0.022
G1 Y106.592 E0.539
G1 X132.767 Y107.266 E0.022
G1 X132.654 Y108.022 E0.026
G1 X132.47 Y108.762 E0.025
G1 X132.212 Y109.486 E0.025
G1 X131.882 Y110.182 E0.026
G1 X131.489 Y110.837 E0.026
G1 X131.031 Y111.454 E0.025
G1 X130.518 Y112.018 E0.025
G1 X129.954 Y112.531 E0.026
G1 X129.318 Y113 E0.026
G1 X129.954 Y113.468 E0.026
G1 X130.518 Y113.982 E0.026
G1 X131.032 Y114.546 E0.025
G1 X131.489 Y115.164 E0.026
G1 X131.882 Y115.818 E0.025
G1 X132.212 Y116.514 E0.026
G1 X132.47 Y117.238 E0.025
G1 X132.654 Y117.978 E0.026
G1 X132.767 Y118.734 E0.025
G1 X132.8 Y119.408 E0.022
G1 Y135.592 E0.539
G1 X132.767 Y136.28 E0.023
G1 X132.641 Y137.077 E0.026
G1 X132.469 Y137.764 E0.024
G1 X132.212 Y138.486 E0.026
G1 X131.882 Y139.182 E0.025
G1 X131.489 Y139.836 E0.026
G1 X131.031 Y140.454 E0.025
G1 X130.518 Y141.018 E0.025
G1 X129.954 Y141.531 E0.026
G1 X129.319 Y142.001 E0.026
G1 X129.954 Y142.469 E0.026
G1 X130.518 Y142.982 E0.026
G1 X131.031 Y143.546 E0.025
G1 X131.489 Y144.163 E0.026
G1 X131.882 Y144.818 E0.025
G1 X132.212 Y145.514 E0.026
G1 X132.47 Y146.238 E0.025
G1 X132.654 Y146.978 E0.026
G1 X132.767 Y147.734 E0.025
G1 X132.8 Y148.408 E0.022
G1 Y164.592 E0.539
G1 X132.767 Y165.28 E0.023
G1 X132.641 Y166.077 E0.026
G1 X132.469 Y166.764 E0.024
G1 X132.212 Y167.486 E0.026
G1 X131.882 Y168.182 E0.025
G1 X131.489 Y168.837 E0.026
G1 X131.031 Y169.454 E0.025
G1 X130.518 Y170.018 E0.025
G1 X129.954 Y170.531 E0.026
G1 X129.319 Y171.001 E0.026
G1 X129.954 Y171.468 E0.026
G1 X130.518 Y171.982 E0.026
G1 X131.031 Y172.546 E0.025
G1 X131.489 Y173.164 E0.026
G1 X131.882 Y173.818 E0.025
G1 X132.212 Y174.514 E0.026
G1 X132.47 Y175.238 E0.025
G1 X132.654 Y175.978 E0.026
G1 X132.767 Y176.734 E0.025
G1 X132.8 Y177.408 E0.022
G1 Y193.592 E0.539
G1 X132.767 Y194.266 E0.022
G1 X132.654 Y195.022 E0.026
G1 X132.47 Y195.762 E0.025
G1 X132.212 Y196.486 E0.025
G1 X131.882 Y197.182 E0.026
G1 X131.489 Y197.837 E0.026
G1 X131.031 Y198.454 E0.025
G1 X130.518 Y199.018 E0.025
G1 X129.954 Y199.531 E0.026
G1 X129.337 Y199.989 E0.025
G1 X128.682 Y200.382 E0.026
G1 X127.986 Y200.712 E0.025
G1 X127.262 Y200.97 E0.026
G1 X126.522 Y201.154 E0.025
G1 X125.766 Y201.267 E0.026
G1 X125 Y201.304 E0.025
G1 X124.234 Y201.267 E0.026
G1 X123.478 Y201.154 E0.025
G1 X122.738 Y200.97 E0.026
G1 X122.014 Y200.712 E0.025
G1 X121.318 Y200.382 E0.026
G1 X120.664 Y199.989 E0.025
G1 X120.046 Y199.532 E0.026
G1 X119.482 Y199.018 E0.025
G1 X118.969 Y198.454 E0.025
G1 X118.511 Y197.837 E0.026
G1 X118.118 Y197.182 E0.025
G1 X117.788 Y196.486 E0.026
G1 X117.53 Y195.762 E0.026
G1 X117.346 Y195.022 E0.025
G1 X117.233 Y194.266 E0.025
G1 X117.2 Y193.592 E0.023
;rapid-leaky
G0 X117.6 Y193.582 F7200
;bead-skirt/brim
G1 Y177.418 F960 E0.537
G1 X117.632 Y176.76 E0.022
G1 X117.751 Y176.003 E0.026
G1 X117.914 Y175.352 E0.022
G1 X118.159 Y174.667 E0.024
G1 X118.471 Y174.007 E0.025
G1 X118.844 Y173.386 E0.024
G1 X119.278 Y172.8 E0.024
G1 X119.765 Y172.265 E0.024
G1 X120.3 Y171.778 E0.024
G1 X120.897 Y171.336 E0.025
G1 X121.463 Y171.002 E0.022
G1 X120.886 Y170.656 E0.022
G1 X120.3 Y170.222 E0.024
G1 X119.765 Y169.735 E0.024
G1 X119.278 Y169.2 E0.024
G1 X118.844 Y168.614 E0.025
G1 X118.471 Y167.993 E0.024
G1 X118.158 Y167.333 E0.024
G1 X117.914 Y166.646 E0.024
G1 X117.739 Y165.944 E0.024
G1 X117.631 Y165.226 E0.024
G1 X117.6 Y164.582 E0.022
G1 Y148.418 E0.538
G1 X117.631 Y147.774 E0.021
G1 X117.739 Y147.056 E0.024
G1 X117.914 Y146.354 E0.024
G1 X118.158 Y145.667 E0.024
G1 X118.471 Y145.007 E0.025
G1 X118.844 Y144.386 E0.024
G1 X119.278 Y143.8 E0.024
G1 X119.765 Y143.265 E0.024
G1 X120.3 Y142.778 E0.024
G1 X120.886 Y142.344 E0.024
G1 X121.459 Y142 E0.023
G1 X120.886 Y141.656 E0.022
G1 X120.3 Y141.222 E0.024
G1 X119.765 Y140.735 E0.024
G1 X119.278 Y140.2 E0.024
G1 X118.844 Y139.614 E0.025
G1 X118.471 Y138.993 E0.024
G1 X118.158 Y138.333 E0.024
G1 X117.914 Y137.646 E0.024
G1 X117.739 Y136.944 E0.024
G1 X117.631 Y136.226 E0.024
G1 X117.6 Y135.582 E0.022
G1 Y119.418 E0.537
G1 X117.631 Y118.774 E0.022
G1 X117.739 Y118.056 E0.024
G1 X117.914 Y117.354 E0.024
G1 X118.158 Y116.667 E0.024
G1 X118.471 Y116.007 E0.025
G1 X118.844 Y115.386 E0.024
G1 X119.278 Y114.8 E0.024
G1 X119.765 Y114.265 E0.024
G1 X120.3 Y113.778 E0.024
G1 X120.886 Y113.344 E0.024
G1 X121.459 Y113 E0.023
G1 X120.886 Y112.656 E0.022
G1 X120.3 Y112.222 E0.024
G1 X119.765 Y111.735 E0.024
G1 X119.278 Y111.2 E0.024
G1 X118.844 Y110.614 E0.024
G1 X118.471 Y109.993 E0.025
G1 X118.158 Y109.333 E0.024
G1 X117.914 Y108.646 E0.024
G1 X117.739 Y107.944 E0.024
G1 X117.631 Y107.226 E0.024
G1 X117.6 Y106.582 E0.022
G1 Y90.418 E0.537
G1 X117.632 Y89.761 E0.022
G1 X117.751 Y89.003 E0.026
G1 X117.914 Y88.352 E0.022
G1 X118.159 Y87.667 E0.024
G1 X118.471 Y87.007 E0.025
G1 X118.844 Y86.386 E0.024
G1 X119.278 Y85.8 E0.024
G1 X119.765 Y85.265 E0.024
G1 X120.3 Y84.778 E0.024
G1 X120.897 Y84.336 E0.025
G1 X121.463 Y84.002 E0.022
G1 X120.886 Y83.656 E0.022
G1 X120.3 Y83.222 E0.024
G1 X119.765 Y82.735 E0.024
G1 X119.278 Y82.2 E0.024
G1 X118.844 Y81.614 E0.025
G1 X118.471 Y80.993 E0.024
G1 X118.158 Y80.333 E0.024
G1 X117.913 Y79.646 E0.024
G1 X117.739 Y78.944 E0.024
G1 X117.631 Y78.226 E0.024
G1 X117.6 Y77.582 E0.022
G1 Y53.418 E0.804
G1 X117.632 Y52.761 E0.021
G1 X117.751 Y52.003 E0.026
G1 X117.914 Y51.352 E0.022
G1 X118.159 Y50.667 E0.024
G1 X118.471 Y50.007 E0.025
G1 X118.844 Y49.386 E0.024
G1 X119.278 Y48.8 E0.024
G1 X119.765 Y48.265 E0.024
G1 X120.3 Y47.778 E0.024
G1 X120.886 Y47.344 E0.024
G1 X121.459 Y47 E0.023
G1 X120.886 Y46.656 E0.022
G1 X120.3 Y46.222 E0.024
G1 X119.765 Y45.735 E0.024
G1 X119.278 Y45.2 E0.024
G1 X118.844 Y44.614 E0.025
G1 X118.471 Y43.993 E0.024
G1 X118.158 Y43.333 E0.024
G1 X117.914 Y42.646 E0.024
G1 X117.739 Y41.944 E0.024
G1 X117.631 Y41.226 E0.024
G1 X117.6 Y40.582 E0.022
G1 Y16.418 E0.804
G1 X117.632 Y15.761 E0.021
G1 X117.751 Y15.003 E0.026
G1 X117.914 Y14.352 E0.022
G1 X118.159 Y13.667 E0.024
G1 X118.471 Y13.007 E0.025
G1 X118.844 Y12.386 E0.024
G1 X119.278 Y11.8 E0.024
G1 X119.765 Y11.265 E0.024
G1 X120.3 Y10.778 E0.024
G1 X120.886 Y10.344 E0.024
G1 X121.507 Y9.971 E0.025
G1 X122.167 Y9.658 E0.024
G1 X122.854 Y9.414 E0.024
G1 X123.556 Y9.239 E0.024
G1 X124.274 Y9.131 E0.024
G1 X125 Y9.096 E0.024
G1 X125.726 Y9.131 E0.025
G1 X126.444 Y9.239 E0.024
G1 X127.146 Y9.414 E0.024
G1 X127.833 Y9.658 E0.024
G1 X128.493 Y9.971 E0.024
G1 X129.114 Y10.344 E0.024
G1 X129.7 Y10.778 E0.025
G1 X130.246 Y11.275 E0.024
G1 X130.754 Y11.844 E0.026
G1 X131.156 Y12.386 E0.022
G1 X131.529 Y13.007 E0.024
G1 X131.842 Y13.667 E0.024
G1 X132.086 Y14.354 E0.025
G1 X132.261 Y15.056 E0.024
G1 X132.369 Y15.774 E0.024
G1 X132.4 Y16.418 E0.021
G1 Y40.582 E0.804
G1 X132.368 Y41.24 E0.022
G1 X132.249 Y41.997 E0.025
G1 X132.086 Y42.648 E0.023
G1 X131.842 Y43.333 E0.024
G1 X131.529 Y43.993 E0.024
G1 X131.148 Y44.626 E0.025
G1 X130.686 Y45.24 E0.025
G1 X130.234 Y45.736 E0.023
G1 X129.7 Y46.222 E0.024
G1 X129.114 Y46.656 E0.024
G1 X128.541 Y47 E0.022
G1 X129.114 Y47.344 E0.022
G1 X129.7 Y47.778 E0.025
G1 X130.246 Y48.275 E0.024
G1 X130.754 Y48.844 E0.026
G1 X131.156 Y49.386 E0.022
G1 X131.529 Y50.007 E0.024
G1 X131.842 Y50.667 E0.024
G1 X132.086 Y51.354 E0.025
G1 X132.261 Y52.056 E0.024
G1 X132.369 Y52.774 E0.024
G1 X132.4 Y53.418 E0.021
G1 Y77.582 E0.804
G1 X132.368 Y78.24 E0.022
G1 X132.249 Y78.997 E0.025
G1 X132.086 Y79.648 E0.023
G1 X131.842 Y80.333 E0.024
G1 X131.529 Y80.993 E0.024
G1 X131.148 Y81.626 E0.025
G1 X130.686 Y82.24 E0.025
G1 X130.234 Y82.736 E0.023
G1 X129.7 Y83.222 E0.024
G1 X129.114 Y83.656 E0.024
G1 X128.541 Y84 E0.022
G1 X129.114 Y84.344 E0.022
G1 X129.7 Y84.778 E0.025
G1 X130.235 Y85.265 E0.024
G1 X130.722 Y85.8 E0.024
G1 X131.156 Y86.386 E0.024
G1 X131.529 Y87.007 E0.024
G1 X131.842 Y87.667 E0.024
G1 X132.086 Y88.354 E0.025
G1 X132.261 Y89.056 E0.024
G1 X132.369 Y89.774 E0.024
G1 X132.4 Y90.418 E0.021
G1 Y106.582 E0.538
G1 X132.369 Y107.226 E0.021
G1 X132.261 Y107.944 E0.025
G1 X132.087 Y108.646 E0.024
G1 X131.842 Y109.333 E0.024
G1 X131.529 Y109.993 E0.024
G1 X131.156 Y110.614 E0.024
G1 X130.722 Y111.2 E0.025
G1 X130.235 Y111.735 E0.024
G1 X129.7 Y112.222 E0.024
G1 X129.114 Y112.656 E0.024
G1 X128.541 Y113 E0.022
G1 X129.114 Y113.344 E0.022
G1 X129.7 Y113.778 E0.025
G1 X130.235 Y114.265 E0.024
G1 X130.722 Y114.8 E0.024
G1 X131.156 Y115.386 E0.024
G1 X131.529 Y116.007 E0.024
G1 X131.841 Y116.667 E0.024
G1 X132.087 Y117.354 E0.025
G1 X132.261 Y118.056 E0.024
G1 X132.369 Y118.774 E0.024
G1 X132.4 Y119.418 E0.021
G1 Y135.582 E0.538
G1 X132.368 Y136.239 E0.022
G1 X132.249 Y136.997 E0.025
G1 X132.086 Y137.648 E0.023
G1 X131.841 Y138.333 E0.024
G1 X131.529 Y138.993 E0.024
G1 X131.156 Y139.614 E0.024
G1 X130.722 Y140.2 E0.024
G1 X130.235 Y140.735 E0.024
G1 X129.7 Y141.222 E0.025
G1 X129.103 Y141.664 E0.024
G1 X128.537 Y141.998 E0.022
G1 X129.114 Y142.344 E0.022
G1 X129.7 Y142.778 E0.025
G1 X130.235 Y143.265 E0.024
G1 X130.722 Y143.8 E0.024
G1 X131.156 Y144.386 E0.024
G1 X131.529 Y145.007 E0.024
G1 X131.842 Y145.667 E0.024
G1 X132.086 Y146.354 E0.025
G1 X132.261 Y147.056 E0.024
G1 X132.369 Y147.774 E0.024
G1 X132.4 Y148.418 E0.021
G1 Y164.582 E0.538
G1 X132.368 Y165.24 E0.022
G1 X132.249 Y165.997 E0.025
G1 X132.086 Y166.648 E0.023
G1 X131.842 Y167.333 E0.024
G1 X131.529 Y167.993 E0.024
G1 X131.156 Y168.614 E0.024
G1 X130.722 Y169.2 E0.025
G1 X130.235 Y169.735 E0.024
G1 X129.7 Y170.222 E0.024
G1 X129.103 Y170.664 E0.024
G1 X128.537 Y170.998 E0.022
G1 X129.114 Y171.344 E0.023
G1 X129.7 Y171.778 E0.024
G1 X130.235 Y172.265 E0.024
G1 X130.722 Y172.8 E0.024
G1 X131.156 Y173.386 E0.024
G1 X131.529 Y174.007 E0.024
G1 X131.842 Y174.667 E0.025
G1 X132.086 Y175.354 E0.024
G1 X132.261 Y176.056 E0.024
G1 X132.369 Y176.773 E0.024
G1 X132.4 Y177.418 E0.021
G1 Y193.582 E0.538
G1 X132.369 Y194.226 E0.022
G1 X132.261 Y194.944 E0.024
G1 X132.086 Y195.646 E0.024
G1 X131.842 Y196.333 E0.024
G1 X131.529 Y196.993 E0.024
G1 X131.156 Y197.614 E0.024
G1 X130.722 Y198.2 E0.025
G1 X130.235 Y198.735 E0.024
G1 X129.7 Y199.222 E0.024
G1 X129.114 Y199.656 E0.024
G1 X128.493 Y200.029 E0.024
G1 X127.833 Y200.342 E0.024
G1 X127.146 Y200.587 E0.025
G1 X126.444 Y200.761 E0.024
G1 X125.726 Y200.869 E0.024
G1 X125 Y200.904 E0.024
G1 X124.274 Y200.869 E0.024
G1 X123.556 Y200.762 E0.024
G1 X122.854 Y200.587 E0.024
G1 X122.167 Y200.342 E0.025
G1 X121.507 Y200.029 E0.024
G1 X120.886 Y199.656 E0.024
G1 X120.3 Y199.222 E0.024
G1 X119.765 Y198.735 E0.024
G1 X119.278 Y198.2 E0.024
G1 X118.844 Y197.614 E0.025
G1 X118.471 Y196.993 E0.024
G1 X118.158 Y196.333 E0.024
G1 X117.914 Y195.646 E0.024
G1 X117.739 Y194.944 E0.024
G1 X117.631 Y194.226 E0.025
G1 X117.6 Y193.582 E0.021
;rapid-leaky
G0 X118 Y193.573 F7200
;bead-skirt/brim
G1 Y177.427 F960 E0.537
G1 X118.03 Y176.801 E0.021
G1 X118.143 Y176.083 E0.024
G1 X118.297 Y175.468 E0.021
G1 X118.529 Y174.82 E0.023
G1 X118.824 Y174.196 E0.023
G1 X119.177 Y173.609 E0.023
G1 X119.587 Y173.055 E0.023
G1 X120.048 Y172.548 E0.022
G1 X120.555 Y172.087 E0.023
G1 X121.118 Y171.67 E0.024
G1 X121.743 Y171.301 E0.024
G1 X122.4 Y171 E0.024
G1 X121.696 Y170.676 E0.026
G1 X121.109 Y170.323 E0.022
G1 X120.555 Y169.913 E0.023
G1 X120.048 Y169.452 E0.023
G1 X119.587 Y168.945 E0.023
G1 X119.177 Y168.391 E0.023
G1 X118.824 Y167.804 E0.023
G1 X118.529 Y167.179 E0.022
G1 X118.297 Y166.53 E0.023
G1 X118.131 Y165.866 E0.023
G1 X118.03 Y165.187 E0.023
G1 X118 Y164.573 E0.02
G1 Y148.427 E0.537
G1 X118.03 Y147.813 E0.021
G1 X118.131 Y147.134 E0.023
G1 X118.297 Y146.47 E0.023
G1 X118.529 Y145.821 E0.022
G1 X118.824 Y145.196 E0.023
G1 X119.177 Y144.609 E0.023
G1 X119.587 Y144.055 E0.023
G1 X120.048 Y143.548 E0.023
G1 X120.555 Y143.087 E0.023
G1 X121.109 Y142.677 E0.023
G1 X121.696 Y142.324 E0.022
G1 X122.4 Y142 E0.026
G1 X121.696 Y141.676 E0.026
G1 X121.109 Y141.323 E0.023
G1 X120.555 Y140.913 E0.023
G1 X120.048 Y140.452 E0.023
G1 X119.587 Y139.945 E0.022
G1 X119.177 Y139.391 E0.023
G1 X118.824 Y138.804 E0.023
G1 X118.529 Y138.18 E0.023
G1 X118.297 Y137.53 E0.023
G1 X118.131 Y136.866 E0.023
G1 X118.03 Y136.187 E0.023
G1 X118 Y135.573 E0.02
G1 Y119.427 E0.537
G1 X118.03 Y118.813 E0.02
G1 X118.131 Y118.134 E0.023
G1 X118.297 Y117.47 E0.023
G1 X118.529 Y116.821 E0.023
G1 X118.824 Y116.196 E0.023
G1 X119.177 Y115.609 E0.023
G1 X119.587 Y115.055 E0.023
G1 X120.048 Y114.548 E0.022
G1 X120.555 Y114.087 E0.023
G1 X121.109 Y113.677 E0.023
G1 X121.696 Y113.324 E0.023
G1 X122.401 Y113 E0.026
G1 X121.696 Y112.676 E0.026
G1 X121.109 Y112.323 E0.022
G1 X120.555 Y111.913 E0.023
G1 X120.048 Y111.452 E0.023
G1 X119.587 Y110.945 E0.023
G1 X119.177 Y110.391 E0.023
G1 X118.824 Y109.804 E0.023
G1 X118.529 Y109.179 E0.022
G1 X118.297 Y108.53 E0.023
G1 X118.131 Y107.866 E0.023
G1 X118.03 Y107.187 E0.023
G1 X118 Y106.573 E0.02
G1 Y90.427 E0.537
G1 X118.03 Y89.801 E0.021
G1 X118.143 Y89.083 E0.024
G1 X118.297 Y88.468 E0.022
G1 X118.529 Y87.82 E0.022
G1 X118.824 Y87.196 E0.023
G1 X119.177 Y86.609 E0.023
G1 X119.587 Y86.055 E0.023
G1 X120.048 Y85.548 E0.023
G1 X120.555 Y85.087 E0.023
G1 X121.118 Y84.67 E0.023
G1 X121.743 Y84.301 E0.024
G1 X122.4 Y84 E0.024
G1 X121.696 Y83.676 E0.026
G1 X121.109 Y83.323 E0.023
G1 X120.555 Y82.913 E0.023
G1 X120.048 Y82.452 E0.022
G1 X119.587 Y81.945 E0.023
G1 X119.177 Y81.391 E0.023
G1 X118.824 Y80.804 E0.023
G1 X118.529 Y80.18 E0.023
G1 X118.297 Y79.53 E0.023
G1 X118.131 Y78.866 E0.023
G1 X118.03 Y78.187 E0.022
G1 X118 Y77.573 E0.021
G1 Y53.427 E0.803
G1 X118.03 Y52.801 E0.021
G1 X118.143 Y52.083 E0.024
G1 X118.297 Y51.468 E0.021
G1 X118.529 Y50.82 E0.023
G1 X118.824 Y50.196 E0.023
G1 X119.177 Y49.609 E0.023
G1 X119.587 Y49.055 E0.023
G1 X120.048 Y48.548 E0.022
G1 X120.555 Y48.087 E0.023
G1 X121.109 Y47.677 E0.023
G1 X121.696 Y47.324 E0.023
G1 X122.4 Y47 E0.026
G1 X121.696 Y46.676 E0.026
G1 X121.109 Y46.323 E0.022
G1 X120.555 Y45.913 E0.023
G1 X120.048 Y45.452 E0.023
G1 X119.587 Y44.945 E0.023
G1 X119.177 Y44.391 E0.023
G1 X118.824 Y43.804 E0.023
G1 X118.529 Y43.179 E0.023
G1 X118.297 Y42.53 E0.022
G1 X118.131 Y41.866 E0.023
G1 X118.03 Y41.187 E0.023
G1 X118 Y40.573 E0.021
G1 Y16.427 E0.803
G1 X118.03 Y15.801 E0.02
G1 X118.143 Y15.083 E0.025
G1 X118.297 Y14.468 E0.021
G1 X118.529 Y13.82 E0.023
G1 X118.824 Y13.196 E0.023
G1 X119.177 Y12.609 E0.022
G1 X119.587 Y12.055 E0.023
G1 X120.048 Y11.548 E0.023
G1 X120.555 Y11.087 E0.023
G1 X121.109 Y10.677 E0.023
G1 X121.696 Y10.324 E0.023
G1 X122.321 Y10.029 E0.023
G1 X122.97 Y9.797 E0.022
G1 X123.634 Y9.631 E0.023
G1 X124.313 Y9.53 E0.023
G1 X125 Y9.496 E0.023
G1 X125.687 Y9.53 E0.023
G1 X126.366 Y9.631 E0.023
G1 X127.03 Y9.797 E0.022
G1 X127.679 Y10.029 E0.023
G1 X128.304 Y10.324 E0.023
G1 X128.891 Y10.677 E0.023
G1 X129.445 Y11.087 E0.023
G1 X129.962 Y11.557 E0.023
G1 X130.444 Y12.097 E0.024
G1 X130.823 Y12.609 E0.022
G1 X131.176 Y13.196 E0.022
G1 X131.471 Y13.821 E0.023
G1 X131.703 Y14.47 E0.023
G1 X131.869 Y15.134 E0.023
G1 X131.97 Y15.813 E0.023
G1 X132 Y16.427 E0.02
G1 Y40.573 E0.803
G1 X131.97 Y41.199 E0.021
G1 X131.857 Y41.917 E0.024
G1 X131.703 Y42.532 E0.021
G1 X131.471 Y43.179 E0.023
G1 X131.176 Y43.804 E0.023
G1 X130.816 Y44.402 E0.024
G1 X130.377 Y44.985 E0.024
G1 X129.951 Y45.453 E0.021
G1 X129.445 Y45.913 E0.023
G1 X128.891 Y46.323 E0.023
G1 X128.304 Y46.676 E0.022
G1 X127.6 Y47 E0.026
G1 X128.304 Y47.324 E0.026
G1 X128.891 Y47.677 E0.023
G1 X129.445 Y48.087 E0.023
G1 X129.962 Y48.557 E0.023
G1 X130.444 Y49.097 E0.024
G1 X130.823 Y49.609 E0.021
G1 X131.176 Y50.196 E0.023
G1 X131.471 Y50.821 E0.023
G1 X131.703 Y51.47 E0.023
G1 X131.869 Y52.134 E0.023
G1 X131.97 Y52.813 E0.022
G1 X132 Y53.427 E0.021
G1 Y77.573 E0.803
G1 X131.97 Y78.199 E0.021
G1 X131.857 Y78.917 E0.024
G1 X131.703 Y79.532 E0.021
G1 X131.471 Y80.18 E0.023
G1 X131.176 Y80.804 E0.023
G1 X130.816 Y81.402 E0.023
G1 X130.377 Y81.985 E0.024
G1 X129.951 Y82.453 E0.021
G1 X129.445 Y82.913 E0.023
G1 X128.891 Y83.323 E0.023
G1 X128.304 Y83.676 E0.023
G1 X127.6 Y84 E0.026
G1 X128.304 Y84.324 E0.025
G1 X128.891 Y84.677 E0.023
G1 X129.445 Y85.087 E0.023
G1 X129.952 Y85.548 E0.023
G1 X130.413 Y86.055 E0.023
G1 X130.823 Y86.609 E0.023
G1 X131.176 Y87.196 E0.022
G1 X131.471 Y87.821 E0.023
G1 X131.703 Y88.47 E0.023
G1 X131.869 Y89.134 E0.023
G1 X131.97 Y89.813 E0.023
G1 X132 Y90.427 E0.02
G1 Y106.573 E0.537
G1 X131.97 Y107.187 E0.021
G1 X131.869 Y107.866 E0.023
G1 X131.703 Y108.53 E0.022
G1 X131.471 Y109.179 E0.023
G1 X131.176 Y109.804 E0.023
G1 X130.823 Y110.391 E0.023
G1 X130.413 Y110.945 E0.023
G1 X129.952 Y111.452 E0.023
G1 X129.445 Y111.913 E0.023
G1 X128.891 Y112.323 E0.023
G1 X128.304 Y112.676 E0.022
G1 X127.599 Y113 E0.026
G1 X128.304 Y113.324 E0.026
G1 X128.891 Y113.677 E0.023
G1 X129.445 Y114.087 E0.023
G1 X129.952 Y114.548 E0.022
G1 X130.413 Y115.055 E0.023
G1 X130.823 Y115.609 E0.023
G1 X131.176 Y116.196 E0.023
G1 X131.471 Y116.82 E0.023
G1 X131.703 Y117.47 E0.023
G1 X131.869 Y118.134 E0.023
G1 X131.97 Y118.813 E0.022
G1 X132 Y119.427 E0.021
G1 Y135.573 E0.537
G1 X131.97 Y136.199 E0.021
G1 X131.857 Y136.917 E0.024
G1 X131.703 Y137.532 E0.021
G1 X131.471 Y138.18 E0.023
G1 X131.176 Y138.804 E0.023
G1 X130.823 Y139.391 E0.023
G1 X130.413 Y139.945 E0.023
G1 X129.952 Y140.452 E0.022
G1 X129.445 Y140.913 E0.023
G1 X128.882 Y141.33 E0.023
G1 X128.257 Y141.699 E0.025
G1 X127.6 Y142 E0.024
G1 X128.304 Y142.324 E0.025
G1 X128.891 Y142.677 E0.023
G1 X129.445 Y143.087 E0.023
G1 X129.952 Y143.548 E0.023
G1 X130.413 Y144.055 E0.023
G1 X130.823 Y144.609 E0.023
G1 X131.176 Y145.196 E0.022
G1 X131.471 Y145.821 E0.023
G1 X131.703 Y146.47 E0.023
G1 X131.869 Y147.134 E0.023
G1 X131.97 Y147.813 E0.023
G1 X132 Y148.427 E0.02
G1 Y164.573 E0.537
G1 X131.97 Y165.199 E0.021
G1 X131.857 Y165.917 E0.024
G1 X131.703 Y166.532 E0.021
G1 X131.471 Y167.18 E0.023
G1 X131.176 Y167.804 E0.023
G1 X130.823 Y168.391 E0.023
G1 X130.413 Y168.945 E0.023
G1 X129.952 Y169.452 E0.023
G1 X129.445 Y169.913 E0.023
G1 X128.882 Y170.33 E0.023
G1 X128.257 Y170.699 E0.024
G1 X127.6 Y171 E0.024
G1 X128.304 Y171.324 E0.026
G1 X128.891 Y171.677 E0.023
G1 X129.445 Y172.087 E0.023
G1 X129.952 Y172.548 E0.022
G1 X130.413 Y173.055 E0.023
G1 X130.823 Y173.609 E0.023
G1 X131.176 Y174.196 E0.023
G1 X131.471 Y174.821 E0.023
G1 X131.703 Y175.47 E0.023
G1 X131.869 Y176.134 E0.023
G1 X131.97 Y176.813 E0.022
G1 X132 Y177.427 E0.021
G1 Y193.573 E0.537
G1 X131.97 Y194.187 E0.02
G1 X131.869 Y194.866 E0.023
G1 X131.703 Y195.53 E0.023
G1 X131.471 Y196.179 E0.023
G1 X131.176 Y196.804 E0.023
G1 X130.823 Y197.391 E0.023
G1 X130.413 Y197.945 E0.023
G1 X129.952 Y198.452 E0.022
G1 X129.445 Y198.913 E0.023
G1 X128.891 Y199.323 E0.023
G1 X128.304 Y199.676 E0.023
G1 X127.679 Y199.971 E0.023
G1 X127.03 Y200.203 E0.023
G1 X126.366 Y200.369 E0.022
G1 X125.687 Y200.47 E0.023
G1 X125 Y200.504 E0.023
G1 X124.313 Y200.47 E0.023
G1 X123.634 Y200.369 E0.023
G1 X122.97 Y200.203 E0.023
G1 X122.321 Y199.971 E0.023
G1 X121.696 Y199.676 E0.023
G1 X121.109 Y199.323 E0.022
G1 X120.555 Y198.913 E0.023
G1 X120.048 Y198.452 E0.023
G1 X119.587 Y197.945 E0.023
G1 X119.177 Y197.391 E0.023
G1 X118.824 Y196.804 E0.023
G1 X118.529 Y196.179 E0.023
G1 X118.297 Y195.53 E0.022
G1 X118.131 Y194.866 E0.023
G1 X118.03 Y194.187 E0.023
G1 X118 Y193.573 E0.021
;rapid-leaky
G0 X118.4 Y193.563 F7200
;bead-skirt/brim
G1 Y177.437 F960 E0.536
G1 X118.429 Y176.842 E0.02
G1 X118.536 Y176.163 E0.023
G1 X118.681 Y175.584 E0.019
G1 X118.899 Y174.974 E0.022
G1 X119.177 Y174.385 E0.022
G1 X119.51 Y173.831 E0.021
G1 X119.897 Y173.309 E0.022
G1 X120.332 Y172.831 E0.021
G1 X120.809 Y172.397 E0.022
G1 X121.34 Y172.004 E0.022
G1 X121.931 Y171.655 E0.022
G1 X122.475 Y171.398 E0.021
G1 X123.086 Y171.18 E0.021
G1 X123.712 Y171.024 E0.022
G1 X123.873 Y171 E0.005
G1 X123.712 Y170.976 E0.005
G1 X123.086 Y170.82 E0.022
G1 X122.474 Y170.601 E0.021
G1 X121.885 Y170.323 E0.022
G1 X121.331 Y169.99 E0.022
G1 X120.809 Y169.603 E0.021
G1 X120.332 Y169.169 E0.022
G1 X119.897 Y168.691 E0.021
G1 X119.51 Y168.169 E0.022
G1 X119.177 Y167.615 E0.021
G1 X118.899 Y167.026 E0.022
G1 X118.68 Y166.414 E0.022
G1 X118.524 Y165.788 E0.021
G1 X118.428 Y165.148 E0.022
G1 X118.4 Y164.563 E0.019
G1 Y148.437 E0.536
G1 X118.428 Y147.852 E0.02
G1 X118.524 Y147.212 E0.021
G1 X118.68 Y146.586 E0.022
G1 X118.899 Y145.974 E0.021
G1 X119.177 Y145.385 E0.022
G1 X119.51 Y144.831 E0.022
G1 X119.897 Y144.309 E0.021
G1 X120.331 Y143.832 E0.022
G1 X120.809 Y143.397 E0.021
G1 X121.331 Y143.01 E0.022
G1 X121.885 Y142.677 E0.021
G1 X122.474 Y142.399 E0.022
G1 X123.086 Y142.18 E0.022
G1 X123.712 Y142.024 E0.021
G1 X123.873 Y142 E0.005
G1 X123.712 Y141.976 E0.006
G1 X123.086 Y141.82 E0.021
G1 X122.474 Y141.601 E0.022
G1 X121.885 Y141.323 E0.022
G1 X121.331 Y140.99 E0.021
G1 X120.809 Y140.603 E0.022
G1 X120.332 Y140.169 E0.021
G1 X119.897 Y139.691 E0.022
G1 X119.51 Y139.169 E0.021
G1 X119.177 Y138.615 E0.022
G1 X118.899 Y138.026 E0.021
G1 X118.68 Y137.414 E0.022
G1 X118.524 Y136.788 E0.021
G1 X118.428 Y136.148 E0.022
G1 X118.4 Y135.563 E0.019
G1 Y119.437 E0.537
G1 X118.428 Y118.852 E0.019
G1 X118.524 Y118.212 E0.022
G1 X118.68 Y117.586 E0.021
G1 X118.899 Y116.974 E0.022
G1 X119.177 Y116.385 E0.022
G1 X119.51 Y115.831 E0.021
G1 X119.897 Y115.309 E0.022
G1 X120.332 Y114.832 E0.021
G1 X120.809 Y114.397 E0.022
G1 X121.331 Y114.01 E0.021
G1 X121.885 Y113.677 E0.022
G1 X122.474 Y113.399 E0.021
G1 X123.086 Y113.18 E0.022
G1 X123.712 Y113.024 E0.022
G1 X123.873 Y113 E0.005
G1 X123.712 Y112.976 E0.005
G1 X123.086 Y112.82 E0.022
G1 X122.474 Y112.601 E0.021
G1 X121.885 Y112.323 E0.022
G1 X121.331 Y111.99 E0.022
G1 X120.809 Y111.603 E0.021
G1 X120.331 Y111.168 E0.022
G1 X119.897 Y110.691 E0.021
G1 X119.51 Y110.169 E0.022
G1 X119.177 Y109.615 E0.021
G1 X118.899 Y109.026 E0.022
G1 X118.68 Y108.414 E0.022
G1 X118.524 Y107.788 E0.021
G1 X118.428 Y107.148 E0.022
G1 X118.4 Y106.563 E0.019
G1 Y90.437 E0.536
G1 X118.429 Y89.842 E0.02
G1 X118.536 Y89.163 E0.023
G1 X118.681 Y88.584 E0.02
G1 X118.899 Y87.974 E0.021
G1 X119.177 Y87.385 E0.022
G1 X119.51 Y86.831 E0.022
G1 X119.897 Y86.309 E0.021
G1 X120.332 Y85.831 E0.022
G1 X120.809 Y85.397 E0.021
G1 X121.34 Y85.004 E0.022
G1 X121.931 Y84.655 E0.023
G1 X122.475 Y84.398 E0.02
G1 X123.086 Y84.18 E0.022
G1 X123.712 Y84.024 E0.021
G1 X123.873 Y84 E0.005
G1 X123.712 Y83.976 E0.006
G1 X123.086 Y83.82 E0.021
G1 X122.474 Y83.601 E0.022
G1 X121.885 Y83.323 E0.022
G1 X121.331 Y82.99 E0.021
G1 X120.809 Y82.603 E0.022
G1 X120.332 Y82.169 E0.021
G1 X119.897 Y81.691 E0.022
G1 X119.51 Y81.169 E0.021
G1 X119.177 Y80.615 E0.022
G1 X118.899 Y80.026 E0.021
G1 X118.68 Y79.414 E0.022
G1 X118.524 Y78.788 E0.021
G1 X118.428 Y78.148 E0.022
G1 X118.4 Y77.563 E0.019
G1 Y53.437 E0.803
G1 X118.429 Y52.842 E0.02
G1 X118.536 Y52.163 E0.023
G1 X118.681 Y51.584 E0.019
G1 X118.899 Y50.974 E0.022
G1 X119.177 Y50.385 E0.022
G1 X119.51 Y49.831 E0.021
G1 X119.897 Y49.309 E0.022
G1 X120.332 Y48.832 E0.021
G1 X120.809 Y48.397 E0.022
G1 X121.331 Y48.01 E0.021
G1 X121.885 Y47.677 E0.022
G1 X122.474 Y47.399 E0.021
G1 X123.086 Y47.18 E0.022
G1 X123.712 Y47.024 E0.022
G1 X123.873 Y47 E0.005
G1 X123.712 Y46.976 E0.005
G1 X123.086 Y46.82 E0.022
G1 X122.474 Y46.601 E0.021
G1 X121.885 Y46.323 E0.022
G1 X121.331 Y45.99 E0.022
G1 X120.809 Y45.603 E0.021
G1 X120.332 Y45.169 E0.022
G1 X119.897 Y44.691 E0.021
G1 X119.51 Y44.169 E0.022
G1 X119.177 Y43.615 E0.021
G1 X118.899 Y43.026 E0.022
G1 X118.68 Y42.414 E0.022
G1 X118.524 Y41.788 E0.021
G1 X118.428 Y41.148 E0.022
G1 X118.4 Y40.563 E0.019
G1 Y16.437 E0.802
G1 X118.429 Y15.842 E0.02
G1 X118.536 Y15.163 E0.023
G1 X118.681 Y14.584 E0.02
G1 X118.899 Y13.974 E0.022
G1 X119.177 Y13.385 E0.021
G1 X119.51 Y12.831 E0.022
G1 X119.897 Y12.309 E0.021
G1 X120.331 Y11.832 E0.022
G1 X120.809 Y11.397 E0.021
G1 X121.331 Y11.01 E0.022
G1 X121.885 Y10.677 E0.021
G1 X122.474 Y10.399 E0.022
G1 X123.086 Y10.18 E0.022
G1 X123.712 Y10.024 E0.021
G1 X124.352 Y9.928 E0.022
G1 X125 Y9.897 E0.021
G1 X125.648 Y9.928 E0.022
G1 X126.288 Y10.024 E0.021
G1 X126.914 Y10.18 E0.022
G1 X127.526 Y10.399 E0.021
G1 X128.115 Y10.677 E0.022
G1 X128.669 Y11.01 E0.022
G1 X129.191 Y11.397 E0.021
G1 X129.677 Y11.839 E0.022
G1 X130.133 Y12.349 E0.023
G1 X130.49 Y12.831 E0.02
G1 X130.823 Y13.385 E0.021
G1 X131.101 Y13.974 E0.022
G1 X131.32 Y14.586 E0.021
G1 X131.476 Y15.212 E0.022
G1 X131.572 Y15.852 E0.021
G1 X131.6 Y16.437 E0.02
G1 Y40.563 E0.802
G1 X131.571 Y41.158 E0.02
G1 X131.464 Y41.837 E0.023
G1 X131.319 Y42.416 E0.02
G1 X131.101 Y43.026 E0.021
G1 X130.823 Y43.615 E0.022
G1 X130.484 Y44.178 E0.022
G1 X130.069 Y44.729 E0.023
G1 X129.668 Y45.169 E0.02
G1 X129.191 Y45.603 E0.021
G1 X128.669 Y45.99 E0.022
G1 X128.115 Y46.323 E0.021
G1 X127.526 Y46.601 E0.022
G1 X126.914 Y46.82 E0.022
G1 X126.288 Y46.976 E0.021
G1 X126.127 Y47 E0.005
G1 X126.288 Y47.024 E0.006
G1 X126.914 Y47.18 E0.021
G1 X127.526 Y47.399 E0.022
G1 X128.115 Y47.677 E0.022
G1 X128.669 Y48.01 E0.021
G1 X129.191 Y48.397 E0.022
G1 X129.677 Y48.839 E0.022
G1 X130.133 Y49.349 E0.022
G1 X130.49 Y49.831 E0.02
G1 X130.823 Y50.385 E0.022
G1 X131.101 Y50.974 E0.021
G1 X131.32 Y51.586 E0.022
G1 X131.476 Y52.212 E0.021
G1 X131.572 Y52.852 E0.022
G1 X131.6 Y53.437 E0.019
G1 Y77.563 E0.803
G1 X131.571 Y78.158 E0.02
G1 X131.464 Y78.837 E0.023
G1 X131.319 Y79.416 E0.019
G1 X131.101 Y80.026 E0.022
G1 X130.823 Y80.615 E0.022
G1 X130.484 Y81.178 E0.021
G1 X130.069 Y81.729 E0.023
G1 X129.668 Y82.169 E0.02
G1 X129.191 Y82.603 E0.022
G1 X128.669 Y82.99 E0.021
G1 X128.115 Y83.323 E0.022
G1 X127.526 Y83.601 E0.021
G1 X126.914 Y83.82 E0.022
G1 X126.288 Y83.976 E0.022
G1 X126.127 Y84 E0.005
G1 X126.288 Y84.024 E0.005
G1 X126.914 Y84.18 E0.022
G1 X127.526 Y84.399 E0.021
G1 X128.115 Y84.677 E0.022
G1 X128.669 Y85.01 E0.022
G1 X129.191 Y85.397 E0.021
G1 X129.669 Y85.832 E0.022
G1 X130.103 Y86.309 E0.021
G1 X130.49 Y86.831 E0.022
G1 X130.823 Y87.385 E0.021
G1 X131.101 Y87.974 E0.022
G1 X131.32 Y88.586 E0.022
G1 X131.476 Y89.212 E0.021
G1 X131.572 Y89.852 E0.022
G1 X131.6 Y90.437 E0.019
G1 Y106.563 E0.536
G1 X131.572 Y107.148 E0.02
G1 X131.476 Y107.788 E0.021
G1 X131.32 Y108.414 E0.022
G1 X131.101 Y109.026 E0.021
G1 X130.823 Y109.615 E0.022
G1 X130.49 Y110.169 E0.022
G1 X130.103 Y110.691 E0.021
G1 X129.669 Y111.168 E0.022
G1 X129.191 Y111.603 E0.021
G1 X128.669 Y111.99 E0.022
G1 X128.115 Y112.323 E0.021
G1 X127.526 Y112.601 E0.022
G1 X126.914 Y112.82 E0.022
G1 X126.288 Y112.976 E0.021
G1 X126.127 Y113 E0.005
G1 X126.288 Y113.024 E0.006
G1 X126.914 Y113.18 E0.021
G1 X127.526 Y113.399 E0.022
G1 X128.115 Y113.677 E0.022
G1 X128.669 Y114.01 E0.021
G1 X129.191 Y114.397 E0.022
G1 X129.669 Y114.831 E0.021
G1 X130.103 Y115.309 E0.022
G1 X130.49 Y115.831 E0.021
G1 X130.823 Y116.385 E0.022
G1 X131.101 Y116.974 E0.021
G1 X131.32 Y117.586 E0.022
G1 X131.476 Y118.212 E0.021
G1 X131.572 Y118.852 E0.022
G1 X131.6 Y119.437 E0.019
G1 Y135.563 E0.537
G1 X131.571 Y136.158 E0.02
G1 X131.464 Y136.837 E0.023
G1 X131.319 Y137.416 E0.019
G1 X131.101 Y138.026 E0.022
G1 X130.823 Y138.615 E0.022
G1 X130.49 Y139.169 E0.021
G1 X130.103 Y139.691 E0.022
G1 X129.668 Y140.169 E0.021
G1 X129.191 Y140.603 E0.022
G1 X128.66 Y140.996 E0.022
G1 X128.069 Y141.345 E0.022
G1 X127.525 Y141.602 E0.02
G1 X126.914 Y141.82 E0.022
G1 X126.288 Y141.976 E0.021
G1 X126.127 Y142 E0.006
G1 X126.288 Y142.024 E0.005
G1 X126.914 Y142.18 E0.022
G1 X127.526 Y142.399 E0.021
G1 X128.115 Y142.677 E0.022
G1 X128.669 Y143.01 E0.022
G1 X129.191 Y143.397 E0.021
G1 X129.669 Y143.832 E0.022
G1 X130.103 Y144.309 E0.021
G1 X130.49 Y144.831 E0.022
G1 X130.823 Y145.385 E0.021
G1 X131.101 Y145.974 E0.022
G1 X131.32 Y146.586 E0.021
G1 X131.476 Y147.212 E0.022
G1 X131.572 Y147.852 E0.021
G1 X131.6 Y148.437 E0.02
G1 Y164.563 E0.536
G1 X131.571 Y165.158 E0.02
G1 X131.464 Y165.837 E0.023
G1 X131.319 Y166.416 E0.02
G1 X131.101 Y167.026 E0.021
G1 X130.823 Y167.615 E0.022
G1 X130.49 Y168.169 E0.022
G1 X130.103 Y168.691 E0.021
G1 X129.668 Y169.169 E0.022
G1 X129.191 Y169.603 E0.021
G1 X128.66 Y169.996 E0.022
G1 X128.069 Y170.345 E0.023
G1 X127.525 Y170.602 E0.02
G1 X126.914 Y170.82 E0.021
G1 X126.288 Y170.976 E0.022
G1 X126.127 Y171 E0.005
G1 X126.288 Y171.024 E0.006
G1 X126.914 Y171.18 E0.021
G1 X127.526 Y171.399 E0.022
G1 X128.115 Y171.677 E0.022
G1 X128.669 Y172.01 E0.021
G1 X129.191 Y172.397 E0.022
G1 X129.669 Y172.831 E0.021
G1 X130.103 Y173.309 E0.022
G1 X130.49 Y173.831 E0.021
G1 X130.823 Y174.385 E0.022
G1 X131.101 Y174.974 E0.021
G1 X131.32 Y175.586 E0.022
G1 X131.476 Y176.212 E0.021
G1 X131.572 Y176.852 E0.022
G1 X131.6 Y177.437 E0.019
G1 Y193.563 E0.537
G1 X131.572 Y194.148 E0.019
G1 X131.476 Y194.788 E0.022
G1 X131.32 Y195.414 E0.021
G1 X131.101 Y196.026 E0.022
G1 X130.823 Y196.615 E0.022
G1 X130.49 Y197.169 E0.021
G1 X130.103 Y197.691 E0.022
G1 X129.668 Y198.169 E0.021
G1 X129.191 Y198.603 E0.022
G1 X128.669 Y198.99 E0.021
G1 X128.115 Y199.323 E0.022
G1 X127.526 Y199.601 E0.021
G1 X126.914 Y199.82 E0.022
G1 X126.288 Y199.976 E0.021
G1 X125.648 Y200.072 E0.022
G1 X125 Y200.103 E0.022
G1 X124.352 Y200.072 E0.021
G1 X123.712 Y199.976 E0.022
G1 X123.086 Y199.82 E0.021
G1 X122.474 Y199.601 E0.022
G1 X121.885 Y199.323 E0.021
G1 X121.331 Y198.99 E0.022
G1 X120.809 Y198.603 E0.021
G1 X120.331 Y198.169 E0.022
G1 X119.897 Y197.691 E0.021
G1 X119.51 Y197.169 E0.022
G1 X119.177 Y196.615 E0.022
G1 X118.899 Y196.026 E0.021
G1 X118.68 Y195.414 E0.022
G1 X118.524 Y194.788 E0.021
G1 X118.428 Y194.148 E0.022
G1 X118.4 Y193.563 E0.019
;rapid-leaky
G0 X118.8 Y193.553 F7200
;bead-skirt/brim
G1 Y177.447 F960 E0.536
G1 X118.827 Y176.883 E0.019
G1 X118.928 Y176.243 E0.021
G1 X119.064 Y175.7 E0.019
G1 X119.269 Y175.127 E0.02
G1 X119.53 Y174.574 E0.02
G1 X119.843 Y174.054 E0.021
G1 X120.206 Y173.563 E0.02
G1 X120.615 Y173.115 E0.02
G1 X121.063 Y172.706 E0.02
G1 X121.561 Y172.338 E0.021
G1 X122.118 Y172.009 E0.021
G1 X122.628 Y171.768 E0.019
G1 X123.202 Y171.564 E0.02
G1 X123.79 Y171.417 E0.021
G1 X124.392 Y171.327 E0.02
G1 X125 Y171.297 E0.02
G1 X125.608 Y171.327 E0.02
G1 X126.21 Y171.417 E0.021
G1 X126.798 Y171.564 E0.02
G1 X127.373 Y171.769 E0.02
G1 X127.926 Y172.03 E0.02
G1 X128.446 Y172.343 E0.021
G1 X128.937 Y172.706 E0.02
G1 X129.385 Y173.115 E0.02
G1 X129.794 Y173.563 E0.02
G1 X130.157 Y174.054 E0.021
G1 X130.47 Y174.574 E0.02
G1 X130.731 Y175.127 E0.02
G1 X130.936 Y175.702 E0.02
G1 X131.083 Y176.29 E0.021
G1 X131.173 Y176.892 E0.02
G1 X131.2 Y177.447 E0.018
G1 Y193.553 E0.536
G1 X131.173 Y194.108 E0.018
G1 X131.083 Y194.71 E0.021
G1 X130.936 Y195.298 E0.02
G1 X130.731 Y195.873 E0.02
G1 X130.47 Y196.426 E0.021
G1 X130.157 Y196.946 E0.02
G1 X129.794 Y197.437 E0.02
G1 X129.385 Y197.885 E0.02
G1 X128.937 Y198.294 E0.02
G1 X128.446 Y198.657 E0.021
G1 X127.926 Y198.97 E0.02
G1 X127.373 Y199.231 E0.02
G1 X126.798 Y199.436 E0.021
G1 X126.21 Y199.583 E0.02
G1 X125.608 Y199.673 E0.02
G1 X125 Y199.703 E0.02
G1 X124.392 Y199.673 E0.02
G1 X123.79 Y199.583 E0.021
G1 X123.202 Y199.436 E0.02
G1 X122.627 Y199.231 E0.02
G1 X122.074 Y198.97 E0.02
G1 X121.554 Y198.657 E0.021
G1 X121.063 Y198.294 E0.02
G1 X120.615 Y197.885 E0.02
G1 X120.206 Y197.437 E0.02
G1 X119.843 Y196.946 E0.021
G1 X119.53 Y196.426 E0.02
G1 X119.269 Y195.873 E0.02
G1 X119.064 Y195.298 E0.02
G1 X118.917 Y194.71 E0.021
G1 X118.827 Y194.108 E0.02
G1 X118.8 Y193.553 E0.018
;rapid-leaky
G0 X119.2 Y193.544 F7200
;bead-skirt/brim
G1 Y177.456 F960 E0.535
G1 X119.226 Y176.924 E0.018
G1 X119.32 Y176.323 E0.02
G1 X119.447 Y175.817 E0.018
G1 X119.639 Y175.28 E0.019
G1 X119.883 Y174.763 E0.019
G1 X120.176 Y174.276 E0.019
G1 X120.516 Y173.818 E0.019
G1 X120.898 Y173.398 E0.018
G1 X121.318 Y173.016 E0.019
G1 X121.782 Y172.672 E0.02
G1 X122.306 Y172.363 E0.02
G1 X122.781 Y172.138 E0.017
G1 X123.318 Y171.947 E0.019
G1 X123.868 Y171.81 E0.019
G1 X124.431 Y171.725 E0.019
G1 X125 Y171.698 E0.019
G1 X125.569 Y171.725 E0.019
G1 X126.132 Y171.81 E0.019
G1 X126.682 Y171.947 E0.019
G1 X127.22 Y172.139 E0.019
G1 X127.737 Y172.383 E0.019
G1 X128.224 Y172.676 E0.019
G1 X128.682 Y173.016 E0.019
G1 X129.102 Y173.398 E0.018
G1 X129.484 Y173.818 E0.019
G1 X129.824 Y174.276 E0.019
G1 X130.117 Y174.763 E0.019
G1 X130.361 Y175.28 E0.019
G1 X130.553 Y175.818 E0.019
G1 X130.69 Y176.368 E0.019
G1 X130.775 Y176.931 E0.019
G1 X130.8 Y177.456 E0.018
G1 Y193.544 E0.535
G1 X130.775 Y194.069 E0.017
G1 X130.69 Y194.632 E0.019
G1 X130.553 Y195.182 E0.019
G1 X130.361 Y195.72 E0.019
G1 X130.117 Y196.237 E0.019
G1 X129.824 Y196.724 E0.019
G1 X129.484 Y197.182 E0.019
G1 X129.102 Y197.602 E0.019
G1 X128.682 Y197.984 E0.019
G1 X128.224 Y198.324 E0.018
G1 X127.737 Y198.617 E0.019
G1 X127.22 Y198.861 E0.019
G1 X126.682 Y199.053 E0.019
G1 X126.132 Y199.19 E0.019
G1 X125.569 Y199.275 E0.019
G1 X125 Y199.302 E0.019
G1 X124.431 Y199.275 E0.019
G1 X123.868 Y199.19 E0.019
G1 X123.318 Y199.053 E0.019
G1 X122.78 Y198.861 E0.019
G1 X122.263 Y198.617 E0.019
G1 X121.776 Y198.324 E0.019
G1 X121.318 Y197.984 E0.019
G1 X120.898 Y197.602 E0.019
G1 X120.516 Y197.182 E0.019
G1 X120.176 Y196.724 E0.019
G1 X119.883 Y196.237 E0.018
G1 X119.639 Y195.72 E0.019
G1 X119.447 Y195.182 E0.019
G1 X119.31 Y194.632 E0.019
G1 X119.225 Y194.069 E0.019
G1 X119.2 Y193.544 E0.018
;rapid-leaky
G0 X119.6 Y193.534 F7200
;bead-skirt/brim
G1 Y177.466 F960 E0.534
G1 X119.624 Y176.965 E0.017
G1 X119.713 Y176.402 E0.019
G1 X119.831 Y175.933 E0.016
G1 X120.009 Y175.433 E0.018
G1 X120.236 Y174.952 E0.017
G1 X120.509 Y174.499 E0.018
G1 X120.825 Y174.072 E0.017
G1 X121.181 Y173.681 E0.018
G1 X121.572 Y173.325 E0.018
G1 X122.004 Y173.005 E0.017
G1 X122.493 Y172.716 E0.019
G1 X122.934 Y172.509 E0.017
G1 X123.433 Y172.33 E0.017
G1 X123.947 Y172.202 E0.018
G1 X124.47 Y172.124 E0.017
G1 X125 Y172.098 E0.018
G1 X125.53 Y172.124 E0.018
G1 X126.053 Y172.202 E0.017
G1 X126.567 Y172.33 E0.018
G1 X127.067 Y172.509 E0.018
G1 X127.548 Y172.736 E0.017
G1 X128.001 Y173.009 E0.018
G1 X128.428 Y173.325 E0.018
G1 X128.819 Y173.681 E0.017
G1 X129.175 Y174.072 E0.018
G1 X129.491 Y174.499 E0.017
G1 X129.764 Y174.952 E0.018
G1 X129.991 Y175.433 E0.018
G1 X130.17 Y175.933 E0.017
G1 X130.298 Y176.446 E0.018
G1 X130.376 Y176.97 E0.018
G1 X130.4 Y177.466 E0.016
G1 Y193.534 E0.534
G1 X130.376 Y194.03 E0.017
G1 X130.298 Y194.554 E0.018
G1 X130.17 Y195.067 E0.017
G1 X129.991 Y195.567 E0.018
G1 X129.764 Y196.048 E0.018
G1 X129.491 Y196.501 E0.017
G1 X129.175 Y196.928 E0.018
G1 X128.819 Y197.319 E0.017
G1 X128.428 Y197.675 E0.018
G1 X128.001 Y197.991 E0.018
G1 X127.548 Y198.264 E0.017
G1 X127.067 Y198.491 E0.018
G1 X126.567 Y198.67 E0.018
G1 X126.053 Y198.798 E0.017
G1 X125.53 Y198.876 E0.018
G1 X125 Y198.902 E0.017
G1 X124.47 Y198.876 E0.018
G1 X123.947 Y198.798 E0.018
G1 X123.433 Y198.67 E0.017
G1 X122.933 Y198.491 E0.018
G1 X122.452 Y198.264 E0.018
G1 X121.999 Y197.991 E0.017
G1 X121.572 Y197.675 E0.018
G1 X121.181 Y197.319 E0.018
G1 X120.825 Y196.928 E0.017
G1 X120.509 Y196.501 E0.018
G1 X120.236 Y196.048 E0.017
G1 X120.009 Y195.567 E0.018
G1 X119.83 Y195.067 E0.018
G1 X119.702 Y194.553 E0.017
G1 X119.624 Y194.03 E0.018
G1 X119.6 Y193.534 E0.016
;rapid-leaky
G0 X120 Y193.524 F7200
;bead-skirt/brim
G1 Y177.476 F960 E0.534
G1 X120.023 Y177.006 E0.016
G1 X120.105 Y176.482 E0.017
G1 X120.214 Y176.049 E0.015
G1 X120.379 Y175.586 E0.017
G1 X120.589 Y175.141 E0.016
G1 X120.842 Y174.722 E0.016
G1 X121.134 Y174.326 E0.017
G1 X121.464 Y173.964 E0.016
G1 X121.826 Y173.634 E0.016
G1 X122.225 Y173.339 E0.017
G1 X122.68 Y173.07 E0.017
G1 X123.087 Y172.879 E0.015
G1 X123.549 Y172.714 E0.017
G1 X124.025 Y172.595 E0.016
G1 X124.51 Y172.523 E0.016
G1 X125 Y172.499 E0.017
G1 X125.49 Y172.523 E0.016
G1 X125.975 Y172.595 E0.016
G1 X126.451 Y172.714 E0.017
G1 X126.914 Y172.879 E0.016
G1 X127.359 Y173.089 E0.016
G1 X127.778 Y173.342 E0.017
G1 X128.174 Y173.634 E0.016
G1 X128.536 Y173.964 E0.016
G1 X128.866 Y174.326 E0.016
G1 X129.158 Y174.722 E0.017
G1 X129.411 Y175.141 E0.016
G1 X129.621 Y175.586 E0.016
G1 X129.786 Y176.049 E0.017
G1 X129.905 Y176.525 E0.016
G1 X129.977 Y177.01 E0.016
G1 X130 Y177.476 E0.016
G1 Y193.524 E0.534
G1 X129.977 Y193.99 E0.015
G1 X129.905 Y194.475 E0.017
G1 X129.786 Y194.951 E0.016
G1 X129.621 Y195.414 E0.016
G1 X129.411 Y195.859 E0.017
G1 X129.158 Y196.278 E0.016
G1 X128.866 Y196.674 E0.016
G1 X128.536 Y197.036 E0.017
G1 X128.174 Y197.366 E0.016
G1 X127.778 Y197.658 E0.016
G1 X127.359 Y197.911 E0.016
G1 X126.914 Y198.121 E0.017
G1 X126.451 Y198.286 E0.016
G1 X125.975 Y198.405 E0.016
G1 X125.49 Y198.477 E0.017
G1 X125 Y198.501 E0.016
G1 X124.51 Y198.477 E0.016
G1 X124.025 Y198.405 E0.017
G1 X123.549 Y198.286 E0.016
G1 X123.086 Y198.121 E0.016
G1 X122.641 Y197.911 E0.017
G1 X122.222 Y197.658 E0.016
G1 X121.826 Y197.366 E0.016
G1 X121.464 Y197.036 E0.017
G1 X121.134 Y196.674 E0.016
G1 X120.842 Y196.279 E0.016
G1 X120.589 Y195.859 E0.017
G1 X120.379 Y195.414 E0.016
G1 X120.214 Y194.951 E0.016
G1 X120.095 Y194.475 E0.017
G1 X120.023 Y193.99 E0.016
G1 X120 Y193.524 E0.016
;rapid-leaky
G0 X120.4 Y193.515 F7200
;bead-skirt/brim
G1 Y177.485 F960 E0.533
G1 X120.421 Y177.047 E0.014
G1 X120.497 Y176.562 E0.017
G1 X120.597 Y176.165 E0.013
G1 X120.749 Y175.739 E0.015
G1 X120.942 Y175.33 E0.015
G1 X121.175 Y174.944 E0.015
G1 X121.444 Y174.581 E0.015
G1 X121.747 Y174.247 E0.015
G1 X122.081 Y173.944 E0.015
G1 X122.446 Y173.673 E0.015
G1 X122.868 Y173.424 E0.017
G1 X123.24 Y173.249 E0.013
G1 X123.665 Y173.097 E0.015
G1 X124.103 Y172.988 E0.015
G1 X124.549 Y172.921 E0.015
G1 X125 Y172.899 E0.015
G1 X125.451 Y172.921 E0.015
G1 X125.897 Y172.988 E0.015
G1 X126.335 Y173.097 E0.015
G1 X126.761 Y173.249 E0.015
G1 X127.17 Y173.442 E0.016
G1 X127.556 Y173.675 E0.015
G1 X127.919 Y173.944 E0.015
G1 X128.253 Y174.247 E0.015
G1 X128.556 Y174.581 E0.015
G1 X128.825 Y174.944 E0.015
G1 X129.058 Y175.33 E0.015
G1 X129.251 Y175.739 E0.015
G1 X129.403 Y176.165 E0.015
G1 X129.512 Y176.603 E0.015
G1 X129.579 Y177.049 E0.015
G1 X129.6 Y177.485 E0.014
G1 Y193.515 E0.533
G1 X129.579 Y193.951 E0.015
G1 X129.512 Y194.397 E0.015
G1 X129.403 Y194.835 E0.015
G1 X129.251 Y195.261 E0.015
G1 X129.058 Y195.67 E0.015
G1 X128.825 Y196.056 E0.015
G1 X128.556 Y196.419 E0.015
G1 X128.253 Y196.753 E0.015
G1 X127.919 Y197.056 E0.015
G1 X127.556 Y197.325 E0.015
G1 X127.17 Y197.558 E0.015
G1 X126.761 Y197.751 E0.015
G1 X126.335 Y197.903 E0.015
G1 X125.897 Y198.012 E0.015
G1 X125.451 Y198.079 E0.015
G1 X125 Y198.101 E0.015
G1 X124.549 Y198.079 E0.015
G1 X124.103 Y198.012 E0.015
G1 X123.665 Y197.903 E0.015
G1 X123.239 Y197.751 E0.015
G1 X122.83 Y197.558 E0.015
G1 X122.444 Y197.325 E0.015
G1 X122.081 Y197.056 E0.015
G1 X121.747 Y196.753 E0.015
G1 X121.444 Y196.419 E0.015
G1 X121.175 Y196.056 E0.015
G1 X120.942 Y195.67 E0.015
G1 X120.749 Y195.261 E0.015
G1 X120.597 Y194.835 E0.015
G1 X120.488 Y194.397 E0.015
G1 X120.421 Y193.951 E0.015
G1 X120.4 Y193.515 E0.015
;rapid-leaky
G0 X120.8 Y193.505 F7200
;bead-skirt/brim
G1 Y177.495 F960 E0.532
G1 X120.82 Y177.088 E0.014
G1 X120.89 Y176.642 E0.015
G1 X120.98 Y176.281 E0.012
G1 X121.119 Y175.892 E0.014
G1 X121.295 Y175.519 E0.014
G1 X121.508 Y175.167 E0.013
G1 X121.753 Y174.835 E0.014
G1 X122.03 Y174.53 E0.014
G1 X122.335 Y174.253 E0.014
G1 X122.667 Y174.007 E0.013
G1 X123.055 Y173.778 E0.015
G1 X123.393 Y173.619 E0.013
G1 X123.781 Y173.48 E0.013
G1 X124.181 Y173.381 E0.014
G1 X124.588 Y173.32 E0.014
G1 X125 Y173.3 E0.014
G1 X125.412 Y173.32 E0.013
G1 X125.819 Y173.381 E0.014
G1 X126.219 Y173.48 E0.014
G1 X126.608 Y173.619 E0.013
G1 X126.981 Y173.795 E0.014
G1 X127.333 Y174.008 E0.014
G1 X127.665 Y174.253 E0.014
G1 X127.97 Y174.53 E0.013
G1 X128.247 Y174.835 E0.014
G1 X128.492 Y175.167 E0.014
G1 X128.705 Y175.519 E0.013
G1 X128.881 Y175.892 E0.014
G1 X129.02 Y176.281 E0.014
G1 X129.119 Y176.681 E0.014
G1 X129.18 Y177.088 E0.013
G1 X129.2 Y177.495 E0.014
G1 Y193.505 E0.532
G1 X129.18 Y193.912 E0.014
G1 X129.119 Y194.319 E0.014
G1 X129.02 Y194.719 E0.013
G1 X128.881 Y195.108 E0.014
G1 X128.705 Y195.481 E0.014
G1 X128.492 Y195.833 E0.013
G1 X128.247 Y196.165 E0.014
G1 X127.97 Y196.47 E0.014
G1 X127.665 Y196.747 E0.013
G1 X127.333 Y196.992 E0.014
G1 X126.981 Y197.205 E0.014
G1 X126.608 Y197.381 E0.014
G1 X126.219 Y197.52 E0.013
G1 X125.819 Y197.619 E0.014
G1 X125.412 Y197.68 E0.014
G1 X125 Y197.7 E0.013
G1 X124.588 Y197.68 E0.014
G1 X124.181 Y197.619 E0.014
G1 X123.781 Y197.52 E0.014
G1 X123.392 Y197.381 E0.013
G1 X123.019 Y197.205 E0.014
G1 X122.667 Y196.992 E0.014
G1 X122.335 Y196.747 E0.013
G1 X122.03 Y196.47 E0.014
G1 X121.753 Y196.165 E0.014
G1 X121.508 Y195.833 E0.014
G1 X121.295 Y195.481 E0.013
G1 X121.119 Y195.108 E0.014
G1 X120.98 Y194.719 E0.014
G1 X120.881 Y194.319 E0.013
G1 X120.82 Y193.912 E0.014
G1 X120.8 Y193.505 E0.014
;rapid-leaky
G0 X124.392 Y170.673 F7200
;bead-skirt/brim
G1 X123.79 Y170.583 F960 E0.02
G1 X123.202 Y170.436 E0.02
G1 X122.627 Y170.231 E0.02
G1 X122.074 Y169.97 E0.021
G1 X121.554 Y169.657 E0.02
G1 X121.063 Y169.294 E0.02
G1 X120.615 Y168.885 E0.02
G1 X120.206 Y168.437 E0.021
G1 X119.843 Y167.946 E0.02
G1 X119.53 Y167.426 E0.02
G1 X119.269 Y166.873 E0.02
G1 X119.064 Y166.298 E0.021
G1 X118.917 Y165.71 E0.02
G1 X118.827 Y165.108 E0.02
G1 X118.8 Y164.553 E0.019
G1 Y148.447 E0.535
G1 X118.827 Y147.892 E0.019
G1 X118.917 Y147.29 E0.02
G1 X119.064 Y146.702 E0.02
G1 X119.269 Y146.127 E0.02
G1 X119.53 Y145.574 E0.021
G1 X119.843 Y145.054 E0.02
G1 X120.206 Y144.563 E0.02
G1 X120.615 Y144.115 E0.02
G1 X121.063 Y143.706 E0.021
G1 X121.554 Y143.343 E0.02
G1 X122.074 Y143.03 E0.02
G1 X122.627 Y142.769 E0.02
G1 X123.202 Y142.564 E0.021
G1 X123.79 Y142.417 E0.02
G1 X124.392 Y142.327 E0.02
G1 X125 Y142.297 E0.02
G1 X125.609 Y142.327 E0.021
G1 X126.21 Y142.417 E0.02
G1 X126.798 Y142.564 E0.02
G1 X127.373 Y142.769 E0.02
G1 X127.926 Y143.03 E0.021
G1 X128.446 Y143.343 E0.02
G1 X128.937 Y143.706 E0.02
G1 X129.385 Y144.115 E0.02
G1 X129.794 Y144.563 E0.021
G1 X130.157 Y145.054 E0.02
G1 X130.47 Y145.574 E0.02
G1 X130.731 Y146.127 E0.02
G1 X130.936 Y146.702 E0.021
G1 X131.083 Y147.29 E0.02
G1 X131.173 Y147.892 E0.02
G1 X131.2 Y148.447 E0.019
G1 Y164.553 E0.535
G1 X131.173 Y165.117 E0.019
G1 X131.072 Y165.757 E0.022
G1 X130.936 Y166.3 E0.018
G1 X130.731 Y166.873 E0.02
G1 X130.47 Y167.426 E0.021
G1 X130.157 Y167.946 E0.02
G1 X129.794 Y168.437 E0.02
G1 X129.385 Y168.885 E0.02
G1 X128.937 Y169.294 E0.021
G1 X128.439 Y169.662 E0.02
G1 X127.882 Y169.991 E0.022
G1 X127.372 Y170.232 E0.019
G1 X126.798 Y170.436 E0.02
G1 X126.21 Y170.583 E0.02
G1 X125.608 Y170.673 E0.02
G1 X125 Y170.703 E0.02
G1 X124.392 Y170.673 E0.021
;rapid-leaky
G0 X124.431 Y170.275 F7200
;bead-skirt/brim
G1 X123.868 Y170.19 F960 E0.019
G1 X123.318 Y170.053 E0.019
G1 X122.78 Y169.861 E0.019
G1 X122.263 Y169.617 E0.019
G1 X121.776 Y169.324 E0.018
G1 X121.318 Y168.984 E0.019
G1 X120.898 Y168.602 E0.019
G1 X120.516 Y168.182 E0.019
G1 X120.176 Y167.724 E0.019
G1 X119.883 Y167.237 E0.019
G1 X119.639 Y166.72 E0.019
G1 X119.447 Y166.182 E0.019
G1 X119.31 Y165.632 E0.019
G1 X119.225 Y165.069 E0.019
G1 X119.2 Y164.544 E0.017
G1 Y148.456 E0.535
G1 X119.225 Y147.931 E0.018
G1 X119.31 Y147.368 E0.019
G1 X119.447 Y146.818 E0.019
G1 X119.639 Y146.28 E0.019
G1 X119.883 Y145.763 E0.019
G1 X120.176 Y145.276 E0.019
G1 X120.516 Y144.818 E0.019
G1 X120.898 Y144.398 E0.018
G1 X121.318 Y144.016 E0.019
G1 X121.776 Y143.676 E0.019
G1 X122.263 Y143.383 E0.019
G1 X122.78 Y143.139 E0.019
G1 X123.318 Y142.947 E0.019
G1 X123.868 Y142.81 E0.019
G1 X124.431 Y142.725 E0.019
G1 X125 Y142.698 E0.019
G1 X125.569 Y142.725 E0.019
G1 X126.132 Y142.81 E0.019
G1 X126.682 Y142.947 E0.019
G1 X127.22 Y143.139 E0.019
G1 X127.737 Y143.383 E0.019
G1 X128.224 Y143.676 E0.019
G1 X128.682 Y144.016 E0.019
G1 X129.102 Y144.398 E0.018
G1 X129.484 Y144.818 E0.019
G1 X129.824 Y145.276 E0.019
G1 X130.117 Y145.763 E0.019
G1 X130.361 Y146.28 E0.019
G1 X130.553 Y146.818 E0.019
G1 X130.69 Y147.368 E0.019
G1 X130.775 Y147.931 E0.019
G1 X130.8 Y148.456 E0.018
G1 Y164.544 E0.535
G1 X130.774 Y165.076 E0.017
G1 X130.68 Y165.677 E0.021
G1 X130.553 Y166.183 E0.017
G1 X130.361 Y166.72 E0.019
G1 X130.117 Y167.237 E0.019
G1 X129.824 Y167.724 E0.019
G1 X129.484 Y168.182 E0.019
G1 X129.102 Y168.602 E0.019
G1 X128.682 Y168.984 E0.019
G1 X128.218 Y169.328 E0.019
G1 X127.694 Y169.637 E0.02
G1 X127.219 Y169.862 E0.017
G1 X126.682 Y170.053 E0.019
G1 X126.132 Y170.19 E0.019
G1 X125.569 Y170.275 E0.019
G1 X125 Y170.302 E0.019
G1 X124.431 Y170.275 E0.019
;rapid-leaky
G0 X124.47 Y169.876 F7200
;bead-skirt/brim
G1 X123.947 Y169.798 F960 E0.018
G1 X123.433 Y169.67 E0.017
G1 X122.933 Y169.491 E0.018
G1 X122.452 Y169.264 E0.018
G1 X121.999 Y168.991 E0.017
G1 X121.572 Y168.675 E0.018
G1 X121.181 Y168.319 E0.018
G1 X120.825 Y167.928 E0.017
G1 X120.509 Y167.501 E0.018
G1 X120.236 Y167.048 E0.017
G1 X120.009 Y166.567 E0.018
G1 X119.83 Y166.067 E0.018
G1 X119.702 Y165.554 E0.017
G1 X119.624 Y165.03 E0.018
G1 X119.6 Y164.534 E0.016
G1 Y148.466 E0.535
G1 X119.624 Y147.97 E0.016
G1 X119.702 Y147.447 E0.018
G1 X119.83 Y146.933 E0.018
G1 X120.009 Y146.433 E0.017
G1 X120.236 Y145.952 E0.018
G1 X120.509 Y145.499 E0.018
G1 X120.825 Y145.072 E0.017
G1 X121.181 Y144.681 E0.018
G1 X121.572 Y144.325 E0.017
G1 X121.999 Y144.009 E0.018
G1 X122.452 Y143.736 E0.018
G1 X122.933 Y143.509 E0.017
G1 X123.434 Y143.33 E0.018
G1 X123.947 Y143.202 E0.018
G1 X124.47 Y143.124 E0.017
G1 X125 Y143.098 E0.018
G1 X125.53 Y143.124 E0.017
G1 X126.053 Y143.202 E0.018
G1 X126.566 Y143.33 E0.018
G1 X127.067 Y143.509 E0.017
G1 X127.548 Y143.736 E0.018
G1 X128.001 Y144.009 E0.018
G1 X128.428 Y144.325 E0.017
G1 X128.819 Y144.681 E0.018
G1 X129.175 Y145.072 E0.017
G1 X129.491 Y145.499 E0.018
G1 X129.764 Y145.952 E0.018
G1 X129.991 Y146.433 E0.017
G1 X130.17 Y146.933 E0.018
G1 X130.298 Y147.446 E0.018
G1 X130.376 Y147.97 E0.017
G1 X130.4 Y148.466 E0.017
G1 Y164.534 E0.534
G1 X130.376 Y165.035 E0.017
G1 X130.287 Y165.598 E0.019
G1 X130.169 Y166.067 E0.016
G1 X129.991 Y166.567 E0.018
G1 X129.764 Y167.048 E0.017
G1 X129.491 Y167.501 E0.018
G1 X129.175 Y167.928 E0.018
G1 X128.819 Y168.319 E0.017
G1 X128.428 Y168.675 E0.018
G1 X127.997 Y168.995 E0.018
G1 X127.507 Y169.284 E0.019
G1 X127.066 Y169.492 E0.016
G1 X126.567 Y169.67 E0.017
G1 X126.053 Y169.798 E0.018
G1 X125.53 Y169.876 E0.018
G1 X125 Y169.902 E0.017
G1 X124.47 Y169.876 E0.018
;rapid-leaky
G0 X124.51 Y169.477 F7200
;bead-skirt/brim
G1 X124.025 Y169.405 F960 E0.016
G1 X123.549 Y169.286 E0.016
G1 X123.086 Y169.121 E0.017
G1 X122.641 Y168.911 E0.016
G1 X122.222 Y168.658 E0.016
G1 X121.826 Y168.366 E0.017
G1 X121.464 Y168.036 E0.016
G1 X121.134 Y167.674 E0.016
G1 X120.842 Y167.278 E0.017
G1 X120.589 Y166.859 E0.016
G1 X120.379 Y166.414 E0.016
G1 X120.214 Y165.951 E0.017
G1 X120.095 Y165.475 E0.016
G1 X120.023 Y164.99 E0.016
G1 X120 Y164.524 E0.016
G1 Y148.476 E0.534
G1 X120.023 Y148.01 E0.015
G1 X120.095 Y147.525 E0.016
G1 X120.214 Y147.049 E0.017
G1 X120.379 Y146.586 E0.016
G1 X120.589 Y146.141 E0.017
G1 X120.842 Y145.722 E0.016
G1 X121.134 Y145.326 E0.016
G1 X121.464 Y144.964 E0.016
G1 X121.826 Y144.634 E0.017
G1 X122.222 Y144.342 E0.016
G1 X122.641 Y144.089 E0.016
G1 X123.086 Y143.879 E0.017
G1 X123.549 Y143.714 E0.016
G1 X124.025 Y143.595 E0.016
G1 X124.51 Y143.523 E0.017
G1 X125 Y143.499 E0.016
G1 X125.49 Y143.523 E0.016
G1 X125.975 Y143.595 E0.017
G1 X126.451 Y143.714 E0.016
G1 X126.914 Y143.879 E0.016
G1 X127.359 Y144.089 E0.017
G1 X127.778 Y144.342 E0.016
G1 X128.174 Y144.634 E0.016
G1 X128.536 Y144.964 E0.017
G1 X128.866 Y145.326 E0.016
G1 X129.158 Y145.722 E0.016
G1 X129.411 Y146.141 E0.017
G1 X129.621 Y146.586 E0.016
G1 X129.786 Y147.049 E0.016
G1 X129.905 Y147.525 E0.017
G1 X129.977 Y148.01 E0.016
G1 X130 Y148.476 E0.015
G1 Y164.524 E0.534
G1 X129.977 Y164.994 E0.016
G1 X129.895 Y165.518 E0.017
G1 X129.786 Y165.951 E0.015
G1 X129.621 Y166.414 E0.017
G1 X129.411 Y166.859 E0.016
G1 X129.158 Y167.278 E0.016
G1 X128.866 Y167.674 E0.017
G1 X128.536 Y168.036 E0.016
G1 X128.174 Y168.366 E0.016
G1 X127.775 Y168.661 E0.017
G1 X127.32 Y168.93 E0.017
G1 X126.913 Y169.121 E0.015
G1 X126.451 Y169.286 E0.017
G1 X125.975 Y169.405 E0.016
G1 X125.49 Y169.477 E0.016
G1 X125 Y169.501 E0.017
G1 X124.51 Y169.477 E0.016
;rapid-leaky
G0 X124.549 Y169.079 F7200
;bead-skirt/brim
G1 X124.103 Y169.012 F960 E0.015
G1 X123.665 Y168.903 E0.015
G1 X123.239 Y168.751 E0.015
G1 X122.83 Y168.558 E0.015
G1 X122.444 Y168.325 E0.015
G1 X122.081 Y168.056 E0.015
G1 X121.747 Y167.753 E0.015
G1 X121.444 Y167.419 E0.015
G1 X121.175 Y167.056 E0.015
G1 X120.942 Y166.67 E0.015
G1 X120.749 Y166.261 E0.015
G1 X120.597 Y165.835 E0.015
G1 X120.488 Y165.397 E0.015
G1 X120.421 Y164.951 E0.015
G1 X120.4 Y164.515 E0.015
G1 Y148.485 E0.533
G1 X120.421 Y148.049 E0.014
G1 X120.488 Y147.603 E0.015
G1 X120.597 Y147.165 E0.015
G1 X120.749 Y146.739 E0.015
G1 X120.942 Y146.33 E0.015
G1 X121.175 Y145.944 E0.015
G1 X121.444 Y145.581 E0.015
G1 X121.747 Y145.247 E0.015
G1 X122.081 Y144.944 E0.015
G1 X122.444 Y144.675 E0.015
G1 X122.83 Y144.442 E0.015
G1 X123.239 Y144.249 E0.016
G1 X123.665 Y144.097 E0.015
G1 X124.103 Y143.988 E0.015
G1 X124.549 Y143.921 E0.015
G1 X125 Y143.899 E0.015
G1 X125.451 Y143.921 E0.015
G1 X125.897 Y143.988 E0.015
G1 X126.335 Y144.097 E0.015
G1 X126.761 Y144.249 E0.015
G1 X127.17 Y144.442 E0.015
G1 X127.556 Y144.675 E0.015
G1 X127.919 Y144.944 E0.015
G1 X128.253 Y145.247 E0.015
G1 X128.556 Y145.581 E0.015
G1 X128.825 Y145.944 E0.015
G1 X129.058 Y146.33 E0.015
G1 X129.251 Y146.739 E0.015
G1 X129.403 Y147.165 E0.015
G1 X129.512 Y147.603 E0.015
G1 X129.579 Y148.049 E0.015
G1 X129.6 Y148.485 E0.014
G1 Y164.515 E0.534
G1 X129.579 Y164.953 E0.014
G1 X129.503 Y165.438 E0.016
G1 X129.403 Y165.835 E0.014
G1 X129.251 Y166.261 E0.015
G1 X129.058 Y166.67 E0.015
G1 X128.825 Y167.056 E0.015
G1 X128.556 Y167.419 E0.015
G1 X128.253 Y167.753 E0.015
G1 X127.919 Y168.056 E0.015
G1 X127.554 Y168.327 E0.015
G1 X127.132 Y168.576 E0.017
G1 X126.76 Y168.751 E0.013
G1 X126.335 Y168.903 E0.015
G1 X125.897 Y169.012 E0.015
G1 X125.451 Y169.079 E0.015
G1 X125 Y169.101 E0.015
G1 X124.549 Y169.079 E0.015
;rapid-leaky
G0 X124.588 Y168.68 F7200
;bead-skirt/brim
G1 X124.181 Y168.619 F960 E0.014
G1 X123.781 Y168.52 E0.014
G1 X123.392 Y168.381 E0.013
G1 X123.019 Y168.205 E0.014
G1 X122.667 Y167.992 E0.014
G1 X122.335 Y167.747 E0.014
G1 X122.03 Y167.47 E0.013
G1 X121.753 Y167.165 E0.014
G1 X121.508 Y166.833 E0.014
G1 X121.295 Y166.481 E0.013
G1 X121.119 Y166.108 E0.014
G1 X120.98 Y165.719 E0.014
G1 X120.881 Y165.319 E0.014
G1 X120.82 Y164.912 E0.013
G1 X120.8 Y164.505 E0.014
G1 Y148.495 E0.532
G1 X120.82 Y148.088 E0.014
G1 X120.881 Y147.681 E0.014
G1 X120.98 Y147.281 E0.013
G1 X121.119 Y146.892 E0.014
G1 X121.295 Y146.519 E0.014
G1 X121.508 Y146.167 E0.013
G1 X121.753 Y145.835 E0.014
G1 X122.03 Y145.53 E0.014
G1 X122.335 Y145.253 E0.014
G1 X122.667 Y145.008 E0.013
G1 X123.019 Y144.795 E0.014
G1 X123.392 Y144.619 E0.014
G1 X123.781 Y144.48 E0.013
G1 X124.181 Y144.381 E0.014
G1 X124.588 Y144.32 E0.014
G1 X125 Y144.3 E0.013
G1 X125.412 Y144.32 E0.014
G1 X125.819 Y144.381 E0.014
G1 X126.219 Y144.48 E0.014
G1 X126.608 Y144.619 E0.013
G1 X126.981 Y144.795 E0.014
G1 X127.333 Y145.008 E0.014
G1 X127.665 Y145.253 E0.013
G1 X127.97 Y145.53 E0.014
G1 X128.247 Y145.835 E0.014
G1 X128.492 Y146.167 E0.014
G1 X128.705 Y146.519 E0.013
G1 X128.881 Y146.892 E0.014
G1 X129.02 Y147.281 E0.014
G1 X129.119 Y147.681 E0.013
G1 X129.18 Y148.088 E0.014
G1 X129.2 Y148.495 E0.014
G1 Y164.505 E0.532
G1 X129.18 Y164.912 E0.014
G1 X129.11 Y165.358 E0.015
G1 X129.02 Y165.719 E0.012
G1 X128.881 Y166.108 E0.014
G1 X128.705 Y166.481 E0.014
G1 X128.492 Y166.833 E0.013
G1 X128.247 Y167.165 E0.014
G1 X127.97 Y167.47 E0.014
G1 X127.665 Y167.747 E0.013
G1 X127.333 Y167.993 E0.014
G1 X126.945 Y168.222 E0.015
G1 X126.607 Y168.381 E0.013
G1 X126.219 Y168.52 E0.013
G1 X125.819 Y168.619 E0.014
G1 X125.412 Y168.68 E0.014
G1 X125 Y168.7 E0.013
G1 X124.588 Y168.68 E0.014
;rapid-leaky
G0 X125 Y141.703 F7200
;bead-skirt/brim
G1 X124.392 Y141.673 F960 E0.02
G1 X123.79 Y141.583 E0.021
G1 X123.202 Y141.436 E0.02
G1 X122.627 Y141.231 E0.02
G1 X122.074 Y140.97 E0.02
G1 X121.554 Y140.657 E0.021
G1 X121.063 Y140.294 E0.02
G1 X120.615 Y139.885 E0.02
G1 X120.206 Y139.437 E0.02
G1 X119.843 Y138.946 E0.021
G1 X119.53 Y138.426 E0.02
G1 X119.269 Y137.873 E0.02
G1 X119.064 Y137.298 E0.02
G1 X118.917 Y136.71 E0.021
G1 X118.827 Y136.108 E0.02
G1 X118.8 Y135.553 E0.018
G1 Y119.447 E0.536
G1 X118.827 Y118.892 E0.018
G1 X118.917 Y118.29 E0.021
G1 X119.064 Y117.702 E0.02
G1 X119.269 Y117.127 E0.02
G1 X119.53 Y116.574 E0.02
G1 X119.843 Y116.054 E0.021
G1 X120.206 Y115.563 E0.02
G1 X120.615 Y115.115 E0.02
G1 X121.063 Y114.706 E0.02
G1 X121.554 Y114.343 E0.021
G1 X122.074 Y114.03 E0.02
G1 X122.627 Y113.769 E0.02
G1 X123.202 Y113.564 E0.02
G1 X123.79 Y113.417 E0.021
G1 X124.392 Y113.327 E0.02
G1 X125 Y113.297 E0.02
G1 X125.608 Y113.327 E0.02
G1 X126.21 Y113.417 E0.021
G1 X126.798 Y113.564 E0.02
G1 X127.373 Y113.769 E0.02
G1 X127.926 Y114.03 E0.02
G1 X128.446 Y114.343 E0.021
G1 X128.937 Y114.706 E0.02
G1 X129.385 Y115.115 E0.02
G1 X129.794 Y115.563 E0.02
G1 X130.157 Y116.054 E0.021
G1 X130.47 Y116.574 E0.02
G1 X130.731 Y117.127 E0.02
G1 X130.936 Y117.702 E0.02
G1 X131.083 Y118.29 E0.021
G1 X131.173 Y118.892 E0.02
G1 X131.2 Y119.447 E0.018
G1 Y135.553 E0.536
G1 X131.173 Y136.117 E0.019
G1 X131.072 Y136.757 E0.021
G1 X130.936 Y137.3 E0.019
G1 X130.731 Y137.873 E0.02
G1 X130.47 Y138.426 E0.02
G1 X130.157 Y138.946 E0.021
G1 X129.794 Y139.437 E0.02
G1 X129.385 Y139.885 E0.02
G1 X128.937 Y140.294 E0.02
G1 X128.439 Y140.662 E0.021
G1 X127.882 Y140.991 E0.021
G1 X127.372 Y141.232 E0.019
G1 X126.798 Y141.436 E0.02
G1 X126.21 Y141.583 E0.021
G1 X125.608 Y141.673 E0.02
G1 X125 Y141.703 E0.02
;rapid-leaky
G0 Y141.302 F7200
;bead-skirt/brim
G1 X124.431 Y141.275 F960 E0.019
G1 X123.868 Y141.19 E0.019
G1 X123.318 Y141.053 E0.019
G1 X122.78 Y140.861 E0.019
G1 X122.263 Y140.617 E0.019
G1 X121.776 Y140.324 E0.019
G1 X121.318 Y139.984 E0.019
G1 X120.898 Y139.602 E0.019
G1 X120.516 Y139.182 E0.019
G1 X120.176 Y138.724 E0.019
G1 X119.883 Y138.237 E0.018
G1 X119.639 Y137.72 E0.019
G1 X119.447 Y137.182 E0.019
G1 X119.31 Y136.632 E0.019
G1 X119.225 Y136.069 E0.019
G1 X119.2 Y135.544 E0.018
G1 Y119.456 E0.535
G1 X119.225 Y118.931 E0.017
G1 X119.31 Y118.368 E0.019
G1 X119.447 Y117.818 E0.019
G1 X119.639 Y117.28 E0.019
G1 X119.883 Y116.763 E0.019
G1 X120.176 Y116.276 E0.019
G1 X120.516 Y115.818 E0.019
G1 X120.898 Y115.398 E0.019
G1 X121.318 Y115.016 E0.019
G1 X121.776 Y114.676 E0.019
G1 X122.263 Y114.383 E0.019
G1 X122.78 Y114.139 E0.019
G1 X123.318 Y113.947 E0.019
G1 X123.868 Y113.81 E0.018
G1 X124.431 Y113.725 E0.019
G1 X125 Y113.698 E0.019
G1 X125.569 Y113.725 E0.019
G1 X126.132 Y113.81 E0.019
G1 X126.682 Y113.947 E0.019
G1 X127.22 Y114.139 E0.019
G1 X127.737 Y114.383 E0.019
G1 X128.224 Y114.676 E0.019
G1 X128.682 Y115.016 E0.019
G1 X129.102 Y115.398 E0.019
G1 X129.484 Y115.818 E0.019
G1 X129.824 Y116.276 E0.019
G1 X130.117 Y116.763 E0.019
G1 X130.361 Y117.28 E0.019
G1 X130.553 Y117.818 E0.019
G1 X130.69 Y118.368 E0.018
G1 X130.775 Y118.931 E0.019
G1 X130.8 Y119.456 E0.018
G1 Y135.544 E0.535
G1 X130.774 Y136.076 E0.018
G1 X130.68 Y136.677 E0.02
G1 X130.553 Y137.183 E0.017
G1 X130.361 Y137.72 E0.019
G1 X130.117 Y138.237 E0.019
G1 X129.824 Y138.724 E0.019
G1 X129.484 Y139.182 E0.019
G1 X129.102 Y139.602 E0.019
G1 X128.682 Y139.984 E0.019
G1 X128.218 Y140.328 E0.019
G1 X127.694 Y140.637 E0.02
G1 X127.219 Y140.862 E0.018
G1 X126.682 Y141.053 E0.019
G1 X126.132 Y141.19 E0.019
G1 X125.569 Y141.275 E0.019
G1 X125 Y141.302 E0.019
;rapid-leaky
G0 Y140.902 F7200
;bead-skirt/brim
G1 X124.47 Y140.876 F960 E0.017
G1 X123.947 Y140.798 E0.018
G1 X123.433 Y140.67 E0.017
G1 X122.933 Y140.491 E0.018
G1 X122.452 Y140.264 E0.018
G1 X121.999 Y139.991 E0.017
G1 X121.572 Y139.675 E0.018
G1 X121.181 Y139.319 E0.018
G1 X120.825 Y138.928 E0.017
G1 X120.509 Y138.501 E0.018
G1 X120.236 Y138.048 E0.017
G1 X120.009 Y137.567 E0.018
G1 X119.83 Y137.067 E0.018
G1 X119.702 Y136.554 E0.017
G1 X119.624 Y136.03 E0.018
G1 X119.6 Y135.534 E0.016
G1 Y119.466 E0.535
G1 X119.624 Y118.97 E0.016
G1 X119.702 Y118.447 E0.018
G1 X119.83 Y117.933 E0.018
G1 X120.009 Y117.433 E0.017
G1 X120.236 Y116.952 E0.018
G1 X120.509 Y116.499 E0.018
G1 X120.825 Y116.072 E0.017
G1 X121.181 Y115.681 E0.018
G1 X121.572 Y115.325 E0.017
G1 X121.999 Y115.009 E0.018
G1 X122.452 Y114.736 E0.018
G1 X122.933 Y114.509 E0.017
G1 X123.433 Y114.33 E0.018
G1 X123.947 Y114.202 E0.018
G1 X124.47 Y114.124 E0.017
G1 X125 Y114.098 E0.018
G1 X125.53 Y114.124 E0.018
G1 X126.053 Y114.202 E0.017
G1 X126.567 Y114.33 E0.018
G1 X127.067 Y114.509 E0.017
G1 X127.548 Y114.736 E0.018
G1 X128.001 Y115.009 E0.018
G1 X128.428 Y115.325 E0.017
G1 X128.819 Y115.681 E0.018
G1 X129.175 Y116.072 E0.018
G1 X129.491 Y116.499 E0.017
G1 X129.764 Y116.952 E0.018
G1 X129.991 Y117.433 E0.017
G1 X130.17 Y117.933 E0.018
G1 X130.298 Y118.447 E0.018
G1 X130.376 Y118.97 E0.017
G1 X130.4 Y119.466 E0.017
G1 Y135.534 E0.534
G1 X130.376 Y136.035 E0.017
G1 X130.287 Y136.598 E0.019
G1 X130.169 Y137.067 E0.016
G1 X129.991 Y137.567 E0.018
G1 X129.764 Y138.048 E0.017
G1 X129.491 Y138.501 E0.018
G1 X129.175 Y138.928 E0.018
G1 X128.819 Y139.319 E0.017
G1 X128.428 Y139.675 E0.018
G1 X127.997 Y139.995 E0.018
G1 X127.507 Y140.284 E0.019
G1 X127.066 Y140.491 E0.016
G1 X126.567 Y140.67 E0.017
G1 X126.054 Y140.798 E0.018
G1 X125.53 Y140.876 E0.018
G1 X125 Y140.902 E0.017
;rapid-leaky
G0 Y140.501 F7200
;bead-skirt/brim
G1 X124.51 Y140.477 F960 E0.017
G1 X124.025 Y140.405 E0.016
G1 X123.549 Y140.286 E0.016
G1 X123.086 Y140.121 E0.017
G1 X122.641 Y139.911 E0.016
G1 X122.222 Y139.658 E0.016
G1 X121.826 Y139.366 E0.017
G1 X121.464 Y139.036 E0.016
G1 X121.134 Y138.674 E0.016
G1 X120.842 Y138.278 E0.016
G1 X120.589 Y137.859 E0.017
G1 X120.379 Y137.414 E0.016
G1 X120.214 Y136.951 E0.016
G1 X120.095 Y136.475 E0.017
G1 X120.023 Y135.99 E0.016
G1 X120 Y135.524 E0.016
G1 Y119.476 E0.533
G1 X120.023 Y119.01 E0.016
G1 X120.095 Y118.525 E0.016
G1 X120.214 Y118.049 E0.017
G1 X120.379 Y117.586 E0.016
G1 X120.589 Y117.141 E0.016
G1 X120.842 Y116.722 E0.017
G1 X121.134 Y116.326 E0.016
G1 X121.464 Y115.964 E0.016
G1 X121.826 Y115.634 E0.016
G1 X122.222 Y115.342 E0.017
G1 X122.641 Y115.089 E0.016
G1 X123.086 Y114.879 E0.016
G1 X123.549 Y114.714 E0.017
G1 X124.025 Y114.595 E0.016
G1 X124.51 Y114.523 E0.016
G1 X125 Y114.499 E0.017
G1 X125.49 Y114.523 E0.016
G1 X125.975 Y114.595 E0.016
G1 X126.451 Y114.714 E0.017
G1 X126.914 Y114.879 E0.016
G1 X127.359 Y115.089 E0.016
G1 X127.778 Y115.342 E0.017
G1 X128.174 Y115.634 E0.016
G1 X128.536 Y115.964 E0.016
G1 X128.866 Y116.326 E0.017
G1 X129.158 Y116.722 E0.016
G1 X129.411 Y117.141 E0.016
G1 X129.621 Y117.586 E0.017
G1 X129.786 Y118.049 E0.016
G1 X129.905 Y118.525 E0.016
G1 X129.977 Y119.01 E0.017
G1 X130 Y119.476 E0.015
G1 Y135.524 E0.534
G1 X129.977 Y135.994 E0.016
G1 X129.895 Y136.518 E0.017
G1 X129.786 Y136.951 E0.015
G1 X129.621 Y137.414 E0.016
G1 X129.411 Y137.859 E0.017
G1 X129.158 Y138.278 E0.016
G1 X128.866 Y138.674 E0.016
G1 X128.536 Y139.036 E0.017
G1 X128.174 Y139.366 E0.016
G1 X127.775 Y139.661 E0.016
G1 X127.32 Y139.93 E0.018
G1 X126.913 Y140.121 E0.015
G1 X126.451 Y140.286 E0.016
G1 X125.975 Y140.405 E0.017
G1 X125.49 Y140.477 E0.016
G1 X125 Y140.501 E0.016
;rapid-leaky
G0 Y140.101 F7200
;bead-skirt/brim
G1 X124.549 Y140.079 F960 E0.015
G1 X124.103 Y140.012 E0.015
G1 X123.665 Y139.903 E0.015
G1 X123.239 Y139.751 E0.015
G1 X122.83 Y139.558 E0.015
G1 X122.444 Y139.325 E0.015
G1 X122.081 Y139.056 E0.015
G1 X121.747 Y138.753 E0.015
G1 X121.444 Y138.419 E0.015
G1 X121.175 Y138.056 E0.015
G1 X120.942 Y137.67 E0.015
G1 X120.749 Y137.261 E0.016
G1 X120.597 Y136.835 E0.015
G1 X120.488 Y136.397 E0.015
G1 X120.421 Y135.951 E0.015
G1 X120.4 Y135.515 E0.014
G1 Y119.485 E0.533
G1 X120.421 Y119.049 E0.015
G1 X120.488 Y118.603 E0.015
G1 X120.597 Y118.165 E0.015
G1 X120.749 Y117.739 E0.015
G1 X120.942 Y117.33 E0.015
G1 X121.175 Y116.944 E0.015
G1 X121.444 Y116.581 E0.015
G1 X121.747 Y116.247 E0.015
G1 X122.081 Y115.944 E0.015
G1 X122.444 Y115.675 E0.015
G1 X122.83 Y115.442 E0.015
G1 X123.239 Y115.249 E0.015
G1 X123.665 Y115.097 E0.015
G1 X124.103 Y114.988 E0.015
G1 X124.549 Y114.921 E0.015
G1 X125 Y114.899 E0.015
G1 X125.451 Y114.921 E0.015
G1 X125.897 Y114.988 E0.015
G1 X126.335 Y115.097 E0.015
G1 X126.761 Y115.249 E0.015
G1 X127.17 Y115.442 E0.015
G1 X127.556 Y115.675 E0.015
G1 X127.919 Y115.944 E0.015
G1 X128.253 Y116.247 E0.015
G1 X128.556 Y116.581 E0.015
G1 X128.825 Y116.944 E0.015
G1 X129.058 Y117.33 E0.015
G1 X129.251 Y117.739 E0.015
G1 X129.403 Y118.165 E0.015
G1 X129.512 Y118.603 E0.015
G1 X129.579 Y119.049 E0.015
G1 X129.6 Y119.485 E0.015
G1 Y135.515 E0.533
G1 X129.579 Y135.953 E0.015
G1 X129.503 Y136.438 E0.016
G1 X129.403 Y136.835 E0.013
G1 X129.251 Y137.261 E0.016
G1 X129.058 Y137.67 E0.015
G1 X128.825 Y138.056 E0.015
G1 X128.556 Y138.419 E0.015
G1 X128.253 Y138.753 E0.015
G1 X127.919 Y139.056 E0.015
G1 X127.554 Y139.327 E0.015
G1 X127.132 Y139.576 E0.016
G1 X126.76 Y139.751 E0.014
G1 X126.335 Y139.903 E0.015
G1 X125.897 Y140.012 E0.015
G1 X125.451 Y140.079 E0.015
G1 X125 Y140.101 E0.015
;rapid-leaky
G0 Y139.7 F7200
;bead-skirt/brim
G1 X124.588 Y139.68 F960 E0.013
G1 X124.181 Y139.619 E0.014
G1 X123.781 Y139.52 E0.014
G1 X123.392 Y139.381 E0.014
G1 X123.019 Y139.205 E0.013
G1 X122.667 Y138.992 E0.014
G1 X122.335 Y138.747 E0.014
G1 X122.03 Y138.47 E0.013
G1 X121.753 Y138.165 E0.014
G1 X121.508 Y137.833 E0.014
G1 X121.295 Y137.481 E0.014
G1 X121.119 Y137.108 E0.013
G1 X120.98 Y136.719 E0.014
G1 X120.881 Y136.319 E0.014
G1 X120.82 Y135.912 E0.013
G1 X120.8 Y135.505 E0.014
G1 Y119.495 E0.532
G1 X120.82 Y119.088 E0.014
G1 X120.881 Y118.681 E0.014
G1 X120.98 Y118.281 E0.013
G1 X121.119 Y117.892 E0.014
G1 X121.295 Y117.519 E0.014
G1 X121.508 Y117.167 E0.013
G1 X121.753 Y116.835 E0.014
G1 X122.03 Y116.53 E0.014
G1 X122.335 Y116.253 E0.014
G1 X122.667 Y116.008 E0.013
G1 X123.02 Y115.795 E0.014
G1 X123.392 Y115.619 E0.014
G1 X123.781 Y115.48 E0.013
G1 X124.181 Y115.381 E0.014
G1 X124.588 Y115.32 E0.014
G1 X125 Y115.3 E0.014
G1 X125.412 Y115.32 E0.013
G1 X125.819 Y115.381 E0.014
G1 X126.219 Y115.48 E0.014
G1 X126.608 Y115.619 E0.013
G1 X126.981 Y115.795 E0.014
G1 X127.333 Y116.008 E0.014
G1 X127.665 Y116.253 E0.014
G1 X127.97 Y116.53 E0.013
G1 X128.247 Y116.835 E0.014
G1 X128.492 Y117.167 E0.014
G1 X128.705 Y117.519 E0.013
G1 X128.881 Y117.892 E0.014
G1 X129.02 Y118.281 E0.014
G1 X129.119 Y118.681 E0.014
G1 X129.18 Y119.088 E0.013
G1 X129.2 Y119.495 E0.014
G1 Y135.505 E0.532
G1 X129.18 Y135.912 E0.014
G1 X129.11 Y136.358 E0.015
G1 X129.02 Y136.719 E0.012
G1 X128.881 Y137.108 E0.014
G1 X128.705 Y137.481 E0.014
G1 X128.492 Y137.833 E0.013
G1 X128.247 Y138.165 E0.014
G1 X127.97 Y138.47 E0.014
G1 X127.665 Y138.747 E0.013
G1 X127.333 Y138.993 E0.014
G1 X126.945 Y139.222 E0.015
G1 X126.607 Y139.381 E0.013
G1 X126.219 Y139.52 E0.013
G1 X125.819 Y139.619 E0.014
G1 X125.412 Y139.68 E0.014
G1 X125 Y139.7 E0.013
;rapid-leaky
G0 Y112.703 F7200
;bead-skirt/brim
G1 X124.392 Y112.673 F960 E0.021
G1 X123.79 Y112.583 E0.02
G1 X123.202 Y112.436 E0.02
G1 X122.627 Y112.231 E0.02
G1 X122.074 Y111.97 E0.021
G1 X121.554 Y111.657 E0.02
G1 X121.063 Y111.294 E0.02
G1 X120.615 Y110.885 E0.02
G1 X120.206 Y110.437 E0.021
G1 X119.843 Y109.946 E0.02
G1 X119.53 Y109.426 E0.02
G1 X119.269 Y108.873 E0.02
G1 X119.064 Y108.298 E0.021
G1 X118.917 Y107.71 E0.02
G1 X118.827 Y107.108 E0.02
G1 X118.8 Y106.553 E0.019
G1 Y90.447 E0.535
G1 X118.827 Y89.883 E0.019
G1 X118.928 Y89.243 E0.022
G1 X119.064 Y88.7 E0.018
G1 X119.269 Y88.127 E0.021
G1 X119.53 Y87.574 E0.02
G1 X119.843 Y87.054 E0.02
G1 X120.206 Y86.563 E0.02
G1 X120.615 Y86.115 E0.021
G1 X121.063 Y85.706 E0.02
G1 X121.561 Y85.338 E0.02
G1 X122.118 Y85.009 E0.022
G1 X122.628 Y84.768 E0.019
G1 X123.202 Y84.564 E0.02
G1 X123.79 Y84.417 E0.02
G1 X124.392 Y84.327 E0.02
G1 X125 Y84.297 E0.02
G1 X125.608 Y84.327 E0.021
G1 X126.21 Y84.417 E0.02
G1 X126.798 Y84.564 E0.02
G1 X127.373 Y84.769 E0.02
G1 X127.926 Y85.03 E0.021
G1 X128.446 Y85.343 E0.02
G1 X128.937 Y85.706 E0.02
G1 X129.385 Y86.115 E0.02
G1 X129.794 Y86.563 E0.021
G1 X130.157 Y87.054 E0.02
G1 X130.47 Y87.574 E0.02
G1 X130.731 Y88.127 E0.02
G1 X130.936 Y88.702 E0.021
G1 X131.083 Y89.29 E0.02
G1 X131.173 Y89.892 E0.02
G1 X131.2 Y90.447 E0.019
G1 Y106.553 E0.535
G1 X131.173 Y107.108 E0.019
G1 X131.083 Y107.71 E0.02
G1 X130.936 Y108.298 E0.02
G1 X130.731 Y108.873 E0.021
G1 X130.47 Y109.426 E0.02
G1 X130.157 Y109.946 E0.02
G1 X129.794 Y110.437 E0.02
G1 X129.385 Y110.885 E0.021
G1 X128.937 Y111.294 E0.02
G1 X128.446 Y111.657 E0.02
G1 X127.926 Y111.97 E0.02
G1 X127.373 Y112.231 E0.021
G1 X126.798 Y112.436 E0.02
G1 X126.21 Y112.583 E0.02
G1 X125.608 Y112.673 E0.02
G1 X125 Y112.703 E0.021
;rapid-leaky
G0 Y112.302 F7200
;bead-skirt/brim
G1 X124.431 Y112.275 F960 E0.018
G1 X123.868 Y112.19 E0.019
G1 X123.318 Y112.053 E0.019
G1 X122.78 Y111.861 E0.019
G1 X122.263 Y111.617 E0.019
G1 X121.776 Y111.324 E0.019
G1 X121.318 Y110.984 E0.019
G1 X120.898 Y110.602 E0.019
G1 X120.516 Y110.182 E0.019
G1 X120.176 Y109.724 E0.019
G1 X119.883 Y109.237 E0.019
G1 X119.639 Y108.72 E0.019
G1 X119.447 Y108.182 E0.019
G1 X119.31 Y107.632 E0.019
G1 X119.225 Y107.069 E0.019
G1 X119.2 Y106.544 E0.017
G1 Y90.456 E0.535
G1 X119.226 Y89.924 E0.018
G1 X119.32 Y89.323 E0.02
G1 X119.447 Y88.817 E0.017
G1 X119.639 Y88.28 E0.019
G1 X119.883 Y87.763 E0.019
G1 X120.176 Y87.276 E0.019
G1 X120.516 Y86.818 E0.019
G1 X120.898 Y86.398 E0.019
G1 X121.318 Y86.016 E0.019
G1 X121.782 Y85.672 E0.019
G1 X122.306 Y85.363 E0.021
G1 X122.781 Y85.138 E0.017
G1 X123.318 Y84.947 E0.019
G1 X123.868 Y84.81 E0.019
G1 X124.431 Y84.725 E0.019
G1 X125 Y84.698 E0.019
G1 X125.569 Y84.725 E0.019
G1 X126.132 Y84.81 E0.019
G1 X126.682 Y84.947 E0.018
G1 X127.22 Y85.139 E0.019
G1 X127.737 Y85.383 E0.019
G1 X128.224 Y85.676 E0.019
G1 X128.682 Y86.016 E0.019
G1 X129.102 Y86.398 E0.019
G1 X129.484 Y86.818 E0.019
G1 X129.824 Y87.276 E0.019
G1 X130.117 Y87.763 E0.019
G1 X130.361 Y88.28 E0.019
G1 X130.553 Y88.818 E0.019
G1 X130.69 Y89.368 E0.019
G1 X130.775 Y89.931 E0.019
G1 X130.8 Y90.456 E0.017
G1 Y106.544 E0.535
G1 X130.775 Y107.069 E0.018
G1 X130.69 Y107.632 E0.019
G1 X130.553 Y108.182 E0.019
G1 X130.361 Y108.72 E0.019
G1 X130.117 Y109.237 E0.019
G1 X129.824 Y109.724 E0.019
G1 X129.484 Y110.182 E0.019
G1 X129.102 Y110.602 E0.018
G1 X128.682 Y110.984 E0.019
G1 X128.224 Y111.324 E0.019
G1 X127.737 Y111.617 E0.019
G1 X127.22 Y111.861 E0.019
G1 X126.682 Y112.053 E0.019
G1 X126.132 Y112.19 E0.019
G1 X125.569 Y112.275 E0.019
G1 X125 Y112.302 E0.019
;rapid-leaky
G0 Y111.902 F7200
;bead-skirt/brim
G1 X124.47 Y111.876 F960 E0.018
G1 X123.947 Y111.798 E0.017
G1 X123.433 Y111.67 E0.018
G1 X122.933 Y111.491 E0.017
G1 X122.452 Y111.264 E0.018
G1 X121.999 Y110.991 E0.018
G1 X121.572 Y110.675 E0.017
G1 X121.181 Y110.319 E0.018
G1 X120.825 Y109.928 E0.018
G1 X120.509 Y109.501 E0.017
G1 X120.236 Y109.048 E0.018
G1 X120.009 Y108.567 E0.017
G1 X119.83 Y108.067 E0.018
G1 X119.702 Y107.553 E0.018
G1 X119.624 Y107.03 E0.017
G1 X119.6 Y106.534 E0.017
G1 Y90.466 E0.534
G1 X119.624 Y89.965 E0.017
G1 X119.713 Y89.402 E0.019
G1 X119.831 Y88.933 E0.016
G1 X120.009 Y88.433 E0.018
G1 X120.236 Y87.952 E0.017
G1 X120.509 Y87.499 E0.018
G1 X120.825 Y87.072 E0.018
G1 X121.181 Y86.681 E0.017
G1 X121.572 Y86.325 E0.018
G1 X122.004 Y86.005 E0.018
G1 X122.493 Y85.716 E0.019
G1 X122.934 Y85.508 E0.016
G1 X123.433 Y85.33 E0.017
G1 X123.947 Y85.202 E0.018
G1 X124.47 Y85.124 E0.018
G1 X125 Y85.098 E0.017
G1 X125.53 Y85.124 E0.018
G1 X126.054 Y85.202 E0.018
G1 X126.567 Y85.33 E0.017
G1 X127.067 Y85.509 E0.018
G1 X127.548 Y85.736 E0.017
G1 X128.001 Y86.009 E0.018
G1 X128.428 Y86.325 E0.018
G1 X128.819 Y86.681 E0.017
G1 X129.175 Y87.072 E0.018
G1 X129.491 Y87.499 E0.018
G1 X129.764 Y87.952 E0.017
G1 X129.991 Y88.433 E0.018
G1 X130.17 Y88.933 E0.018
G1 X130.298 Y89.447 E0.017
G1 X130.376 Y89.97 E0.018
G1 X130.4 Y90.466 E0.016
G1 Y106.534 E0.535
G1 X130.376 Y107.03 E0.016
G1 X130.298 Y107.553 E0.018
G1 X130.17 Y108.067 E0.017
G1 X129.991 Y108.567 E0.018
G1 X129.764 Y109.048 E0.018
G1 X129.491 Y109.501 E0.017
G1 X129.175 Y109.928 E0.018
G1 X128.819 Y110.319 E0.018
G1 X128.428 Y110.675 E0.017
G1 X128.001 Y110.991 E0.018
G1 X127.548 Y111.264 E0.017
G1 X127.067 Y111.491 E0.018
G1 X126.567 Y111.67 E0.018
G1 X126.053 Y111.798 E0.017
G1 X125.53 Y111.876 E0.018
G1 X125 Y111.902 E0.018
;rapid-leaky
G0 Y111.501 F7200
;bead-skirt/brim
G1 X124.51 Y111.477 F960 E0.016
G1 X124.025 Y111.405 E0.016
G1 X123.549 Y111.286 E0.017
G1 X123.086 Y111.121 E0.016
G1 X122.641 Y110.911 E0.016
G1 X122.222 Y110.658 E0.017
G1 X121.826 Y110.366 E0.016
G1 X121.464 Y110.036 E0.016
G1 X121.134 Y109.674 E0.017
G1 X120.842 Y109.278 E0.016
G1 X120.589 Y108.859 E0.016
G1 X120.379 Y108.414 E0.017
G1 X120.214 Y107.951 E0.016
G1 X120.095 Y107.475 E0.016
G1 X120.023 Y106.99 E0.016
G1 X120 Y106.524 E0.016
G1 Y90.476 E0.534
G1 X120.023 Y90.006 E0.015
G1 X120.105 Y89.482 E0.018
G1 X120.214 Y89.049 E0.015
G1 X120.379 Y88.586 E0.016
G1 X120.589 Y88.141 E0.017
G1 X120.842 Y87.722 E0.016
G1 X121.134 Y87.326 E0.016
G1 X121.464 Y86.964 E0.017
G1 X121.826 Y86.634 E0.016
G1 X122.225 Y86.339 E0.016
G1 X122.68 Y86.07 E0.018
G1 X123.087 Y85.879 E0.015
G1 X123.549 Y85.714 E0.016
G1 X124.025 Y85.595 E0.017
G1 X124.51 Y85.523 E0.016
G1 X125 Y85.499 E0.016
G1 X125.49 Y85.523 E0.016
G1 X125.975 Y85.595 E0.017
G1 X126.451 Y85.714 E0.016
G1 X126.914 Y85.879 E0.016
G1 X127.359 Y86.089 E0.017
G1 X127.778 Y86.342 E0.016
G1 X128.174 Y86.634 E0.016
G1 X128.536 Y86.964 E0.017
G1 X128.866 Y87.326 E0.016
G1 X129.158 Y87.722 E0.016
G1 X129.411 Y88.141 E0.017
G1 X129.621 Y88.586 E0.016
G1 X129.786 Y89.049 E0.016
G1 X129.905 Y89.525 E0.017
G1 X129.977 Y90.01 E0.016
G1 X130 Y90.476 E0.016
G1 Y106.524 E0.533
G1 X129.977 Y106.99 E0.016
G1 X129.905 Y107.475 E0.016
G1 X129.786 Y107.951 E0.016
G1 X129.621 Y108.414 E0.017
G1 X129.411 Y108.859 E0.016
G1 X129.158 Y109.278 E0.016
G1 X128.866 Y109.674 E0.017
G1 X128.536 Y110.036 E0.016
G1 X128.174 Y110.366 E0.016
G1 X127.778 Y110.658 E0.017
G1 X127.359 Y110.911 E0.016
G1 X126.914 Y111.121 E0.016
G1 X126.451 Y111.286 E0.017
G1 X125.975 Y111.405 E0.016
G1 X125.49 Y111.477 E0.016
G1 X125 Y111.501 E0.017
;rapid-leaky
G0 Y111.101 F7200
;bead-skirt/brim
G1 X124.549 Y111.079 F960 E0.015
G1 X124.103 Y111.012 E0.015
G1 X123.665 Y110.903 E0.015
G1 X123.239 Y110.751 E0.015
G1 X122.83 Y110.558 E0.015
G1 X122.444 Y110.325 E0.015
G1 X122.081 Y110.056 E0.015
G1 X121.747 Y109.753 E0.015
G1 X121.444 Y109.419 E0.015
G1 X121.175 Y109.056 E0.015
G1 X120.942 Y108.67 E0.015
G1 X120.749 Y108.261 E0.015
G1 X120.597 Y107.835 E0.015
G1 X120.488 Y107.397 E0.015
G1 X120.421 Y106.951 E0.015
G1 X120.4 Y106.515 E0.015
G1 Y90.485 E0.533
G1 X120.421 Y90.047 E0.014
G1 X120.497 Y89.562 E0.017
G1 X120.597 Y89.165 E0.013
G1 X120.749 Y88.739 E0.015
G1 X120.942 Y88.33 E0.015
G1 X121.175 Y87.944 E0.015
G1 X121.444 Y87.581 E0.015
G1 X121.747 Y87.247 E0.015
G1 X122.081 Y86.944 E0.015
G1 X122.446 Y86.673 E0.015
G1 X122.868 Y86.424 E0.017
G1 X123.24 Y86.249 E0.013
G1 X123.665 Y86.097 E0.015
G1 X124.103 Y85.988 E0.015
G1 X124.549 Y85.921 E0.015
G1 X125 Y85.899 E0.015
G1 X125.451 Y85.921 E0.015
G1 X125.897 Y85.988 E0.015
G1 X126.335 Y86.097 E0.015
G1 X126.761 Y86.249 E0.015
G1 X127.17 Y86.442 E0.016
G1 X127.556 Y86.675 E0.015
G1 X127.919 Y86.944 E0.015
G1 X128.253 Y87.247 E0.015
G1 X128.556 Y87.581 E0.015
G1 X128.825 Y87.944 E0.015
G1 X129.058 Y88.33 E0.015
G1 X129.251 Y88.739 E0.015
G1 X129.403 Y89.165 E0.015
G1 X129.512 Y89.603 E0.015
G1 X129.579 Y90.049 E0.015
G1 X129.6 Y90.485 E0.014
G1 Y106.515 E0.533
G1 X129.579 Y106.951 E0.015
G1 X129.512 Y107.397 E0.015
G1 X129.403 Y107.835 E0.015
G1 X129.251 Y108.261 E0.015
G1 X129.058 Y108.67 E0.015
G1 X128.825 Y109.056 E0.015
G1 X128.556 Y109.419 E0.015
G1 X128.253 Y109.753 E0.015
G1 X127.919 Y110.056 E0.015
G1 X127.556 Y110.325 E0.015
G1 X127.17 Y110.558 E0.015
G1 X126.761 Y110.751 E0.015
G1 X126.335 Y110.903 E0.015
G1 X125.897 Y111.012 E0.015
G1 X125.451 Y111.079 E0.015
G1 X125 Y111.101 E0.015
;rapid-leaky
G0 Y110.7 F7200
;bead-skirt/brim
G1 X124.588 Y110.68 F960 E0.014
G1 X124.181 Y110.619 E0.014
G1 X123.781 Y110.52 E0.013
G1 X123.392 Y110.381 E0.014
G1 X123.019 Y110.205 E0.014
G1 X122.667 Y109.992 E0.013
G1 X122.335 Y109.747 E0.014
G1 X122.03 Y109.47 E0.014
G1 X121.753 Y109.165 E0.013
G1 X121.508 Y108.833 E0.014
G1 X121.295 Y108.481 E0.014
G1 X121.119 Y108.108 E0.014
G1 X120.98 Y107.719 E0.013
G1 X120.881 Y107.319 E0.014
G1 X120.82 Y106.912 E0.014
G1 X120.8 Y106.505 E0.013
G1 Y90.495 E0.533
G1 X120.82 Y90.088 E0.013
G1 X120.89 Y89.642 E0.015
G1 X120.98 Y89.281 E0.013
G1 X121.119 Y88.892 E0.013
G1 X121.295 Y88.519 E0.014
G1 X121.508 Y88.167 E0.014
G1 X121.753 Y87.835 E0.014
G1 X122.03 Y87.53 E0.013
G1 X122.335 Y87.253 E0.014
G1 X122.667 Y87.007 E0.014
G1 X123.055 Y86.778 E0.015
G1 X123.393 Y86.619 E0.012
G1 X123.781 Y86.48 E0.014
G1 X124.181 Y86.381 E0.014
G1 X124.588 Y86.32 E0.013
G1 X125 Y86.3 E0.014
G1 X125.412 Y86.32 E0.014
G1 X125.819 Y86.381 E0.013
G1 X126.219 Y86.48 E0.014
G1 X126.608 Y86.619 E0.014
G1 X126.981 Y86.795 E0.014
G1 X127.333 Y87.008 E0.013
G1 X127.665 Y87.253 E0.014
G1 X127.97 Y87.53 E0.014
G1 X128.247 Y87.835 E0.013
G1 X128.492 Y88.167 E0.014
G1 X128.705 Y88.519 E0.014
G1 X128.881 Y88.892 E0.014
G1 X129.02 Y89.281 E0.013
G1 X129.119 Y89.681 E0.014
G1 X129.18 Y90.088 E0.014
G1 X129.2 Y90.495 E0.013
G1 Y106.505 E0.533
G1 X129.18 Y106.912 E0.013
G1 X129.119 Y107.319 E0.014
G1 X129.02 Y107.719 E0.014
G1 X128.881 Y108.108 E0.013
G1 X128.705 Y108.481 E0.014
G1 X128.492 Y108.833 E0.014
G1 X128.247 Y109.165 E0.014
G1 X127.97 Y109.47 E0.013
G1 X127.665 Y109.747 E0.014
G1 X127.333 Y109.992 E0.014
G1 X126.981 Y110.205 E0.013
G1 X126.608 Y110.381 E0.014
G1 X126.219 Y110.52 E0.014
G1 X125.819 Y110.619 E0.013
G1 X125.412 Y110.68 E0.014
G1 X125 Y110.7 E0.014
;rapid-leaky
G0 Y83.703 F7200
;bead-skirt/brim
G1 X124.391 Y83.673 F960 E0.02
G1 X123.79 Y83.583 E0.02
G1 X123.202 Y83.436 E0.021
G1 X122.627 Y83.231 E0.02
G1 X122.074 Y82.97 E0.02
G1 X121.554 Y82.657 E0.02
G1 X121.063 Y82.294 E0.021
G1 X120.615 Y81.885 E0.02
G1 X120.206 Y81.437 E0.02
G1 X119.843 Y80.946 E0.02
G1 X119.53 Y80.426 E0.021
G1 X119.269 Y79.873 E0.02
G1 X119.064 Y79.298 E0.02
G1 X118.917 Y78.71 E0.02
G1 X118.827 Y78.108 E0.021
G1 X118.8 Y77.553 E0.018
G1 Y53.447 E0.802
G1 X118.827 Y52.883 E0.019
G1 X118.928 Y52.243 E0.021
G1 X119.064 Y51.7 E0.019
G1 X119.269 Y51.127 E0.02
G1 X119.53 Y50.574 E0.02
G1 X119.843 Y50.054 E0.021
G1 X120.206 Y49.563 E0.02
G1 X120.615 Y49.115 E0.02
G1 X121.063 Y48.706 E0.02
G1 X121.554 Y48.343 E0.02
G1 X122.074 Y48.03 E0.021
G1 X122.627 Y47.769 E0.02
G1 X123.202 Y47.564 E0.02
G1 X123.79 Y47.417 E0.02
G1 X124.392 Y47.327 E0.021
G1 X125 Y47.297 E0.02
G1 X125.608 Y47.327 E0.02
G1 X126.21 Y47.417 E0.02
G1 X126.798 Y47.564 E0.021
G1 X127.373 Y47.769 E0.02
G1 X127.926 Y48.03 E0.02
G1 X128.446 Y48.343 E0.02
G1 X128.937 Y48.706 E0.021
G1 X129.393 Y49.121 E0.02
G1 X129.823 Y49.602 E0.022
G1 X130.157 Y50.054 E0.018
G1 X130.47 Y50.574 E0.021
G1 X130.731 Y51.127 E0.02
G1 X130.936 Y51.702 E0.02
G1 X131.083 Y52.29 E0.02
G1 X131.173 Y52.892 E0.021
G1 X131.2 Y53.447 E0.018
G1 Y77.553 E0.802
G1 X131.173 Y78.117 E0.019
G1 X131.072 Y78.757 E0.021
G1 X130.936 Y79.3 E0.019
G1 X130.731 Y79.873 E0.02
G1 X130.47 Y80.426 E0.02
G1 X130.152 Y80.954 E0.021
G1 X129.761 Y81.473 E0.022
G1 X129.385 Y81.886 E0.018
G1 X128.937 Y82.294 E0.02
G1 X128.446 Y82.657 E0.021
G1 X127.926 Y82.97 E0.02
G1 X127.373 Y83.231 E0.02
G1 X126.798 Y83.436 E0.02
G1 X126.21 Y83.583 E0.021
G1 X125.609 Y83.673 E0.02
G1 X125 Y83.703 E0.02
;rapid-leaky
G0 Y83.302 F7200
;bead-skirt/brim
G1 X124.431 Y83.275 F960 E0.019
G1 X123.868 Y83.19 E0.019
G1 X123.318 Y83.053 E0.019
G1 X122.78 Y82.861 E0.019
G1 X122.263 Y82.617 E0.019
G1 X121.776 Y82.324 E0.019
G1 X121.318 Y81.984 E0.019
G1 X120.898 Y81.602 E0.019
G1 X120.516 Y81.182 E0.018
G1 X120.176 Y80.724 E0.019
G1 X119.883 Y80.237 E0.019
G1 X119.639 Y79.72 E0.019
G1 X119.447 Y79.182 E0.019
G1 X119.31 Y78.632 E0.019
G1 X119.225 Y78.069 E0.019
G1 X119.2 Y77.544 E0.018
G1 Y53.456 E0.801
G1 X119.226 Y52.924 E0.018
G1 X119.32 Y52.323 E0.02
G1 X119.447 Y51.817 E0.017
G1 X119.639 Y51.28 E0.019
G1 X119.883 Y50.763 E0.019
G1 X120.176 Y50.276 E0.019
G1 X120.516 Y49.818 E0.019
G1 X120.898 Y49.398 E0.019
G1 X121.318 Y49.016 E0.019
G1 X121.776 Y48.676 E0.019
G1 X122.263 Y48.383 E0.019
G1 X122.78 Y48.139 E0.019
G1 X123.318 Y47.947 E0.019
G1 X123.868 Y47.81 E0.018
G1 X124.431 Y47.725 E0.019
G1 X125 Y47.698 E0.019
G1 X125.569 Y47.725 E0.019
G1 X126.132 Y47.81 E0.019
G1 X126.682 Y47.947 E0.019
G1 X127.22 Y48.139 E0.019
G1 X127.737 Y48.383 E0.019
G1 X128.224 Y48.676 E0.019
G1 X128.682 Y49.016 E0.019
G1 X129.108 Y49.403 E0.019
G1 X129.512 Y49.855 E0.02
G1 X129.824 Y50.276 E0.018
G1 X130.117 Y50.763 E0.019
G1 X130.361 Y51.28 E0.019
G1 X130.553 Y51.818 E0.019
G1 X130.69 Y52.368 E0.018
G1 X130.775 Y52.931 E0.019
G1 X130.8 Y53.456 E0.018
G1 Y77.544 E0.801
G1 X130.774 Y78.076 E0.018
G1 X130.68 Y78.677 E0.02
G1 X130.553 Y79.183 E0.017
G1 X130.361 Y79.72 E0.019
G1 X130.117 Y80.237 E0.019
G1 X129.82 Y80.73 E0.019
G1 X129.453 Y81.218 E0.021
G1 X129.102 Y81.603 E0.017
G1 X128.682 Y81.984 E0.019
G1 X128.224 Y82.324 E0.019
G1 X127.737 Y82.617 E0.019
G1 X127.22 Y82.861 E0.019
G1 X126.682 Y83.053 E0.019
G1 X126.132 Y83.19 E0.019
G1 X125.569 Y83.275 E0.019
G1 X125 Y83.302 E0.019
;rapid-leaky
G0 Y82.902 F7200
;bead-skirt/brim
G1 X124.47 Y82.876 F960 E0.017
G1 X123.947 Y82.798 E0.018
G1 X123.434 Y82.67 E0.017
G1 X122.933 Y82.491 E0.018
G1 X122.452 Y82.264 E0.018
G1 X121.999 Y81.991 E0.017
G1 X121.572 Y81.675 E0.018
G1 X121.181 Y81.319 E0.018
G1 X120.825 Y80.928 E0.017
G1 X120.509 Y80.501 E0.018
G1 X120.236 Y80.048 E0.018
G1 X120.009 Y79.567 E0.017
G1 X119.83 Y79.067 E0.018
G1 X119.702 Y78.553 E0.017
G1 X119.624 Y78.03 E0.018
G1 X119.6 Y77.534 E0.017
G1 Y53.466 E0.8
G1 X119.624 Y52.965 E0.017
G1 X119.713 Y52.402 E0.019
G1 X119.831 Y51.933 E0.016
G1 X120.009 Y51.433 E0.017
G1 X120.236 Y50.952 E0.018
G1 X120.509 Y50.499 E0.018
G1 X120.825 Y50.072 E0.017
G1 X121.181 Y49.681 E0.018
G1 X121.572 Y49.325 E0.018
G1 X121.999 Y49.009 E0.017
G1 X122.452 Y48.736 E0.018
G1 X122.933 Y48.509 E0.018
G1 X123.433 Y48.33 E0.017
G1 X123.947 Y48.202 E0.018
G1 X124.47 Y48.124 E0.017
G1 X125 Y48.098 E0.018
G1 X125.53 Y48.124 E0.018
G1 X126.053 Y48.202 E0.017
G1 X126.567 Y48.33 E0.018
G1 X127.067 Y48.509 E0.018
G1 X127.548 Y48.736 E0.017
G1 X128.001 Y49.009 E0.018
G1 X128.428 Y49.325 E0.018
G1 X128.824 Y49.685 E0.017
G1 X129.202 Y50.108 E0.019
G1 X129.491 Y50.499 E0.016
G1 X129.764 Y50.952 E0.018
G1 X129.991 Y51.433 E0.018
G1 X130.17 Y51.933 E0.017
G1 X130.298 Y52.446 E0.018
G1 X130.376 Y52.97 E0.018
G1 X130.4 Y53.466 E0.016
G1 Y77.534 E0.801
G1 X130.376 Y78.035 E0.016
G1 X130.287 Y78.598 E0.019
G1 X130.169 Y79.067 E0.016
G1 X129.991 Y79.567 E0.018
G1 X129.764 Y80.048 E0.018
G1 X129.488 Y80.506 E0.017
G1 X129.145 Y80.962 E0.019
G1 X128.819 Y81.319 E0.016
G1 X128.428 Y81.675 E0.018
G1 X128.001 Y81.991 E0.018
G1 X127.548 Y82.264 E0.017
G1 X127.067 Y82.491 E0.018
G1 X126.567 Y82.67 E0.018
G1 X126.053 Y82.798 E0.017
G1 X125.53 Y82.876 E0.018
G1 X125 Y82.902 E0.017
;rapid-leaky
G0 Y82.501 F7200
;bead-skirt/brim
G1 X124.51 Y82.477 F960 E0.017
G1 X124.025 Y82.405 E0.016
G1 X123.549 Y82.286 E0.016
G1 X123.086 Y82.121 E0.017
G1 X122.641 Y81.911 E0.016
G1 X122.222 Y81.658 E0.016
G1 X121.826 Y81.366 E0.017
G1 X121.464 Y81.036 E0.016
G1 X121.134 Y80.674 E0.016
G1 X120.842 Y80.278 E0.017
G1 X120.589 Y79.859 E0.016
G1 X120.379 Y79.414 E0.016
G1 X120.214 Y78.951 E0.017
G1 X120.095 Y78.475 E0.016
G1 X120.023 Y77.99 E0.016
G1 X120 Y77.524 E0.016
G1 Y53.476 E0.8
G1 X120.023 Y53.006 E0.015
G1 X120.105 Y52.482 E0.018
G1 X120.214 Y52.049 E0.015
G1 X120.379 Y51.586 E0.016
G1 X120.589 Y51.141 E0.017
G1 X120.842 Y50.722 E0.016
G1 X121.134 Y50.326 E0.016
G1 X121.464 Y49.964 E0.017
G1 X121.826 Y49.634 E0.016
G1 X122.222 Y49.342 E0.016
G1 X122.641 Y49.089 E0.016
G1 X123.086 Y48.879 E0.017
G1 X123.549 Y48.714 E0.016
G1 X124.025 Y48.595 E0.016
G1 X124.51 Y48.523 E0.017
G1 X125 Y48.499 E0.016
G1 X125.49 Y48.523 E0.016
G1 X125.975 Y48.595 E0.017
G1 X126.451 Y48.714 E0.016
G1 X126.914 Y48.879 E0.016
G1 X127.359 Y49.089 E0.017
G1 X127.778 Y49.342 E0.016
G1 X128.174 Y49.634 E0.016
G1 X128.539 Y49.967 E0.017
G1 X128.891 Y50.361 E0.017
G1 X129.158 Y50.722 E0.015
G1 X129.411 Y51.141 E0.017
G1 X129.621 Y51.586 E0.016
G1 X129.786 Y52.049 E0.016
G1 X129.905 Y52.525 E0.017
G1 X129.977 Y53.01 E0.016
G1 X130 Y53.476 E0.015
G1 Y77.524 E0.8
G1 X129.977 Y77.994 E0.016
G1 X129.895 Y78.518 E0.018
G1 X129.786 Y78.951 E0.014
G1 X129.621 Y79.414 E0.017
G1 X129.411 Y79.859 E0.016
G1 X129.156 Y80.282 E0.017
G1 X128.836 Y80.706 E0.017
G1 X128.536 Y81.036 E0.015
G1 X128.174 Y81.366 E0.016
G1 X127.778 Y81.658 E0.017
G1 X127.359 Y81.911 E0.016
G1 X126.914 Y82.121 E0.016
G1 X126.451 Y82.286 E0.017
G1 X125.975 Y82.405 E0.016
G1 X125.49 Y82.477 E0.016
G1 X125 Y82.501 E0.017
;rapid-leaky
G0 Y82.101 F7200
;bead-skirt/brim
G1 X124.549 Y82.079 F960 E0.015
G1 X124.103 Y82.012 E0.015
G1 X123.665 Y81.903 E0.015
G1 X123.239 Y81.751 E0.015
G1 X122.83 Y81.558 E0.015
G1 X122.444 Y81.325 E0.015
G1 X122.081 Y81.056 E0.015
G1 X121.747 Y80.753 E0.015
G1 X121.444 Y80.419 E0.015
G1 X121.175 Y80.056 E0.015
G1 X120.942 Y79.67 E0.015
G1 X120.749 Y79.261 E0.015
G1 X120.597 Y78.835 E0.015
G1 X120.488 Y78.397 E0.015
G1 X120.421 Y77.951 E0.015
G1 X120.4 Y77.515 E0.015
G1 Y53.485 E0.799
G1 X120.421 Y53.047 E0.014
G1 X120.497 Y52.562 E0.017
G1 X120.597 Y52.165 E0.013
G1 X120.749 Y51.739 E0.015
G1 X120.942 Y51.33 E0.015
G1 X121.175 Y50.944 E0.015
G1 X121.444 Y50.581 E0.015
G1 X121.747 Y50.247 E0.015
G1 X122.081 Y49.944 E0.015
G1 X122.444 Y49.675 E0.015
G1 X122.83 Y49.442 E0.015
G1 X123.239 Y49.249 E0.015
G1 X123.665 Y49.097 E0.015
G1 X124.103 Y48.988 E0.015
G1 X124.549 Y48.921 E0.015
G1 X125 Y48.899 E0.016
G1 X125.451 Y48.921 E0.015
G1 X125.897 Y48.988 E0.015
G1 X126.335 Y49.097 E0.015
G1 X126.761 Y49.249 E0.015
G1 X127.17 Y49.442 E0.015
G1 X127.556 Y49.675 E0.015
G1 X127.919 Y49.944 E0.015
G1 X128.255 Y50.249 E0.015
G1 X128.581 Y50.614 E0.016
G1 X128.825 Y50.944 E0.014
G1 X129.058 Y51.33 E0.015
G1 X129.251 Y51.739 E0.015
G1 X129.403 Y52.165 E0.015
G1 X129.512 Y52.603 E0.015
G1 X129.579 Y53.049 E0.015
G1 X129.6 Y53.485 E0.014
G1 Y77.515 E0.8
G1 X129.579 Y77.953 E0.014
G1 X129.503 Y78.438 E0.016
G1 X129.403 Y78.835 E0.014
G1 X129.251 Y79.261 E0.015
G1 X129.058 Y79.67 E0.015
G1 X128.824 Y80.058 E0.015
G1 X128.528 Y80.451 E0.017
G1 X128.253 Y80.753 E0.013
G1 X127.919 Y81.056 E0.015
G1 X127.556 Y81.325 E0.015
G1 X127.17 Y81.558 E0.015
G1 X126.761 Y81.751 E0.015
G1 X126.335 Y81.903 E0.015
G1 X125.897 Y82.012 E0.015
G1 X125.451 Y82.079 E0.015
G1 X125 Y82.101 E0.015
;rapid-leaky
G0 Y81.7 F7200
;bead-skirt/brim
G1 X124.588 Y81.68 F960 E0.014
G1 X124.181 Y81.619 E0.014
G1 X123.781 Y81.52 E0.013
G1 X123.392 Y81.381 E0.014
G1 X123.019 Y81.205 E0.014
G1 X122.667 Y80.992 E0.014
G1 X122.335 Y80.747 E0.013
G1 X122.03 Y80.47 E0.014
G1 X121.753 Y80.165 E0.014
G1 X121.508 Y79.833 E0.013
G1 X121.295 Y79.481 E0.014
G1 X121.119 Y79.108 E0.014
G1 X120.98 Y78.719 E0.014
G1 X120.881 Y78.319 E0.013
G1 X120.82 Y77.912 E0.014
G1 X120.8 Y77.505 E0.013
G1 Y53.495 E0.799
G1 X120.82 Y53.088 E0.014
G1 X120.89 Y52.642 E0.015
G1 X120.98 Y52.281 E0.012
G1 X121.119 Y51.892 E0.014
G1 X121.295 Y51.519 E0.013
G1 X121.508 Y51.167 E0.014
G1 X121.753 Y50.835 E0.014
G1 X122.03 Y50.53 E0.014
G1 X122.335 Y50.253 E0.013
G1 X122.667 Y50.008 E0.014
G1 X123.02 Y49.795 E0.014
G1 X123.392 Y49.619 E0.013
G1 X123.781 Y49.48 E0.014
G1 X124.181 Y49.381 E0.014
G1 X124.588 Y49.32 E0.014
G1 X125 Y49.3 E0.013
G1 X125.412 Y49.32 E0.014
G1 X125.819 Y49.381 E0.014
G1 X126.219 Y49.48 E0.013
G1 X126.608 Y49.619 E0.014
G1 X126.981 Y49.795 E0.014
G1 X127.333 Y50.008 E0.013
G1 X127.665 Y50.253 E0.014
G1 X127.97 Y50.531 E0.014
G1 X128.27 Y50.867 E0.015
G1 X128.492 Y51.167 E0.012
G1 X128.705 Y51.519 E0.014
G1 X128.881 Y51.892 E0.014
G1 X129.02 Y52.281 E0.013
G1 X129.119 Y52.681 E0.014
G1 X129.18 Y53.088 E0.014
G1 X129.2 Y53.495 E0.013
G1 Y77.505 E0.799
G1 X129.18 Y77.912 E0.014
G1 X129.11 Y78.358 E0.015
G1 X129.02 Y78.719 E0.012
G1 X128.881 Y79.108 E0.014
G1 X128.704 Y79.481 E0.013
G1 X128.492 Y79.834 E0.014
G1 X128.22 Y80.195 E0.015
G1 X127.97 Y80.47 E0.013
G1 X127.665 Y80.747 E0.013
G1 X127.333 Y80.992 E0.014
G1 X126.981 Y81.205 E0.014
G1 X126.608 Y81.381 E0.013
G1 X126.219 Y81.52 E0.014
G1 X125.819 Y81.619 E0.014
G1 X125.412 Y81.68 E0.013
G1 X125 Y81.7 E0.014
;rapid-leaky
G0 Y46.703 F7200
;bead-skirt/brim
G1 X124.392 Y46.673 F960 E0.02
G1 X123.79 Y46.583 E0.021
G1 X123.202 Y46.436 E0.02
G1 X122.627 Y46.231 E0.02
G1 X122.074 Y45.97 E0.02
G1 X121.554 Y45.657 E0.021
G1 X121.063 Y45.294 E0.02
G1 X120.615 Y44.885 E0.02
G1 X120.206 Y44.437 E0.02
G1 X119.843 Y43.946 E0.021
G1 X119.53 Y43.426 E0.02
G1 X119.269 Y42.873 E0.02
G1 X119.064 Y42.298 E0.02
G1 X118.917 Y41.71 E0.021
G1 X118.827 Y41.108 E0.02
G1 X118.8 Y40.553 E0.018
G1 Y16.447 E0.802
G1 X118.827 Y15.883 E0.019
G1 X118.928 Y15.243 E0.021
G1 X119.064 Y14.7 E0.019
G1 X119.269 Y14.127 E0.02
G1 X119.53 Y13.574 E0.021
G1 X119.843 Y13.054 E0.02
G1 X120.206 Y12.563 E0.02
G1 X120.615 Y12.115 E0.02
G1 X121.063 Y11.706 E0.021
G1 X121.554 Y11.343 E0.02
G1 X122.074 Y11.03 E0.02
G1 X122.627 Y10.769 E0.02
G1 X123.202 Y10.564 E0.021
G1 X123.79 Y10.417 E0.02
G1 X124.392 Y10.327 E0.02
G1 X125 Y10.297 E0.02
G1 X125.608 Y10.327 E0.021
G1 X126.21 Y10.417 E0.02
G1 X126.798 Y10.564 E0.02
G1 X127.373 Y10.769 E0.02
G1 X127.926 Y11.03 E0.021
G1 X128.446 Y11.343 E0.02
G1 X128.937 Y11.706 E0.02
G1 X129.393 Y12.121 E0.021
G1 X129.823 Y12.602 E0.021
G1 X130.157 Y13.054 E0.019
G1 X130.47 Y13.574 E0.02
G1 X130.731 Y14.127 E0.02
G1 X130.936 Y14.702 E0.021
G1 X131.083 Y15.29 E0.02
G1 X131.173 Y15.892 E0.02
G1 X131.2 Y16.447 E0.018
G1 Y40.553 E0.802
G1 X131.173 Y41.117 E0.019
G1 X131.072 Y41.757 E0.022
G1 X130.936 Y42.3 E0.018
G1 X130.731 Y42.873 E0.02
G1 X130.47 Y43.426 E0.021
G1 X130.152 Y43.954 E0.02
G1 X129.761 Y44.473 E0.022
G1 X129.385 Y44.886 E0.018
G1 X128.937 Y45.294 E0.021
G1 X128.446 Y45.657 E0.02
G1 X127.926 Y45.97 E0.02
G1 X127.373 Y46.231 E0.02
G1 X126.798 Y46.436 E0.021
G1 X126.21 Y46.583 E0.02
G1 X125.608 Y46.673 E0.02
G1 X125 Y46.703 E0.02
;rapid-leaky
G0 Y46.302 F7200
;bead-skirt/brim
G1 X124.431 Y46.275 F960 E0.019
G1 X123.868 Y46.19 E0.019
G1 X123.318 Y46.053 E0.019
G1 X122.78 Y45.861 E0.019
G1 X122.263 Y45.617 E0.019
G1 X121.776 Y45.324 E0.019
G1 X121.318 Y44.984 E0.019
G1 X120.898 Y44.602 E0.019
G1 X120.516 Y44.182 E0.019
G1 X120.176 Y43.724 E0.019
G1 X119.883 Y43.237 E0.019
G1 X119.639 Y42.72 E0.019
G1 X119.447 Y42.182 E0.019
G1 X119.31 Y41.632 E0.019
G1 X119.225 Y41.069 E0.018
G1 X119.2 Y40.544 E0.018
G1 Y16.456 E0.801
G1 X119.226 Y15.924 E0.018
G1 X119.32 Y15.323 E0.02
G1 X119.447 Y14.817 E0.017
G1 X119.639 Y14.28 E0.019
G1 X119.883 Y13.763 E0.019
G1 X120.176 Y13.276 E0.019
G1 X120.516 Y12.818 E0.019
G1 X120.898 Y12.398 E0.019
G1 X121.318 Y12.016 E0.019
G1 X121.776 Y11.676 E0.019
G1 X122.263 Y11.383 E0.019
G1 X122.78 Y11.139 E0.019
G1 X123.318 Y10.947 E0.019
G1 X123.868 Y10.81 E0.019
G1 X124.431 Y10.725 E0.019
G1 X125 Y10.698 E0.019
G1 X125.569 Y10.725 E0.019
G1 X126.132 Y10.81 E0.019
G1 X126.682 Y10.947 E0.018
G1 X127.22 Y11.139 E0.019
G1 X127.737 Y11.383 E0.019
G1 X128.224 Y11.676 E0.019
G1 X128.682 Y12.016 E0.019
G1 X129.108 Y12.403 E0.019
G1 X129.512 Y12.855 E0.021
G1 X129.824 Y13.276 E0.017
G1 X130.117 Y13.763 E0.019
G1 X130.361 Y14.28 E0.019
G1 X130.553 Y14.818 E0.019
G1 X130.69 Y15.368 E0.019
G1 X130.775 Y15.931 E0.019
G1 X130.8 Y16.456 E0.017
G1 Y40.544 E0.801
G1 X130.774 Y41.076 E0.018
G1 X130.68 Y41.677 E0.02
G1 X130.553 Y42.184 E0.018
G1 X130.361 Y42.72 E0.019
G1 X130.117 Y43.237 E0.019
G1 X129.82 Y43.73 E0.019
G1 X129.453 Y44.218 E0.02
G1 X129.102 Y44.603 E0.017
G1 X128.682 Y44.984 E0.019
G1 X128.224 Y45.324 E0.019
G1 X127.737 Y45.617 E0.019
G1 X127.22 Y45.861 E0.019
G1 X126.682 Y46.053 E0.019
G1 X126.132 Y46.19 E0.019
G1 X125.569 Y46.275 E0.019
G1 X125 Y46.302 E0.019
;rapid-leaky
G0 Y45.902 F7200
;bead-skirt/brim
G1 X124.47 Y45.876 F960 E0.018
G1 X123.947 Y45.798 E0.017
G1 X123.433 Y45.67 E0.018
G1 X122.933 Y45.491 E0.017
G1 X122.452 Y45.264 E0.018
G1 X121.999 Y44.991 E0.018
G1 X121.572 Y44.675 E0.017
G1 X121.181 Y44.319 E0.018
G1 X120.825 Y43.928 E0.018
G1 X120.509 Y43.501 E0.017
G1 X120.236 Y43.048 E0.018
G1 X120.009 Y42.567 E0.018
G1 X119.83 Y42.067 E0.017
G1 X119.702 Y41.554 E0.018
G1 X119.624 Y41.03 E0.017
G1 X119.6 Y40.534 E0.017
G1 Y16.466 E0.8
G1 X119.624 Y15.965 E0.017
G1 X119.713 Y15.402 E0.019
G1 X119.831 Y14.933 E0.016
G1 X120.009 Y14.433 E0.018
G1 X120.236 Y13.952 E0.017
G1 X120.509 Y13.499 E0.018
G1 X120.825 Y13.072 E0.018
G1 X121.181 Y12.681 E0.017
G1 X121.572 Y12.325 E0.018
G1 X121.999 Y12.009 E0.018
G1 X122.452 Y11.736 E0.017
G1 X122.933 Y11.509 E0.018
G1 X123.433 Y11.33 E0.018
G1 X123.947 Y11.202 E0.017
G1 X124.47 Y11.124 E0.018
G1 X125 Y11.098 E0.017
G1 X125.53 Y11.124 E0.018
G1 X126.053 Y11.202 E0.018
G1 X126.567 Y11.33 E0.017
G1 X127.067 Y11.509 E0.018
G1 X127.548 Y11.736 E0.018
G1 X128.001 Y12.009 E0.017
G1 X128.428 Y12.325 E0.018
G1 X128.824 Y12.685 E0.018
G1 X129.202 Y13.108 E0.019
G1 X129.491 Y13.499 E0.016
G1 X129.764 Y13.952 E0.017
G1 X129.991 Y14.433 E0.018
G1 X130.17 Y14.933 E0.018
G1 X130.298 Y15.447 E0.017
G1 X130.376 Y15.97 E0.018
G1 X130.4 Y16.466 E0.016
G1 Y40.534 E0.801
G1 X130.376 Y41.035 E0.017
G1 X130.287 Y41.598 E0.018
G1 X130.169 Y42.067 E0.017
G1 X129.991 Y42.567 E0.017
G1 X129.764 Y43.048 E0.018
G1 X129.488 Y43.506 E0.018
G1 X129.145 Y43.962 E0.019
G1 X128.819 Y44.319 E0.016
G1 X128.428 Y44.675 E0.017
G1 X128.001 Y44.991 E0.018
G1 X127.548 Y45.264 E0.018
G1 X127.067 Y45.491 E0.017
G1 X126.567 Y45.67 E0.018
G1 X126.053 Y45.798 E0.018
G1 X125.53 Y45.876 E0.017
G1 X125 Y45.902 E0.018
;rapid-leaky
G0 Y45.501 F7200
;bead-skirt/brim
G1 X124.51 Y45.477 F960 E0.016
G1 X124.025 Y45.405 E0.016
G1 X123.549 Y45.286 E0.017
G1 X123.086 Y45.121 E0.016
G1 X122.641 Y44.911 E0.016
G1 X122.222 Y44.658 E0.017
G1 X121.826 Y44.366 E0.016
G1 X121.464 Y44.036 E0.016
G1 X121.134 Y43.674 E0.017
G1 X120.842 Y43.278 E0.016
G1 X120.589 Y42.859 E0.016
G1 X120.379 Y42.414 E0.017
G1 X120.214 Y41.951 E0.016
G1 X120.095 Y41.475 E0.016
G1 X120.023 Y40.99 E0.017
G1 X120 Y40.524 E0.015
G1 Y16.476 E0.8
G1 X120.023 Y16.006 E0.016
G1 X120.105 Y15.482 E0.017
G1 X120.214 Y15.049 E0.015
G1 X120.379 Y14.586 E0.017
G1 X120.589 Y14.141 E0.016
G1 X120.842 Y13.722 E0.016
G1 X121.134 Y13.326 E0.017
G1 X121.464 Y12.964 E0.016
G1 X121.826 Y12.634 E0.016
G1 X122.222 Y12.342 E0.016
G1 X122.641 Y12.089 E0.017
G1 X123.086 Y11.879 E0.016
G1 X123.549 Y11.714 E0.016
G1 X124.025 Y11.595 E0.017
G1 X124.51 Y11.523 E0.016
G1 X125 Y11.499 E0.016
G1 X125.49 Y11.523 E0.017
G1 X125.975 Y11.595 E0.016
G1 X126.451 Y11.714 E0.016
G1 X126.914 Y11.879 E0.017
G1 X127.359 Y12.089 E0.016
G1 X127.778 Y12.342 E0.016
G1 X128.174 Y12.634 E0.017
G1 X128.539 Y12.967 E0.016
G1 X128.891 Y13.361 E0.018
G1 X129.158 Y13.722 E0.015
G1 X129.411 Y14.141 E0.016
G1 X129.621 Y14.586 E0.016
G1 X129.786 Y15.049 E0.017
G1 X129.905 Y15.525 E0.016
G1 X129.977 Y16.01 E0.016
G1 X130 Y16.476 E0.016
G1 Y40.524 E0.8
G1 X129.977 Y40.994 E0.015
G1 X129.895 Y41.518 E0.018
G1 X129.786 Y41.951 E0.015
G1 X129.621 Y42.414 E0.016
G1 X129.411 Y42.859 E0.017
G1 X129.156 Y43.282 E0.016
G1 X128.836 Y43.706 E0.018
G1 X128.536 Y44.036 E0.014
G1 X128.174 Y44.366 E0.017
G1 X127.778 Y44.658 E0.016
G1 X127.359 Y44.911 E0.016
G1 X126.914 Y45.121 E0.017
G1 X126.451 Y45.286 E0.016
G1 X125.975 Y45.405 E0.016
G1 X125.49 Y45.477 E0.017
G1 X125 Y45.501 E0.016
;rapid-leaky
G0 Y45.101 F7200
;bead-skirt/brim
G1 X124.549 Y45.079 F960 E0.015
G1 X124.103 Y45.012 E0.015
G1 X123.665 Y44.903 E0.015
G1 X123.239 Y44.751 E0.015
G1 X122.83 Y44.558 E0.015
G1 X122.444 Y44.325 E0.015
G1 X122.081 Y44.056 E0.015
G1 X121.747 Y43.753 E0.015
G1 X121.444 Y43.42 E0.015
G1 X121.175 Y43.056 E0.015
G1 X120.942 Y42.67 E0.015
G1 X120.749 Y42.261 E0.015
G1 X120.597 Y41.835 E0.015
G1 X120.488 Y41.397 E0.015
G1 X120.421 Y40.951 E0.015
G1 X120.4 Y40.515 E0.015
G1 Y16.485 E0.799
G1 X120.421 Y16.047 E0.015
G1 X120.497 Y15.562 E0.016
G1 X120.597 Y15.165 E0.014
G1 X120.749 Y14.739 E0.015
G1 X120.942 Y14.33 E0.015
G1 X121.175 Y13.944 E0.015
G1 X121.444 Y13.581 E0.015
G1 X121.747 Y13.247 E0.015
G1 X122.081 Y12.944 E0.015
G1 X122.444 Y12.675 E0.015
G1 X122.83 Y12.442 E0.015
G1 X123.239 Y12.249 E0.015
G1 X123.665 Y12.097 E0.015
G1 X124.103 Y11.988 E0.015
G1 X124.549 Y11.921 E0.015
G1 X125 Y11.899 E0.015
G1 X125.451 Y11.921 E0.015
G1 X125.897 Y11.988 E0.015
G1 X126.335 Y12.097 E0.015
G1 X126.761 Y12.249 E0.015
G1 X127.17 Y12.442 E0.015
G1 X127.556 Y12.675 E0.015
G1 X127.919 Y12.944 E0.015
G1 X128.255 Y13.249 E0.015
G1 X128.581 Y13.614 E0.016
G1 X128.825 Y13.944 E0.014
G1 X129.058 Y14.33 E0.015
G1 X129.251 Y14.739 E0.015
G1 X129.403 Y15.165 E0.015
G1 X129.512 Y15.603 E0.015
G1 X129.579 Y16.049 E0.015
G1 X129.6 Y16.485 E0.015
G1 Y40.515 E0.799
G1 X129.579 Y40.953 E0.014
G1 X129.503 Y41.438 E0.017
G1 X129.403 Y41.835 E0.013
G1 X129.251 Y42.261 E0.015
G1 X129.058 Y42.67 E0.015
G1 X128.824 Y43.058 E0.016
G1 X128.528 Y43.451 E0.016
G1 X128.253 Y43.753 E0.013
G1 X127.919 Y44.056 E0.015
G1 X127.556 Y44.325 E0.015
G1 X127.17 Y44.558 E0.015
G1 X126.761 Y44.751 E0.016
G1 X126.335 Y44.903 E0.015
G1 X125.897 Y45.012 E0.015
G1 X125.451 Y45.079 E0.015
G1 X125 Y45.101 E0.015
;rapid-leaky
G0 Y44.7 F7200
;bead-skirt/brim
G1 X124.588 Y44.68 F960 E0.013
G1 X124.181 Y44.619 E0.014
G1 X123.781 Y44.52 E0.014
G1 X123.392 Y44.381 E0.013
G1 X123.019 Y44.205 E0.014
G1 X122.667 Y43.992 E0.014
G1 X122.335 Y43.747 E0.014
G1 X122.03 Y43.47 E0.013
G1 X121.753 Y43.165 E0.014
G1 X121.508 Y42.833 E0.014
G1 X121.295 Y42.481 E0.013
G1 X121.119 Y42.108 E0.014
G1 X120.98 Y41.719 E0.014
G1 X120.881 Y41.319 E0.014
G1 X120.82 Y40.912 E0.013
G1 X120.8 Y40.505 E0.014
G1 Y16.495 E0.798
G1 X120.82 Y16.088 E0.014
G1 X120.89 Y15.642 E0.015
G1 X120.98 Y15.281 E0.012
G1 X121.119 Y14.892 E0.014
G1 X121.295 Y14.519 E0.014
G1 X121.508 Y14.167 E0.013
G1 X121.753 Y13.835 E0.014
G1 X122.03 Y13.53 E0.014
G1 X122.335 Y13.253 E0.014
G1 X122.667 Y13.008 E0.013
G1 X123.019 Y12.795 E0.014
G1 X123.392 Y12.619 E0.014
G1 X123.781 Y12.48 E0.013
G1 X124.181 Y12.381 E0.014
G1 X124.588 Y12.32 E0.014
G1 X125 Y12.3 E0.014
G1 X125.412 Y12.32 E0.013
G1 X125.819 Y12.381 E0.014
G1 X126.219 Y12.48 E0.014
G1 X126.608 Y12.619 E0.013
G1 X126.981 Y12.795 E0.014
G1 X127.333 Y13.008 E0.014
G1 X127.665 Y13.253 E0.014
