;fixare tub 3
;Printer name: Prusa i3 MK3
;TIME:5889
;Print time: 1h:38m:9s
;Extruder 1 material used: 4827mm
;Extruder 1 material name: 
;Extruder 1 filament diameter: 1.75mm
;Extruder 1 nozzle diameter: 0.4mm
;Extruder 1 offset x: 0mm
;Extruder 1 offset y: 0mm
;Extruder 1 offset z: 0mm
;Extruder 1 max temp: 215
;Bed temp: 60
;Layer count: 286
;Width: 250mm
;Depth: 210mm
;Height: 210mm
;Center x: 125mm
;Center y: 105mm
;Center z: 0mm
;Count of bodies: 1
;Fusion version: 2.0.19440
G21
M115 U3.0.10 ;tell printer latest fw version
G28 W ;home all without mesh bed level
;--------------------------------
;Selected Profile: PLA Direct Drive
;--------------------------------
;Selected Printer: Prusa, i3 MK3
;--------------------------------
T0
M140 S60
M104 S215 T0
M190 S60
M109 S215 T0
G80 ;mesh bed leveling
G92 E0
G90
M83
G0 X10 Y10 Z10 F7200
G92 E0
;--------------------------------
;Part 1
;LAYER_COUNT:286
;LAYER:1
M107
;rapid-leaky
G0 X20 Y20.5 Z0.2 F7200
;bead-prime
G1 X120 F720 E8.315
G1 F2100 E-0.5
;rapid-dry
G0 X112.944 Y60.57 F7200
G1 F2100 E0.5
;bead-skirt/brim
G1 X117.112 Y57.4 F960 E0.174
G1 X132.888 E0.525
G1 X137.057 Y60.571 E0.174
;rapid-leaky
G0 X139.158 Y62.672 F7200
;bead-skirt/brim
G1 X132.753 Y57.8 F960 E0.268
G1 X117.247 E0.516
G1 X110.844 Y62.671 E0.267
;rapid-leaky
G0 X100.606 Y70.459 F7200
;bead-skirt/brim
G1 X87.737 Y80.248 F960 E0.538
G1 X83.627 Y87.432 E0.275
;rapid-leaky
G0 X84.986 Y84.251 F7200
;bead-skirt/brim
G1 X87.43 Y79.979 F960 E0.164
G1 X94.413 Y74.667 E0.292
;rapid-leaky
G0 X80.344 Y93.171 F7200
;bead-skirt/brim
G1 X77.8 Y97.618 F960 E0.17
G1 Y112.382 E0.491
G1 X80.342 Y116.827 E0.17
;rapid-leaky
G0 X79.266 Y115.751 F7200
;bead-skirt/brim
G1 X77.4 Y112.488 F960 E0.125
G1 Y97.511 E0.499
G1 X79.267 Y94.248 E0.125
;rapid-leaky
G0 X83.619 Y122.559 F7200
;bead-skirt/brim
G1 X87.726 Y129.742 F960 E0.275
G1 X100.607 Y139.541 E0.538
;rapid-leaky
G0 X94.409 Y135.328 F7200
;bead-skirt/brim
G1 X87.42 Y130.011 F960 E0.292
G1 X84.977 Y125.739 E0.164
;rapid-leaky
G0 X110.842 Y147.328 F7200
;bead-skirt/brim
G1 X117.247 Y152.2 F960 E0.268
G1 X132.753 E0.515
G1 X139.156 Y147.329 E0.268
;rapid-leaky
G0 X137.056 Y149.43 F7200
;bead-skirt/brim
G1 X132.888 Y152.6 F960 E0.174
G1 X117.112 E0.525
G1 X112.943 Y149.429 E0.174
;rapid-leaky
G0 X149.394 Y139.541 F7200
;bead-skirt/brim
G1 X162.263 Y129.752 F960 E0.538
G1 X166.373 Y122.568 E0.275
;rapid-leaky
G0 X165.014 Y125.749 F7200
;bead-skirt/brim
G1 X162.57 Y130.021 F960 E0.164
G1 X155.587 Y135.333 E0.292
;rapid-leaky
G0 X169.656 Y116.829 F7200
;bead-skirt/brim
G1 X172.2 Y112.382 F960 E0.17
G1 Y97.618 E0.491
G1 X169.658 Y93.173 E0.17
;rapid-leaky
G0 X170.734 Y94.249 F7200
;bead-skirt/brim
G1 X172.6 Y97.512 F960 E0.125
G1 Y112.489 E0.498
G1 X170.733 Y115.752 E0.126
;rapid-leaky
G0 X166.381 Y87.441 F7200
;bead-skirt/brim
G1 X162.274 Y80.258 F960 E0.275
;rapid-leaky
G0 F7200
;bead-skirt/brim
G1 X149.393 Y70.459 F960 E0.538
;rapid-leaky
G0 X155.591 Y74.672 F7200
;bead-skirt/brim
G1 X162.58 Y79.989 F960 E0.292
;rapid-leaky
G0 F7200
;bead-skirt/brim
G1 X165.023 Y84.261 F960 E0.164
G1 F2100 E-0.5
;rapid-dry
G0 X155.633 Y85.262 F7200
G1 F2100 E0.5
;bead-support
G1 X157.689 Y84.075 F1320 E0.079
G1 X157.964 Y84.076 E0.009
G1 X157.962 Y86.997 E0.097
G1 X155.631 Y88.342 E0.09
G1 X155.629 Y91.423 E0.102
G1 X157.96 Y90.077 E0.09
G1 X157.958 Y93.158 E0.102
G1 X155.627 Y94.503 E0.089
G1 X155.625 Y97.584 E0.103
G1 X157.956 Y96.238 E0.089
G1 F2100 E-0.5
G0 X157.09 Y96.738 F2400
G0 X157.956 Y96.238 F2400
;rapid-dry
G0 X165.2 Y99.2 F7200
G1 F2100 E0.5
;bead-perimeter_outer
G1 X166.8 F720 E0.054
G1 Y110.8 E0.386
G1 X165.2 E0.053
G1 Y99.2 E0.386
;rapid-leaky
G0 X165.56 Y99.56 F7200
;bead-perimeter_inner
G1 X166.44 F960 E0.029
G1 Y110.44 E0.362
G1 X165.56 E0.029
G1 Y99.56 E0.362
G1 F2100 E-0.5
;rapid-dry
G0 X164.43 Y107.896 F7200
G1 F2100 E0.5
;bead-support
G1 X159.621 Y110.672 F1320 E0.184
G1 X154.282 Y110.676 E0.178
G1 X164.43 Y104.817 E0.39
G1 Y101.738 E0.102
G1 X148.943 Y110.679 E0.595
G1 X143.604 Y110.682 E0.178
G1 X163.25 Y99.34 E0.754
G1 X157.92 Y99.338 E0.177
G1 X138.265 Y110.685 E0.755
G1 F2100 E-0.5
G0 X139.131 Y110.185 F2400
G0 X138.265 Y110.685 F2400
;rapid-dry
G0 X155.633 Y112.975 F7200
G1 F2100 E0.5
;bead-support
G1 X157.964 Y111.629 F1320 E0.09
G1 X157.962 Y114.71 E0.102
G1 X155.631 Y116.055 E0.09
G1 X155.629 Y119.136 E0.102
G1 X157.96 Y117.79 E0.09
G1 X157.958 Y120.87 E0.102
G1 X155.627 Y122.216 E0.09
G1 X155.625 Y125.297 E0.102
G1 X157.956 Y123.951 E0.09
G1 F2100 E-0.5
G0 X157.089 Y124.451 F2400
G0 X157.956 Y123.951 F2400
;rapid-dry
G0 X130.8 Y145.2 F7200
G1 F2100 E0.5
;bead-perimeter_outer
G1 Y146.8 F720 E0.053
G1 X119.2 E0.386
G1 Y145.2 E0.053
G1 X130.8 E0.386
;rapid-leaky
G0 X130.44 Y145.56 F7200
;bead-perimeter_inner
G1 Y146.44 F960 E0.029
G1 X119.56 E0.362
G1 Y145.56 E0.029
G1 X130.44 E0.362
G1 F2100 E-0.5
;rapid-dry
G0 X127.818 Y144.43 F7200
G1 F2100 E0.5
;bead-support
G1 X130.661 Y142.789 F1320 E0.109
G1 X130.662 Y139.709 E0.103
G1 X122.485 Y144.43 E0.314
G1 X119.331 E0.105
G1 X119.33 Y143.172 E0.041
G1 X130.662 Y136.629 E0.436
G1 X130.663 Y133.55 E0.102
G1 X119.328 Y140.094 E0.435
G1 X119.326 Y137.016 E0.103
G1 X130.664 Y130.47 E0.435
G1 X130.665 Y127.39 E0.103
G1 X119.324 Y133.938 E0.435
G1 X119.322 Y130.86 E0.103
G1 X130.666 Y124.31 E0.435
G1 X130.667 Y121.231 E0.103
G1 X119.32 Y127.782 E0.435
G1 X119.319 Y124.703 E0.103
G1 X130.668 Y118.151 E0.436
G1 X130.669 Y115.071 E0.102
G1 X119.317 Y121.625 E0.436
G1 X119.315 Y118.547 E0.102
G1 X130.67 Y111.991 E0.437
G1 Y110.69 E0.043
G1 X132.926 Y110.689 E0.075
G1 X152.589 Y99.336 E0.755
G1 X147.258 Y99.335 E0.177
G1 X119.313 Y115.469 E1.074
G1 X119.311 Y112.391 E0.102
G1 X141.928 Y99.333 E0.869
G1 X136.597 Y99.332 E0.177
G1 X116.96 Y110.669 E0.754
G1 X111.629 Y110.668 E0.177
G1 X131.267 Y99.33 E0.755
G1 X130.69 E0.019
G1 X130.688 Y96.585 E0.091
G1 X106.298 Y110.666 E0.937
G1 F2100 E-0.5
G0 X107.164 Y110.166 F2400
G0 X106.298 Y110.666 F2400
;rapid-dry
G0 X94.368 Y123.713 F7200
G1 F2100 E0.5
;bead-support
G1 X92.037 Y125.059 F1320 E0.089
G1 X92.039 Y121.978 E0.103
G1 X94.37 Y120.632 E0.089
G1 X94.372 Y117.552 E0.103
G1 X92.041 Y118.898 E0.089
G1 X92.043 Y115.817 E0.103
G1 X94.374 Y114.472 E0.089
G1 X94.376 Y111.529 E0.098
G1 X94.139 Y111.528 E0.008
G1 X92.045 Y112.737 E0.08
G1 F2100 E-0.5
G0 X92.911 Y112.237 F2400
G0 X92.045 Y112.737 F2400
;rapid-dry
G0 X85.57 Y101.079 F7200
G1 F2100 E0.5
;bead-support
G1 X88.602 Y99.329 F1320 E0.117
G1 X93.941 Y99.326 E0.177
G1 X85.57 Y104.159 E0.322
G1 Y107.238 E0.102
G1 X99.28 Y99.322 E0.527
G1 X104.619 Y99.319 E0.177
G1 X85.57 Y110.317 E0.732
G1 Y110.66 E0.011
G1 X90.307 Y110.662 E0.158
G1 X109.958 Y99.316 E0.755
G1 X115.297 Y99.312 E0.177
G1 X95.637 Y110.663 E0.755
G1 X100.968 Y110.665 E0.178
G1 X130.687 Y93.507 E1.141
G1 X130.685 Y90.428 E0.102
G1 X119.331 Y96.984 E0.436
G1 X119.332 Y93.904 E0.103
G1 X130.683 Y87.35 E0.436
G1 X130.681 Y84.272 E0.102
G1 X119.332 Y90.824 E0.436
G1 X119.333 Y87.745 E0.102
G1 X130.679 Y81.194 E0.436
G1 X130.677 Y78.116 E0.103
G1 X119.334 Y84.665 E0.435
G1 X119.335 Y81.585 E0.103
G1 X130.675 Y75.038 E0.435
G1 X130.673 Y71.96 E0.102
G1 X119.336 Y78.505 E0.436
G1 X119.337 Y75.426 E0.102
G1 X130.671 Y68.882 E0.436
G1 X130.669 Y65.804 E0.102
G1 X119.338 Y72.346 E0.435
G1 X119.339 Y69.266 E0.103
G1 X125.741 Y65.57 E0.246
G1 X120.407 E0.177
G1 X119.34 Y66.186 E0.041
G1 F2100 E-0.5
G0 X120.206 Y65.686 F2400
G0 X119.34 Y66.186 F2400
;rapid-dry
G0 X130.8 Y64.8 F7200
G1 F2100 E0.5
;bead-perimeter_outer
G1 X119.2 F720 E0.386
G1 Y63.2 E0.053
G1 X130.8 E0.386
G1 Y64.8 E0.053
;rapid-leaky
G0 X130.44 Y64.44 F7200
;bead-perimeter_inner
G1 X119.56 F960 E0.362
G1 Y63.56 E0.029
G1 X130.44 E0.362
G1 Y64.44 E0.029
G1 F2100 E-0.5
;rapid-dry
G0 X92.046 Y85.024 F7200
G1 F2100 E0.5
;bead-support
G1 X93.691 Y84.074 F1320 E0.063
G1 X94.376 Y84.076 E0.023
G1 Y86.758 E0.089
G1 X92.046 Y88.103 E0.09
G1 Y91.182 E0.102
G1 X94.376 Y89.837 E0.09
G1 Y92.916 E0.102
G1 X92.046 Y94.261 E0.09
G1 Y97.34 E0.102
G1 X94.376 Y95.995 E0.09
G1 F2100 E-0.5
G0 X93.51 Y96.495 F2400
G0 X94.376 Y95.995 F2400
;rapid-dry
G0 X84.8 Y99.2 F7200
G1 F2100 E0.5
;bead-perimeter_outer
G1 Y110.8 F720 E0.385
G1 X83.2 E0.054
G1 Y99.2 E0.385
G1 X84.8 E0.054
;rapid-leaky
G0 X84.44 Y99.56 F7200
;bead-perimeter_inner
G1 Y110.44 F960 E0.362
G1 X83.56 E0.029
G1 Y99.56 E0.362
G1 X84.44 E0.029
;rapid-leaky
G0 X84.106 Y99.88 F7200
;bead-solid_infill
G1 X83.88 Y100.106 F720 E0.011
G1 Y100.672 E0.018
G1 X84.12 Y100.432 E0.012
G1 Y100.998 E0.018
G1 X83.88 Y101.238 E0.012
G1 Y101.803 E0.019
G1 X84.12 Y101.563 E0.011
G1 Y102.129 E0.019
G1 X83.88 Y102.369 E0.011
G1 Y102.935 E0.019
G1 X84.12 Y102.695 E0.011
G1 Y103.26 E0.019
G1 X83.88 Y103.5 E0.011
G1 Y104.066 E0.019
G1 X84.12 Y103.826 E0.011
G1 Y104.392 E0.019
G1 X83.88 Y104.632 E0.011
G1 Y105.197 E0.019
G1 X84.12 Y104.957 E0.011
G1 Y105.523 E0.019
G1 X83.88 Y105.763 E0.012
G1 Y106.329 E0.018
G1 X84.12 Y106.089 E0.012
G1 Y106.654 E0.019
G1 X83.88 Y106.894 E0.011
G1 Y107.46 E0.019
G1 X84.12 Y107.22 E0.011
G1 Y107.786 E0.019
G1 X83.88 Y108.026 E0.011
G1 Y108.591 E0.019
G1 X84.12 Y108.351 E0.011
G1 Y108.917 E0.019
G1 X83.88 Y109.157 E0.011
G1 Y109.723 E0.019
G1 X84.12 Y109.483 E0.011
G1 Y110.049 E0.019
G1 X84.049 Y110.12 E0.003
G1 F2100 E-0.5
;rapid-dry
G0 X120.131 Y145.88 F7200
G1 F2100 E0.5
;bead-solid_infill
G1 X119.891 Y146.12 F720 E0.012
G1 X120.456 E0.019
G1 X120.696 Y145.88 E0.011
G1 X121.262 E0.019
G1 X121.022 Y146.12 E0.011
G1 X121.588 E0.019
G1 X121.828 Y145.88 E0.011
G1 X122.393 E0.019
G1 X122.153 Y146.12 E0.011
G1 X122.719 E0.019
G1 X122.959 Y145.88 E0.011
G1 X123.525 E0.019
G1 X123.285 Y146.12 E0.011
G1 X123.85 E0.019
G1 X124.09 Y145.88 E0.012
G1 X124.656 E0.018
G1 X124.416 Y146.12 E0.012
G1 X124.982 E0.018
G1 X125.222 Y145.88 E0.012
G1 X125.787 E0.019
G1 X125.547 Y146.12 E0.011
G1 X126.113 E0.019
G1 X126.353 Y145.88 E0.011
G1 X126.919 E0.019
G1 X126.679 Y146.12 E0.011
G1 X127.245 E0.019
G1 X127.485 Y145.88 E0.011
G1 X128.05 E0.019
G1 X127.81 Y146.12 E0.011
G1 X128.376 E0.019
G1 X128.616 Y145.88 E0.011
G1 X129.182 E0.019
G1 X128.942 Y146.12 E0.011
G1 X129.507 E0.019
G1 X129.747 Y145.88 E0.012
G1 X130.12 E0.012
G1 Y146.073 E0.006
G1 X130.073 Y146.12 E0.003
G1 F2100 E-0.5
;rapid-dry
G0 X166.073 Y110.12 F7200
G1 F2100 E0.5
;bead-solid_infill
G1 X166.12 Y110.073 F720 E0.002
G1 Y109.507 E0.019
G1 X165.88 Y109.747 E0.011
G1 Y109.182 E0.019
G1 X166.12 Y108.942 E0.011
G1 Y108.376 E0.019
G1 X165.88 Y108.616 E0.011
G1 Y108.05 E0.019
G1 X166.12 Y107.81 E0.011
G1 Y107.244 E0.019
G1 X165.88 Y107.484 E0.011
G1 Y106.919 E0.019
G1 X166.12 Y106.679 E0.011
G1 Y106.113 E0.019
G1 X165.88 Y106.353 E0.012
G1 Y105.787 E0.018
G1 X166.12 Y105.547 E0.012
G1 Y104.982 E0.018
G1 X165.88 Y105.222 E0.012
G1 Y104.656 E0.019
G1 X166.12 Y104.416 E0.011
G1 Y103.85 E0.019
G1 X165.88 Y104.09 E0.011
G1 Y103.525 E0.019
G1 X166.12 Y103.285 E0.011
G1 Y102.719 E0.019
G1 X165.88 Y102.959 E0.011
G1 Y102.393 E0.019
G1 X166.12 Y102.153 E0.011
G1 Y101.588 E0.019
G1 X165.88 Y101.828 E0.011
G1 Y101.262 E0.019
G1 X166.12 Y101.022 E0.011
G1 Y100.456 E0.019
G1 X165.88 Y100.696 E0.012
G1 Y100.131 E0.018
G1 X166.12 Y99.891 E0.012
G1 F2100 E-0.5
;rapid-dry
G0 X130.049 Y64.12 F7200
G1 F2100 E0.5
;bead-solid_infill
G1 X130.12 Y64.049 F720 E0.003
G1 Y63.88 E0.006
G1 X129.723 E0.013
G1 X129.483 Y64.12 E0.011
G1 X128.917 E0.019
G1 X129.157 Y63.88 E0.011
G1 X128.591 E0.019
G1 X128.352 Y64.12 E0.011
G1 X127.786 E0.019
G1 X128.026 Y63.88 E0.011
G1 X127.46 E0.019
G1 X127.22 Y64.12 E0.012
G1 X126.654 E0.018
G1 X126.894 Y63.88 E0.012
G1 X126.329 E0.018
G1 X126.089 Y64.12 E0.012
G1 X125.523 E0.019
G1 X125.763 Y63.88 E0.011
G1 X125.197 E0.019
G1 X124.957 Y64.12 E0.011
G1 X124.392 E0.019
G1 X124.632 Y63.88 E0.011
G1 X124.066 E0.019
G1 X123.826 Y64.12 E0.011
G1 X123.26 E0.019
G1 X123.5 Y63.88 E0.011
G1 X122.935 E0.019
G1 X122.695 Y64.12 E0.011
G1 X122.129 E0.019
G1 X122.369 Y63.88 E0.011
G1 X121.803 E0.019
G1 X121.563 Y64.12 E0.012
G1 X120.998 E0.018
G1 X121.238 Y63.88 E0.012
G1 X120.672 E0.018
G1 X120.432 Y64.12 E0.012
G1 X119.88 E0.018
G1 Y64.106 E0.001
G1 X120.106 Y63.88 E0.01
G1 F2100 E-0.5
;LAYER:2
M106 S255
;rapid-dry
G0 X119.34 Y66.186 Z0.35 F7200
G1 F2100 E0.5
;bead-support
G1 X120.407 Y65.57 F3300 E0.031
G1 X125.741 E0.133
G1 X119.339 Y69.266 E0.184
G1 X119.338 Y72.346 E0.077
G1 X130.669 Y65.804 E0.327
G1 X130.671 Y68.882 E0.076
G1 X119.337 Y75.426 E0.327
G1 X119.336 Y78.505 E0.077
G1 X130.673 Y71.96 E0.326
G1 X130.675 Y75.038 E0.077
G1 X119.335 Y81.585 E0.327
G1 X119.334 Y84.665 E0.077
G1 X130.677 Y78.116 E0.326
G1 X130.679 Y81.194 E0.077
G1 X119.333 Y87.745 E0.327
G1 X119.332 Y90.824 E0.077
G1 X130.681 Y84.272 E0.327
G1 X130.683 Y87.35 E0.076
G1 X119.332 Y93.904 E0.327
G1 X119.331 Y96.984 E0.077
G1 X130.685 Y90.428 E0.327
G1 X130.687 Y93.507 E0.077
G1 X100.968 Y110.665 E0.856
G1 X95.637 Y110.663 E0.133
G1 X115.297 Y99.312 E0.566
G1 X109.958 Y99.316 E0.133
G1 X90.307 Y110.662 E0.566
G1 X85.57 Y110.66 E0.119
G1 Y110.317 E0.008
G1 X104.619 Y99.319 E0.549
G1 X99.28 Y99.322 E0.133
G1 X85.57 Y107.238 E0.395
G1 Y104.159 E0.077
G1 X93.941 Y99.326 E0.241
G1 X88.602 Y99.329 E0.133
G1 X85.57 Y101.079 E0.087
G1 F2100 E-0.5
G0 X86.436 Y100.579 F2400
G0 X85.57 Y101.079 F2400
;rapid-dry
G0 X84.8 Y99.2 F7200
G1 F2100 E0.5
;bead-perimeter_outer
G1 Y110.8 F1800 E0.29
G1 X83.2 E0.04
G1 Y99.2 E0.289
G1 X84.8 E0.04
;rapid-leaky
G0 X84.44 Y99.56 F7200
;bead-perimeter_inner
G1 Y110.44 F2400 E0.271
G1 X83.56 E0.022
G1 Y99.56 E0.272
G1 X84.44 E0.022
G1 F2100 E-0.5
;rapid-dry
G0 X92.046 Y85.024 F7200
G1 F2100 E0.5
;bead-support
G1 X93.691 Y84.074 F3300 E0.047
G1 X94.376 Y84.076 E0.017
G1 Y86.758 E0.067
G1 X92.046 Y88.103 E0.067
G1 Y91.182 E0.077
G1 X94.376 Y89.837 E0.067
G1 Y92.916 E0.077
G1 X92.046 Y94.261 E0.067
G1 Y97.34 E0.077
G1 X94.376 Y95.995 E0.067
G1 F2100 E-0.5
G0 X93.51 Y96.495 F2400
G0 X94.376 Y95.995 F2400
;rapid-dry
G0 X92.045 Y112.737 F7200
G1 F2100 E0.5
;bead-support
G1 X94.139 Y111.528 F3300 E0.06
G1 X94.376 Y111.529 E0.006
G1 X94.374 Y114.472 E0.074
G1 X92.043 Y115.817 E0.067
G1 X92.041 Y118.898 E0.077
G1 X94.372 Y117.552 E0.067
G1 X94.37 Y120.632 E0.076
G1 X92.039 Y121.978 E0.068
G1 X92.037 Y125.059 E0.076
G1 X94.368 Y123.713 E0.068
G1 F2100 E-0.5
G0 X93.502 Y124.213 F2400
G0 X94.368 Y123.713 F2400
;rapid-dry
G0 X106.298 Y110.666 F7200
G1 F2100 E0.5
;bead-support
G1 X130.688 Y96.585 F3300 E0.702
G1 X130.69 Y99.33 E0.069
G1 X131.267 E0.014
G1 X111.629 Y110.668 E0.566
G1 X116.96 Y110.669 E0.133
G1 X136.597 Y99.332 E0.565
G1 X141.928 Y99.333 E0.133
G1 X119.311 Y112.391 E0.652
G1 X119.313 Y115.469 E0.076
G1 X147.258 Y99.335 E0.805
G1 X152.589 Y99.336 E0.133
G1 X132.926 Y110.689 E0.567
G1 X130.67 Y110.69 E0.056
G1 Y111.991 E0.033
G1 X119.315 Y118.547 E0.327
G1 X119.317 Y121.625 E0.076
G1 X130.669 Y115.071 E0.327
G1 X130.668 Y118.151 E0.077
G1 X119.319 Y124.703 E0.327
G1 X119.32 Y127.782 E0.077
G1 X130.667 Y121.231 E0.327
G1 X130.666 Y124.31 E0.077
G1 X119.322 Y130.86 E0.326
G1 X119.324 Y133.938 E0.077
G1 X130.665 Y127.39 E0.327
G1 X130.664 Y130.47 E0.077
G1 X119.326 Y137.016 E0.326
G1 X119.328 Y140.094 E0.077
G1 X130.663 Y133.55 E0.326
G1 X130.662 Y136.629 E0.077
G1 X119.33 Y143.172 E0.327
G1 X119.331 Y144.43 E0.031
G1 X122.485 E0.079
G1 X130.662 Y139.709 E0.235
G1 X130.661 Y142.789 E0.077
G1 X127.818 Y144.43 E0.082
G1 F2100 E-0.5
G0 X128.684 Y143.93 F2400
G0 X127.818 Y144.43 F2400
;rapid-dry
G0 X130.8 Y145.2 F7200
G1 F2100 E0.5
;bead-perimeter_outer
G1 Y146.8 F1800 E0.04
G1 X119.2 E0.289
G1 Y145.2 E0.04
G1 X130.8 E0.289
;rapid-leaky
G0 X130.44 Y145.56 F7200
;bead-perimeter_inner
G1 Y146.44 F2400 E0.022
G1 X119.56 E0.272
G1 Y145.56 E0.022
G1 X130.44 E0.271
G1 F2100 E-0.5
;rapid-dry
G0 X157.956 Y123.951 F7200
G1 F2100 E0.5
;bead-support
G1 X155.625 Y125.297 F3300 E0.067
G1 X155.627 Y122.216 E0.077
G1 X157.958 Y120.87 E0.067
G1 X157.96 Y117.79 E0.077
G1 X155.629 Y119.136 E0.067
G1 X155.631 Y116.055 E0.077
G1 X157.962 Y114.71 E0.067
G1 X157.964 Y111.629 E0.077
G1 X155.633 Y112.975 E0.067
G1 F2100 E-0.5
G0 X156.499 Y112.475 F2400
G0 X155.633 Y112.975 F2400
;rapid-dry
G0 X138.265 Y110.685 F7200
G1 F2100 E0.5
;bead-support
G1 X157.92 Y99.338 F3300 E0.566
G1 X163.25 Y99.34 E0.133
G1 X143.604 Y110.682 E0.566
G1 X148.943 Y110.679 E0.133
G1 X164.43 Y101.738 E0.447
G1 Y104.817 E0.076
G1 X154.282 Y110.676 E0.293
G1 X159.621 Y110.672 E0.133
G1 X164.43 Y107.896 E0.138
G1 F2100 E-0.5
G0 X163.564 Y108.396 F2400
G0 X164.43 Y107.896 F2400
;rapid-dry
G0 X157.956 Y96.238 F7200
G1 F2100 E0.5
;bead-support
G1 X155.625 Y97.584 F3300 E0.067
G1 X155.627 Y94.503 E0.077
G1 X157.958 Y93.158 E0.067
G1 X157.96 Y90.077 E0.077
G1 X155.629 Y91.423 E0.067
G1 X155.631 Y88.342 E0.077
G1 X157.962 Y86.997 E0.067
G1 X157.964 Y84.076 E0.073
G1 X157.689 Y84.075 E0.007
G1 X155.633 Y85.262 E0.059
G1 F2100 E-0.5
G0 X156.499 Y84.762 F2400
G0 X155.633 Y85.262 F2400
;rapid-dry
G0 X165.2 Y99.2 F7200
G1 F2100 E0.5
;bead-perimeter_outer
G1 X166.8 F1800 E0.04
G1 Y110.8 E0.29
G1 X165.2 E0.04
G1 Y99.2 E0.289
;rapid-leaky
G0 X165.56 Y99.56 F7200
;bead-perimeter_inner
G1 X166.44 F2400 E0.022
G1 Y110.44 E0.271
G1 X165.56 E0.022
G1 Y99.56 E0.272
G1 F2100 E-0.5
;rapid-dry
G0 X130.8 Y63.2 F7200
G1 F2100 E0.5
;bead-perimeter_outer
G1 Y64.8 F1800 E0.039
G1 X119.2 E0.29
G1 Y63.2 E0.04
G1 X130.8 E0.289
;rapid-leaky
G0 X130.44 Y63.56 F7200
;bead-perimeter_inner
G1 Y64.44 F2400 E0.022
G1 X119.56 E0.271
G1 Y63.56 E0.022
G1 X130.44 E0.272
;rapid-leaky
G0 X130.12 Y63.927 F7200
;bead-solid_infill
G1 X130.073 Y63.88 F1800 E0.002
G1 X129.507 E0.014
G1 X129.747 Y64.12 E0.008
G1 X129.182 E0.014
G1 X128.942 Y63.88 E0.009
G1 X128.376 E0.014
G1 X128.616 Y64.12 E0.008
G1 X128.05 E0.014
G1 X127.81 Y63.88 E0.009
G1 X127.245 E0.014
G1 X127.485 Y64.12 E0.008
G1 X126.919 E0.015
G1 X126.679 Y63.88 E0.008
G1 X126.113 E0.014
G1 X126.353 Y64.12 E0.009
G1 X125.787 E0.014
G1 X125.547 Y63.88 E0.008
G1 X124.982 E0.014
G1 X125.222 Y64.12 E0.009
G1 X124.656 E0.014
G1 X124.416 Y63.88 E0.008
G1 X123.85 E0.014
G1 X124.09 Y64.12 E0.009
G1 X123.525 E0.014
G1 X123.285 Y63.88 E0.008
G1 X122.719 E0.015
G1 X122.959 Y64.12 E0.008
G1 X122.393 E0.014
G1 X122.153 Y63.88 E0.009
G1 X121.588 E0.014
G1 X121.828 Y64.12 E0.008
G1 X121.262 E0.014
G1 X121.022 Y63.88 E0.009
G1 X120.456 E0.014
G1 X120.696 Y64.12 E0.008
G1 X120.131 E0.014
G1 X119.891 Y63.88 E0.009
G1 F2100 E-0.5
;rapid-dry
G0 X84.12 Y99.951 F7200
G1 F2100 E0.5
;bead-solid_infill
G1 X84.049 Y99.88 F1800 E0.002
G1 X83.88 E0.005
G1 Y100.277 E0.01
G1 X84.12 Y100.517 E0.008
G1 Y101.083 E0.014
G1 X83.88 Y100.843 E0.009
G1 Y101.409 E0.014
G1 X84.12 Y101.649 E0.008
G1 Y102.214 E0.014
G1 X83.88 Y101.974 E0.009
G1 Y102.54 E0.014
G1 X84.12 Y102.78 E0.008
G1 Y103.346 E0.014
G1 X83.88 Y103.106 E0.009
G1 Y103.671 E0.014
G1 X84.12 Y103.911 E0.008
G1 Y104.477 E0.015
G1 X83.88 Y104.237 E0.008
G1 Y104.803 E0.014
G1 X84.12 Y105.043 E0.009
G1 Y105.608 E0.014
G1 X83.88 Y105.368 E0.008
G1 Y105.934 E0.014
G1 X84.12 Y106.174 E0.009
G1 Y106.74 E0.014
G1 X83.88 Y106.5 E0.008
G1 Y107.065 E0.014
G1 X84.12 Y107.305 E0.009
G1 Y107.871 E0.014
G1 X83.88 Y107.631 E0.009
G1 Y108.197 E0.014
G1 X84.12 Y108.437 E0.008
G1 Y109.002 E0.014
G1 X83.88 Y108.762 E0.009
G1 Y109.328 E0.014
G1 X84.12 Y109.568 E0.008
G1 Y110.12 E0.014
G1 X84.106
G1 X83.88 Y109.894 E0.008
G1 F2100 E-0.5
;rapid-dry
G0 X119.88 Y145.894 F7200
G1 F2100 E0.5
;bead-solid_infill
G1 X120.106 Y146.12 F1800 E0.008
G1 X120.672 E0.014
G1 X120.432 Y145.88 E0.009
G1 X120.998 E0.014
G1 X121.238 Y146.12 E0.008
G1 X121.803 E0.015
G1 X121.563 Y145.88 E0.008
G1 X122.129 E0.014
G1 X122.369 Y146.12 E0.009
G1 X122.935 E0.014
G1 X122.695 Y145.88 E0.008
G1 X123.26 E0.014
G1 X123.5 Y146.12 E0.009
G1 X124.066 E0.014
G1 X123.826 Y145.88 E0.008
G1 X124.392 E0.014
G1 X124.632 Y146.12 E0.009
G1 X125.197 E0.014
G1 X124.957 Y145.88 E0.009
G1 X125.523 E0.014
G1 X125.763 Y146.12 E0.008
G1 X126.329 E0.014
G1 X126.089 Y145.88 E0.009
G1 X126.654 E0.014
G1 X126.894 Y146.12 E0.008
G1 X127.46 E0.014
G1 X127.22 Y145.88 E0.009
G1 X127.786 E0.014
G1 X128.026 Y146.12 E0.008
G1 X128.591 E0.015
G1 X128.351 Y145.88 E0.008
G1 X128.917 E0.014
G1 X129.157 Y146.12 E0.009
G1 X129.723 E0.014
G1 X129.483 Y145.88 E0.008
G1 X130.049 E0.014
G1 X130.12 Y145.951 E0.003
G1 F2100 E-0.5
;rapid-dry
G0 X165.88 Y109.869 F7200
G1 F2100 E0.5
;bead-solid_infill
G1 X166.12 Y110.109 F1800 E0.008
G1 Y109.544 E0.014
G1 X165.88 Y109.304 E0.009
G1 Y108.738 E0.014
G1 X166.12 Y108.978 E0.008
G1 Y108.412 E0.014
G1 X165.88 Y108.172 E0.009
G1 Y107.607 E0.014
G1 X166.12 Y107.847 E0.009
G1 Y107.281 E0.014
G1 X165.88 Y107.041 E0.008
G1 Y106.475 E0.014
G1 X166.12 Y106.715 E0.009
G1 Y106.15 E0.014
G1 X165.88 Y105.91 E0.008
G1 Y105.344 E0.014
G1 X166.12 Y105.584 E0.009
G1 Y105.018 E0.014
G1 X165.88 Y104.778 E0.008
G1 Y104.213 E0.015
G1 X166.12 Y104.453 E0.008
G1 Y103.887 E0.014
G1 X165.88 Y103.647 E0.009
G1 Y103.081 E0.014
G1 X166.12 Y103.321 E0.008
G1 Y102.756 E0.014
G1 X165.88 Y102.516 E0.009
G1 Y101.95 E0.014
G1 X166.12 Y102.19 E0.008
G1 Y101.624 E0.014
G1 X165.88 Y101.384 E0.009
G1 Y100.818 E0.014
G1 X166.12 Y101.058 E0.008
G1 Y100.493 E0.015
G1 X165.88 Y100.253 E0.008
G1 Y99.88 E0.009
G1 X166.073 E0.005
G1 X166.12 Y99.927 E0.002
G1 F2100 E-0.5
;LAYER:3
;rapid-dry
G0 X165.2 Y99.2 Z0.5 F7200
G1 F2100 E0.5
;bead-perimeter_outer
G1 X166.8 F1800 E0.04
G1 Y110.8 E0.289
G1 X165.2 E0.04
G1 Y99.2 E0.289
;rapid-leaky
G0 X165.56 Y99.56 F7200
;bead-perimeter_inner
G1 X166.44 F2400 E0.022
G1 Y110.44 E0.272
G1 X165.56 E0.022
G1 Y99.56 E0.271
G1 F2100 E-0.5
;rapid-dry
G0 X155.633 Y85.262 F7200
G1 F2100 E0.5
;bead-support
G1 X157.689 Y84.075 F3300 E0.059
G1 X157.964 Y84.076 E0.007
G1 X157.962 Y86.997 E0.073
G1 X155.631 Y88.342 E0.067
G1 X155.629 Y91.423 E0.077
G1 X157.96 Y90.077 E0.067
G1 X157.958 Y93.158 E0.077
G1 X155.627 Y94.503 E0.067
G1 X155.625 Y97.584 E0.077
G1 X157.956 Y96.238 E0.067
G1 F2100 E-0.5
G0 X157.09 Y96.738 F2400
G0 X157.956 Y96.238 F2400
;rapid-dry
G0 X155.633 Y112.975 F7200
G1 F2100 E0.5
;bead-support
G1 X157.964 Y111.629 F3300 E0.067
G1 X157.962 Y114.71 E0.077
G1 X155.631 Y116.055 E0.067
G1 X155.629 Y119.136 E0.077
G1 X157.96 Y117.79 E0.067
G1 X157.958 Y120.87 E0.077
G1 X155.627 Y122.216 E0.067
G1 X155.625 Y125.297 E0.077
G1 X157.956 Y123.951 E0.067
G1 F2100 E-0.5
G0 X157.089 Y124.451 F2400
G0 X157.956 Y123.951 F2400
;rapid-dry
G0 X92.045 Y112.737 F7200
G1 F2100 E0.5
;bead-support
G1 X94.139 Y111.528 F3300 E0.06
G1 X94.376 Y111.529 E0.006
G1 X94.374 Y114.472 E0.074
G1 X92.043 Y115.817 E0.067
G1 X92.041 Y118.898 E0.077
G1 X94.372 Y117.552 E0.067
G1 X94.37 Y120.632 E0.077
G1 X92.039 Y121.978 E0.067
G1 X92.037 Y125.059 E0.077
G1 X94.368 Y123.713 E0.067
G1 F2100 E-0.5
G0 X93.502 Y124.213 F2400
G0 X94.368 Y123.713 F2400
;rapid-dry
G0 X127.818 Y144.43 F7200
G1 F2100 E0.5
;bead-support
G1 X130.661 Y142.789 F3300 E0.082
G1 X130.662 Y139.709 E0.077
G1 X122.485 Y144.43 E0.235
G1 X119.331 E0.079
G1 X119.33 Y143.172 E0.031
G1 X130.662 Y136.629 E0.327
G1 X130.663 Y133.55 E0.076
G1 X119.328 Y140.094 E0.327
G1 X119.326 Y137.016 E0.077
G1 X130.664 Y130.47 E0.326
G1 X130.665 Y127.39 E0.077
G1 X119.324 Y133.938 E0.327
G1 X119.322 Y130.86 E0.077
G1 X130.666 Y124.31 E0.326
G1 X130.667 Y121.231 E0.077
G1 X119.32 Y127.782 E0.327
G1 X119.319 Y124.703 E0.077
G1 X130.668 Y118.151 E0.327
G1 X130.669 Y115.071 E0.076
G1 X119.317 Y121.625 E0.327
G1 X119.315 Y118.547 E0.077
G1 X130.67 Y111.991 E0.327
G1 Y110.69 E0.033
G1 X132.926 Y110.689 E0.056
G1 X152.589 Y99.336 E0.566
G1 X147.258 Y99.335 E0.133
G1 X119.313 Y115.469 E0.805
G1 X119.311 Y112.391 E0.077
G1 X141.928 Y99.333 E0.652
G1 X136.597 Y99.332 E0.133
G1 X116.96 Y110.669 E0.565
G1 X111.629 Y110.668 E0.133
G1 X131.267 Y99.33 E0.566
G1 X130.69 E0.014
G1 X130.688 Y96.585 E0.069
G1 X106.298 Y110.666 E0.702
G1 F2100 E-0.5
G0 X107.164 Y110.166 F2400
G0 X106.298 Y110.666 F2400
;rapid-leaky
G0 X138.265 Y110.685 F7200
G1 F2100 E0.5
;bead-support
G1 X157.92 Y99.338 F3300 E0.566
G1 X163.25 Y99.34 E0.133
G1 X143.604 Y110.682 E0.566
G1 X148.943 Y110.679 E0.133
G1 X164.43 Y101.738 E0.446
G1 Y104.817 E0.077
G1 X154.282 Y110.676 E0.293
G1 X159.621 Y110.672 E0.133
G1 X164.43 Y107.896 E0.138
G1 F2100 E-0.5
G0 X163.564 Y108.396 F2400
G0 X164.43 Y107.896 F2400
;rapid-leaky
G0 X85.57 Y101.079 F7200
G1 F2100 E0.5
;bead-support
G1 X88.602 Y99.329 F3300 E0.088
G1 X93.941 Y99.326 E0.133
G1 X85.57 Y104.159 E0.241
G1 Y107.238 E0.077
G1 X99.28 Y99.322 E0.395
G1 X104.619 Y99.319 E0.133
G1 X85.57 Y110.317 E0.548
G1 Y110.66 E0.009
G1 X90.307 Y110.662 E0.118
G1 X109.958 Y99.316 E0.566
G1 X115.297 Y99.312 E0.133
G1 X95.637 Y110.663 E0.567
G1 X100.968 Y110.665 E0.133
G1 X130.687 Y93.507 E0.856
G1 X130.685 Y90.428 E0.076
G1 X119.331 Y96.984 E0.328
G1 X119.332 Y93.904 E0.076
G1 X130.683 Y87.35 E0.327
G1 X130.681 Y84.272 E0.077
G1 X119.332 Y90.824 E0.327
G1 X119.333 Y87.745 E0.077
G1 X130.679 Y81.194 E0.327
G1 X130.677 Y78.116 E0.076
G1 X119.334 Y84.665 E0.327
G1 X119.335 Y81.585 E0.077
G1 X130.675 Y75.038 E0.327
G1 X130.673 Y71.96 E0.076
G1 X119.336 Y78.505 E0.327
G1 X119.337 Y75.426 E0.077
G1 X130.671 Y68.882 E0.326
G1 X130.669 Y65.804 E0.077
G1 X119.338 Y72.346 E0.326
G1 X119.339 Y69.266 E0.077
G1 X125.741 Y65.57 E0.185
G1 X120.407 E0.133
G1 X119.34 Y66.186 E0.03
G1 F2100 E-0.5
G0 X120.206 Y65.686 F2400
G0 X119.34 Y66.186 F2400
;rapid-dry
G0 X119.2 Y64.8 F7200
G1 F2100 E0.5
;bead-perimeter_outer
G1 Y63.2 F1800 E0.04
G1 X130.8 E0.29
G1 Y64.8 E0.04
G1 X119.2 E0.289
;rapid-leaky
G0 X119.56 Y64.44 F7200
;bead-perimeter_inner
G1 Y63.56 F2400 E0.022
G1 X130.44 E0.271
G1 Y64.44 E0.022
G1 X119.56 E0.272
G1 F2100 E-0.5
;rapid-dry
G0 X92.046 Y85.024 F7200
G1 F2100 E0.5
;bead-support
G1 X93.691 Y84.074 F3300 E0.047
G1 X94.376 Y84.076 E0.017
G1 Y86.758 E0.067
G1 X92.046 Y88.103 E0.067
G1 Y91.182 E0.077
G1 X94.376 Y89.837 E0.067
G1 Y92.916 E0.077
G1 X92.046 Y94.261 E0.067
G1 Y97.34 E0.077
G1 X94.376 Y95.995 E0.067
G1 F2100 E-0.5
G0 X93.51 Y96.495 F2400
G0 X94.376 Y95.995 F2400
;rapid-dry
G0 X84.8 Y99.2 F7200
G1 F2100 E0.5
;bead-perimeter_outer
G1 Y110.8 F1800 E0.289
G1 X83.2 E0.04
G1 Y99.2 E0.29
G1 X84.8 E0.039
;rapid-leaky
G0 X84.44 Y99.56 F7200
;bead-perimeter_inner
G1 Y110.44 F2400 E0.272
G1 X83.56 E0.022
G1 Y99.56 E0.271
G1 X84.44 E0.022
G1 F2100 E-0.5
;rapid-dry
G0 X119.2 Y145.2 F7200
G1 F2100 E0.5
;bead-perimeter_outer
G1 X130.8 F1800 E0.29
G1 Y146.8 E0.039
G1 X119.2 E0.29
G1 Y145.2 E0.04
;rapid-leaky
G0 X119.56 Y145.56 F7200
;bead-perimeter_inner
G1 X130.44 F2400 E0.271
G1 Y146.44 E0.022
G1 X119.56 E0.271
G1 Y145.56 E0.022
;rapid-leaky
G0 X120.131 Y145.88 F7200
;bead-solid_infill
G1 X119.891 Y146.12 F1800 E0.009
G1 X120.456 E0.014
G1 X120.696 Y145.88 E0.008
G1 X121.262 E0.015
G1 X121.022 Y146.12 E0.008
G1 X121.588 E0.014
G1 X121.828 Y145.88 E0.009
G1 X122.393 E0.014
G1 X122.153 Y146.12 E0.008
G1 X122.719 E0.014
G1 X122.959 Y145.88 E0.009
G1 X123.525 E0.014
G1 X123.285 Y146.12 E0.008
G1 X123.85 E0.014
G1 X124.09 Y145.88 E0.009
G1 X124.656 E0.014
G1 X124.416 Y146.12 E0.009
G1 X124.982 E0.014
G1 X125.222 Y145.88 E0.008
G1 X125.787 E0.014
G1 X125.547 Y146.12 E0.009
G1 X126.113 E0.014
G1 X126.353 Y145.88 E0.008
G1 X126.919 E0.014
G1 X126.679 Y146.12 E0.009
G1 X127.245 E0.014
G1 X127.485 Y145.88 E0.008
G1 X128.05 E0.015
G1 X127.81 Y146.12 E0.008
G1 X128.376 E0.014
G1 X128.616 Y145.88 E0.009
G1 X129.182 E0.014
G1 X128.942 Y146.12 E0.008
G1 X129.507 E0.014
G1 X129.747 Y145.88 E0.009
G1 X130.12 E0.009
G1 Y146.073 E0.005
G1 X130.073 Y146.12 E0.001
G1 F2100 E-0.5
;rapid-dry
G0 X166.073 Y110.12 F7200
G1 F2100 E0.5
;bead-solid_infill
G1 X166.12 Y110.073 F1800 E0.002
G1 Y109.507 E0.014
G1 X165.88 Y109.747 E0.009
G1 Y109.182 E0.014
G1 X166.12 Y108.942 E0.008
G1 Y108.376 E0.014
G1 X165.88 Y108.616 E0.009
G1 Y108.05 E0.014
G1 X166.12 Y107.81 E0.008
G1 Y107.244 E0.015
G1 X165.88 Y107.484 E0.008
G1 Y106.919 E0.014
G1 X166.12 Y106.679 E0.009
G1 Y106.113 E0.014
G1 X165.88 Y106.353 E0.008
G1 Y105.787 E0.014
G1 X166.12 Y105.547 E0.009
G1 Y104.982 E0.014
G1 X165.88 Y105.222 E0.008
G1 Y104.656 E0.014
G1 X166.12 Y104.416 E0.009
G1 Y103.85 E0.014
G1 X165.88 Y104.09 E0.009
G1 Y103.525 E0.014
G1 X166.12 Y103.285 E0.008
G1 Y102.719 E0.014
G1 X165.88 Y102.959 E0.009
G1 Y102.393 E0.014
G1 X166.12 Y102.153 E0.008
G1 Y101.588 E0.014
G1 X165.88 Y101.828 E0.009
G1 Y101.262 E0.014
G1 X166.12 Y101.022 E0.008
G1 Y100.456 E0.015
G1 X165.88 Y100.696 E0.008
G1 Y100.131 E0.014
G1 X166.12 Y99.891 E0.009
G1 F2100 E-0.5
;rapid-dry
G0 X130.049 Y64.12 F7200
G1 F2100 E0.5
;bead-solid_infill
G1 X130.12 Y64.049 F1800 E0.002
G1 Y63.88 E0.004
G1 X129.723 E0.01
G1 X129.483 Y64.12 E0.009
G1 X128.917 E0.014
G1 X129.157 Y63.88 E0.008
G1 X128.591 E0.014
G1 X128.352 Y64.12 E0.009
G1 X127.786 E0.014
G1 X128.026 Y63.88 E0.008
G1 X127.46 E0.014
G1 X127.22 Y64.12 E0.009
G1 X126.654 E0.014
G1 X126.894 Y63.88 E0.009
G1 X126.329 E0.014
G1 X126.089 Y64.12 E0.008
G1 X125.523 E0.014
G1 X125.763 Y63.88 E0.009
G1 X125.197 E0.014
G1 X124.957 Y64.12 E0.008
G1 X124.392 E0.014
G1 X124.632 Y63.88 E0.009
G1 X124.066 E0.014
G1 X123.826 Y64.12 E0.008
G1 X123.26 E0.015
G1 X123.5 Y63.88 E0.008
G1 X122.935 E0.014
G1 X122.695 Y64.12 E0.009
G1 X122.129 E0.014
G1 X122.369 Y63.88 E0.008
G1 X121.803 E0.014
G1 X121.563 Y64.12 E0.009
G1 X120.998 E0.014
G1 X121.238 Y63.88 E0.008
G1 X120.672 E0.014
G1 X120.432 Y64.12 E0.009
G1 X119.88 E0.014
G1 Y64.106
G1 X120.106 Y63.88 E0.008
G1 F2100 E-0.5
;rapid-dry
G0 X84.106 Y99.88 F7200
G1 F2100 E0.5
;bead-solid_infill
G1 X83.88 Y100.106 F1800 E0.008
G1 Y100.672 E0.014
G1 X84.12 Y100.432 E0.009
G1 Y100.998 E0.014
G1 X83.88 Y101.238 E0.008
G1 Y101.803 E0.014
G1 X84.12 Y101.563 E0.009
G1 Y102.129 E0.014
G1 X83.88 Y102.369 E0.008
G1 Y102.935 E0.014
G1 X84.12 Y102.695 E0.009
G1 Y103.26 E0.014
G1 X83.88 Y103.5 E0.008
G1 Y104.066 E0.015
G1 X84.12 Y103.826 E0.008
G1 Y104.392 E0.014
G1 X83.88 Y104.632 E0.009
G1 Y105.197 E0.014
G1 X84.12 Y104.957 E0.008
G1 Y105.523 E0.014
G1 X83.88 Y105.763 E0.009
G1 Y106.329 E0.014
G1 X84.12 Y106.089 E0.008
G1 Y106.654 E0.014
G1 X83.88 Y106.894 E0.009
G1 Y107.46 E0.014
G1 X84.12 Y107.22 E0.008
G1 Y107.786 E0.015
G1 X83.88 Y108.026 E0.008
G1 Y108.591 E0.014
G1 X84.12 Y108.351 E0.009
G1 Y108.917 E0.014
G1 X83.88 Y109.157 E0.008
G1 Y109.723 E0.014
G1 X84.12 Y109.483 E0.009
G1 Y110.049 E0.014
G1 X84.049 Y110.12 E0.002
G1 F2100 E-0.5
;LAYER:4
;rapid-dry
G0 X92.045 Y112.737 Z0.65 F7200
G1 F2100 E0.5
;bead-support
G1 X94.139 Y111.528 F3300 E0.061
G1 X94.376 Y111.529 E0.006
G1 X94.374 Y114.472 E0.073
G1 X92.043 Y115.817 E0.067
G1 X92.041 Y118.898 E0.077
G1 X94.372 Y117.552 E0.067
G1 X94.37 Y120.632 E0.077
G1 X92.039 Y121.978 E0.067
G1 X92.037 Y125.059 E0.077
G1 X94.368 Y123.713 E0.067
G1 F2100 E-0.5
G0 X93.502 Y124.213 F2400
G0 X94.368 Y123.713 F2400
;rapid-dry
G0 X106.298 Y110.666 F7200
G1 F2100 E0.5
;bead-support
G1 X130.688 Y96.585 F3300 E0.703
G1 X130.69 Y99.33 E0.068
G1 X131.267 E0.015
G1 X111.629 Y110.668 E0.565
G1 X116.96 Y110.669 E0.133
G1 X136.597 Y99.332 E0.566
G1 X141.928 Y99.333 E0.133
G1 X119.311 Y112.391 E0.651
G1 X119.313 Y115.469 E0.077
G1 X147.258 Y99.335 E0.805
G1 X152.589 Y99.336 E0.133
G1 X132.926 Y110.689 E0.566
G1 X130.67 Y110.69 E0.057
G1 Y111.991 E0.032
G1 X119.315 Y118.547 E0.327
G1 X119.317 Y121.625 E0.077
G1 X130.669 Y115.071 E0.327
G1 X130.668 Y118.151 E0.077
G1 X119.319 Y124.703 E0.327
G1 X119.32 Y127.782 E0.076
G1 X130.667 Y121.231 E0.327
G1 X130.666 Y124.31 E0.077
G1 X119.322 Y130.86 E0.327
G1 X119.324 Y133.938 E0.077
G1 X130.665 Y127.39 E0.326
G1 X130.664 Y130.47 E0.077
G1 X119.326 Y137.016 E0.327
G1 X119.328 Y140.094 E0.076
G1 X130.663 Y133.55 E0.327
G1 X130.662 Y136.629 E0.077
G1 X119.33 Y143.172 E0.326
G1 X119.331 Y144.43 E0.032
G1 X122.485 E0.078
G1 X130.662 Y139.709 E0.236
G1 X130.661 Y142.789 E0.077
G1 X127.818 Y144.43 E0.081
G1 F2100 E-0.5
G0 X128.684 Y143.93 F2400
G0 X127.818 Y144.43 F2400
;rapid-dry
G0 X130.8 Y145.2 F7200
G1 F2100 E0.5
;bead-perimeter_outer
G1 Y146.8 F1800 E0.04
G1 X119.2 E0.29
G1 Y145.2 E0.04
G1 X130.8 E0.289
;rapid-leaky
G0 X130.44 Y145.56 F7200
;bead-perimeter_inner
G1 Y146.44 F2400 E0.022
G1 X119.56 E0.271
G1 Y145.56 E0.022
G1 X130.44 E0.272
G1 F2100 E-0.5
;rapid-dry
G0 X157.956 Y123.951 F7200
G1 F2100 E0.5
;bead-support
G1 X155.625 Y125.297 F3300 E0.067
G1 X155.627 Y122.216 E0.077
G1 X157.958 Y120.87 E0.067
G1 X157.96 Y117.79 E0.077
G1 X155.629 Y119.136 E0.067
G1 X155.631 Y116.055 E0.077
G1 X157.962 Y114.71 E0.067
G1 X157.964 Y111.629 E0.077
G1 X155.633 Y112.975 E0.067
G1 F2100 E-0.5
G0 X156.499 Y112.475 F2400
G0 X155.633 Y112.975 F2400
;rapid-dry
G0 X138.265 Y110.685 F7200
G1 F2100 E0.5
;bead-support
G1 X157.92 Y99.338 F3300 E0.566
G1 X163.25 Y99.34 E0.133
G1 X143.604 Y110.682 E0.566
G1 X148.943 Y110.679 E0.133
G1 X164.43 Y101.738 E0.446
G1 Y104.817 E0.077
G1 X154.282 Y110.676 E0.292
G1 X159.621 Y110.672 E0.133
G1 X164.43 Y107.896 E0.139
G1 F2100 E-0.5
G0 X163.564 Y108.396 F2400
G0 X164.43 Y107.896 F2400
;rapid-dry
G0 X157.956 Y96.238 F7200
G1 F2100 E0.5
;bead-support
G1 X155.625 Y97.584 F3300 E0.067
G1 X155.627 Y94.503 E0.077
G1 X157.958 Y93.158 E0.067
G1 X157.96 Y90.077 E0.077
G1 X155.629 Y91.423 E0.067
G1 X155.631 Y88.342 E0.077
G1 X157.962 Y86.997 E0.067
G1 X157.964 Y84.076 E0.073
G1 X157.689 Y84.075 E0.007
G1 X155.633 Y85.262 E0.059
G1 F2100 E-0.5
G0 X156.499 Y84.762 F2400
G0 X155.633 Y85.262 F2400
;rapid-dry
G0 X165.2 Y99.2 F7200
G1 F2100 E0.5
;bead-perimeter_outer
G1 X166.8 F1800 E0.04
G1 Y110.8 E0.289
G1 X165.2 E0.04
G1 Y99.2 E0.289
;rapid-leaky
G0 X165.56 Y99.56 F7200
;bead-perimeter_inner
G1 X166.44 F2400 E0.022
G1 Y110.44 E0.272
G1 X165.56 E0.022
G1 Y99.56 E0.271
G1 F2100 E-0.5
;rapid-dry
G0 X130.8 Y64.8 F7200
G1 F2100 E0.5
;bead-perimeter_outer
G1 X119.2 F1800 E0.289
G1 Y63.2 E0.04
G1 X130.8 E0.29
G1 Y64.8 E0.04
;rapid-leaky
G0 X130.44 Y64.44 F7200
;bead-perimeter_inner
G1 X119.56 F2400 E0.271
G1 Y63.56 E0.022
G1 X130.44 E0.271
G1 Y64.44 E0.022
G1 F2100 E-0.5
;rapid-dry
G0 X119.34 Y66.186 F7200
G1 F2100 E0.5
;bead-support
G1 X120.407 Y65.57 F3300 E0.031
G1 X125.741 E0.133
G1 X119.339 Y69.266 E0.185
G1 X119.338 Y72.346 E0.076
G1 X130.669 Y65.804 E0.327
G1 X130.671 Y68.882 E0.077
G1 X119.337 Y75.426 E0.326
G1 X119.336 Y78.505 E0.077
G1 X130.673 Y71.96 E0.326
G1 X130.675 Y75.038 E0.077
G1 X119.335 Y81.585 E0.327
G1 X119.334 Y84.665 E0.077
G1 X130.677 Y78.116 E0.326
G1 X130.679 Y81.194 E0.077
G1 X119.333 Y87.745 E0.327
G1 X119.332 Y90.824 E0.077
G1 X130.681 Y84.272 E0.327
G1 X130.683 Y87.35 E0.076
G1 X119.332 Y93.904 E0.327
G1 X119.331 Y96.984 E0.077
G1 X130.685 Y90.428 E0.327
G1 X130.687 Y93.507 E0.077
G1 X100.968 Y110.665 E0.856
G1 X95.637 Y110.663 E0.133
G1 X115.297 Y99.312 E0.566
G1 X109.958 Y99.316 E0.134
G1 X90.307 Y110.662 E0.566
G1 X85.57 Y110.66 E0.118
G1 Y110.317 E0.008
G1 X104.619 Y99.319 E0.549
G1 X99.28 Y99.322 E0.133
G1 X85.57 Y107.238 E0.395
G1 Y104.159 E0.077
G1 X93.941 Y99.326 E0.241
G1 X88.602 Y99.329 E0.133
G1 X85.57 Y101.079 E0.088
G1 F2100 E-0.5
G0 X86.436 Y100.579 F2400
G0 X85.57 Y101.079 F2400
;rapid-dry
G0 X84.8 Y99.2 F7200
G1 F2100 E0.5
;bead-perimeter_outer
G1 Y110.8 F1800 E0.289
G1 X83.2 E0.04
G1 Y99.2 E0.289
G1 X84.8 E0.04
;rapid-leaky
G0 X84.44 Y99.56 F7200
;bead-perimeter_inner
G1 Y110.44 F2400 E0.271
G1 X83.56 E0.022
G1 Y99.56 E0.272
G1 X84.44 E0.022
;rapid-leaky
G0 X83.88 Y101.437 F7200
;bead-sparse_infill
G1 X83.901 Y101.453 F3600
G1 X84.12 Y101.916 E0.013
G1 Y103.676 E0.044
G1 X83.88 Y104.043 E0.011
G1 Y109.982 E0.148
G1 X83.901 Y109.998 E0.001
G1 X83.959 Y110.12 E0.003
G1 F2100 E-0.5
;rapid-dry
G0 X94.376 Y95.995 F7200
G1 F2100 E0.5
;bead-support
G1 X92.046 Y97.34 F3300 E0.067
G1 Y94.261 E0.077
G1 X94.376 Y92.916 E0.067
G1 Y89.837 E0.077
G1 X92.046 Y91.182 E0.067
G1 Y88.103 E0.077
G1 X94.376 Y86.758 E0.067
G1 Y84.076 E0.067
G1 X93.691 Y84.074 E0.017
G1 X92.046 Y85.024 E0.047
G1 F2100 E-0.5
G0 X92.912 Y84.524 F2400
G0 X92.046 Y85.024 F2400
;rapid-dry
G0 X120.941 Y64.12 F7200
G1 F2100 E0.5
;bead-sparse_infill
G1 X120.975 Y64.068 F3600 E0.002
G1 X121.218 Y63.88 E0.008
G1 X124.408 E0.079
G1 X124.319 Y64.068 E0.005
G1 X124.33 Y64.12 E0.002
G1 X129.486 E0.128
G1 X129.52 Y64.068 E0.002
G1 X129.763 Y63.88 E0.008
G1 F2100 E-0.5
;rapid-dry
G0 X126.996 Y145.88 F7200
G1 F2100 E0.5
;bead-sparse_infill
G1 X126.944 Y146.12 F3600 E0.006
G1 X122.502 E0.111
G1 X122.345 Y145.88 E0.007
G1 F2100 E-0.5
;LAYER:5
;rapid-dry
G0 X127.818 Y144.43 Z0.8 F7200
G1 F2100 E0.5
;bead-support
G1 X130.661 Y142.789 F3300 E0.082
G1 X130.662 Y139.709 E0.076
G1 X122.485 Y144.43 E0.236
G1 X119.331 E0.079
G1 X119.33 Y143.172 E0.031
G1 X130.662 Y136.629 E0.326
G1 X130.663 Y133.55 E0.077
G1 X119.328 Y140.094 E0.327
G1 X119.326 Y137.016 E0.077
G1 X130.664 Y130.47 E0.326
G1 X130.665 Y127.39 E0.077
G1 X119.324 Y133.938 E0.327
G1 X119.322 Y130.86 E0.076
G1 X130.666 Y124.31 E0.327
G1 X130.667 Y121.231 E0.077
G1 X119.32 Y127.782 E0.327
G1 X119.319 Y124.703 E0.077
G1 X130.668 Y118.151 E0.326
G1 X130.669 Y115.071 E0.077
G1 X119.317 Y121.625 E0.327
G1 X119.315 Y118.547 E0.077
G1 X130.67 Y111.991 E0.327
G1 Y110.69 E0.033
G1 X132.926 Y110.689 E0.056
G1 X152.589 Y99.336 E0.566
G1 X147.258 Y99.335 E0.133
G1 X119.313 Y115.469 E0.805
G1 X119.311 Y112.391 E0.077
G1 X141.928 Y99.333 E0.651
G1 X136.597 Y99.332 E0.133
G1 X116.96 Y110.669 E0.566
G1 X111.629 Y110.668 E0.133
G1 X131.267 Y99.33 E0.566
G1 X130.69 E0.014
G1 X130.688 Y96.585 E0.068
G1 X106.298 Y110.666 E0.703
G1 F2100 E-0.5
G0 X107.164 Y110.166 F2400
G0 X106.298 Y110.666 F2400
;rapid-dry
G0 X94.368 Y123.713 F7200
G1 F2100 E0.5
;bead-support
G1 X92.037 Y125.059 F3300 E0.067
G1 X92.039 Y121.978 E0.077
G1 X94.37 Y120.632 E0.067
G1 X94.372 Y117.552 E0.077
G1 X92.041 Y118.898 E0.067
G1 X92.043 Y115.817 E0.077
G1 X94.374 Y114.472 E0.067
G1 X94.376 Y111.529 E0.074
G1 X94.139 Y111.528 E0.005
G1 X92.045 Y112.737 E0.061
G1 F2100 E-0.5
G0 X92.911 Y112.237 F2400
G0 X92.045 Y112.737 F2400
;rapid-dry
G0 X85.57 Y101.079 F7200
G1 F2100 E0.5
;bead-support
G1 X88.602 Y99.329 F3300 E0.087
G1 X93.941 Y99.326 E0.133
G1 X85.57 Y104.159 E0.241
G1 Y107.238 E0.077
G1 X99.28 Y99.322 E0.395
G1 X104.619 Y99.319 E0.133
G1 X85.57 Y110.317 E0.549
G1 Y110.66 E0.009
G1 X90.307 Y110.662 E0.118
G1 X109.958 Y99.316 E0.566
G1 X115.297 Y99.312 E0.133
G1 X95.637 Y110.663 E0.566
G1 X100.968 Y110.665 E0.133
G1 X130.687 Y93.507 E0.856
G1 X130.685 Y90.428 E0.077
G1 X119.331 Y96.984 E0.327
G1 X119.332 Y93.904 E0.077
G1 X130.683 Y87.35 E0.327
G1 X130.681 Y84.272 E0.077
G1 X119.332 Y90.824 E0.326
G1 X119.333 Y87.745 E0.077
G1 X130.679 Y81.194 E0.327
G1 X130.677 Y78.116 E0.077
G1 X119.334 Y84.665 E0.327
G1 X119.335 Y81.585 E0.076
G1 X130.675 Y75.038 E0.327
G1 X130.673 Y71.96 E0.077
G1 X119.336 Y78.505 E0.326
G1 X119.337 Y75.426 E0.077
G1 X130.671 Y68.882 E0.327
G1 X130.669 Y65.804 E0.076
G1 X119.338 Y72.346 E0.327
G1 X119.339 Y69.266 E0.077
G1 X125.741 Y65.57 E0.184
G1 X120.407 E0.133
G1 X119.34 Y66.186 E0.031
G1 F2100 E-0.5
G0 X120.206 Y65.686 F2400
G0 X119.34 Y66.186 F2400
;rapid-dry
G0 X130.8 Y63.2 F7200
G1 F2100 E0.5
;bead-perimeter_outer
G1 Y64.8 F1800 E0.04
G1 X119.2 E0.289
G1 Y63.2 E0.04
G1 X130.8 E0.289
;rapid-leaky
G0 X130.44 Y63.56 F7200
;bead-perimeter_inner
G1 Y64.44 F2400 E0.022
G1 X119.56 E0.272
G1 Y63.56 E0.022
G1 X130.44 E0.271
G1 F2100 E-0.5
;rapid-dry
G0 X155.633 Y85.262 F7200
G1 F2100 E0.5
;bead-support
G1 X157.689 Y84.075 F3300 E0.059
G1 X157.964 Y84.076 E0.007
G1 X157.962 Y86.997 E0.073
G1 X155.631 Y88.342 E0.067
G1 X155.629 Y91.423 E0.077
G1 X157.96 Y90.077 E0.067
G1 X157.958 Y93.158 E0.077
G1 X155.627 Y94.503 E0.067
G1 X155.625 Y97.584 E0.077
G1 X157.956 Y96.238 E0.067
G1 F2100 E-0.5
G0 X157.09 Y96.738 F2400
G0 X157.956 Y96.238 F2400
;rapid-dry
G0 X165.2 Y99.2 F7200
G1 F2100 E0.5
;bead-perimeter_outer
G1 X166.8 F1800 E0.04
G1 Y110.8 E0.289
G1 X165.2 E0.04
G1 Y99.2 E0.29
;rapid-leaky
G0 X165.56 Y99.56 F7200
;bead-perimeter_inner
G1 X166.44 F2400 E0.022
G1 Y110.44 E0.271
G1 X165.56 E0.022
G1 Y99.56 E0.271
G1 F2100 E-0.5
;rapid-dry
G0 X164.43 Y107.896 F7200
G1 F2100 E0.5
;bead-support
G1 X159.621 Y110.672 F3300 E0.139
G1 X154.282 Y110.676 E0.133
G1 X164.43 Y104.817 E0.292
G1 Y101.738 E0.077
G1 X148.943 Y110.679 E0.446
G1 X143.604 Y110.682 E0.133
G1 X163.25 Y99.34 E0.566
G1 X157.92 Y99.338 E0.133
G1 X138.265 Y110.685 E0.566
G1 F2100 E-0.5
G0 X139.131 Y110.185 F2400
G0 X138.265 Y110.685 F2400
;rapid-dry
G0 X155.633 Y112.975 F7200
G1 F2100 E0.5
;bead-support
G1 X157.964 Y111.629 F3300 E0.068
G1 X157.962 Y114.71 E0.076
G1 X155.631 Y116.055 E0.068
G1 X155.629 Y119.136 E0.076
G1 X157.96 Y117.79 E0.068
G1 X157.958 Y120.87 E0.076
G1 X155.627 Y122.216 E0.068
G1 X155.625 Y125.297 E0.076
G1 X157.956 Y123.951 E0.068
G1 F2100 E-0.5
G0 X157.089 Y124.451 F2400
G0 X157.956 Y123.951 F2400
;rapid-dry
G0 X130.8 Y145.2 F7200
G1 F2100 E0.5
;bead-perimeter_outer
G1 Y146.8 F1800 E0.039
G1 X119.2 E0.29
G1 Y145.2 E0.04
G1 X130.8 E0.289
;rapid-leaky
G0 X130.44 Y145.56 F7200
;bead-perimeter_inner
G1 Y146.44 F2400 E0.022
G1 X119.56 E0.271
G1 Y145.56 E0.022
G1 X130.44 E0.272
G1 F2100 E-0.5
;rapid-dry
G0 X94.376 Y95.995 F7200
G1 F2100 E0.5
;bead-support
G1 X92.046 Y97.34 F3300 E0.067
G1 Y94.261 E0.077
G1 X94.376 Y92.916 E0.067
G1 Y89.837 E0.077
G1 X92.046 Y91.182 E0.067
G1 Y88.103 E0.077
G1 X94.376 Y86.758 E0.067
G1 Y84.076 E0.067
G1 X93.691 Y84.074 E0.017
G1 X92.046 Y85.024 E0.047
G1 F2100 E-0.5
G0 X92.912 Y84.524 F2400
G0 X92.046 Y85.024 F2400
;rapid-dry
G0 X84.8 Y99.2 F7200
G1 F2100 E0.5
;bead-perimeter_outer
G1 Y110.8 F1800 E0.289
G1 X83.2 E0.04
G1 Y99.2 E0.29
G1 X84.8 E0.04
;rapid-leaky
G0 X84.44 Y99.56 F7200
;bead-perimeter_inner
G1 Y110.44 F2400 E0.271
G1 X83.56 E0.022
G1 Y99.56 E0.271
G1 X84.44 E0.022
;rapid-leaky
G0 X83.88 Y101.234 F7200
;bead-sparse_infill
G1 X84.12 Y101.391 F3600 E0.007
G1 Y103.732 E0.059
G1 X83.88 Y104.049 E0.01
G1 Y109.78 E0.143
G1 X84.12 Y109.936 E0.007
G1 F2100 E-0.5
;rapid-dry
G0 X122.352 Y145.88 F7200
G1 F2100 E0.5
;bead-sparse_infill
G1 X122.533 Y146.12 F3600 E0.007
G1 X127.016 E0.112
G1 X127.092 Y145.88 E0.006
G1 F2100 E-0.5
;rapid-dry
G0 X120.995 Y64.12 F7200
G1 F2100 E0.5
;bead-sparse_infill
G1 X121.034 Y64.068 F3600 E0.002
G1 X121.322 Y63.88 E0.009
G1 X124.219 E0.072
G1 X124.157 Y64.068 E0.005
G1 X124.174 Y64.12 E0.001
G1 X129.54 E0.134
G1 X129.579 Y64.068 E0.002
G1 X129.867 Y63.88 E0.008
G1 F2100 E-0.5
;LAYER:6
;rapid-leaky
G0 X130.8 Y64.8 Z0.95 F7200
G1 F2100 E0.5
;bead-perimeter_outer
G1 X119.2 F1800 E0.29
G1 Y63.2 E0.04
G1 X130.8 E0.289
G1 Y64.8 E0.04
;rapid-leaky
G0 X130.44 Y64.44 F7200
;bead-perimeter_inner
G1 X119.56 F2400 E0.271
G1 Y63.56 E0.022
G1 X130.44 E0.272
G1 Y64.44 E0.022
G1 F2100 E-0.5
;rapid-dry
G0 X119.34 Y66.186 F7200
G1 F2100 E0.5
;bead-support
G1 X120.407 Y65.57 F3300 E0.03
G1 X125.741 E0.133
G1 X119.339 Y69.266 E0.185
G1 X119.338 Y72.346 E0.077
G1 X130.669 Y65.804 E0.326
G1 X130.671 Y68.882 E0.077
G1 X119.337 Y75.426 E0.326
G1 X119.336 Y78.505 E0.077
G1 X130.673 Y71.96 E0.327
G1 X130.675 Y75.038 E0.076
G1 X119.335 Y81.585 E0.327
G1 X119.334 Y84.665 E0.077
G1 X130.677 Y78.116 E0.327
G1 X130.679 Y81.194 E0.076
G1 X119.333 Y87.745 E0.327
G1 X119.332 Y90.824 E0.077
G1 X130.681 Y84.272 E0.327
G1 X130.683 Y87.35 E0.077
G1 X119.332 Y93.904 E0.327
G1 X119.331 Y96.984 E0.076
G1 X130.685 Y90.428 E0.327
G1 X130.687 Y93.507 E0.077
G1 X100.968 Y110.665 E0.856
G1 X95.637 Y110.663 E0.133
G1 X115.297 Y99.312 E0.567
G1 X109.958 Y99.316 E0.133
G1 X90.307 Y110.662 E0.566
G1 X85.57 Y110.66 E0.118
G1 Y110.317 E0.009
G1 X104.619 Y99.319 E0.548
G1 X99.28 Y99.322 E0.133
G1 X85.57 Y107.238 E0.395
G1 Y104.159 E0.077
G1 X93.941 Y99.326 E0.241
G1 X88.602 Y99.329 E0.133
G1 X85.57 Y101.079 E0.088
G1 F2100 E-0.5
G0 X86.436 Y100.579 F2400
G0 X85.57 Y101.079 F2400
;rapid-dry
G0 X84.8 Y99.2 F7200
G1 F2100 E0.5
;bead-perimeter_outer
G1 Y110.8 F1800 E0.289
G1 X83.2 E0.04
G1 Y99.2 E0.289
G1 X84.8 E0.04
;rapid-leaky
G0 X84.44 Y99.56 F7200
;bead-perimeter_inner
G1 Y110.44 F2400 E0.272
G1 X83.56 E0.022
G1 Y99.56 E0.271
G1 X84.44 E0.022
G1 F2100 E-0.5
;rapid-dry
G0 X92.046 Y85.024 F7200
G1 F2100 E0.5
;bead-support
G1 X93.691 Y84.074 F3300 E0.047
G1 X94.376 Y84.076 E0.017
G1 Y86.758 E0.067
G1 X92.046 Y88.103 E0.067
G1 Y91.182 E0.077
G1 X94.376 Y89.837 E0.067
G1 Y92.916 E0.077
G1 X92.046 Y94.261 E0.067
G1 Y97.34 E0.077
G1 X94.376 Y95.995 E0.067
G1 F2100 E-0.5
G0 X93.51 Y96.495 F2400
G0 X94.376 Y95.995 F2400
;rapid-dry
G0 X92.045 Y112.737 F7200
G1 F2100 E0.5
;bead-support
G1 X94.139 Y111.528 F3300 E0.061
G1 X94.376 Y111.529 E0.005
G1 X94.374 Y114.472 E0.074
G1 X92.043 Y115.817 E0.067
G1 X92.041 Y118.898 E0.077
G1 X94.372 Y117.552 E0.067
G1 X94.37 Y120.632 E0.077
G1 X92.039 Y121.978 E0.067
G1 X92.037 Y125.059 E0.077
G1 X94.368 Y123.713 E0.067
G1 F2100 E-0.5
G0 X93.502 Y124.213 F2400
G0 X94.368 Y123.713 F2400
;rapid-dry
G0 X106.298 Y110.666 F7200
G1 F2100 E0.5
;bead-support
G1 X130.688 Y96.585 F3300 E0.702
G1 X130.69 Y99.33 E0.069
G1 X131.267 E0.014
G1 X111.629 Y110.668 E0.566
G1 X116.96 Y110.669 E0.133
G1 X136.597 Y99.332 E0.566
G1 X141.928 Y99.333 E0.133
G1 X119.311 Y112.391 E0.651
G1 X119.313 Y115.469 E0.077
G1 X147.258 Y99.335 E0.805
G1 X152.589 Y99.336 E0.133
G1 X132.926 Y110.689 E0.566
G1 X130.67 Y110.69 E0.056
G1 Y111.991 E0.033
G1 X119.315 Y118.547 E0.327
G1 X119.317 Y121.625 E0.077
G1 X130.669 Y115.071 E0.327
G1 X130.668 Y118.151 E0.077
G1 X119.319 Y124.703 E0.326
G1 X119.32 Y127.782 E0.077
G1 X130.667 Y121.231 E0.327
G1 X130.666 Y124.31 E0.077
G1 X119.322 Y130.86 E0.327
G1 X119.324 Y133.938 E0.076
G1 X130.665 Y127.39 E0.327
G1 X130.664 Y130.47 E0.077
G1 X119.326 Y137.016 E0.326
G1 X119.328 Y140.094 E0.077
G1 X130.663 Y133.55 E0.327
G1 X130.662 Y136.629 E0.077
G1 X119.33 Y143.172 E0.326
G1 X119.331 Y144.43 E0.031
G1 X122.485 E0.079
G1 X130.662 Y139.709 E0.236
G1 X130.661 Y142.789 E0.076
G1 X127.818 Y144.43 E0.082
G1 F2100 E-0.5
G0 X128.684 Y143.93 F2400
G0 X127.818 Y144.43 F2400
;rapid-dry
G0 X130.8 Y145.2 F7200
G1 F2100 E0.5
;bead-perimeter_outer
G1 Y146.8 F1800 E0.04
G1 X119.2 E0.29
G1 Y145.2 E0.039
G1 X130.8 E0.29
;rapid-leaky
G0 X130.44 Y145.56 F7200
;bead-perimeter_inner
G1 Y146.44 F2400 E0.022
G1 X119.56 E0.271
G1 Y145.56 E0.022
G1 X130.44 E0.272
G1 F2100 E-0.5
;rapid-dry
G0 X157.956 Y123.951 F7200
G1 F2100 E0.5
;bead-support
G1 X155.625 Y125.297 F3300 E0.067
G1 X155.627 Y122.216 E0.077
G1 X157.958 Y120.87 E0.067
G1 X157.96 Y117.79 E0.076
G1 X155.629 Y119.136 E0.068
G1 X155.631 Y116.055 E0.076
G1 X157.962 Y114.71 E0.068
G1 X157.964 Y111.629 E0.076
G1 X155.633 Y112.975 E0.068
G1 F2100 E-0.5
G0 X156.499 Y112.475 F2400
G0 X155.633 Y112.975 F2400
;rapid-dry
G0 X138.265 Y110.685 F7200
G1 F2100 E0.5
;bead-support
G1 X157.92 Y99.338 F3300 E0.566
G1 X163.25 Y99.34 E0.133
G1 X143.604 Y110.682 E0.566
G1 X148.943 Y110.679 E0.133
G1 X164.43 Y101.738 E0.446
G1 Y104.817 E0.077
G1 X154.282 Y110.676 E0.292
G1 X159.621 Y110.672 E0.133
G1 X164.43 Y107.896 E0.139
G1 F2100 E-0.5
G0 X163.564 Y108.396 F2400
G0 X164.43 Y107.896 F2400
;rapid-dry
G0 X157.956 Y96.238 F7200
G1 F2100 E0.5
;bead-support
G1 X155.625 Y97.584 F3300 E0.067
G1 X155.627 Y94.503 E0.077
G1 X157.958 Y93.158 E0.067
G1 X157.96 Y90.077 E0.077
G1 X155.629 Y91.423 E0.067
G1 X155.631 Y88.342 E0.077
G1 X157.962 Y86.997 E0.067
G1 X157.964 Y84.076 E0.073
G1 X157.689 Y84.075 E0.006
G1 X155.633 Y85.262 E0.06
G1 F2100 E-0.5
G0 X156.499 Y84.762 F2400
G0 X155.633 Y85.262 F2400
;rapid-dry
G0 X165.2 Y99.2 F7200
G1 F2100 E0.5
;bead-perimeter_outer
G1 X166.8 F1800 E0.04
G1 Y110.8 E0.289
G1 X165.2 E0.04
G1 Y99.2 E0.289
;rapid-leaky
G0 X165.56 Y99.56 F7200
;bead-perimeter_inner
G1 X166.44 F2400 E0.022
G1 Y110.44 E0.272
G1 X165.56 E0.022
G1 Y99.56 E0.271
;rapid-leaky
G0 X165.88 Y104.532 F7200
;bead-sparse_infill
G1 X165.934 Y104.658 F3600 E0.003
G1 X166.002 Y105.726 E0.027
G1 X165.88 Y105.785 E0.003
G1 F2100 E-0.5
;rapid-dry
G0 X130.021 Y63.88 F7200
G1 F2100 E0.5
;bead-sparse_infill
G1 X129.636 Y64.068 F3600 E0.011
G1 X129.59 Y64.12 E0.002
G1 X123.993 E0.139
G1 X123.97 Y64.068 E0.002
G1 X123.958 Y63.88 E0.005
G1 X121.475 E0.061
G1 X121.09 Y64.068 E0.011
G1 X121.045 Y64.12 E0.002
G1 F2100 E-0.5
;rapid-dry
G0 X83.88 Y100.992 F7200
G1 F2100 E0.5
;bead-sparse_infill
G1 X84.12 Y101.109 F3600 E0.007
G1 Y103.786 E0.066
G1 X83.88 Y104.062 E0.009
G1 Y109.537 E0.137
G1 X84.12 Y109.655 E0.007
G1 F2100 E-0.5
;rapid-dry
G0 X122.366 Y145.88 F7200
G1 F2100 E0.5
;bead-sparse_infill
G1 X122.574 Y146.12 F3600 E0.008
G1 X127.101 E0.113
G1 X127.206 Y145.88 E0.006
G1 F2100 E-0.5
;LAYER:7
;rapid-dry
G0 X127.818 Y144.43 Z1.1 F7200
G1 F2100 E0.5
;bead-support
G1 X130.661 Y142.789 F3300 E0.082
G1 X130.662 Y139.709 E0.077
G1 X122.485 Y144.43 E0.235
G1 X119.331 E0.079
G1 X119.33 Y143.172 E0.031
G1 X130.662 Y136.629 E0.327
G1 X130.663 Y133.55 E0.077
G1 X119.328 Y140.094 E0.326
G1 X119.326 Y137.016 E0.077
G1 X130.664 Y130.47 E0.326
G1 X130.665 Y127.39 E0.077
G1 X119.324 Y133.938 E0.327
G1 X119.322 Y130.86 E0.077
G1 X130.666 Y124.31 E0.327
G1 X130.667 Y121.231 E0.076
G1 X119.32 Y127.782 E0.327
G1 X119.319 Y124.703 E0.077
G1 X130.668 Y118.151 E0.327
G1 X130.669 Y115.071 E0.077
G1 X119.317 Y121.625 E0.327
G1 X119.315 Y118.547 E0.076
G1 X130.67 Y111.991 E0.328
G1 Y110.69 E0.032
G1 X132.926 Y110.689 E0.056
G1 X152.589 Y99.336 E0.567
G1 X147.258 Y99.335 E0.133
G1 X119.313 Y115.469 E0.805
G1 X119.311 Y112.391 E0.076
G1 X141.928 Y99.333 E0.652
G1 X136.597 Y99.332 E0.133
G1 X116.96 Y110.669 E0.565
G1 X111.629 Y110.668 E0.133
G1 X131.267 Y99.33 E0.566
G1 X130.69 E0.014
G1 X130.688 Y96.585 E0.069
G1 X106.298 Y110.666 E0.702
G1 F2100 E-0.5
G0 X107.164 Y110.166 F2400
G0 X106.298 Y110.666 F2400
;rapid-dry
G0 X94.368 Y123.713 F7200
G1 F2100 E0.5
;bead-support
G1 X92.037 Y125.059 F3300 E0.068
G1 X92.039 Y121.978 E0.076
G1 X94.37 Y120.632 E0.068
G1 X94.372 Y117.552 E0.076
G1 X92.041 Y118.898 E0.068
G1 X92.043 Y115.817 E0.076
G1 X94.374 Y114.472 E0.067
G1 X94.376 Y111.529 E0.074
G1 X94.139 Y111.528 E0.006
G1 X92.045 Y112.737 E0.06
G1 F2100 E-0.5
G0 X92.911 Y112.237 F2400
G0 X92.045 Y112.737 F2400
;rapid-dry
G0 X85.57 Y101.079 F7200
G1 F2100 E0.5
;bead-support
G1 X88.602 Y99.329 F3300 E0.087
G1 X93.941 Y99.326 E0.134
G1 X85.57 Y104.159 E0.241
G1 Y107.238 E0.077
G1 X99.28 Y99.322 E0.394
G1 X104.619 Y99.319 E0.134
G1 X85.57 Y110.317 E0.548
G1 Y110.66 E0.009
G1 X90.307 Y110.662 E0.118
G1 X109.958 Y99.316 E0.566
G1 X115.297 Y99.312 E0.133
G1 X95.637 Y110.663 E0.567
G1 X100.968 Y110.665 E0.133
G1 X130.687 Y93.507 E0.856
G1 X130.685 Y90.428 E0.076
G1 X119.331 Y96.984 E0.327
G1 X119.332 Y93.904 E0.077
G1 X130.683 Y87.35 E0.327
G1 X130.681 Y84.272 E0.077
G1 X119.332 Y90.824 E0.327
G1 X119.333 Y87.745 E0.077
G1 X130.679 Y81.194 E0.326
G1 X130.677 Y78.116 E0.077
G1 X119.334 Y84.665 E0.327
G1 X119.335 Y81.585 E0.077
G1 X130.675 Y75.038 E0.326
G1 X130.673 Y71.96 E0.077
G1 X119.336 Y78.505 E0.327
G1 X119.337 Y75.426 E0.077
G1 X130.671 Y68.882 E0.326
G1 X130.669 Y65.804 E0.077
G1 X119.338 Y72.346 E0.326
G1 X119.339 Y69.266 E0.077
G1 X125.741 Y65.57 E0.184
G1 X120.407 E0.134
G1 X119.34 Y66.186 E0.03
G1 F2100 E-0.5
G0 X120.206 Y65.686 F2400
G0 X119.34 Y66.186 F2400
;rapid-dry
G0 X130.8 Y64.8 F7200
G1 F2100 E0.5
;bead-perimeter_outer
G1 X119.2 F1800 E0.29
G1 Y63.2 E0.04
G1 X130.8 E0.289
G1 Y64.8 E0.04
;rapid-leaky
G0 X130.44 Y64.44 F7200
;bead-perimeter_inner
G1 X119.56 F2400 E0.271
G1 Y63.56 E0.022
G1 X130.44 E0.272
G1 Y64.44 E0.022
G1 F2100 E-0.5
;rapid-dry
G0 X155.633 Y85.262 F7200
G1 F2100 E0.5
;bead-support
G1 X157.689 Y84.075 F3300 E0.059
G1 X157.964 Y84.076 E0.007
G1 X157.962 Y86.997 E0.072
G1 X155.631 Y88.342 E0.068
G1 X155.629 Y91.423 E0.076
G1 X157.96 Y90.077 E0.068
G1 X157.958 Y93.158 E0.076
G1 X155.627 Y94.503 E0.068
G1 X155.625 Y97.584 E0.076
G1 X157.956 Y96.238 E0.068
G1 F2100 E-0.5
G0 X157.09 Y96.738 F2400
G0 X157.956 Y96.238 F2400
;rapid-dry
G0 X165.2 Y99.2 F7200
G1 F2100 E0.5
;bead-perimeter_outer
G1 X166.8 F1800 E0.039
G1 Y110.8 E0.29
G1 X165.2 E0.04
G1 Y99.2 E0.289
;rapid-leaky
G0 X165.56 Y99.56 F7200
;bead-perimeter_inner
G1 X166.44 F2400 E0.022
G1 Y110.44 E0.271
G1 X165.56 E0.022
G1 Y99.56 E0.272
G1 F2100 E-0.5
;rapid-dry
G0 X164.43 Y107.896 F7200
G1 F2100 E0.5
;bead-support
G1 X159.621 Y110.672 F3300 E0.138
G1 X154.282 Y110.676 E0.134
G1 X164.43 Y104.817 E0.292
G1 Y101.738 E0.077
G1 X148.943 Y110.679 E0.446
G1 X143.604 Y110.682 E0.133
G1 X163.25 Y99.34 E0.566
G1 X157.92 Y99.338 E0.133
G1 X138.265 Y110.685 E0.566
G1 F2100 E-0.5
G0 X139.131 Y110.185 F2400
G0 X138.265 Y110.685 F2400
;rapid-dry
G0 X155.633 Y112.975 F7200
G1 F2100 E0.5
;bead-support
G1 X157.964 Y111.629 F3300 E0.067
G1 X157.962 Y114.71 E0.077
G1 X155.631 Y116.055 E0.067
G1 X155.629 Y119.136 E0.077
G1 X157.96 Y117.79 E0.067
G1 X157.958 Y120.87 E0.077
G1 X155.627 Y122.216 E0.067
G1 X155.625 Y125.297 E0.077
G1 X157.956 Y123.951 E0.067
G1 F2100 E-0.5
G0 X157.089 Y124.451 F2400
G0 X157.956 Y123.951 F2400
;rapid-dry
G0 X130.8 Y145.2 F7200
G1 F2100 E0.5
;bead-perimeter_outer
G1 Y146.8 F1800 E0.04
G1 X119.2 E0.289
G1 Y145.2 E0.04
G1 X130.8 E0.289
;rapid-leaky
G0 X130.44 Y145.56 F7200
;bead-perimeter_inner
G1 Y146.44 F2400 E0.022
G1 X119.56 E0.272
G1 Y145.56 E0.022
G1 X130.44 E0.271
G1 F2100 E-0.5
;rapid-dry
G0 X94.376 Y95.995 F7200
G1 F2100 E0.5
;bead-support
G1 X92.046 Y97.34 F3300 E0.067
G1 Y94.261 E0.077
G1 X94.376 Y92.916 E0.067
G1 Y89.837 E0.077
G1 X92.046 Y91.182 E0.067
G1 Y88.103 E0.077
G1 X94.376 Y86.758 E0.067
G1 Y84.076 E0.067
G1 X93.691 Y84.074 E0.017
G1 X92.046 Y85.024 E0.047
G1 F2100 E-0.5
G0 X92.912 Y84.524 F2400
G0 X92.046 Y85.024 F2400
;rapid-dry
G0 X84.8 Y99.2 F7200
G1 F2100 E0.5
;bead-perimeter_outer
G1 Y110.8 F1800 E0.29
G1 X83.2 E0.04
G1 Y99.2 E0.289
G1 X84.8 E0.04
;rapid-leaky
G0 X84.44 Y99.56 F7200
;bead-perimeter_inner
G1 Y110.44 F2400 E0.271
G1 X83.56 E0.022
G1 Y99.56 E0.272
G1 X84.44 E0.022
;rapid-leaky
G0 X83.88 Y100.863 F7200
;bead-sparse_infill
G1 X84.068 Y100.928 F3600 E0.005
G1 X84.12 Y100.914 E0.001
G1 Y103.911 E0.075
G1 X84.068 Y103.995 E0.002
G1 X83.88 Y104.142 E0.006
G1 Y109.408 E0.132
G1 X84.068 Y109.473 E0.005
G1 X84.12 Y109.459 E0.001
G1 F2100 E-0.5
;rapid-dry
G0 X122.483 Y145.88 F7200
G1 F2100 E0.5
;bead-sparse_infill
G1 X122.521 Y145.91 F3600 E0.001
G1 X122.652 Y146.12 E0.006
G1 X127.167 E0.113
G1 X127.316 Y145.88 E0.007
G1 F2100 E-0.5
;rapid-dry
G0 X165.88 Y106.427 F7200
G1 F2100 E0.5
;bead-sparse_infill
G1 X166.12 Y106.494 F3600 E0.006
G1 Y104.589 E0.048
G1 X165.88 Y104.203 E0.011
G1 F2100 E-0.5
;rapid-dry
G0 X130.04 Y63.88 F7200
G1 F2100 E0.5
;bead-sparse_infill
G1 X129.998 Y63.894 F3600 E0.001
G1 X129.71 Y64.12 E0.009
G1 X123.774 E0.148
G1 X123.625 Y63.88 E0.007
G1 X121.494 E0.053
G1 X121.453 Y63.894 E0.002
G1 X121.165 Y64.12 E0.009
G1 F2100 E-0.5
;LAYER:8
;rapid-leaky
G0 X119.2 Y64.8 Z1.25 F7200
G1 F2100 E0.5
;bead-perimeter_outer
G1 Y63.2 F1800 E0.04
G1 X130.8 E0.289
G1 Y64.8 E0.04
G1 X119.2 E0.289
;rapid-leaky
G0 X119.56 Y64.44 F7200
;bead-perimeter_inner
G1 Y63.56 F2400 E0.022
G1 X130.44 E0.272
G1 Y64.44 E0.022
G1 X119.56 E0.271
G1 F2100 E-0.5
;rapid-dry
G0 X119.34 Y66.186 F7200
G1 F2100 E0.5
;bead-support
G1 X120.407 Y65.57 F3300 E0.031
G1 X125.741 E0.133
G1 X119.339 Y69.266 E0.184
G1 X119.338 Y72.346 E0.077
G1 X130.669 Y65.804 E0.326
G1 X130.671 Y68.882 E0.077
G1 X119.337 Y75.426 E0.327
G1 X119.336 Y78.505 E0.076
G1 X130.673 Y71.96 E0.327
G1 X130.675 Y75.038 E0.077
G1 X119.335 Y81.585 E0.326
G1 X119.334 Y84.665 E0.077
G1 X130.677 Y78.116 E0.327
G1 X130.679 Y81.194 E0.077
G1 X119.333 Y87.745 E0.327
G1 X119.332 Y90.824 E0.076
G1 X130.681 Y84.272 E0.327
G1 X130.683 Y87.35 E0.077
G1 X119.332 Y93.904 E0.327
G1 X119.331 Y96.984 E0.077
G1 X130.685 Y90.428 E0.327
G1 X130.687 Y93.507 E0.077
G1 X100.968 Y110.665 E0.856
G1 X95.637 Y110.663 E0.133
G1 X115.297 Y99.312 E0.566
G1 X109.958 Y99.316 E0.133
G1 X90.307 Y110.662 E0.566
G1 X85.57 Y110.66 E0.118
G1 Y110.317 E0.009
G1 X104.619 Y99.319 E0.549
G1 X99.28 Y99.322 E0.133
G1 X85.57 Y107.238 E0.395
G1 Y104.159 E0.076
G1 X93.941 Y99.326 E0.242
G1 X88.602 Y99.329 E0.133
G1 X85.57 Y101.079 E0.087
G1 F2100 E-0.5
G0 X86.436 Y100.579 F2400
G0 X85.57 Y101.079 F2400
;rapid-dry
G0 X84.8 Y99.2 F7200
G1 F2100 E0.5
;bead-perimeter_outer
G1 Y110.8 F1800 E0.289
G1 X83.2 E0.04
G1 Y99.2 E0.29
G1 X84.8 E0.04
;rapid-leaky
G0 X84.44 Y99.56 F7200
;bead-perimeter_inner
G1 Y110.44 F2400 E0.271
G1 X83.56 E0.022
G1 Y99.56 E0.271
G1 X84.44 E0.022
G1 F2100 E-0.5
;rapid-dry
G0 X92.046 Y85.024 F7200
G1 F2100 E0.5
;bead-support
G1 X93.691 Y84.074 F3300 E0.048
G1 X94.376 Y84.076 E0.017
G1 Y86.758 E0.067
G1 X92.046 Y88.103 E0.067
G1 Y91.182 E0.077
G1 X94.376 Y89.837 E0.067
G1 Y92.916 E0.077
G1 X92.046 Y94.261 E0.067
G1 Y97.34 E0.077
G1 X94.376 Y95.995 E0.067
G1 F2100 E-0.5
G0 X93.51 Y96.495 F2400
G0 X94.376 Y95.995 F2400
;rapid-dry
G0 X92.045 Y112.737 F7200
G1 F2100 E0.5
;bead-support
G1 X94.139 Y111.528 F3300 E0.06
G1 X94.376 Y111.529 E0.006
G1 X94.374 Y114.472 E0.073
G1 X92.043 Y115.817 E0.067
G1 X92.041 Y118.898 E0.077
G1 X94.372 Y117.552 E0.067
G1 X94.37 Y120.632 E0.077
G1 X92.039 Y121.978 E0.067
G1 X92.037 Y125.059 E0.077
G1 X94.368 Y123.713 E0.067
G1 F2100 E-0.5
G0 X93.502 Y124.213 F2400
G0 X94.368 Y123.713 F2400
;rapid-dry
G0 X106.298 Y110.666 F7200
G1 F2100 E0.5
;bead-support
G1 X130.688 Y96.585 F3300 E0.703
G1 X130.69 Y99.33 E0.068
G1 X131.267 E0.015
G1 X111.629 Y110.668 E0.565
G1 X116.96 Y110.669 E0.133
G1 X136.597 Y99.332 E0.566
G1 X141.928 Y99.333 E0.133
G1 X119.311 Y112.391 E0.651
G1 X119.313 Y115.469 E0.077
G1 X147.258 Y99.335 E0.805
G1 X152.589 Y99.336 E0.133
G1 X132.926 Y110.689 E0.566
G1 X130.67 Y110.69 E0.057
G1 Y111.991 E0.032
G1 X119.315 Y118.547 E0.327
G1 X119.317 Y121.625 E0.077
G1 X130.669 Y115.071 E0.327
G1 X130.668 Y118.151 E0.077
G1 X119.319 Y124.703 E0.327
G1 X119.32 Y127.782 E0.077
G1 X130.667 Y121.231 E0.326
G1 X130.666 Y124.31 E0.077
G1 X119.322 Y130.86 E0.327
G1 X119.324 Y133.938 E0.077
G1 X130.665 Y127.39 E0.326
G1 X130.664 Y130.47 E0.077
G1 X119.326 Y137.016 E0.327
G1 X119.328 Y140.094 E0.077
G1 X130.663 Y133.55 E0.326
G1 X130.662 Y136.629 E0.077
G1 X119.33 Y143.172 E0.326
G1 X119.331 Y144.43 E0.032
G1 X122.485 E0.078
G1 X130.662 Y139.709 E0.236
G1 X130.661 Y142.789 E0.077
G1 X127.818 Y144.43 E0.082
G1 F2100 E-0.5
G0 X128.684 Y143.93 F2400
G0 X127.818 Y144.43 F2400
;rapid-dry
G0 X119.2 Y145.2 F7200
G1 F2100 E0.5
;bead-perimeter_outer
G1 X130.8 F1800 E0.289
G1 Y146.8 E0.04
G1 X119.2 E0.289
G1 Y145.2 E0.04
;rapid-leaky
G0 X119.56 Y145.56 F7200
;bead-perimeter_inner
G1 X130.44 F2400 E0.272
G1 Y146.44 E0.022
G1 X119.56 E0.271
G1 Y145.56 E0.022
G1 F2100 E-0.5
;rapid-dry
G0 X138.265 Y110.685 F7200
G1 F2100 E0.5
;bead-support
G1 X157.92 Y99.338 F3300 E0.566
G1 X163.25 Y99.34 E0.133
G1 X143.604 Y110.682 E0.566
G1 X148.943 Y110.679 E0.133
G1 X164.43 Y101.738 E0.446
G1 Y104.817 E0.077
G1 X154.282 Y110.676 E0.292
G1 X159.621 Y110.672 E0.133
G1 X164.43 Y107.896 E0.139
G1 F2100 E-0.5
G0 X163.564 Y108.396 F2400
G0 X164.43 Y107.896 F2400
;rapid-dry
G0 X165.2 Y99.2 F7200
G1 F2100 E0.5
;bead-perimeter_outer
G1 X166.8 F1800 E0.04
G1 Y110.8 E0.289
G1 X165.2 E0.04
G1 Y99.2 E0.29
;rapid-leaky
G0 X165.56 Y99.56 F7200
;bead-perimeter_inner
G1 X166.44 F2400 E0.021
G1 Y110.44 E0.272
G1 X165.56 E0.022
G1 Y99.56 E0.271
;rapid-leaky
G0 X165.88 Y103.974 F7200
;bead-sparse_infill
G1 X166.12 Y104.295 F3600 E0.01
G1 Y106.808 E0.063
G1 X165.88 Y106.701 E0.006
G1 F2100 E-0.5
;rapid-dry
G0 X157.956 Y123.951 F7200
G1 F2100 E0.5
;bead-support
G1 X155.625 Y125.297 F3300 E0.068
G1 X155.627 Y122.216 E0.076
G1 X157.958 Y120.87 E0.068
G1 X157.96 Y117.79 E0.076
G1 X155.629 Y119.136 E0.068
G1 X155.631 Y116.055 E0.076
G1 X157.962 Y114.71 E0.068
G1 X157.964 Y111.629 E0.076
G1 X155.633 Y112.975 E0.068
G1 F2100 E-0.5
G0 X156.499 Y112.475 F2400
G0 X155.633 Y112.975 F2400
;rapid-dry
G0 X157.956 Y96.238 F7200
G1 F2100 E0.5
;bead-support
G1 X155.625 Y97.584 F3300 E0.067
G1 X155.627 Y94.503 E0.077
G1 X157.958 Y93.158 E0.067
G1 X157.96 Y90.077 E0.076
G1 X155.629 Y91.423 E0.068
G1 X155.631 Y88.342 E0.076
G1 X157.962 Y86.997 E0.068
G1 X157.964 Y84.076 E0.072
G1 X157.689 Y84.075 E0.007
G1 X155.633 Y85.262 E0.06
G1 F2100 E-0.5
G0 X156.499 Y84.762 F2400
G0 X155.633 Y85.262 F2400
;rapid-dry
G0 X130.12 Y63.919 F7200
G1 F2100 E0.5
;bead-sparse_infill
G1 X129.998 Y63.948 F3600 E0.003
G1 X129.745 Y64.12 E0.007
G1 X123.479 E0.157
G1 X122.941 Y63.88 E0.014
G1 X121.738 E0.03
G1 X121.453 Y63.948 E0.008
G1 X121.2 Y64.12 E0.007
G1 F2100 E-0.5
;rapid-dry
G0 X83.88 Y100.715 F7200
G1 F2100 E0.5
;bead-sparse_infill
G1 X84.068 Y100.76 F3600 E0.005
G1 X84.12 Y100.737 E0.001
G1 Y103.984 E0.081
G1 X84.068 Y104.053 E0.003
G1 X83.88 Y104.181 E0.005
G1 Y109.261 E0.127
G1 X84.068 Y109.306 E0.005
G1 X84.12 Y109.282 E0.001
G1 F2100 E-0.5
;rapid-dry
G0 X122.543 Y145.88 F7200
G1 F2100 E0.5
;bead-sparse_infill
G1 X122.722 Y146.12 F3600 E0.008
G1 X127.286 E0.114
G1 X127.465 Y145.88 E0.007
G1 F2100 E-0.5
;LAYER:9
;rapid-dry
G0 X127.818 Y144.43 Z1.4 F7200
G1 F2100 E0.5
;bead-support
G1 X130.661 Y142.789 F3300 E0.082
G1 X130.662 Y139.709 E0.077
G1 X122.485 Y144.43 E0.235
G1 X119.331 E0.079
G1 X119.33 Y143.172 E0.031
G1 X130.662 Y136.629 E0.327
G1 X130.663 Y133.55 E0.077
G1 X119.328 Y140.094 E0.326
G1 X119.326 Y137.016 E0.077
G1 X130.664 Y130.47 E0.326
G1 X130.665 Y127.39 E0.077
G1 X119.324 Y133.938 E0.327
G1 X119.322 Y130.86 E0.077
G1 X130.666 Y124.31 E0.326
G1 X130.667 Y121.231 E0.077
G1 X119.32 Y127.782 E0.327
G1 X119.319 Y124.703 E0.077
G1 X130.668 Y118.151 E0.327
G1 X130.669 Y115.071 E0.077
G1 X119.317 Y121.625 E0.327
G1 X119.315 Y118.547 E0.076
G1 X130.67 Y111.991 E0.327
G1 Y110.69 E0.033
G1 X132.926 Y110.689 E0.056
G1 X152.589 Y99.336 E0.567
G1 X147.258 Y99.335 E0.133
G1 X119.313 Y115.469 E0.805
G1 X119.311 Y112.391 E0.076
G1 X141.928 Y99.333 E0.652
G1 X136.597 Y99.332 E0.133
G1 X116.96 Y110.669 E0.565
G1 X111.629 Y110.668 E0.133
G1 X131.267 Y99.33 E0.566
G1 X130.69 E0.014
G1 X130.688 Y96.585 E0.069
G1 X106.298 Y110.666 E0.702
G1 F2100 E-0.5
G0 X107.164 Y110.166 F2400
G0 X106.298 Y110.666 F2400
;rapid-dry
G0 X94.368 Y123.713 F7200
G1 F2100 E0.5
;bead-support
G1 X92.037 Y125.059 F3300 E0.068
G1 X92.039 Y121.978 E0.076
G1 X94.37 Y120.632 E0.068
G1 X94.372 Y117.552 E0.076
G1 X92.041 Y118.898 E0.067
G1 X92.043 Y115.817 E0.077
G1 X94.374 Y114.472 E0.067
G1 X94.376 Y111.529 E0.074
G1 X94.139 Y111.528 E0.006
G1 X92.045 Y112.737 E0.06
G1 F2100 E-0.5
G0 X92.911 Y112.237 F2400
G0 X92.045 Y112.737 F2400
;rapid-dry
G0 X85.57 Y101.079 F7200
G1 F2100 E0.5
;bead-support
G1 X88.602 Y99.329 F3300 E0.087
G1 X93.941 Y99.326 E0.134
G1 X85.57 Y104.159 E0.241
G1 Y107.238 E0.077
G1 X99.28 Y99.322 E0.394
G1 X104.619 Y99.319 E0.134
G1 X85.57 Y110.317 E0.548
G1 Y110.66 E0.009
G1 X90.307 Y110.662 E0.118
G1 X109.958 Y99.316 E0.566
G1 X115.297 Y99.312 E0.133
G1 X95.637 Y110.663 E0.567
G1 X100.968 Y110.665 E0.133
G1 X130.687 Y93.507 E0.856
G1 X130.685 Y90.428 E0.076
G1 X119.331 Y96.984 E0.327
G1 X119.332 Y93.904 E0.077
G1 X130.683 Y87.35 E0.327
G1 X130.681 Y84.272 E0.077
G1 X119.332 Y90.824 E0.327
G1 X119.333 Y87.745 E0.077
G1 X130.679 Y81.194 E0.326
G1 X130.677 Y78.116 E0.077
G1 X119.334 Y84.665 E0.327
G1 X119.335 Y81.585 E0.077
G1 X130.675 Y75.038 E0.326
G1 X130.673 Y71.96 E0.077
G1 X119.336 Y78.505 E0.327
G1 X119.337 Y75.426 E0.077
G1 X130.671 Y68.882 E0.326
G1 X130.669 Y65.804 E0.077
G1 X119.338 Y72.346 E0.326
G1 X119.339 Y69.266 E0.077
G1 X125.741 Y65.57 E0.184
G1 X120.407 E0.133
G1 X119.34 Y66.186 E0.031
G1 F2100 E-0.5
G0 X120.206 Y65.686 F2400
G0 X119.34 Y66.186 F2400
;rapid-dry
G0 X119.2 Y63.2 F7200
G1 F2100 E0.5
;bead-perimeter_outer
G1 X130.8 F1800 E0.29
G1 Y64.8 E0.04
G1 X119.2 E0.289
G1 Y63.2 E0.04
;rapid-leaky
G0 X119.56 Y63.56 F7200
;bead-perimeter_inner
G1 X130.44 F2400 E0.271
G1 Y64.44 E0.022
G1 X119.56 E0.272
G1 Y63.56 E0.021
G1 F2100 E-0.5
;rapid-dry
G0 X92.046 Y85.024 F7200
G1 F2100 E0.5
;bead-support
G1 X93.691 Y84.074 F3300 E0.048
G1 X94.376 Y84.076 E0.017
G1 Y86.758 E0.067
G1 X92.046 Y88.103 E0.067
G1 Y91.182 E0.077
G1 X94.376 Y89.837 E0.067
G1 Y92.916 E0.077
G1 X92.046 Y94.261 E0.067
G1 Y97.34 E0.077
G1 X94.376 Y95.995 E0.067
G1 F2100 E-0.5
G0 X93.51 Y96.495 F2400
G0 X94.376 Y95.995 F2400
;rapid-dry
G0 X84.8 Y99.2 F7200
G1 F2100 E0.5
;bead-perimeter_outer
G1 Y110.8 F1800 E0.289
G1 X83.2 E0.04
G1 Y99.2 E0.289
G1 X84.8 E0.04
;rapid-leaky
G0 X84.44 Y99.56 F7200
;bead-perimeter_inner
G1 Y110.44 F2400 E0.272
G1 X83.56 E0.022
G1 Y99.56 E0.271
G1 X84.44 E0.022
G1 F2100 E-0.5
;rapid-dry
G0 X138.265 Y110.685 F7200
G1 F2100 E0.5
;bead-support
G1 X157.92 Y99.338 F3300 E0.566
G1 X163.25 Y99.34 E0.133
G1 X143.604 Y110.682 E0.566
G1 X148.943 Y110.679 E0.133
G1 X164.43 Y101.738 E0.446
G1 Y104.817 E0.077
G1 X154.282 Y110.676 E0.292
G1 X159.621 Y110.672 E0.134
G1 X164.43 Y107.896 E0.138
G1 F2100 E-0.5
G0 X163.564 Y108.396 F2400
G0 X164.43 Y107.896 F2400
;rapid-dry
G0 X165.2 Y99.2 F7200
G1 F2100 E0.5
;bead-perimeter_outer
G1 X166.8 F1800 E0.04
G1 Y110.8 E0.289
G1 X165.2 E0.04
G1 Y99.2 E0.29
;rapid-leaky
G0 X165.56 Y99.56 F7200
;bead-perimeter_inner
G1 X166.44 F2400 E0.022
G1 Y110.44 E0.271
G1 X165.56 E0.022
G1 Y99.56 E0.271
G1 F2100 E-0.5
;rapid-dry
G0 X155.633 Y85.262 F7200
G1 F2100 E0.5
;bead-support
G1 X157.689 Y84.075 F3300 E0.06
G1 X157.964 Y84.076 E0.006
G1 X157.962 Y86.997 E0.073
G1 X155.631 Y88.342 E0.067
G1 X155.629 Y91.423 E0.077
G1 X157.96 Y90.077 E0.067
G1 X157.958 Y93.158 E0.077
G1 X155.627 Y94.503 E0.067
G1 X155.625 Y97.584 E0.077
G1 X157.956 Y96.238 E0.067
G1 F2100 E-0.5
G0 X157.09 Y96.738 F2400
G0 X157.956 Y96.238 F2400
;rapid-dry
G0 X155.633 Y112.975 F7200
G1 F2100 E0.5
;bead-support
G1 X157.964 Y111.629 F3300 E0.067
G1 X157.962 Y114.71 E0.077
G1 X155.631 Y116.055 E0.067
G1 X155.629 Y119.136 E0.077
G1 X157.96 Y117.79 E0.067
G1 X157.958 Y120.87 E0.077
G1 X155.627 Y122.216 E0.067
G1 X155.625 Y125.297 E0.077
G1 X157.956 Y123.951 E0.067
G1 F2100 E-0.5
G0 X157.089 Y124.451 F2400
G0 X157.956 Y123.951 F2400
;rapid-dry
G0 X119.2 Y145.2 F7200
G1 F2100 E0.5
;bead-perimeter_outer
G1 X130.8 F1800 E0.29
G1 Y146.8 E0.04
G1 X119.2 E0.289
G1 Y145.2 E0.04
;rapid-leaky
G0 X119.56 Y145.56 F7200
;bead-perimeter_inner
G1 X130.44 F2400 E0.271
G1 Y146.44 E0.022
G1 X119.56 E0.272
G1 Y145.56 E0.022
;rapid-leaky
G0 X122.599 Y145.88 F7200
;bead-sparse_infill
G1 X122.804 Y146.12 F3600 E0.008
G1 X127.411 E0.114
G1 X127.617 Y145.88 E0.008
G1 F2100 E-0.5
;rapid-dry
G0 X165.88 Y106.907 F7200
G1 F2100 E0.5
;bead-sparse_infill
G1 X166.12 Y107.036 F3600 E0.007
G1 Y104.082 E0.074
G1 X165.88 Y103.802 E0.009
G1 F2100 E-0.5
;rapid-dry
G0 X130.12 Y63.974 F7200
G1 F2100 E0.5
;bead-sparse_infill
G1 X129.998 Y63.991 F3600 E0.003
G1 X129.776 Y64.12 E0.007
G1 X123.041 E0.168
G1 X122.597 Y63.88 E0.012
G1 X122.233 E0.009
G1 X121.453 Y63.991 E0.02
G1 X121.231 Y64.12 E0.006
G1 F2100 E-0.5
;rapid-dry
G0 X83.88 Y100.587 F7200
G1 F2100 E0.5
;bead-sparse_infill
G1 X84.068 Y100.614 F3600 E0.005
G1 X84.12 Y100.586 E0.001
G1 Y104.054 E0.087
G1 X84.068 Y104.115 E0.002
G1 X83.88 Y104.224 E0.005
G1 Y109.132 E0.123
G1 X84.068 Y109.159 E0.005
G1 X84.12 Y109.131 E0.001
G1 F2100 E-0.5
;LAYER:10
;rapid-dry
G0 X85.57 Y101.079 Z1.55 F7200
G1 F2100 E0.5
;bead-support
G1 X88.602 Y99.329 F3300 E0.087
G1 X93.941 Y99.326 E0.134
G1 X85.57 Y104.159 E0.241
G1 Y107.238 E0.076
G1 X99.28 Y99.322 E0.395
G1 X104.619 Y99.319 E0.134
G1 X85.57 Y110.317 E0.548
G1 Y110.66 E0.009
G1 X90.307 Y110.662 E0.118
G1 X109.958 Y99.316 E0.566
G1 X115.297 Y99.312 E0.133
G1 X95.637 Y110.663 E0.567
G1 X100.968 Y110.665 E0.132
G1 X130.687 Y93.507 E0.857
G1 X130.685 Y90.428 E0.076
G1 X119.331 Y96.984 E0.327
G1 X119.332 Y93.904 E0.077
G1 X130.683 Y87.35 E0.327
G1 X130.681 Y84.272 E0.077
G1 X119.332 Y90.824 E0.327
G1 X119.333 Y87.745 E0.077
G1 X130.679 Y81.194 E0.326
G1 X130.677 Y78.116 E0.077
G1 X119.334 Y84.665 E0.327
G1 X119.335 Y81.585 E0.077
G1 X130.675 Y75.038 E0.326
G1 X130.673 Y71.96 E0.077
G1 X119.336 Y78.505 E0.327
G1 X119.337 Y75.426 E0.077
G1 X130.671 Y68.882 E0.326
G1 X130.669 Y65.804 E0.077
G1 X119.338 Y72.346 E0.326
G1 X119.339 Y69.266 E0.077
G1 X125.741 Y65.57 E0.184
G1 X120.407 E0.133
G1 X119.34 Y66.186 E0.031
G1 F2100 E-0.5
G0 X120.206 Y65.686 F2400
G0 X119.34 Y66.186 F2400
;rapid-dry
G0 X119.2 Y64.8 F7200
G1 F2100 E0.5
;bead-perimeter_outer
G1 Y63.2 F1800 E0.04
G1 X130.8 E0.289
G1 Y64.8 E0.04
G1 X119.2 E0.29
;rapid-leaky
G0 X119.56 Y64.44 F7200
;bead-perimeter_inner
G1 Y63.56 F2400 E0.022
G1 X130.44 E0.271
G1 Y64.44 E0.022
G1 X119.56 E0.271
G1 F2100 E-0.5
;rapid-dry
G0 X92.046 Y85.024 F7200
G1 F2100 E0.5
;bead-support
G1 X93.691 Y84.074 F3300 E0.048
G1 X94.376 Y84.076 E0.017
G1 Y86.758 E0.067
G1 X92.046 Y88.103 E0.067
G1 Y91.182 E0.077
G1 X94.376 Y89.837 E0.067
G1 Y92.916 E0.077
G1 X92.046 Y94.261 E0.067
G1 Y97.34 E0.077
G1 X94.376 Y95.995 E0.067
G1 F2100 E-0.5
G0 X93.51 Y96.495 F2400
G0 X94.376 Y95.995 F2400
;rapid-dry
G0 X84.8 Y99.2 F7200
G1 F2100 E0.5
;bead-perimeter_outer
G1 Y110.8 F1800 E0.289
G1 X83.2 E0.04
G1 Y99.2 E0.289
G1 X84.8 E0.04
;rapid-leaky
G0 X84.44 Y99.56 F7200
;bead-perimeter_inner
G1 Y110.44 F2400 E0.272
G1 X83.56 E0.022
G1 Y99.56 E0.271
G1 X84.44 E0.022
G1 F2100 E-0.5
;rapid-dry
G0 X92.045 Y112.737 F7200
G1 F2100 E0.5
;bead-support
G1 X94.139 Y111.528 F3300 E0.06
G1 X94.376 Y111.529 E0.006
G1 X94.374 Y114.472 E0.074
G1 X92.043 Y115.817 E0.067
G1 X92.041 Y118.898 E0.077
G1 X94.372 Y117.552 E0.067
G1 X94.37 Y120.632 E0.077
G1 X92.039 Y121.978 E0.067
G1 X92.037 Y125.059 E0.077
G1 X94.368 Y123.713 E0.067
G1 F2100 E-0.5
G0 X93.502 Y124.213 F2400
G0 X94.368 Y123.713 F2400
;rapid-dry
G0 X106.298 Y110.666 F7200
G1 F2100 E0.5
;bead-support
G1 X130.688 Y96.585 F3300 E0.702
G1 X130.69 Y99.33 E0.069
G1 X131.267 E0.014
G1 X111.629 Y110.668 E0.566
G1 X116.96 Y110.669 E0.133
G1 X136.597 Y99.332 E0.565
G1 X141.928 Y99.333 E0.133
G1 X119.311 Y112.391 E0.652
G1 X119.313 Y115.469 E0.077
G1 X147.258 Y99.335 E0.805
G1 X152.589 Y99.336 E0.132
G1 X132.926 Y110.689 E0.567
G1 X130.67 Y110.69 E0.056
G1 Y111.991 E0.033
G1 X119.315 Y118.547 E0.327
G1 X119.317 Y121.625 E0.076
G1 X130.669 Y115.071 E0.327
G1 X130.668 Y118.151 E0.077
G1 X119.319 Y124.703 E0.327
G1 X119.32 Y127.782 E0.077
G1 X130.667 Y121.231 E0.327
G1 X130.666 Y124.31 E0.077
G1 X119.322 Y130.86 E0.326
G1 X119.324 Y133.938 E0.077
G1 X130.665 Y127.39 E0.327
G1 X130.664 Y130.47 E0.077
G1 X119.326 Y137.016 E0.326
G1 X119.328 Y140.094 E0.077
G1 X130.663 Y133.55 E0.326
G1 X130.662 Y136.629 E0.077
G1 X119.33 Y143.172 E0.327
G1 X119.331 Y144.43 E0.031
G1 X122.485 E0.079
G1 X130.662 Y139.709 E0.235
G1 X130.661 Y142.789 E0.077
G1 X127.818 Y144.43 E0.082
G1 F2100 E-0.5
G0 X128.684 Y143.93 F2400
G0 X127.818 Y144.43 F2400
;rapid-dry
G0 X119.2 Y145.2 F7200
G1 F2100 E0.5
;bead-perimeter_outer
G1 X130.8 F1800 E0.289
G1 Y146.8 E0.04
G1 X119.2 E0.29
G1 Y145.2 E0.04
;rapid-leaky
G0 X119.56 Y145.56 F7200
;bead-perimeter_inner
G1 X130.44 F2400 E0.271
G1 Y146.44 E0.022
G1 X119.56 E0.271
G1 Y145.56 E0.022
G1 F2100 E-0.5
;rapid-dry
G0 X138.265 Y110.685 F7200
G1 F2100 E0.5
;bead-support
G1 X157.92 Y99.338 F3300 E0.566
G1 X163.25 Y99.34 E0.133
G1 X143.604 Y110.682 E0.566
G1 X148.943 Y110.679 E0.133
G1 X164.43 Y101.738 E0.447
G1 Y104.817 E0.076
G1 X154.282 Y110.676 E0.293
G1 X159.621 Y110.672 E0.133
G1 X164.43 Y107.896 E0.138
G1 F2100 E-0.5
G0 X163.564 Y108.396 F2400
G0 X164.43 Y107.896 F2400
;rapid-dry
G0 X165.2 Y99.2 F7200
G1 F2100 E0.5
;bead-perimeter_outer
G1 X166.8 F1800 E0.04
G1 Y110.8 E0.29
G1 X165.2 E0.04
G1 Y99.2 E0.289
;rapid-leaky
G0 X165.56 Y99.56 F7200
;bead-perimeter_inner
G1 X166.44 F2400 E0.022
G1 Y110.44 E0.271
G1 X165.56 E0.022
G1 Y99.56 E0.272
;rapid-leaky
G0 X165.88 Y103.658 F7200
;bead-sparse_infill
G1 X166.12 Y103.907 F3600 E0.008
G1 Y107.223 E0.083
G1 X165.88 Y107.077 E0.007
G1 F2100 E-0.5
;rapid-dry
G0 X157.956 Y123.951 F7200
G1 F2100 E0.5
;bead-support
G1 X155.625 Y125.297 F3300 E0.067
G1 X155.627 Y122.216 E0.077
G1 X157.958 Y120.87 E0.067
G1 X157.96 Y117.79 E0.077
G1 X155.629 Y119.136 E0.067
G1 X155.631 Y116.055 E0.077
G1 X157.962 Y114.71 E0.067
G1 X157.964 Y111.629 E0.077
G1 X155.633 Y112.975 E0.067
G1 F2100 E-0.5
G0 X156.499 Y112.475 F2400
G0 X155.633 Y112.975 F2400
;rapid-dry
G0 X157.956 Y96.238 F7200
G1 F2100 E0.5
;bead-support
G1 X155.625 Y97.584 F3300 E0.067
G1 X155.627 Y94.503 E0.077
G1 X157.958 Y93.158 E0.067
G1 X157.96 Y90.077 E0.077
G1 X155.629 Y91.423 E0.067
G1 X155.631 Y88.342 E0.077
G1 X157.962 Y86.997 E0.067
G1 X157.964 Y84.076 E0.073
G1 X157.689 Y84.075 E0.007
G1 X155.633 Y85.262 E0.059
G1 F2100 E-0.5
G0 X156.499 Y84.762 F2400
G0 X155.633 Y85.262 F2400
;rapid-dry
G0 X130.12 Y64.017 F7200
G1 F2100 E0.5
;bead-sparse_infill
G1 X129.998 Y64.024 F3600 E0.003
G1 X129.801 Y64.12 E0.006
G1 X122.772 E0.175
G1 X122.521 Y63.968 E0.007
G1 X121.453 Y64.024 E0.027
G1 X121.256 Y64.12 E0.005
G1 F2100 E-0.5
;rapid-dry
G0 X83.88 Y100.475 F7200
G1 F2100 E0.5
;bead-sparse_infill
G1 X84.068 Y100.485 F3600 E0.005
G1 X84.12 Y100.454 E0.002
G1 Y104.126 E0.091
G1 X84.068 Y104.18 E0.002
G1 X83.88 Y104.272 E0.005
G1 Y109.02 E0.119
G1 X84.068 Y109.03 E0.004
G1 X84.12 Y108.999 E0.002
G1 F2100 E-0.5
;rapid-dry
G0 X122.671 Y145.88 F7200
G1 F2100 E0.5
;bead-sparse_infill
G1 X122.901 Y146.12 F3600 E0.008
G1 X127.549 E0.116
G1 X127.78 Y145.88 E0.008
G1 F2100 E-0.5
;LAYER:11
;rapid-dry
G0 X127.818 Y144.43 Z1.7 F7200
G1 F2100 E0.5
;bead-support
G1 X130.661 Y142.789 F3300 E0.082
G1 X130.662 Y139.709 E0.077
G1 X122.485 Y144.43 E0.236
G1 X119.331 E0.078
G1 X119.33 Y143.172 E0.032
G1 X130.662 Y136.629 E0.326
G1 X130.663 Y133.55 E0.077
G1 X119.328 Y140.094 E0.326
G1 X119.326 Y137.016 E0.077
G1 X130.664 Y130.47 E0.327
G1 X130.665 Y127.39 E0.077
G1 X119.324 Y133.938 E0.326
G1 X119.322 Y130.86 E0.077
G1 X130.666 Y124.31 E0.327
G1 X130.667 Y121.231 E0.077
G1 X119.32 Y127.782 E0.327
G1 X119.319 Y124.703 E0.076
G1 X130.668 Y118.151 E0.327
G1 X130.669 Y115.071 E0.077
G1 X119.317 Y121.625 E0.327
G1 X119.315 Y118.547 E0.077
G1 X130.67 Y111.991 E0.327
G1 Y110.69 E0.032
G1 X132.926 Y110.689 E0.057
G1 X152.589 Y99.336 E0.566
G1 X147.258 Y99.335 E0.133
G1 X119.313 Y115.469 E0.805
G1 X119.311 Y112.391 E0.077
G1 X141.928 Y99.333 E0.651
G1 X136.597 Y99.332 E0.133
G1 X116.96 Y110.669 E0.566
G1 X111.629 Y110.668 E0.133
G1 X131.267 Y99.33 E0.565
G1 X130.69 E0.015
G1 X130.688 Y96.585 E0.068
G1 X106.298 Y110.666 E0.703
G1 F2100 E-0.5
G0 X107.164 Y110.166 F2400
G0 X106.298 Y110.666 F2400
;rapid-dry
G0 X94.368 Y123.713 F7200
G1 F2100 E0.5
;bead-support
G1 X92.037 Y125.059 F3300 E0.067
G1 X92.039 Y121.978 E0.077
G1 X94.37 Y120.632 E0.067
G1 X94.372 Y117.552 E0.077
G1 X92.041 Y118.898 E0.067
G1 X92.043 Y115.817 E0.077
G1 X94.374 Y114.472 E0.067
G1 X94.376 Y111.529 E0.073
G1 X94.139 Y111.528 E0.006
G1 X92.045 Y112.737 E0.06
G1 F2100 E-0.5
G0 X92.911 Y112.237 F2400
G0 X92.045 Y112.737 F2400
;rapid-dry
G0 X85.57 Y101.079 F7200
G1 F2100 E0.5
;bead-support
G1 X88.602 Y99.329 F3300 E0.088
G1 X93.941 Y99.326 E0.133
G1 X85.57 Y104.159 E0.241
G1 Y107.238 E0.077
G1 X99.28 Y99.322 E0.395
G1 X104.619 Y99.319 E0.133
G1 X85.57 Y110.317 E0.549
G1 Y110.66 E0.008
G1 X90.307 Y110.662 E0.118
G1 X109.958 Y99.316 E0.566
G1 X115.297 Y99.312 E0.134
G1 X95.637 Y110.663 E0.566
G1 X100.968 Y110.665 E0.133
G1 X130.687 Y93.507 E0.856
G1 X130.685 Y90.428 E0.077
G1 X119.331 Y96.984 E0.327
G1 X119.332 Y93.904 E0.077
G1 X130.683 Y87.35 E0.327
G1 X130.681 Y84.272 E0.076
G1 X119.332 Y90.824 E0.327
G1 X119.333 Y87.745 E0.077
G1 X130.679 Y81.194 E0.327
G1 X130.677 Y78.116 E0.077
G1 X119.334 Y84.665 E0.326
G1 X119.335 Y81.585 E0.077
G1 X130.675 Y75.038 E0.327
G1 X130.673 Y71.96 E0.077
G1 X119.336 Y78.505 E0.326
G1 X119.337 Y75.426 E0.077
G1 X130.671 Y68.882 E0.326
G1 X130.669 Y65.804 E0.077
G1 X119.338 Y72.346 E0.327
G1 X119.339 Y69.266 E0.076
G1 X125.741 Y65.57 E0.185
G1 X120.407 E0.133
G1 X119.34 Y66.186 E0.031
G1 F2100 E-0.5
G0 X120.206 Y65.686 F2400
G0 X119.34 Y66.186 F2400
;rapid-dry
G0 X130.8 Y64.8 F7200
G1 F2100 E0.5
;bead-perimeter_outer
G1 X119.2 F1800 E0.289
G1 Y63.2 E0.04
G1 X130.8 E0.289
G1 Y64.8 E0.04
;rapid-leaky
G0 X130.44 Y64.44 F7200
;bead-perimeter_inner
G1 X119.56 F2400 E0.272
G1 Y63.56 E0.022
G1 X130.44 E0.271
G1 Y64.44 E0.022
G1 F2100 E-0.5
;rapid-dry
G0 X155.633 Y85.262 F7200
G1 F2100 E0.5
;bead-support
G1 X157.689 Y84.075 F3300 E0.059
G1 X157.964 Y84.076 E0.007
G1 X157.962 Y86.997 E0.073
G1 X155.631 Y88.342 E0.067
G1 X155.629 Y91.423 E0.077
G1 X157.96 Y90.077 E0.067
G1 X157.958 Y93.158 E0.077
G1 X155.627 Y94.503 E0.067
G1 X155.625 Y97.584 E0.077
G1 X157.956 Y96.238 E0.067
G1 F2100 E-0.5
G0 X157.09 Y96.738 F2400
G0 X157.956 Y96.238 F2400
;rapid-dry
G0 X165.2 Y99.2 F7200
G1 F2100 E0.5
;bead-perimeter_outer
G1 X166.8 F1800 E0.04
G1 Y110.8 E0.289
G1 X165.2 E0.04
G1 Y99.2 E0.289
;rapid-leaky
G0 X165.56 Y99.56 F7200
;bead-perimeter_inner
G1 X166.44 F2400 E0.022
G1 Y110.44 E0.272
G1 X165.56 E0.022
G1 Y99.56 E0.271
G1 F2100 E-0.5
;rapid-dry
G0 X164.43 Y107.896 F7200
G1 F2100 E0.5
;bead-support
G1 X159.621 Y110.672 F3300 E0.139
G1 X154.282 Y110.676 E0.133
G1 X164.43 Y104.817 E0.292
G1 Y101.738 E0.077
G1 X148.943 Y110.679 E0.446
G1 X143.604 Y110.682 E0.133
G1 X163.25 Y99.34 E0.566
G1 X157.92 Y99.338 E0.133
G1 X138.265 Y110.685 E0.566
G1 F2100 E-0.5
G0 X139.131 Y110.185 F2400
G0 X138.265 Y110.685 F2400
;rapid-dry
G0 X155.633 Y112.975 F7200
G1 F2100 E0.5
;bead-support
G1 X157.964 Y111.629 F3300 E0.067
G1 X157.962 Y114.71 E0.077
G1 X155.631 Y116.055 E0.067
G1 X155.629 Y119.136 E0.077
G1 X157.96 Y117.79 E0.067
G1 X157.958 Y120.87 E0.077
G1 X155.627 Y122.216 E0.067
G1 X155.625 Y125.297 E0.077
G1 X157.956 Y123.951 E0.067
G1 F2100 E-0.5
G0 X157.089 Y124.451 F2400
G0 X157.956 Y123.951 F2400
;rapid-dry
G0 X130.8 Y145.2 F7200
G1 F2100 E0.5
;bead-perimeter_outer
G1 Y146.8 F1800 E0.04
G1 X119.2 E0.29
G1 Y145.2 E0.039
G1 X130.8 E0.29
;rapid-leaky
G0 X130.44 Y145.56 F7200
;bead-perimeter_inner
G1 Y146.44 F2400 E0.022
G1 X119.56 E0.271
G1 Y145.56 E0.022
G1 X130.44 E0.272
G1 F2100 E-0.5
;rapid-dry
G0 X94.376 Y95.995 F7200
G1 F2100 E0.5
;bead-support
G1 X92.046 Y97.34 F3300 E0.067
G1 Y94.261 E0.076
G1 X94.376 Y92.916 E0.068
G1 Y89.837 E0.076
G1 X92.046 Y91.182 E0.068
G1 Y88.103 E0.076
G1 X94.376 Y86.758 E0.067
G1 Y84.076 E0.067
G1 X93.691 Y84.074 E0.017
G1 X92.046 Y85.024 E0.048
G1 F2100 E-0.5
G0 X92.912 Y84.524 F2400
G0 X92.046 Y85.024 F2400
;rapid-dry
G0 X84.8 Y99.2 F7200
G1 F2100 E0.5
;bead-perimeter_outer
G1 Y110.8 F1800 E0.289
G1 X83.2 E0.04
G1 Y99.2 E0.289
G1 X84.8 E0.04
;rapid-leaky
G0 X84.44 Y99.56 F7200
;bead-perimeter_inner
G1 Y110.44 F2400 E0.272
G1 X83.56 E0.022
G1 Y99.56 E0.271
G1 X84.44 E0.022
;rapid-leaky
G0 X83.88 Y100.377 F7200
;bead-sparse_infill
G1 X84.068 Y100.371 F3600 E0.005
G1 X84.12 Y100.336 E0.001
G1 Y104.201 E0.097
G1 X84.068 Y104.25 E0.001
G1 X83.88 Y104.325 E0.006
G1 Y108.922 E0.114
G1 X84.068 Y108.916 E0.005
G1 X84.12 Y108.881 E0.001
G1 F2100 E-0.5
;rapid-dry
G0 X122.76 Y145.88 F7200
G1 F2100 E0.5
;bead-sparse_infill
G1 X123.014 Y146.12 F3600 E0.009
G1 X127.701 E0.117
G1 X127.862 Y145.968 E0.006
G1 X127.995 Y145.88 E0.004
G1 F2100 E-0.5
;rapid-dry
G0 X165.88 Y107.227 F7200
G1 F2100 E0.5
;bead-sparse_infill
G1 X166.12 Y107.386 F3600 E0.007
G1 Y103.753 E0.09
G1 X165.88 Y103.526 E0.009
G1 F2100 E-0.5
;rapid-dry
G0 X130.12 Y64.051 F7200
G1 F2100 E0.5
;bead-sparse_infill
G1 X129.998 Y64.047 F3600 E0.003
G1 X129.817 Y64.12 E0.005
G1 X122.578 E0.18
G1 X122.521 Y64.083 E0.002
G1 X121.453 Y64.047 E0.026
G1 X121.272 Y64.12 E0.005
G1 F2100 E-0.5
;LAYER:12
;rapid-leaky
G0 X119.2 Y63.2 Z1.85 F7200
G1 F2100 E0.5
;bead-perimeter_outer
G1 X130.8 F1800 E0.29
G1 Y64.8 E0.04
G1 X119.2 E0.289
G1 Y63.2 E0.04
;rapid-leaky
G0 X119.56 Y63.56 F7200
;bead-perimeter_inner
G1 X130.44 F2400 E0.271
G1 Y64.44 E0.022
G1 X119.56 E0.272
G1 Y63.56 E0.022
G1 F2100 E-0.5
;rapid-dry
G0 X119.34 Y66.186 F7200
G1 F2100 E0.5
;bead-support
G1 X120.407 Y65.57 F3300 E0.03
G1 X125.741 E0.133
G1 X119.339 Y69.266 E0.185
G1 X119.338 Y72.346 E0.077
G1 X130.669 Y65.804 E0.326
G1 X130.671 Y68.882 E0.077
G1 X119.337 Y75.426 E0.326
G1 X119.336 Y78.505 E0.077
G1 X130.673 Y71.96 E0.327
G1 X130.675 Y75.038 E0.076
G1 X119.335 Y81.585 E0.327
G1 X119.334 Y84.665 E0.077
G1 X130.677 Y78.116 E0.327
G1 X130.679 Y81.194 E0.076
G1 X119.333 Y87.745 E0.327
G1 X119.332 Y90.824 E0.077
G1 X130.681 Y84.272 E0.327
G1 X130.683 Y87.35 E0.077
G1 X119.332 Y93.904 E0.327
G1 X119.331 Y96.984 E0.076
G1 X130.685 Y90.428 E0.328
G1 X130.687 Y93.507 E0.076
G1 X100.968 Y110.665 E0.856
G1 X95.637 Y110.663 E0.133
G1 X115.297 Y99.312 E0.567
G1 X109.958 Y99.316 E0.133
G1 X90.307 Y110.662 E0.566
G1 X85.57 Y110.66 E0.118
G1 Y110.317 E0.009
G1 X104.619 Y99.319 E0.548
G1 X99.28 Y99.322 E0.133
G1 X85.57 Y107.238 E0.395
G1 Y104.159 E0.077
G1 X93.941 Y99.326 E0.241
G1 X88.602 Y99.329 E0.133
G1 X85.57 Y101.079 E0.088
G1 F2100 E-0.5
G0 X86.436 Y100.579 F2400
G0 X85.57 Y101.079 F2400
;rapid-dry
G0 X84.8 Y99.2 F7200
G1 F2100 E0.5
;bead-perimeter_outer
G1 Y110.8 F1800 E0.289
G1 X83.2 E0.04
G1 Y99.2 E0.289
G1 X84.8 E0.04
;rapid-leaky
G0 X84.44 Y99.56 F7200
;bead-perimeter_inner
G1 Y110.44 F2400 E0.272
G1 X83.56 E0.022
G1 Y99.56 E0.271
G1 X84.44 E0.022
G1 F2100 E-0.5
;rapid-dry
G0 X92.046 Y85.024 F7200
G1 F2100 E0.5
;bead-support
G1 X93.691 Y84.074 F3300 E0.047
G1 X94.376 Y84.076 E0.017
G1 Y86.758 E0.067
G1 X92.046 Y88.103 E0.068
G1 Y91.182 E0.076
G1 X94.376 Y89.837 E0.067
G1 Y92.916 E0.077
G1 X92.046 Y94.261 E0.067
G1 Y97.34 E0.077
G1 X94.376 Y95.995 E0.067
G1 F2100 E-0.5
G0 X93.51 Y96.495 F2400
G0 X94.376 Y95.995 F2400
;rapid-dry
G0 X92.045 Y112.737 F7200
G1 F2100 E0.5
;bead-support
G1 X94.139 Y111.528 F3300 E0.061
G1 X94.376 Y111.529 E0.005
G1 X94.374 Y114.472 E0.074
G1 X92.043 Y115.817 E0.067
G1 X92.041 Y118.898 E0.077
G1 X94.372 Y117.552 E0.067
G1 X94.37 Y120.632 E0.077
G1 X92.039 Y121.978 E0.067
G1 X92.037 Y125.059 E0.077
G1 X94.368 Y123.713 E0.067
G1 F2100 E-0.5
G0 X93.502 Y124.213 F2400
G0 X94.368 Y123.713 F2400
;rapid-dry
G0 X106.298 Y110.666 F7200
G1 F2100 E0.5
;bead-support
G1 X130.688 Y96.585 F3300 E0.703
G1 X130.69 Y99.33 E0.068
G1 X131.267 E0.014
G1 X111.629 Y110.668 E0.566
G1 X116.96 Y110.669 E0.133
G1 X136.597 Y99.332 E0.566
G1 X141.928 Y99.333 E0.133
G1 X119.311 Y112.391 E0.651
G1 X119.313 Y115.469 E0.077
G1 X147.258 Y99.335 E0.805
G1 X152.589 Y99.336 E0.133
G1 X132.926 Y110.689 E0.566
G1 X130.67 Y110.69 E0.056
G1 Y111.991 E0.033
G1 X119.315 Y118.547 E0.327
G1 X119.317 Y121.625 E0.077
G1 X130.669 Y115.071 E0.327
G1 X130.668 Y118.151 E0.077
G1 X119.319 Y124.703 E0.326
G1 X119.32 Y127.782 E0.077
G1 X130.667 Y121.231 E0.327
G1 X130.666 Y124.31 E0.077
G1 X119.322 Y130.86 E0.327
G1 X119.324 Y133.938 E0.076
G1 X130.665 Y127.39 E0.327
G1 X130.664 Y130.47 E0.077
G1 X119.326 Y137.016 E0.326
G1 X119.328 Y140.094 E0.077
G1 X130.663 Y133.55 E0.327
G1 X130.662 Y136.629 E0.077
G1 X119.33 Y143.172 E0.326
G1 X119.331 Y144.43 E0.031
G1 X122.485 E0.079
G1 X130.662 Y139.709 E0.236
G1 X130.661 Y142.789 E0.076
G1 X127.818 Y144.43 E0.082
G1 F2100 E-0.5
G0 X128.684 Y143.93 F2400
G0 X127.818 Y144.43 F2400
;rapid-dry
G0 X119.2 Y145.2 F7200
G1 F2100 E0.5
;bead-perimeter_outer
G1 X130.8 F1800 E0.29
G1 Y146.8 E0.04
G1 X119.2 E0.289
G1 Y145.2 E0.04
;rapid-leaky
G0 X119.56 Y145.56 F7200
;bead-perimeter_inner
G1 X130.44 F2400 E0.271
G1 Y146.44 E0.022
G1 X119.56 E0.272
G1 Y145.56 E0.022
G1 F2100 E-0.5
;rapid-dry
G0 X138.265 Y110.685 F7200
G1 F2100 E0.5
;bead-support
G1 X157.92 Y99.338 F3300 E0.566
G1 X163.25 Y99.34 E0.133
G1 X143.604 Y110.682 E0.566
G1 X148.943 Y110.679 E0.133
G1 X164.43 Y101.738 E0.446
G1 Y104.817 E0.077
G1 X154.282 Y110.676 E0.292
G1 X159.621 Y110.672 E0.133
G1 X164.43 Y107.896 E0.139
G1 F2100 E-0.5
G0 X163.564 Y108.396 F2400
G0 X164.43 Y107.896 F2400
;rapid-dry
G0 X165.2 Y99.2 F7200
G1 F2100 E0.5
;bead-perimeter_outer
G1 X166.8 F1800 E0.04
G1 Y110.8 E0.289
G1 X165.2 E0.04
G1 Y99.2 E0.289
;rapid-leaky
G0 X165.56 Y99.56 F7200
;bead-perimeter_inner
G1 X166.44 F2400 E0.022
G1 Y110.44 E0.272
G1 X165.56 E0.021
G1 Y99.56 E0.272
;rapid-leaky
G0 X165.88 Y103.401 F7200
;bead-sparse_infill
G1 X166.12 Y103.609 F3600 E0.008
G1 Y107.535 E0.098
G1 X165.88 Y107.363 E0.007
G1 F2100 E-0.5
;rapid-dry
G0 X157.956 Y123.951 F7200
G1 F2100 E0.5
;bead-support
G1 X155.625 Y125.297 F3300 E0.067
G1 X155.627 Y122.216 E0.077
G1 X157.958 Y120.87 E0.067
G1 X157.96 Y117.79 E0.077
G1 X155.629 Y119.136 E0.067
G1 X155.631 Y116.055 E0.077
G1 X157.962 Y114.71 E0.067
G1 X157.964 Y111.629 E0.077
G1 X155.633 Y112.975 E0.067
G1 F2100 E-0.5
G0 X156.499 Y112.475 F2400
G0 X155.633 Y112.975 F2400
;rapid-dry
G0 X157.956 Y96.238 F7200
G1 F2100 E0.5
;bead-support
G1 X155.625 Y97.584 F3300 E0.067
G1 X155.627 Y94.503 E0.077
G1 X157.958 Y93.158 E0.067
G1 X157.96 Y90.077 E0.077
G1 X155.629 Y91.423 E0.067
G1 X155.631 Y88.342 E0.077
G1 X157.962 Y86.997 E0.067
G1 X157.964 Y84.076 E0.073
G1 X157.689 Y84.075 E0.007
G1 X155.633 Y85.262 E0.059
G1 F2100 E-0.5
G0 X156.499 Y84.762 F2400
G0 X155.633 Y85.262 F2400
;rapid-dry
G0 X130.12 Y64.076 F7200
G1 F2100 E0.5
;bead-sparse_infill
G1 X129.998 Y64.062 F3600 E0.003
G1 X129.815 Y64.12 E0.005
G1 X121.957 E0.196
G1 X121.453 Y64.062 E0.013
G1 X121.27 Y64.12 E0.004
G1 F2100 E-0.5
;rapid-dry
G0 X83.88 Y100.29 F7200
G1 F2100 E0.5
;bead-sparse_infill
G1 X84.068 Y100.268 F3600 E0.005
G1 X84.12 Y100.231 E0.002
G1 Y104.28 E0.101
G1 X84.068 Y104.324 E0.001
G1 X83.88 Y104.384 E0.005
G1 Y108.835 E0.111
G1 X84.068 Y108.813 E0.005
G1 X84.12 Y108.776 E0.002
G1 F2100 E-0.5
;rapid-dry
G0 X122.868 Y145.88 F7200
G1 F2100 E0.5
;bead-sparse_infill
G1 X123.146 Y146.12 F3600 E0.009
G1 X127.872 E0.118
G1 X128.208 Y145.88 E0.01
G1 F2100 E-0.5
;LAYER:13
;rapid-dry
G0 X127.818 Y144.43 Z2 F7200
G1 F2100 E0.5
;bead-support
G1 X130.661 Y142.789 F3300 E0.082
G1 X130.662 Y139.709 E0.077
G1 X122.485 Y144.43 E0.235
G1 X119.331 E0.079
G1 X119.33 Y143.172 E0.031
G1 X130.662 Y136.629 E0.327
G1 X130.663 Y133.55 E0.077
G1 X119.328 Y140.094 E0.326
G1 X119.326 Y137.016 E0.077
G1 X130.664 Y130.47 E0.326
G1 X130.665 Y127.39 E0.077
G1 X119.324 Y133.938 E0.327
G1 X119.322 Y130.86 E0.077
G1 X130.666 Y124.31 E0.327
G1 X130.667 Y121.231 E0.076
G1 X119.32 Y127.782 E0.327
G1 X119.319 Y124.703 E0.077
G1 X130.668 Y118.151 E0.327
G1 X130.669 Y115.071 E0.077
G1 X119.317 Y121.625 E0.327
G1 X119.315 Y118.547 E0.076
G1 X130.67 Y111.991 E0.328
G1 Y110.69 E0.032
G1 X132.926 Y110.689 E0.056
G1 X152.589 Y99.336 E0.567
G1 X147.258 Y99.335 E0.133
G1 X119.313 Y115.469 E0.805
G1 X119.311 Y112.391 E0.076
G1 X141.928 Y99.333 E0.652
G1 X136.597 Y99.332 E0.133
G1 X116.96 Y110.669 E0.565
G1 X111.629 Y110.668 E0.133
G1 X131.267 Y99.33 E0.566
G1 X130.69 E0.014
G1 X130.688 Y96.585 E0.069
G1 X106.298 Y110.666 E0.702
G1 F2100 E-0.5
G0 X107.164 Y110.166 F2400
G0 X106.298 Y110.666 F2400
;rapid-dry
G0 X94.368 Y123.713 F7200
G1 F2100 E0.5
;bead-support
G1 X92.037 Y125.059 F3300 E0.068
G1 X92.039 Y121.978 E0.076
G1 X94.37 Y120.632 E0.068
G1 X94.372 Y117.552 E0.076
G1 X92.041 Y118.898 E0.068
G1 X92.043 Y115.817 E0.076
G1 X94.374 Y114.472 E0.067
G1 X94.376 Y111.529 E0.074
G1 X94.139 Y111.528 E0.006
G1 X92.045 Y112.737 E0.06
G1 F2100 E-0.5
G0 X92.911 Y112.237 F2400
G0 X92.045 Y112.737 F2400
;rapid-dry
G0 X85.57 Y101.079 F7200
G1 F2100 E0.5
;bead-support
G1 X88.602 Y99.329 F3300 E0.087
G1 X93.941 Y99.326 E0.134
G1 X85.57 Y104.159 E0.241
G1 Y107.238 E0.077
G1 X99.28 Y99.322 E0.394
G1 X104.619 Y99.319 E0.134
G1 X85.57 Y110.317 E0.548
G1 Y110.66 E0.009
G1 X90.307 Y110.662 E0.118
G1 X109.958 Y99.316 E0.566
G1 X115.297 Y99.312 E0.133
G1 X95.637 Y110.663 E0.567
G1 X100.968 Y110.665 E0.133
G1 X130.687 Y93.507 E0.856
G1 X130.685 Y90.428 E0.076
G1 X119.331 Y96.984 E0.327
G1 X119.332 Y93.904 E0.077
G1 X130.683 Y87.35 E0.327
G1 X130.681 Y84.272 E0.077
G1 X119.332 Y90.824 E0.327
G1 X119.333 Y87.745 E0.077
G1 X130.679 Y81.194 E0.326
G1 X130.677 Y78.116 E0.077
G1 X119.334 Y84.665 E0.327
G1 X119.335 Y81.585 E0.077
G1 X130.675 Y75.038 E0.326
G1 X130.673 Y71.96 E0.077
G1 X119.336 Y78.505 E0.327
G1 X119.337 Y75.426 E0.077
G1 X130.671 Y68.882 E0.326
G1 X130.669 Y65.804 E0.077
G1 X119.338 Y72.346 E0.326
G1 X119.339 Y69.266 E0.077
G1 X125.741 Y65.57 E0.184
G1 X120.407 E0.134
G1 X119.34 Y66.186 E0.03
G1 F2100 E-0.5
G0 X120.206 Y65.686 F2400
G0 X119.34 Y66.186 F2400
;rapid-dry
G0 X119.2 Y63.2 F7200
G1 F2100 E0.5
;bead-perimeter_outer
G1 X130.8 F1800 E0.29
G1 Y64.8 E0.04
G1 X119.2 E0.289
G1 Y63.2 E0.04
;rapid-leaky
G0 X119.56 Y63.56 F7200
;bead-perimeter_inner
G1 X130.44 F2400 E0.271
G1 Y64.44 E0.022
G1 X119.56 E0.272
G1 Y63.56 E0.022
G1 F2100 E-0.5
;rapid-dry
G0 X92.046 Y85.024 F7200
G1 F2100 E0.5
;bead-support
G1 X93.691 Y84.074 F3300 E0.047
G1 X94.376 Y84.076 E0.017
G1 Y86.758 E0.067
G1 X92.046 Y88.103 E0.067
G1 Y91.182 E0.077
G1 X94.376 Y89.837 E0.067
G1 Y92.916 E0.077
G1 X92.046 Y94.261 E0.067
G1 Y97.34 E0.077
G1 X94.376 Y95.995 E0.067
G1 F2100 E-0.5
G0 X93.51 Y96.495 F2400
G0 X94.376 Y95.995 F2400
;rapid-dry
G0 X84.8 Y99.2 F7200
G1 F2100 E0.5
;bead-perimeter_outer
G1 Y110.8 F1800 E0.289
G1 X83.2 E0.04
G1 Y99.2 E0.289
G1 X84.8 E0.04
;rapid-leaky
G0 X84.44 Y99.56 F7200
;bead-perimeter_inner
G1 Y110.44 F2400 E0.272
G1 X83.56 E0.022
G1 Y99.56 E0.271
G1 X84.44 E0.022
G1 F2100 E-0.5
;rapid-dry
G0 X138.265 Y110.685 F7200
G1 F2100 E0.5
;bead-support
G1 X157.92 Y99.338 F3300 E0.566
G1 X163.25 Y99.34 E0.133
G1 X143.604 Y110.682 E0.566
G1 X148.943 Y110.679 E0.133
G1 X164.43 Y101.738 E0.446
G1 Y104.817 E0.077
G1 X154.282 Y110.676 E0.292
G1 X159.621 Y110.672 E0.134
G1 X164.43 Y107.896 E0.138
G1 F2100 E-0.5
G0 X163.564 Y108.396 F2400
G0 X164.43 Y107.896 F2400
;rapid-dry
G0 X165.2 Y99.2 F7200
G1 F2100 E0.5
;bead-perimeter_outer
G1 X166.8 F1800 E0.04
G1 Y110.8 E0.289
G1 X165.2 E0.04
G1 Y99.2 E0.29
;rapid-leaky
G0 X165.56 Y99.56 F7200
;bead-perimeter_inner
G1 X166.44 F2400 E0.022
G1 Y110.44 E0.271
G1 X165.56 E0.022
G1 Y99.56 E0.271
G1 F2100 E-0.5
;rapid-dry
G0 X155.633 Y85.262 F7200
G1 F2100 E0.5
;bead-support
G1 X157.689 Y84.075 F3300 E0.06
G1 X157.964 Y84.076 E0.006
G1 X157.962 Y86.997 E0.073
G1 X155.631 Y88.342 E0.067
G1 X155.629 Y91.423 E0.077
G1 X157.96 Y90.077 E0.067
G1 X157.958 Y93.158 E0.077
G1 X155.627 Y94.503 E0.067
G1 X155.625 Y97.584 E0.077
G1 X157.956 Y96.238 E0.067
G1 F2100 E-0.5
G0 X157.09 Y96.738 F2400
G0 X157.956 Y96.238 F2400
;rapid-dry
G0 X155.633 Y112.975 F7200
G1 F2100 E0.5
;bead-support
G1 X157.964 Y111.629 F3300 E0.068
G1 X157.962 Y114.71 E0.076
G1 X155.631 Y116.055 E0.067
G1 X155.629 Y119.136 E0.077
G1 X157.96 Y117.79 E0.067
G1 X157.958 Y120.87 E0.077
G1 X155.627 Y122.216 E0.067
G1 X155.625 Y125.297 E0.077
G1 X157.956 Y123.951 E0.067
G1 F2100 E-0.5
G0 X157.089 Y124.451 F2400
G0 X157.956 Y123.951 F2400
;rapid-dry
G0 X119.2 Y145.2 F7200
G1 F2100 E0.5
;bead-perimeter_outer
G1 X130.8 F1800 E0.29
G1 Y146.8 E0.04
G1 X119.2 E0.289
G1 Y145.2 E0.04
;rapid-leaky
G0 X119.56 Y145.56 F7200
;bead-perimeter_inner
G1 X130.44 F2400 E0.271
G1 Y146.44 E0.022
G1 X119.56 E0.272
G1 Y145.56 E0.022
;rapid-leaky
G0 X122.999 Y145.88 F7200
;bead-sparse_infill
G1 X123.3 Y146.12 F3600 E0.009
G1 X128.068 E0.119
G1 X128.38 Y145.88 E0.01
G1 F2100 E-0.5
;rapid-dry
G0 X165.88 Y107.491 F7200
G1 F2100 E0.5
;bead-sparse_infill
G1 X166.12 Y107.676 F3600 E0.008
G1 Y103.47 E0.105
G1 X165.88 Y103.278 E0.007
G1 F2100 E-0.5
;rapid-dry
G0 X130.12 Y64.092 F7200
G1 F2100 E0.5
;bead-sparse_infill
G1 X129.998 Y64.068 F3600 E0.003
G1 X129.777 Y64.12 E0.006
G1 X121.718 E0.201
G1 X121.453 Y64.068 E0.007
G1 X121.232 Y64.12 E0.005
G1 F2100 E-0.5
;rapid-dry
G0 X83.88 Y100.212 F7200
G1 F2100 E0.5
;bead-sparse_infill
G1 X84.068 Y100.175 F3600 E0.005
G1 X84.12 Y100.135 E0.002
G1 Y104.364 E0.105
G1 X84.068 Y104.406 E0.002
G1 X83.88 Y104.45 E0.005
G1 Y108.757 E0.107
G1 X84.068 Y108.72 E0.005
G1 X84.12 Y108.68 E0.002
G1 F2100 E-0.5
;LAYER:14
;rapid-dry
G0 X85.57 Y101.079 Z2.15 F7200
G1 F2100 E0.5
;bead-support
G1 X88.602 Y99.329 F3300 E0.087
G1 X93.941 Y99.326 E0.133
G1 X85.57 Y104.159 E0.241
G1 Y107.238 E0.077
G1 X99.28 Y99.322 E0.395
G1 X104.619 Y99.319 E0.133
G1 X85.57 Y110.317 E0.549
G1 Y110.66 E0.008
G1 X90.307 Y110.662 E0.119
G1 X109.958 Y99.316 E0.566
G1 X115.297 Y99.312 E0.133
G1 X95.637 Y110.663 E0.566
G1 X100.968 Y110.665 E0.133
G1 X130.687 Y93.507 E0.856
G1 X130.685 Y90.428 E0.077
G1 X119.331 Y96.984 E0.327
G1 X119.332 Y93.904 E0.077
G1 X130.683 Y87.35 E0.327
G1 X130.681 Y84.272 E0.076
G1 X119.332 Y90.824 E0.327
G1 X119.333 Y87.745 E0.077
G1 X130.679 Y81.194 E0.327
G1 X130.677 Y78.116 E0.077
G1 X119.334 Y84.665 E0.326
G1 X119.335 Y81.585 E0.077
G1 X130.675 Y75.038 E0.327
G1 X130.673 Y71.96 E0.077
G1 X119.336 Y78.505 E0.326
G1 X119.337 Y75.426 E0.077
G1 X130.671 Y68.882 E0.327
G1 X130.669 Y65.804 E0.076
G1 X119.338 Y72.346 E0.327
G1 X119.339 Y69.266 E0.077
G1 X125.741 Y65.57 E0.184
G1 X120.407 E0.133
G1 X119.34 Y66.186 E0.031
G1 F2100 E-0.5
G0 X120.206 Y65.686 F2400
G0 X119.34 Y66.186 F2400
;rapid-dry
G0 X130.8 Y64.8 F7200
G1 F2100 E0.5
;bead-perimeter_outer
G1 X119.2 F1800 E0.289
G1 Y63.2 E0.04
G1 X130.8 E0.289
G1 Y64.8 E0.04
;rapid-leaky
G0 X130.44 Y64.44 F7200
;bead-perimeter_inner
G1 X119.56 F2400 E0.272
G1 Y63.56 E0.022
G1 X130.44 E0.271
G1 Y64.44 E0.022
G1 F2100 E-0.5
;rapid-dry
G0 X155.633 Y85.262 F7200
G1 F2100 E0.5
;bead-support
G1 X157.689 Y84.075 F3300 E0.059
G1 X157.964 Y84.076 E0.007
G1 X157.962 Y86.997 E0.073
G1 X155.631 Y88.342 E0.067
G1 X155.629 Y91.423 E0.077
G1 X157.96 Y90.077 E0.067
G1 X157.958 Y93.158 E0.077
G1 X155.627 Y94.503 E0.067
G1 X155.625 Y97.584 E0.077
G1 X157.956 Y96.238 E0.067
G1 F2100 E-0.5
G0 X157.09 Y96.738 F2400
G0 X157.956 Y96.238 F2400
;rapid-dry
G0 X165.2 Y99.2 F7200
G1 F2100 E0.5
;bead-perimeter_outer
G1 X166.8 F1800 E0.04
G1 Y110.8 E0.289
G1 X165.2 E0.04
G1 Y99.2 E0.29
;rapid-leaky
G0 X165.56 Y99.56 F7200
;bead-perimeter_inner
G1 X166.44 F2400 E0.022
G1 Y110.44 E0.271
G1 X165.56 E0.022
G1 Y99.56 E0.271
G1 F2100 E-0.5
;rapid-dry
G0 X164.43 Y107.896 F7200
G1 F2100 E0.5
;bead-support
G1 X159.621 Y110.672 F3300 E0.139
G1 X154.282 Y110.676 E0.133
G1 X164.43 Y104.817 E0.292
G1 Y101.738 E0.077
G1 X148.943 Y110.679 E0.446
G1 X143.604 Y110.682 E0.133
G1 X163.25 Y99.34 E0.566
G1 X157.92 Y99.338 E0.133
G1 X138.265 Y110.685 E0.566
G1 F2100 E-0.5
G0 X139.131 Y110.185 F2400
G0 X138.265 Y110.685 F2400
;rapid-dry
G0 X155.633 Y112.975 F7200
G1 F2100 E0.5
;bead-support
G1 X157.964 Y111.629 F3300 E0.068
G1 X157.962 Y114.71 E0.076
G1 X155.631 Y116.055 E0.067
G1 X155.629 Y119.136 E0.077
G1 X157.96 Y117.79 E0.067
G1 X157.958 Y120.87 E0.077
G1 X155.627 Y122.216 E0.067
G1 X155.625 Y125.297 E0.077
G1 X157.956 Y123.951 E0.067
G1 F2100 E-0.5
G0 X157.089 Y124.451 F2400
G0 X157.956 Y123.951 F2400
;rapid-dry
G0 X130.8 Y145.2 F7200
G1 F2100 E0.5
;bead-perimeter_outer
G1 Y146.8 F1800 E0.04
G1 X119.2 E0.29
G1 Y145.2 E0.04
G1 X130.8 E0.289
;rapid-leaky
G0 X130.44 Y145.56 F7200
;bead-perimeter_inner
G1 Y146.44 F2400 E0.022
G1 X119.56 E0.271
G1 Y145.56 E0.022
G1 X130.44 E0.272
G1 F2100 E-0.5
;rapid-dry
G0 X127.818 Y144.43 F7200
G1 F2100 E0.5
;bead-support
G1 X130.661 Y142.789 F3300 E0.082
G1 X130.662 Y139.709 E0.076
G1 X122.485 Y144.43 E0.236
G1 X119.331 E0.079
G1 X119.33 Y143.172 E0.031
G1 X130.662 Y136.629 E0.326
G1 X130.663 Y133.55 E0.077
G1 X119.328 Y140.094 E0.327
G1 X119.326 Y137.016 E0.076
G1 X130.664 Y130.47 E0.327
G1 X130.665 Y127.39 E0.077
G1 X119.324 Y133.938 E0.327
G1 X119.322 Y130.86 E0.076
G1 X130.666 Y124.31 E0.327
G1 X130.667 Y121.231 E0.077
G1 X119.32 Y127.782 E0.327
G1 X119.319 Y124.703 E0.077
G1 X130.668 Y118.151 E0.326
G1 X130.669 Y115.071 E0.077
G1 X119.317 Y121.625 E0.327
G1 X119.315 Y118.547 E0.077
G1 X130.67 Y111.991 E0.327
G1 Y110.69 E0.033
G1 X132.926 Y110.689 E0.056
G1 X152.589 Y99.336 E0.566
G1 X147.258 Y99.335 E0.133
G1 X119.313 Y115.469 E0.805
G1 X119.311 Y112.391 E0.077
G1 X141.928 Y99.333 E0.651
G1 X136.597 Y99.332 E0.133
G1 X116.96 Y110.669 E0.566
G1 X111.629 Y110.668 E0.133
G1 X131.267 Y99.33 E0.566
G1 X130.69 E0.014
G1 X130.688 Y96.585 E0.068
G1 X106.298 Y110.666 E0.703
G1 F2100 E-0.5
G0 X107.164 Y110.166 F2400
G0 X106.298 Y110.666 F2400
;rapid-dry
G0 X94.368 Y123.713 F7200
G1 F2100 E0.5
;bead-support
G1 X92.037 Y125.059 F3300 E0.067
G1 X92.039 Y121.978 E0.077
G1 X94.37 Y120.632 E0.067
G1 X94.372 Y117.552 E0.077
G1 X92.041 Y118.898 E0.067
G1 X92.043 Y115.817 E0.077
G1 X94.374 Y114.472 E0.067
G1 X94.376 Y111.529 E0.073
G1 X94.139 Y111.528 E0.006
G1 X92.045 Y112.737 E0.061
G1 F2100 E-0.5
G0 X92.911 Y112.237 F2400
G0 X92.045 Y112.737 F2400
;rapid-dry
G0 X84.8 Y99.2 F7200
G1 F2100 E0.5
;bead-perimeter_outer
G1 Y110.8 F1800 E0.289
G1 X83.2 E0.04
G1 Y99.2 E0.289
G1 X84.8 E0.04
;rapid-leaky
G0 X84.44 Y99.56 F7200
;bead-perimeter_inner
G1 Y110.44 F2400 E0.272
G1 X83.56 E0.022
G1 Y99.56 E0.271
G1 X84.44 E0.022
;rapid-leaky
G0 X84.12 Y100.047 F7200
;bead-sparse_infill
G1 X84.068 Y100.09 F3600 E0.002
G1 X83.88 Y100.143 E0.005
G1 Y104.524 E0.109
G1 X84.068 Y104.494 E0.005
G1 X84.12 Y104.456 E0.001
G1 Y108.592 E0.103
G1 X84.068 Y108.635 E0.002
G1 X83.88 Y108.688 E0.005
G1 F2100 E-0.5
;rapid-dry
G0 X94.376 Y95.995 F7200
G1 F2100 E0.5
;bead-support
G1 X92.046 Y97.34 F3300 E0.067
G1 Y94.261 E0.077
G1 X94.376 Y92.916 E0.067
G1 Y89.837 E0.077
G1 X92.046 Y91.182 E0.067
G1 Y88.103 E0.077
G1 X94.376 Y86.758 E0.067
G1 Y84.076 E0.067
G1 X93.691 Y84.074 E0.017
G1 X92.046 Y85.024 E0.047
G1 F2100 E-0.5
G0 X92.912 Y84.524 F2400
G0 X92.046 Y85.024 F2400
;rapid-dry
G0 X121.103 Y64.12 F7200
G1 F2100 E0.5
;bead-sparse_infill
G1 X121.453 Y64.066 F3600 E0.009
G1 X121.648 Y64.12 E0.005
G1 X129.648 E0.2
G1 X129.998 Y64.066 E0.008
G1 X130.12 Y64.1 E0.004
G1 F2100 E-0.5
;rapid-dry
G0 X166.12 Y103.331 F7200
G1 F2100 E0.5
;bead-sparse_infill
G1 X165.88 Y103.153 F3600 E0.007
G1 Y107.615 E0.111
G1 X166.12 Y107.814 E0.008
G1 F2100 E-0.5
;rapid-dry
G0 X128.523 Y145.88 F7200
G1 F2100 E0.5
;bead-sparse_infill
G1 X128.234 Y146.12 F3600 E0.009
G1 X123.48 E0.119
G1 X123.156 Y145.88 E0.01
G1 X119.978 E0.079
G1 X119.88 Y145.961 E0.004
G1 F2100 E-0.5
;LAYER:15
;rapid-leaky
G0 X119.2 Y145.2 Z2.3 F7200
G1 F2100 E0.5
;bead-perimeter_outer
G1 X130.8 F1800 E0.289
G1 Y146.8 E0.04
G1 X119.2 E0.289
G1 Y145.2 E0.04
;rapid-leaky
G0 X119.56 Y145.56 F7200
;bead-perimeter_inner
G1 X130.44 F2400 E0.272
G1 Y146.44 E0.021
G1 X119.56 E0.272
G1 Y145.56 E0.022
G1 F2100 E-0.5
;rapid-dry
G0 X127.818 Y144.43 F7200
G1 F2100 E0.5
;bead-support
G1 X130.661 Y142.789 F3300 E0.082
G1 X130.662 Y139.709 E0.077
G1 X122.485 Y144.43 E0.235
G1 X119.331 E0.079
G1 X119.33 Y143.172 E0.031
G1 X130.662 Y136.629 E0.327
G1 X130.663 Y133.55 E0.076
G1 X119.328 Y140.094 E0.327
G1 X119.326 Y137.016 E0.077
G1 X130.664 Y130.47 E0.326
G1 X130.665 Y127.39 E0.077
G1 X119.324 Y133.938 E0.327
G1 X119.322 Y130.86 E0.077
G1 X130.666 Y124.31 E0.326
G1 X130.667 Y121.231 E0.077
G1 X119.32 Y127.782 E0.327
G1 X119.319 Y124.703 E0.077
G1 X130.668 Y118.151 E0.327
G1 X130.669 Y115.071 E0.076
G1 X119.317 Y121.625 E0.327
G1 X119.315 Y118.547 E0.077
G1 X130.67 Y111.991 E0.327
G1 Y110.69 E0.033
G1 X132.926 Y110.689 E0.056
G1 X152.589 Y99.336 E0.566
G1 X147.258 Y99.335 E0.133
G1 X119.313 Y115.469 E0.805
G1 X119.311 Y112.391 E0.077
G1 X141.928 Y99.333 E0.652
G1 X136.597 Y99.332 E0.133
G1 X116.96 Y110.669 E0.565
G1 X111.629 Y110.668 E0.133
G1 X131.267 Y99.33 E0.566
G1 X130.69 E0.014
G1 X130.688 Y96.585 E0.069
G1 X106.298 Y110.666 E0.702
G1 F2100 E-0.5
G0 X107.164 Y110.166 F2400
G0 X106.298 Y110.666 F2400
;rapid-dry
G0 X94.368 Y123.713 F7200
G1 F2100 E0.5
;bead-support
G1 X92.037 Y125.059 F3300 E0.067
G1 X92.039 Y121.978 E0.077
G1 X94.37 Y120.632 E0.067
G1 X94.372 Y117.552 E0.077
G1 X92.041 Y118.898 E0.067
G1 X92.043 Y115.817 E0.077
G1 X94.374 Y114.472 E0.067
G1 X94.376 Y111.529 E0.074
G1 X94.139 Y111.528 E0.006
G1 X92.045 Y112.737 E0.06
G1 F2100 E-0.5
G0 X92.911 Y112.237 F2400
G0 X92.045 Y112.737 F2400
;rapid-dry
G0 X85.57 Y101.079 F7200
G1 F2100 E0.5
;bead-support
G1 X88.602 Y99.329 F3300 E0.087
G1 X93.941 Y99.326 E0.133
G1 X85.57 Y104.159 E0.242
G1 Y107.238 E0.076
G1 X99.28 Y99.322 E0.395
G1 X104.619 Y99.319 E0.133
G1 X85.57 Y110.317 E0.549
G1 Y110.66 E0.009
G1 X90.307 Y110.662 E0.118
G1 X109.958 Y99.316 E0.566
G1 X115.297 Y99.312 E0.133
G1 X95.637 Y110.663 E0.566
G1 X100.968 Y110.665 E0.133
G1 X130.687 Y93.507 E0.856
G1 X130.685 Y90.428 E0.077
G1 X119.331 Y96.984 E0.327
G1 X119.332 Y93.904 E0.077
G1 X130.683 Y87.35 E0.327
G1 X130.681 Y84.272 E0.077
G1 X119.332 Y90.824 E0.327
G1 X119.333 Y87.745 E0.076
G1 X130.679 Y81.194 E0.327
G1 X130.677 Y78.116 E0.077
G1 X119.334 Y84.665 E0.327
G1 X119.335 Y81.585 E0.077
G1 X130.675 Y75.038 E0.326
G1 X130.673 Y71.96 E0.077
G1 X119.336 Y78.505 E0.327
G1 X119.337 Y75.426 E0.076
G1 X130.671 Y68.882 E0.327
G1 X130.669 Y65.804 E0.077
G1 X119.338 Y72.346 E0.326
G1 X119.339 Y69.266 E0.077
G1 X125.741 Y65.57 E0.184
G1 X120.407 E0.133
G1 X119.34 Y66.186 E0.031
