;fixare deget
;Printer name: Prusa i3 MK3
;TIME:1181
;Print time: 19m:41s
;Extruder 1 material used: 917mm
;Extruder 1 material name: 
;Extruder 1 filament diameter: 1.75mm
;Extruder 1 nozzle diameter: 0.4mm
;Extruder 1 offset x: 0mm
;Extruder 1 offset y: 0mm
;Extruder 1 offset z: 0mm
;Extruder 1 max temp: 200
;Bed temp: 70
;Layer count: 80
;Width: 250mm
;Depth: 210mm
;Height: 210mm
;Center x: 125mm
;Center y: 105mm
;Center z: 0mm
;Count of bodies: 1
;Fusion version: 2.0.19440
G21
M115 U3.0.10 ;tell printer latest fw version
G28 W ;home all without mesh bed level
;--------------------------------
;Selected Profile: PLA Direct Drive
;--------------------------------
;Selected Printer: Prusa, i3 MK3
;--------------------------------
T0
M140 S70
M104 S200 T0
M190 S70
M109 S200 T0
G80 ;mesh bed leveling
G92 E0
G90
M83
G0 X10 Y10 Z10 F7200
G92 E0
;--------------------------------
;Part 1
;LAYER_COUNT:80
;LAYER:1
M107
;rapid-leaky
G0 X20 Y20.5 Z0.2 F7200
;bead-prime
G1 X120 F720 E8.315
G1 F2100 E-0.5
;rapid-dry
G0 X116.45 Y85.1 F7200
G1 F2100 E0.5
;bead-skirt/brim
G1 X139.05 F960 E0.752
G1 Y120.218 E1.168
G1 X139.031
G1 X139.024 Y124.093 E0.129
G1 X129.855 Y124.074 E0.305
G1 X129.862 Y120.218 E0.128
G1 X129.85 E0.001
G1 Y110.9 E0.31
G1 X125.65 E0.139
G1 Y120.218 E0.31
G1 X125.631 E0.001
G1 X125.624 Y124.093 E0.129
G1 X116.455 Y124.074 E0.305
G1 X116.462 Y120.218 E0.128
G1 X116.45 E0.001
G1 Y101.124 E0.635
G1 X114.768 Y100.804 E0.057
G1 X113.28 Y99.985 E0.056
G1 X111.899 Y98.518 E0.067
G1 X111.222 Y97.078 E0.053
G1 X110.924 Y95.514 E0.053
G1 X111.176 Y93.521 E0.067
G1 X111.855 Y92.077 E0.053
G1 X112.802 Y90.936 E0.049
G1 X114.088 Y90.001 E0.053
G1 X115.995 Y89.382 E0.067
G1 X116.45 Y89.38 E0.015
G1 Y85.1 E0.142
;rapid-leaky
G0 X116.85 Y85.5 F7200
;bead-skirt/brim
G1 X138.65 F960 E0.725
G1 Y119.818 E1.142
G1 X138.631
G1 X138.625 Y123.692 E0.129
G1 X130.256 Y123.675 E0.278
G1 X130.262 Y119.818 E0.129
G1 X130.25
G1 Y110.5 E0.31
G1 X125.25 E0.166
G1 Y119.818 E0.31
G1 X125.231 E0.001
G1 X125.225 Y123.692 E0.129
G1 X116.856 Y123.675 E0.278
G1 X116.862 Y119.818 E0.128
G1 X116.85 E0.001
G1 Y100.74 E0.634
G1 X116.57 E0.01
G1 X114.906 Y100.423 E0.056
G1 X113.528 Y99.665 E0.052
G1 X112.234 Y98.29 E0.063
G1 X111.606 Y96.953 E0.049
G1 X111.329 Y95.501 E0.049
G1 X111.565 Y93.634 E0.063
G1 X112.195 Y92.293 E0.049
G1 X113.077 Y91.23 E0.046
G1 X114.272 Y90.362 E0.049
G1 X116.059 Y89.781 E0.063
G1 X116.85 Y89.779 E0.026
G1 Y85.5 E0.142
;rapid-leaky
G0 X117.25 Y85.9 F7200
;bead-skirt/brim
G1 X138.25 F960 E0.699
G1 Y119.418 E1.115
G1 X138.232
G1 X138.226 Y123.291 E0.129
G1 X130.657 Y123.275 E0.252
G1 X130.663 Y119.418 E0.128
G1 X130.65 E0.001
G1 Y110.1 E0.31
G1 X124.85 E0.193
G1 Y119.418 E0.309
G1 X124.832 E0.001
G1 X124.826 Y123.291 E0.129
G1 X117.257 Y123.275 E0.252
G1 X117.263 Y119.418 E0.128
G1 X117.25
G1 Y100.34 E0.635
G1 X116.608 E0.021
G1 X115.043 Y100.042 E0.053
G1 X113.776 Y99.344 E0.048
G1 X112.569 Y98.062 E0.059
G1 X111.989 Y96.829 E0.045
G1 X111.734 Y95.488 E0.046
G1 X111.954 Y93.747 E0.058
G1 X112.536 Y92.51 E0.045
G1 X113.353 Y91.524 E0.043
G1 X114.456 Y90.722 E0.045
G1 X116.123 Y90.181 E0.059
G1 X117.25 Y90.178 E0.037
G1 Y85.9 E0.142
;rapid-leaky
G0 X117.65 Y86.3 F7200
;bead-skirt/brim
G1 X137.85 F960 E0.672
G1 Y119.018 E1.089
G1 X137.833
G1 X137.826 Y122.891 E0.129
G1 X131.057 Y122.876 E0.225
G1 X131.064 Y119.018 E0.128
G1 X131.05 E0.001
G1 Y109.7 E0.31
G1 X124.45 E0.219
G1 Y119.018 E0.31
G1 X124.433 E0.001
G1 X124.426 Y122.891 E0.129
G1 X117.657 Y122.876 E0.225
G1 X117.664 Y119.018 E0.128
G1 X117.65
G1 Y99.94 E0.635
G1 X116.646 E0.033
G1 X115.18 Y99.661 E0.05
G1 X114.024 Y99.024 E0.044
G1 X112.904 Y97.835 E0.054
G1 X112.373 Y96.704 E0.042
G1 X112.139 Y95.476 E0.041
G1 X112.343 Y93.86 E0.055
G1 X112.876 Y92.726 E0.041
G1 X113.629 Y91.818 E0.04
G1 X114.64 Y91.083 E0.041
G1 X116.187 Y90.581 E0.054
G1 X117.65 Y90.577 E0.049
G1 Y86.3 E0.142
;rapid-leaky
G0 X118.05 Y86.7 F7200
;bead-skirt/brim
G1 X137.45 F960 E0.645
G1 Y118.618 E1.062
G1 X137.433
G1 X137.427 Y122.49 E0.129
G1 X131.458 Y122.477 E0.199
G1 X131.464 Y118.618 E0.128
G1 X131.45 E0.001
G1 Y109.3 E0.31
G1 X124.05 E0.246
G1 Y118.618 E0.31
G1 X124.033
G1 X124.027 Y122.49 E0.129
G1 X118.058 Y122.477 E0.198
G1 X118.064 Y118.618 E0.129
G1 X118.05
G1 Y99.54 E0.635
G1 X116.683 E0.045
G1 X115.317 Y99.28 E0.047
G1 X114.272 Y98.704 E0.039
G1 X113.239 Y97.607 E0.05
G1 X112.756 Y96.58 E0.038
G1 X112.543 Y95.463 E0.038
G1 X112.732 Y93.973 E0.05
G1 X113.216 Y92.942 E0.038
G1 X113.905 Y92.112 E0.036
G1 X114.824 Y91.444 E0.037
G1 X116.251 Y90.981 E0.05
G1 X118.05 Y90.976 E0.06
G1 Y86.7 E0.142
;rapid-leaky
G0 X118.45 Y87.1 F7200
;bead-skirt/brim
G1 X137.05 F960 E0.619
G1 Y118.218 E1.035
G1 X137.034 E0.001
G1 X137.028 Y122.089 E0.128
G1 X131.859 Y122.078 E0.172
G1 X131.865 Y118.218 E0.129
G1 X131.85
G1 Y108.9 E0.31
G1 X123.65 E0.273
G1 Y118.218 E0.31
G1 X123.634
G1 X123.628 Y122.089 E0.129
G1 X118.459 Y122.078 E0.172
G1 X118.465 Y118.218 E0.128
G1 X118.45 E0.001
G1 Y99.139 E0.634
G1 X116.721 Y99.14 E0.058
G1 X115.455 Y98.899 E0.043
G1 X114.52 Y98.384 E0.035
G1 X113.574 Y97.379 E0.046
G1 X113.14 Y96.455 E0.034
G1 X112.948 Y95.45 E0.034
G1 X113.121 Y94.086 E0.046
G1 X113.557 Y93.158 E0.034
G1 X114.181 Y92.406 E0.032
G1 X115.008 Y91.805 E0.034
G1 X116.314 Y91.381 E0.046
G1 X118.45 Y91.374 E0.071
G1 Y87.1 E0.142
;rapid-leaky
G0 X118.85 Y87.5 F7200
;bead-skirt/brim
G1 X136.65 F960 E0.592
G1 Y117.818 E1.009
G1 X136.635
G1 X136.628 Y121.688 E0.129
G1 X132.259 Y121.679 E0.145
G1 X132.266 Y117.818 E0.129
G1 X132.25
G1 Y108.5 E0.31
G1 X123.25 E0.299
G1 Y117.818 E0.31
G1 X123.235 E0.001
G1 X123.228 Y121.688 E0.129
G1 X118.859 Y121.679 E0.145
G1 X118.866 Y117.818 E0.128
G1 X118.85 E0.001
G1 Y98.739 E0.634
G1 X116.759 Y98.74 E0.07
G1 X115.592 Y98.518 E0.039
G1 X114.768 Y98.064 E0.032
G1 X113.909 Y97.151 E0.041
G1 X113.523 Y96.331 E0.031
G1 X113.353 Y95.438 E0.03
G1 X113.51 Y94.199 E0.041
G1 X113.897 Y93.374 E0.031
G1 X114.456 Y92.7 E0.029
G1 X115.191 Y92.166 E0.03
G1 X116.378 Y91.78 E0.042
G1 X118.85 Y91.773 E0.082
G1 Y87.5 E0.142
;rapid-leaky
G0 X119.25 Y87.9 F7200
;bead-skirt/brim
G1 X136.25 F960 E0.565
G1 Y117.418 E0.982
G1 X136.235 E0.001
G1 X136.229 Y121.287 E0.128
G1 X132.66 Y121.28 E0.119
G1 X132.666 Y117.418 E0.128
G1 X132.65 E0.001
G1 Y108.1 E0.31
G1 X122.85 E0.326
G1 Y117.418 E0.31
G1 X122.835
G1 X122.829 Y121.287 E0.129
G1 X119.26 Y121.28 E0.119
G1 X119.266 Y117.418 E0.128
G1 X119.25 E0.001
G1 Y98.339 E0.634
G1 X116.796 Y98.34 E0.082
G1 X115.729 Y98.137 E0.036
G1 X115.016 Y97.744 E0.027
G1 X114.244 Y96.924 E0.037
G1 X113.907 Y96.207 E0.027
G1 X113.758 Y95.425 E0.026
G1 X113.899 Y94.312 E0.038
G1 X114.238 Y93.59 E0.026
G1 X114.732 Y92.994 E0.026
G1 X115.375 Y92.527 E0.026
G1 X116.442 Y92.18 E0.038
G1 X119.25 Y92.172 E0.093
G1 Y87.9 E0.142
;rapid-leaky
G0 X119.65 Y88.3 F7200
;bead-skirt/brim
G1 X135.85 F960 E0.539
G1 Y117.018 E0.955
G1 X133.05 E0.093
G1 Y107.7 E0.31
G1 X122.45 E0.353
G1 Y117.018 E0.31
G1 X119.65 E0.093
G1 Y97.939 E0.634
G1 X116.834 Y97.94 E0.094
G1 X115.866 Y97.756 E0.033
G1 X115.264 Y97.424 E0.023
G1 X114.579 Y96.696 E0.033
G1 X114.29 Y96.082 E0.022
G1 X114.163 Y95.412 E0.023
G1 X114.288 Y94.425 E0.033
G1 X114.578 Y93.807 E0.023
G1 X115.008 Y93.288 E0.022
G1 X115.559 Y92.888 E0.023
G1 X116.506 Y92.58 E0.033
G1 X119.65 Y92.571 E0.105
G1 Y88.3 E0.142
;rapid-leaky
G0 X119.666 Y117.474 F7200
;bead-skirt/brim
G1 X122.435 Y117.472 F960 E0.092
G1 X122.43 Y120.886 E0.113
G1 X119.661 Y120.881 E0.092
G1 X119.666 Y117.474 E0.114
;rapid-leaky
G0 X116.057 Y122.95 F7200
;bead-skirt/brim
G1 X116.05 Y101.455 F960 E0.715
G1 X114.631 Y101.185 E0.048
G1 X113.032 Y100.305 E0.06
G1 X111.564 Y98.746 E0.072
G1 X110.839 Y97.202 E0.056
G1 X110.52 Y95.526 E0.057
G1 X110.787 Y93.408 E0.071
G1 X111.515 Y91.861 E0.057
G1 X112.526 Y90.642 E0.053
G1 X113.904 Y89.64 E0.056
G1 X115.931 Y88.982 E0.071
G1 X116.05 Y88.981 E0.004
G1 Y84.7 E0.143
G1 X139.45 E0.778
G1 Y120.618 E1.194
;rapid-leaky
G0 F7200
;bead-skirt/brim
G1 X139.43 F960 E0.001
G1 X139.424 Y124.494 E0.129
G1 X129.455 Y124.473 E0.332
G1 X129.45 Y111.3 E0.438
G1 X126.05 E0.113
G1 Y120.618 E0.31
G1 X126.03
G1 X126.024 Y124.494 E0.129
G1 X116.39 Y124.474 E0.321
;rapid-leaky
G0 X133.061 Y120.881 F7200
;bead-skirt/brim
G1 X133.066 Y117.474 F960 E0.113
G1 X135.835 Y117.472 E0.092
G1 X135.83 Y120.886 E0.114
G1 X133.061 Y120.881 E0.092
G1 F2100 E-0.5
;rapid-dry
G0 X134.949 Y117.993 F7200
G1 F2100 E0.5
;bead-support
G1 X135.313 Y118.623 F1320 E0.024
G1 Y118.702 E0.003
G1 X134.589 E0.024
G1 X134.18 Y117.993 E0.027
G1 X133.585 Y117.994 E0.02
G1 Y118.296 E0.01
G1 X133.82 Y118.703 E0.015
G1 F2100 E-0.5
G0 X133.585 Y118.296 F2400
G0 Y117.994 F2400
G0 X133.814 F2400
G0 X133.585 F2400
G0 Y118.296 F2400
G0 X133.82 Y118.703 F2400
;rapid-dry
G0 X121.428 Y119.102 F7200
G1 F2100 E0.5
;bead-support
G1 X120.182 Y119.821 F1320 E0.048
G1 X120.733 Y118.703 E0.042
G1 X120.324 Y117.994 E0.027
G1 X121.093 Y117.993 E0.026
G1 X121.503 Y118.702 E0.027
G1 X121.913 E0.013
G1 X121.914 Y118.082 E0.021
G1 X121.862 Y117.992 E0.004
G1 F2100 E-0.5
G0 X121.914 Y118.082 F2400
G0 X121.913 Y118.702 F2400
G0 F2400
G0 X121.637 F2400
G0 X121.913 F2400
G0 F2400
G0 X121.914 Y118.082 F2400
G0 X121.862 Y117.992 F2400
;rapid-dry
G0 X123.68 Y96.286 F7200
G1 F2100 E0.5
;bead-perimeter_outer
G1 X123.803 Y96.686 F720 E0.013
G1 X123.966 Y97.073 E0.014
G1 X124.166 Y97.441 E0.014
G1 X124.408 Y97.794 E0.015
G1 X124.671 Y98.107 E0.013
G1 X124.97 Y98.399 E0.014
G1 X125.298 Y98.661 E0.014
G1 X125.65 Y98.887 E0.014
G1 X126.023 Y99.078 E0.014
G1 X126.412 Y99.232 E0.014
G1 X126.816 Y99.345 E0.014
G1 X127.228 Y99.418 E0.014
G1 X127.645 Y99.449 E0.014
G1 X128.064 Y99.439 E0.014
G1 X128.48 Y99.386 E0.013
G1 X128.887 Y99.293 E0.014
G1 X129.284 Y99.16 E0.014
G1 X129.666 Y98.987 E0.014
G1 X130.029 Y98.778 E0.014
G1 X130.369 Y98.534 E0.014
G1 X130.683 Y98.256 E0.014
G1 X130.967 Y97.95 E0.014
G1 X131.22 Y97.616 E0.014
G1 X131.439 Y97.259 E0.014
G1 X131.621 Y96.882 E0.014
G1 X131.763 Y96.488 E0.014
G1 X131.867 Y96.083 E0.014
G1 X131.929 Y95.668 E0.014
G1 X131.95 Y95.25 E0.013
G1 X131.928 Y94.822 E0.015
G1 X131.865 Y94.407 E0.014
G1 X131.763 Y94.012 E0.013
G1 X131.621 Y93.618 E0.014
G1 X131.439 Y93.241 E0.014
G1 X131.22 Y92.884 E0.014
G1 X130.967 Y92.55 E0.014
G1 X130.676 Y92.236 E0.014
G1 X130.369 Y91.966 E0.014
G1 X130.029 Y91.722 E0.014
G1 X129.666 Y91.513 E0.014
G1 X129.284 Y91.341 E0.014
G1 X128.887 Y91.207 E0.013
G1 X128.48 Y91.114 E0.014
G1 X128.064 Y91.061 E0.014
G1 X127.645 Y91.051 E0.014
G1 X127.228 Y91.082 E0.014
G1 X126.816 Y91.155 E0.014
G1 X126.412 Y91.268 E0.014
G1 X126.013 Y91.426 E0.014
G1 X125.65 Y91.613 E0.014
G1 X125.298 Y91.839 E0.014
G1 X124.97 Y92.101 E0.014
G1 X124.671 Y92.393 E0.014
G1 X124.395 Y92.722 E0.014
G1 X124.166 Y93.06 E0.014
G1 X123.962 Y93.436 E0.014
G1 X123.803 Y93.814 E0.013
G1 X123.68 Y94.214 E0.014
G1 X123.597 Y94.624 E0.014
G1 X123.555 Y95.041 E0.014
G1 Y95.459 E0.014
G1 X123.597 Y95.876 E0.014
G1 X123.68 Y96.286 E0.014
;rapid-leaky
G0 X123.331 Y96.375 F7200
;bead-perimeter_inner
G1 X123.464 Y96.809 F960 E0.015
G1 X123.641 Y97.229 E0.015
G1 X123.859 Y97.629 E0.015
G1 X124.12 Y98.012 E0.016
G1 X124.407 Y98.353 E0.015
G1 X124.732 Y98.669 E0.015
G1 X125.088 Y98.953 E0.015
G1 X125.47 Y99.2 E0.015
G1 X125.874 Y99.407 E0.015
G1 X126.297 Y99.573 E0.015
G1 X126.735 Y99.697 E0.015
G1 X127.183 Y99.775 E0.015
G1 X127.636 Y99.81 E0.016
G1 X128.091 Y99.798 E0.015
G1 X128.543 Y99.741 E0.015
G1 X128.984 Y99.64 E0.015
G1 X129.416 Y99.496 E0.015
G1 X129.831 Y99.308 E0.015
G1 X130.224 Y99.081 E0.015
G1 X130.594 Y98.815 E0.015
G1 X130.935 Y98.514 E0.016
G1 X131.243 Y98.182 E0.015
G1 X131.518 Y97.819 E0.015
G1 X131.755 Y97.431 E0.015
G1 X131.953 Y97.022 E0.015
G1 X132.108 Y96.594 E0.015
G1 X132.221 Y96.154 E0.015
G1 X132.288 Y95.704 E0.015
G1 X132.311 Y95.25 E0.016
G1 X132.287 Y94.785 E0.015
G1 X132.218 Y94.335 E0.015
G1 X132.108 Y93.905 E0.015
G1 X131.953 Y93.478 E0.015
G1 X131.755 Y93.069 E0.015
G1 X131.518 Y92.681 E0.015
G1 X131.243 Y92.318 E0.015
G1 X130.927 Y91.978 E0.016
G1 X130.593 Y91.684 E0.015
G1 X130.224 Y91.419 E0.015
G1 X129.831 Y91.192 E0.015
G1 X129.416 Y91.005 E0.015
G1 X128.985 Y90.86 E0.015
G1 X128.543 Y90.759 E0.015
G1 X128.091 Y90.702 E0.015
G1 X127.636 Y90.69 E0.015
G1 X127.183 Y90.725 E0.016
G1 X126.735 Y90.803 E0.015
G1 X126.297 Y90.927 E0.015
G1 X125.865 Y91.097 E0.015
G1 X125.47 Y91.301 E0.015
G1 X125.088 Y91.547 E0.015
G1 X124.732 Y91.831 E0.015
G1 X124.407 Y92.148 E0.015
G1 X124.108 Y92.505 E0.016
G1 X123.858 Y92.872 E0.015
G1 X123.637 Y93.28 E0.015
G1 X123.464 Y93.691 E0.015
G1 X123.331 Y94.125 E0.015
G1 X123.241 Y94.57 E0.015
G1 X123.195 Y95.023 E0.015
G1 Y95.477 E0.015
G1 X123.241 Y95.93 E0.016
G1 X123.331 Y96.375 E0.015
G1 F2100 E-0.5
;rapid-dry
G0 X114.938 Y95.137 F7200
G1 F2100 E0.5
;bead-support
G1 X114.705 Y95.271 F1320 E0.009
G1 X114.689 Y95.396 E0.004
G1 X114.789 Y95.92 E0.018
G1 X115.014 Y96.4 E0.017
G1 X115.586 Y97.008 E0.028
G1 X116.045 Y97.26 E0.017
G1 X116.457 Y97.339 E0.014
G1 X116.755 Y97.167 E0.012
G1 X116.844 Y97.188 E0.003
G1 X117.712 Y96.983 E0.029
G1 X118.215 Y96.619 E0.021
G1 X118.582 Y96.112 E0.021
G1 X118.583
G1 X119.28 Y95.709 E0.027
G1 Y93.092 E0.087
G1 X118.475 Y93.094 E0.027
G1 X117.725 Y93.527 E0.028
G1 F2100 E-0.5
G0 X118.475 Y93.094 F2400
G0 X118.61 F2400
G0 X118.475 F2400
G0 X117.725 Y93.527 F2400
;rapid-dry
G0 X120.05 Y88.7 F7200
G1 F2100 E0.5
;bead-perimeter_outer
G1 X135.45 F720 E0.513
G1 Y116.618 E0.928
G1 X133.45 E0.067
G1 Y107.3 E0.31
G1 X122.05 E0.379
G1 Y116.618 E0.31
G1 X120.05 E0.066
G1 Y88.7 E0.929
;rapid-leaky
G0 X120.41 Y89.06 F7200
;bead-perimeter_inner
G1 X135.09 F960 E0.488
G1 Y116.258 E0.905
G1 X133.81 E0.042
G1 Y106.94 E0.31
G1 X121.69 E0.403
G1 Y116.258 E0.31
G1 X120.41 E0.043
G1 Y89.06 E0.904
;rapid-leaky
G0 X120.943 Y89.38 F7200
;bead-solid_infill
G1 X120.73 Y89.593 F720 E0.01
G1 Y90.159 E0.019
G1 X121.509 Y89.38 E0.037
G1 X122.074 E0.019
G1 X120.73 Y90.724 E0.063
G1 Y91.29 E0.019
G1 X122.64 Y89.38 E0.089
G1 X123.206 E0.019
G1 X120.73 Y91.856 E0.117
G1 Y92.421 E0.018
G1 X123.771 Y89.38 E0.144
G1 X124.337 E0.018
G1 X120.73 Y92.987 E0.17
G1 Y93.553 E0.019
G1 X124.903 Y89.38 E0.196
G1 X125.468 E0.019
G1 X120.73 Y94.118 E0.223
G1 Y94.684 E0.019
G1 X126.034 Y89.38 E0.249
G1 X126.6 E0.019
G1 X120.73 Y95.25 E0.276
G1 Y95.815 E0.019
G1 X123.307 Y93.238 E0.121
G1 X123.163 Y93.582 E0.012
G1 X123.093 Y93.809 E0.008
G1 X123.02 Y94.046 E0.009
G1 X123.009 Y94.102 E0.001
G1 X120.73 Y96.381 E0.108
G1 Y96.947 E0.018
G1 X122.898 Y94.779 E0.102
G1 X122.875 Y95.007 E0.008
G1 Y95.367 E0.012
G1 X120.73 Y97.512 E0.101
G1 Y98.078 E0.019
G1 X122.915 Y95.893 E0.103
G1 X122.924 Y95.978 E0.002
G1 X123.003 Y96.371 E0.014
G1 X120.73 Y98.644 E0.107
G1 Y99.209 E0.018
G1 X123.129 Y96.81 E0.113
G1 X123.163 Y96.919 E0.004
G1 X123.258 Y97.144 E0.008
G1 X123.288 Y97.217 E0.003
G1 X120.73 Y99.775 E0.12
G1 Y100.341 E0.019
G1 X123.476 Y97.595 E0.129
G1 X123.586 Y97.796 E0.008
G1 X123.689 Y97.948 E0.006
G1 X120.73 Y100.907 E0.139
G1 Y101.472 E0.019
G1 X123.925 Y98.277 E0.15
G1 X124.173 Y98.571 E0.013
G1 X124.185 Y98.583 E0.001
G1 X120.73 Y102.038 E0.162
G1 Y102.604 E0.019
G1 X124.471 Y98.862 E0.176
G1 X124.52 Y98.91 E0.002
G1 X124.781 Y99.118 E0.011
G1 X120.73 Y103.169 E0.191
G1 Y103.735 E0.019
G1 X125.114 Y99.351 E0.206
G1 X125.31 Y99.477 E0.008
G1 X125.471 Y99.56 E0.006
G1 X120.73 Y104.301 E0.223
G1 Y104.866 E0.018
G1 X125.854 Y99.743 E0.241
G1 X126.195 Y99.877 E0.013
G1 X126.265 Y99.897 E0.002
G1 X120.73 Y105.432 E0.26
G1 Y105.998 E0.019
G1 X126.711 Y100.017 E0.281
G1 X127.143 Y100.093 E0.015
G1 X127.196 Y100.097 E0.002
G1 X120.73 Y106.563 E0.304
G1 Y107.129 E0.019
G1 X127.732 Y100.127 E0.329
G1 X128.115 Y100.118 E0.013
G1 X128.335 Y100.09 E0.007
G1 X121.805 Y106.62 E0.307
G1 X122.37 E0.019
G1 X129.034 Y99.957 E0.314
G1 X129.071 Y99.948 E0.001
G1 X129.533 Y99.794 E0.016
G1 X129.619 Y99.755 E0.003
G1 X129.952 Y99.604 E0.012
G1 X122.936 Y106.62 E0.33
G1 X123.502 E0.019
G1 X134.77 Y95.352 E0.53
G1 Y94.786 E0.019
G1 X132.097 Y97.459 E0.126
G1 X132.248 Y97.146 E0.011
G1 X132.414 Y96.689 E0.016
G1 X132.453 Y96.538 E0.006
G1 X134.77 Y94.22 E0.109
G1 Y93.655 E0.019
G1 X132.592 Y95.833 E0.102
G1 X132.607 Y95.735 E0.003
G1 X132.631 Y95.249 E0.016
G1 X132.63 Y95.229 E0.001
G1 X134.77 Y93.089 E0.101
G1 Y92.523 E0.019
G1 X132.597 Y94.696 E0.102
G1 X132.532 Y94.271 E0.014
G1 X132.517 Y94.211 E0.002
G1 X134.77 Y91.958 E0.106
G1 Y91.392 E0.019
G1 X132.397 Y93.765 E0.112
G1 X132.248 Y93.354 E0.014
G1 X132.246 Y93.35
G1 X134.77 Y90.826 E0.119
G1 Y90.261 E0.019
G1 X132.062 Y92.968 E0.127
G1 X132.037 Y92.915 E0.002
G1 X131.852 Y92.613 E0.012
G1 X134.77 Y89.695 E0.137
G1 Y89.38 E0.011
G1 X134.519 E0.008
G1 X131.617 Y92.282 E0.136
G1 X131.616 Y92.281
G1 X131.489 Y92.112 E0.008
G1 X131.36 Y91.974 E0.006
G1 X133.954 Y89.38 E0.122
G1 X133.388 E0.019
G1 X131.081 Y91.687 E0.108
G1 X130.793 Y91.434 E0.013
G1 X130.779 Y91.424
G1 X132.822 Y89.38 E0.097
G1 X132.257 E0.018
G1 X130.45 Y91.187 E0.085
G1 X130.398 Y91.15 E0.003
G1 X130.096 Y90.975 E0.011
G1 X131.691 Y89.38 E0.075
G1 X131.125 E0.019
G1 X129.716 Y90.789 E0.066
G1 X129.533 Y90.707 E0.007
G1 X129.308 Y90.631 E0.008
G1 X130.559 Y89.38 E0.059
G1 X129.994 E0.019
G1 X128.869 Y90.505 E0.052
G1 X128.599 Y90.443 E0.01
G1 X128.391 Y90.417 E0.007
G1 X129.428 Y89.38 E0.048
G1 X128.862 E0.019
G1 X127.866 Y90.376 E0.047
G1 X127.628 Y90.37 E0.008
G1 X127.28 Y90.396 E0.012
G1 X128.297 Y89.38 E0.047
G1 X127.731 E0.019
G1 X126.603 Y90.508 E0.053
G1 X126.195 Y90.623 E0.014
G1 X125.745 Y90.801 E0.016
G1 X127.165 Y89.38 E0.067
G1 F2100 E-0.5
;rapid-dry
G0 X124.068 Y106.62 F7200
G1 F2100 E0.5
;bead-solid_infill
G1 X134.77 Y95.918 F720 E0.504
G1 Y96.483 E0.019
G1 X124.633 Y106.62 E0.476
G1 X125.199 E0.019
G1 X134.77 Y97.049 E0.45
G1 Y97.615 E0.019
G1 X125.765 Y106.62 E0.424
G1 X126.33 E0.019
G1 X134.77 Y98.18 E0.397
G1 Y98.746 E0.018
G1 X126.896 Y106.62 E0.371
G1 X127.462 E0.019
G1 X134.77 Y99.312 E0.343
G1 Y99.877 E0.019
G1 X128.027 Y106.62 E0.317
G1 X128.593 E0.019
G1 X134.77 Y100.443 E0.291
G1 Y101.009 E0.018
G1 X129.159 Y106.62 E0.264
G1 X129.724 E0.019
G1 X134.77 Y101.574 E0.238
G1 Y102.14 E0.018
G1 X130.29 Y106.62 E0.211
G1 X130.856 E0.019
G1 X134.77 Y102.706 E0.184
G1 Y103.271 E0.019
G1 X131.421 Y106.62 E0.157
G1 X131.987 E0.019
G1 X134.77 Y103.837 E0.131
G1 Y104.403 E0.019
G1 X132.553 Y106.62 E0.104
G1 X133.118 E0.019
G1 X134.77 Y104.968 E0.078
G1 Y105.534 E0.018
G1 X133.684 Y106.62 E0.052
G1 X134.13 E0.014
G1 Y106.74 E0.004
G1 X134.77 Y106.1 E0.03
G1 Y106.666 E0.019
G1 X134.13 Y107.306 E0.03
G1 Y107.871 E0.019
G1 X134.77 Y107.231 E0.03
G1 Y107.797 E0.019
G1 X134.13 Y108.437 E0.03
G1 Y109.003 E0.019
G1 X134.77 Y108.363 E0.03
G1 Y108.928 E0.019
G1 X134.13 Y109.568 E0.03
G1 Y110.134 E0.019
G1 X134.77 Y109.494 E0.03
G1 Y110.06 E0.019
G1 X134.13 Y110.7 E0.03
G1 Y111.265 E0.019
G1 X134.77 Y110.625 E0.03
G1 Y111.191 E0.019
G1 X134.13 Y111.831 E0.03
G1 Y112.397 E0.019
G1 X134.77 Y111.757 E0.03
G1 Y112.322 E0.018
G1 X134.13 Y112.962 E0.031
G1 Y113.528 E0.018
G1 X134.77 Y112.888 E0.03
G1 Y113.454 E0.019
G1 X134.13 Y114.094 E0.03
G1 Y114.659 E0.019
G1 X134.77 Y114.019 E0.03
G1 Y114.585 E0.019
G1 X134.13 Y115.225 E0.03
G1 Y115.791 E0.019
G1 X134.77 Y115.151 E0.03
G1 Y115.717 E0.019
G1 X134.549 Y115.938 E0.01
G1 F2100 E-0.5
;rapid-dry
G0 X121.37 Y115.54 F7200
G1 F2100 E0.5
;bead-solid_infill
G1 X120.972 Y115.938 F720 E0.019
G1 X120.73 E0.008
G1 Y115.614 E0.011
G1 X121.37 Y114.974 E0.03
G1 Y114.409 E0.019
G1 X120.73 Y115.049 E0.03
G1 Y114.483 E0.019
G1 X121.37 Y113.843 E0.03
G1 Y113.277 E0.019
G1 X120.73 Y113.917 E0.03
G1 Y113.352 E0.019
G1 X121.37 Y112.712 E0.03
G1 Y112.146 E0.019
G1 X120.73 Y112.786 E0.03
G1 Y112.22 E0.018
G1 X121.37 Y111.58 E0.031
G1 Y111.015 E0.018
G1 X120.73 Y111.655 E0.03
G1 Y111.089 E0.019
G1 X121.37 Y110.449 E0.03
G1 Y109.883 E0.019
G1 X120.73 Y110.523 E0.03
G1 Y109.958 E0.019
G1 X121.37 Y109.318 E0.03
G1 Y108.752 E0.019
G1 X120.73 Y109.392 E0.03
G1 Y108.826 E0.019
G1 X121.37 Y108.186 E0.03
G1 Y107.62 E0.019
G1 X120.73 Y108.26 E0.03
G1 Y107.695 E0.019
G1 X121.37 Y107.055 E0.03
G1 F2100 E-0.5
;LAYER:2
M107
;rapid-dry
G0 X124.166 Y97.44 Z0.35 F7200
G1 F2100 E0.5
;bead-perimeter_outer
G1 X124.401 Y97.786 F1800 E0.01
G1 X124.671 Y98.107 E0.011
G1 X124.97 Y98.399 E0.01
G1 X125.298 Y98.661 E0.011
G1 X125.65 Y98.887 E0.01
G1 X126.023 Y99.078 E0.011
G1 X126.412 Y99.232 E0.01
G1 X126.816 Y99.345 E0.01
G1 X127.228 Y99.418 E0.011
G1 X127.645 Y99.449 E0.01
G1 X128.064 Y99.439 E0.011
G1 X128.48 Y99.386 E0.01
G1 X128.887 Y99.293 E0.011
G1 X129.284 Y99.16 E0.01
G1 X129.666 Y98.987 E0.011
G1 X130.029 Y98.778 E0.01
G1 X130.369 Y98.534 E0.01
G1 X130.683 Y98.256 E0.011
G1 X130.967 Y97.95 E0.01
G1 X131.22 Y97.616 E0.011
G1 X131.439 Y97.259 E0.01
G1 X131.621 Y96.882 E0.011
G1 X131.763 Y96.488 E0.01
G1 X131.867 Y96.083 E0.011
G1 X131.929 Y95.668 E0.01
G1 X131.95 Y95.25 E0.01
G1 X131.929 Y94.832 E0.011
G1 X131.867 Y94.417 E0.01
G1 X131.763 Y94.012 E0.011
G1 X131.621 Y93.618 E0.01
G1 X131.439 Y93.241 E0.011
G1 X131.22 Y92.884 E0.01
G1 X130.967 Y92.55 E0.011
G1 X130.683 Y92.244 E0.01
G1 X130.369 Y91.966 E0.01
G1 X130.029 Y91.722 E0.011
G1 X129.666 Y91.513 E0.01
G1 X129.284 Y91.341 E0.011
G1 X128.887 Y91.207 E0.01
G1 X128.48 Y91.114 E0.011
G1 X128.044 Y91.06 E0.011
G1 X127.645 Y91.051 E0.01
G1 X127.228 Y91.082 E0.01
G1 X126.816 Y91.155 E0.01
G1 X126.412 Y91.268 E0.011
G1 X126.023 Y91.422 E0.01
G1 X125.65 Y91.613 E0.011
G1 X125.298 Y91.839 E0.01
G1 X124.97 Y92.101 E0.011
G1 X124.671 Y92.393 E0.01
G1 X124.401 Y92.714 E0.011
G1 X124.166 Y93.06 E0.01
G1 X123.966 Y93.427 E0.01
G1 X123.803 Y93.814 E0.011
G1 X123.68 Y94.214 E0.01
G1 X123.597 Y94.624 E0.011
G1 X123.555 Y95.041 E0.01
G1 Y95.459 E0.011
G1 X123.597 Y95.876 E0.01
G1 X123.68 Y96.286 E0.011
G1 X123.803 Y96.686 E0.01
G1 X123.966 Y97.073 E0.01
G1 X124.166 Y97.44 E0.011
;rapid-leaky
G0 X123.859 Y97.628 F7200
;bead-perimeter_inner
G1 X124.114 Y98.004 F2400 E0.011
G1 X124.407 Y98.352 E0.012
G1 X124.732 Y98.669 E0.011
G1 X125.088 Y98.953 E0.011
G1 X125.47 Y99.2 E0.012
G1 X125.874 Y99.407 E0.011
G1 X126.297 Y99.573 E0.011
G1 X126.735 Y99.697 E0.012
G1 X127.183 Y99.775 E0.011
G1 X127.636 Y99.81 E0.011
G1 X128.091 Y99.798 E0.012
G1 X128.543 Y99.741 E0.011
G1 X128.984 Y99.64 E0.011
G1 X129.416 Y99.496 E0.012
G1 X129.831 Y99.308 E0.011
G1 X130.224 Y99.081 E0.011
G1 X130.594 Y98.815 E0.012
G1 X130.935 Y98.514 E0.011
G1 X131.243 Y98.182 E0.011
G1 X131.518 Y97.819 E0.012
G1 X131.755 Y97.431 E0.011
G1 X131.953 Y97.022 E0.011
G1 X132.108 Y96.594 E0.012
G1 X132.221 Y96.154 E0.011
G1 X132.288 Y95.704 E0.011
G1 X132.311 Y95.25 E0.012
G1 X132.288 Y94.796 E0.011
G1 X132.221 Y94.346 E0.012
G1 X132.108 Y93.906 E0.011
G1 X131.953 Y93.478 E0.011
G1 X131.755 Y93.069 E0.012
G1 X131.518 Y92.681 E0.011
G1 X131.243 Y92.319 E0.011
G1 X130.935 Y91.986 E0.012
G1 X130.594 Y91.685 E0.011
G1 X130.224 Y91.419 E0.011
G1 X129.831 Y91.192 E0.012
G1 X129.416 Y91.005 E0.011
G1 X128.985 Y90.86 E0.011
G1 X128.542 Y90.759 E0.012
G1 X128.07 Y90.701 E0.011
G1 X127.636 Y90.691 E0.011
G1 X127.183 Y90.725 E0.012
G1 X126.735 Y90.803 E0.011
G1 X126.297 Y90.927 E0.011
G1 X125.874 Y91.093 E0.012
G1 X125.47 Y91.3 E0.011
G1 X125.088 Y91.547 E0.011
G1 X124.732 Y91.831 E0.012
G1 X124.407 Y92.148 E0.011
G1 X124.114 Y92.496 E0.011
G1 X123.859 Y92.872 E0.012
G1 X123.641 Y93.271 E0.011
G1 X123.464 Y93.691 E0.011
G1 X123.331 Y94.125 E0.012
G1 X123.241 Y94.57 E0.011
G1 X123.195 Y95.023 E0.011
G1 Y95.477 E0.012
G1 X123.241 Y95.93 E0.011
G1 X123.331 Y96.375 E0.011
G1 X123.464 Y96.809 E0.012
G1 X123.641 Y97.229 E0.011
G1 X123.859 Y97.628 E0.011
G1 F2100 E-0.5
;rapid-dry
G0 X114.938 Y95.137 F7200
G1 F2100 E0.5
;bead-support
G1 X114.705 Y95.271 F3300 E0.007
G1 X114.689 Y95.396 E0.003
G1 X114.789 Y95.92 E0.014
G1 X115.014 Y96.4 E0.013
G1 X115.586 Y97.008 E0.021
G1 X116.045 Y97.26 E0.013
G1 X116.457 Y97.339 E0.01
G1 X116.755 Y97.167 E0.009
G1 X116.844 Y97.188 E0.002
G1 X117.712 Y96.983 E0.022
G1 X118.215 Y96.619 E0.016
G1 X118.582 Y96.112 E0.015
G1 X118.583
G1 X119.28 Y95.709 E0.021
G1 Y93.092 E0.065
G1 X118.475 Y93.094 E0.02
G1 X117.725 Y93.527 E0.021
G1 F2100 E-0.5
G0 X118.475 Y93.094 F2400
G0 X118.61 F2400
G0 X118.475 F2400
G0 X117.725 Y93.527 F2400
;rapid-dry
G0 X120.05 Y88.7 F7200
G1 F2100 E0.5
;bead-perimeter_outer
G1 X135.45 F1800 E0.385
G1 Y117.169 E0.71
G1 X133.45 E0.05
G1 Y107.3 E0.246
G1 X122.05 E0.284
G1 Y117.169 E0.246
G1 X120.05 E0.05
G1 Y88.7 E0.71
;rapid-leaky
G0 X120.41 Y89.06 F7200
;bead-perimeter_inner
G1 X135.09 F2400 E0.367
G1 Y116.809 E0.692
G1 X133.81 E0.032
G1 Y106.94 E0.246
G1 X121.69 E0.302
G1 Y116.809 E0.246
G1 X120.41 E0.032
G1 Y89.06 E0.693
G1 F2100 E-0.5
;rapid-dry
G0 X134.77 Y89.753 F7200
G1 F2100 E0.5
;bead-solid_infill
G1 X134.397 Y89.38 F1800 E0.013
G1 X133.831 E0.014
G1 X134.77 Y90.319 E0.033
G1 Y90.884 E0.014
G1 X133.266 Y89.38 E0.053
G1 X132.7 E0.014
G1 X134.77 Y91.45 E0.073
G1 Y92.016 E0.014
G1 X132.134 Y89.38 E0.093
G1 X131.569 E0.015
G1 X134.77 Y92.581 E0.112
G1 Y93.147 E0.015
G1 X131.003 Y89.38 E0.132
G1 X130.437 E0.015
G1 X134.77 Y93.713 E0.152
G1 Y94.279 E0.015
G1 X129.872 Y89.38 E0.172
G1 X129.306 E0.014
G1 X134.77 Y94.844 E0.193
G1 F2100 E-0.5
;rapid-dry
G0 X132.404 Y106.62 F7200
G1 F2100 E0.5
;bead-solid_infill
G1 X125.172 Y99.389 F1800 E0.255
G1 X125.31 Y99.477 E0.004
G1 X125.742 Y99.699 E0.013
G1 X126.195 Y99.877 E0.012
G1 X126.239 Y99.889 E0.001
G1 X132.969 Y106.62 E0.237
G1 X133.535 E0.014
G1 X126.979 Y100.064 E0.232
G1 X127.143 Y100.093 E0.004
G1 X127.609 Y100.128 E0.011
G1 X134.101 Y106.62 E0.229
G1 X134.13 E0.001
G1 Y106.649 E0.001
G1 X134.77 Y107.289 E0.022
G1 Y106.724 E0.015
G1 X128.159 Y100.112 E0.233
G1 X128.529 Y100.065 E0.009
G1 X128.599 Y100.057 E0.002
G1 X128.656 Y100.044 E0.001
G1 X134.77 Y106.158 E0.216
G1 Y105.592 E0.014
G1 X129.112 Y99.935 E0.2
G1 X129.533 Y99.794 E0.011
G1 X129.536 Y99.793
G1 X134.77 Y105.027 E0.185
G1 Y104.461 E0.014
G1 X129.926 Y99.616 E0.171
G1 X129.977 Y99.593 E0.001
G1 X130.235 Y99.444 E0.007
G1 X130.288 Y99.413 E0.002
G1 X134.77 Y103.895 E0.158
G1 Y103.329 E0.014
G1 X130.626 Y99.186 E0.146
G1 X130.793 Y99.066 E0.005
G1 X130.941 Y98.935 E0.005
G1 X134.77 Y102.764 E0.135
G1 Y102.198 E0.015
G1 X131.234 Y98.662 E0.124
G1 X131.489 Y98.388 E0.01
G1 X131.504 Y98.367
G1 X134.77 Y101.632 E0.115
G1 Y101.067 E0.015
G1 X131.748 Y98.045 E0.106
G1 X131.783 Y98 E0.002
G1 X131.967 Y97.698 E0.008
G1 X134.77 Y100.501 E0.099
G1 Y99.935 E0.014
G1 X132.161 Y97.326 E0.092
G1 X132.248 Y97.146 E0.005
G1 X132.327 Y96.927 E0.006
G1 X134.77 Y99.37 E0.086
G1 Y98.804 E0.015
G1 X132.463 Y96.497 E0.081
G1 X132.535 Y96.218 E0.007
G1 X132.563 Y96.031 E0.005
G1 X134.77 Y98.238 E0.078
G1 Y97.673 E0.014
G1 X132.618 Y95.52 E0.076
G1 X132.631 Y95.25 E0.006
G1 X132.616 Y94.953 E0.008
G1 X134.77 Y97.107 E0.076
G1 Y96.541 E0.014
G1 X132.539 Y94.31 E0.079
G1 X132.535 Y94.282
G1 X132.414 Y93.811 E0.013
G1 X132.305 Y93.51 E0.008
G1 X134.77 Y95.976 E0.087
G1 Y95.41 E0.014
G1 X131.539 Y92.179 E0.114
G1 X131.489 Y92.113 E0.002
G1 X131.158 Y91.756 E0.012
G1 X130.801 Y91.441 E0.012
G1 X128.74 Y89.38 E0.072
G1 X128.174 E0.015
G1 X129.485 Y90.691 E0.046
G1 X129.072 Y90.552 E0.011
G1 X128.694 Y90.465 E0.009
G1 X127.609 Y89.38 E0.039
G1 X127.043 E0.014
G1 X128.043 Y90.38 E0.035
G1 X127.627 Y90.37 E0.01
G1 X127.479 Y90.381 E0.004
G1 X126.477 Y89.38 E0.035
G1 X125.912 E0.014
G1 X126.969 Y90.437 E0.038
G1 X126.891 Y90.451 E0.002
G1 X126.664 Y90.491 E0.006
G1 X126.502 Y90.536 E0.004
G1 X125.346 Y89.38 E0.041
G1 X124.78 E0.014
G1 X126.072 Y90.671 E0.045
G1 X125.969 Y90.712 E0.003
G1 X125.742 Y90.801 E0.006
G1 X125.672 Y90.837 E0.002
G1 X124.215 Y89.38 E0.051
G1 X123.649 E0.015
G1 X125.299 Y91.03 E0.058
G1 X124.955 Y91.252 E0.01
G1 X123.083 Y89.38 E0.066
G1 X122.518 E0.014
G1 X124.636 Y91.498 E0.075
G1 X124.52 Y91.591 E0.003
G1 X124.339 Y91.767 E0.007
G1 X121.952 Y89.38 E0.084
G1 X121.386 E0.014
G1 X124.064 Y92.058 E0.095
G1 X123.859 Y92.303 E0.008
G1 X123.812 Y92.371 E0.002
G1 X120.821 Y89.38 E0.105
G1 X120.73 E0.002
G1 Y89.855 E0.012
G1 X123.583 Y92.708 E0.101
G1 X123.383 Y93.074 E0.01
G1 X120.73 Y90.421 E0.094
G1 Y90.987 E0.014
G1 X123.211 Y93.467 E0.088
G1 X123.163 Y93.581 E0.003
G1 X123.068 Y93.89 E0.008
G1 X120.73 Y91.552 E0.082
G1 Y92.118 E0.014
G1 X122.959 Y94.347 E0.079
G1 X122.924 Y94.522 E0.004
G1 X122.891 Y94.845 E0.008
G1 X120.73 Y92.684 E0.077
G1 Y93.249 E0.014
G1 X122.875 Y95.394 E0.075
G1 Y95.493 E0.003
G1 X122.924 Y95.978 E0.012
G1 X122.932 Y96.017 E0.001
G1 X120.73 Y93.815 E0.078
G1 Y94.381 E0.014
G1 X123.116 Y96.767 E0.084
G1 X123.163 Y96.919 E0.004
G1 X123.258 Y97.144 E0.006
G1 X123.352 Y97.369 E0.006
G1 X123.585 Y97.796 E0.012
G1 X123.598 Y97.815 E0.001
G1 X120.73 Y94.946 E0.101
G1 Y95.512 E0.014
G1 X131.838 Y106.62 E0.392
G1 X131.272 E0.014
G1 X120.73 Y96.078 E0.372
G1 Y96.643 E0.014
G1 X130.707 Y106.62 E0.352
G1 X130.141 E0.014
G1 X120.73 Y97.209 E0.332
G1 Y97.775 E0.014
G1 X129.575 Y106.62 E0.312
G1 X129.01 E0.015
G1 X120.73 Y98.34 E0.292
G1 Y98.906 E0.014
G1 X128.444 Y106.62 E0.272
G1 X127.878 E0.014
G1 X120.73 Y99.472 E0.252
G1 Y100.037 E0.014
G1 X127.313 Y106.62 E0.232
G1 X126.747 E0.015
G1 X120.73 Y100.603 E0.212
G1 Y101.169 E0.014
G1 X126.181 Y106.62 E0.192
G1 X125.615 E0.014
G1 X120.73 Y101.735 E0.173
G1 Y102.3 E0.014
G1 X125.05 Y106.62 E0.152
G1 X124.484 E0.014
G1 X120.73 Y102.866 E0.133
G1 Y103.432 E0.014
G1 X123.918 Y106.62 E0.112
G1 X123.353 E0.014
G1 X120.73 Y103.997 E0.093
G1 Y104.563 E0.014
G1 X122.787 Y106.62 E0.073
G1 X122.221 E0.014
G1 X120.73 Y105.129 E0.052
G1 Y105.694 E0.014
G1 X121.656 Y106.62 E0.033
G1 X121.37 E0.007
G1 Y106.9 E0.007
G1 X120.73 Y106.26 E0.023
G1 Y106.826 E0.014
G1 X121.37 Y107.466 E0.023
G1 Y108.031 E0.014
G1 X120.73 Y107.391 E0.022
G1 Y107.957 E0.014
G1 X121.37 Y108.597 E0.023
G1 Y109.163 E0.014
G1 X120.73 Y108.523 E0.023
G1 Y109.088 E0.014
G1 X121.37 Y109.728 E0.022
G1 Y110.294 E0.014
G1 X120.73 Y109.654 E0.023
G1 Y110.22 E0.014
G1 X121.37 Y110.86 E0.023
G1 Y111.426 E0.014
G1 X120.73 Y110.786 E0.022
G1 Y111.351 E0.014
G1 X121.37 Y111.991 E0.023
G1 Y112.557 E0.014
G1 X120.73 Y111.917 E0.023
G1 Y112.483 E0.014
G1 X121.37 Y113.123 E0.022
G1 Y113.688 E0.015
G1 X120.73 Y113.048 E0.022
G1 Y113.614 E0.014
G1 X121.37 Y114.254 E0.023
G1 Y114.82 E0.014
G1 X120.73 Y114.18 E0.022
G1 Y114.745 E0.015
G1 X121.37 Y115.385 E0.022
G1 Y115.951 E0.014
G1 X120.73 Y115.311 E0.023
G1 Y115.877 E0.014
G1 X121.191 Y116.338 E0.016
G1 F2100 E-0.5
;rapid-dry
G0 X120.182 Y119.822 F7200
G1 F2100 E0.5
;bead-support
G1 X121.028 Y119.333 F3300 E0.025
G1 X120.866 Y118.934 E0.01
G1 X120.571 Y118.423 E0.015
G1 X121.341 Y118.422 E0.019
G1 X121.636 Y118.933 E0.015
G1 F2100 E-0.5
G0 X121.341 Y118.422 F2400
G0 X120.931 Y118.423 F2400
G0 X121.341 Y118.422 F2400
G0 X121.636 Y118.933 F2400
;rapid-dry
G0 X133.953 Y118.934 F7200
G1 F2100 E0.5
;bead-support
G1 X133.658 Y118.423 F3300 E0.015
G1 X134.428 E0.019
G1 X134.723 Y118.933 E0.015
G1 X135.313 E0.014
G1 Y118.623 E0.008
G1 X135.197 Y118.422 E0.006
G1 F2100 E-0.5
G0 X135.313 Y118.623 F2400
G0 Y118.933 F2400
G0 F2400
G0 X134.855 F2400
G0 X135.313 F2400
G0 F2400
G0 Y118.623 F2400
G0 X135.197 Y118.422 F2400
;rapid-dry
G0 X134.202 Y116.338 F7200
G1 F2100 E0.5
;bead-solid_infill
G1 X134.13 Y116.266 F1800 E0.002
G1 Y115.7 E0.014
G1 X134.768 Y116.338 E0.023
G1 X134.77
G1 Y115.775 E0.014
G1 X134.13 Y115.135 E0.023
G1 Y114.569 E0.014
G1 X134.77 Y115.209 E0.022
G1 Y114.643 E0.014
G1 X134.13 Y114.003 E0.023
G1 Y113.437 E0.014
G1 X134.77 Y114.077 E0.023
G1 Y113.512 E0.014
G1 X134.13 Y112.872 E0.022
G1 Y112.306 E0.015
G1 X134.77 Y112.946 E0.022
G1 Y112.38 E0.014
G1 X134.13 Y111.74 E0.023
G1 Y111.175 E0.014
G1 X134.77 Y111.815 E0.023
G1 Y111.249 E0.014
G1 X134.13 Y110.609 E0.022
G1 Y110.043 E0.014
G1 X134.77 Y110.683 E0.023
G1 Y110.118 E0.014
G1 X134.13 Y109.478 E0.023
G1 Y108.912 E0.014
G1 X134.77 Y109.552 E0.022
G1 Y108.986 E0.014
G1 X134.13 Y108.346 E0.023
G1 Y107.781 E0.014
G1 X134.77 Y108.421 E0.023
G1 Y107.855 E0.014
G1 X134.13 Y107.215 E0.022
G1 F2100 E-0.5
;LAYER:3
M107
;rapid-dry
G0 X134.856 Y119.164 Z0.5 F7200
G1 F2100 E0.5
;bead-support
G1 X134.561 Y118.653 F3300 E0.015
G1 X133.791 Y118.654 E0.019
G1 X134.086 Y119.164 E0.015
G1 F2100 E-0.5
G0 X133.791 Y118.654 F2400
G0 X134.202 F2400
G0 X133.791 F2400
G0 X134.086 Y119.164 F2400
;rapid-dry
G0 X121.474 Y118.653 F7200
G1 F2100 E0.5
;bead-support
G1 X121.769 Y119.164 F3300 E0.015
G1 X120.999 E0.019
G1 X120.705 Y118.654 E0.015
G1 X120.184 E0.013
G1 Y119.085 E0.01
G1 X120.23 Y119.164 E0.003
G1 X120.182 Y119.821 E0.016
G1 X120.628 Y119.564 E0.013
G1 F2100 E-0.5
G0 X120.182 Y119.821 F2400
G0 X120.217 Y119.338 F2400
G0 X120.182 Y119.821 F2400
G0 X120.628 Y119.564 F2400
;rapid-dry
G0 X114.938 Y95.137 F7200
G1 F2100 E0.5
;bead-support
G1 X114.705 Y95.271 F3300 E0.007
G1 X114.689 Y95.396 E0.003
G1 X114.789 Y95.92 E0.013
G1 X115.014 Y96.4 E0.013
G1 X115.586 Y97.008 E0.021
G1 X116.045 Y97.26 E0.013
G1 X116.457 Y97.339 E0.011
G1 X116.755 Y97.167 E0.008
G1 X116.844 Y97.188 E0.002
G1 X117.712 Y96.983 E0.023
G1 X118.215 Y96.619 E0.015
G1 X118.582 Y96.112 E0.016
G1 X118.583
G1 X119.28 Y95.709 E0.02
G1 Y93.092 E0.065
G1 X118.475 Y93.094 E0.02
G1 X117.725 Y93.527 E0.022
G1 F2100 E-0.5
G0 X118.475 Y93.094 F2400
G0 X118.61 F2400
G0 X118.475 F2400
G0 X117.725 Y93.527 F2400
;rapid-dry
G0 X131.95 Y95.25 F7200
G1 F2100 E0.5
;bead-perimeter_outer
G1 X131.929 Y94.832 F1800 E0.01
G1 X131.867 Y94.417 E0.011
G1 X131.763 Y94.012 E0.01
G1 X131.621 Y93.618 E0.011
G1 X131.439 Y93.241 E0.01
G1 X131.22 Y92.884 E0.011
G1 X130.967 Y92.55 E0.01
G1 X130.683 Y92.244 E0.01
G1 X130.369 Y91.966 E0.011
G1 X130.029 Y91.722 E0.01
G1 X129.666 Y91.513 E0.011
G1 X129.284 Y91.341 E0.01
G1 X128.887 Y91.207 E0.011
G1 X128.479 Y91.114 E0.01
G1 X128.033 Y91.06 E0.011
G1 X127.645 Y91.051 E0.01
G1 X127.228 Y91.082 E0.01
G1 X126.816 Y91.155 E0.011
G1 X126.412 Y91.268 E0.01
G1 X126.023 Y91.422 E0.011
G1 X125.65 Y91.613 E0.01
G1 X125.298 Y91.839 E0.011
G1 X124.97 Y92.101 E0.01
G1 X124.671 Y92.393 E0.011
G1 X124.401 Y92.714 E0.01
G1 X124.166 Y93.06 E0.01
G1 X123.966 Y93.427 E0.011
G1 X123.803 Y93.814 E0.01
G1 X123.68 Y94.214 E0.011
G1 X123.597 Y94.624 E0.01
G1 X123.555 Y95.041 E0.011
G1 Y95.459 E0.01
G1 X123.597 Y95.876 E0.011
G1 X123.68 Y96.286 E0.01
G1 X123.803 Y96.686 E0.01
G1 X123.966 Y97.073 E0.011
G1 X124.166 Y97.44 E0.01
G1 X124.401 Y97.786 E0.011
G1 X124.671 Y98.107 E0.01
G1 X124.97 Y98.399 E0.011
G1 X125.298 Y98.661 E0.01
G1 X125.65 Y98.887 E0.011
G1 X126.023 Y99.078 E0.01
G1 X126.412 Y99.232 E0.01
G1 X126.816 Y99.345 E0.011
G1 X127.228 Y99.418 E0.01
G1 X127.645 Y99.449 E0.011
G1 X128.064 Y99.439 E0.01
G1 X128.48 Y99.386 E0.011
G1 X128.887 Y99.293 E0.01
G1 X129.284 Y99.16 E0.011
G1 X129.666 Y98.987 E0.01
G1 X130.029 Y98.778 E0.01
G1 X130.369 Y98.534 E0.011
G1 X130.683 Y98.256 E0.01
G1 X130.967 Y97.95 E0.011
G1 X131.22 Y97.616 E0.01
G1 X131.439 Y97.259 E0.011
G1 X131.621 Y96.882 E0.01
G1 X131.763 Y96.488 E0.011
G1 X131.867 Y96.083 E0.01
G1 X131.929 Y95.668 E0.01
G1 X131.95 Y95.25 E0.011
;rapid-leaky
G0 X132.311 F7200
;bead-perimeter_inner
G1 X132.288 Y94.796 F2400 E0.011
G1 X132.221 Y94.346 E0.012
G1 X132.108 Y93.906 E0.011
G1 X131.953 Y93.478 E0.011
G1 X131.755 Y93.069 E0.012
G1 X131.518 Y92.681 E0.011
G1 X131.243 Y92.319 E0.011
G1 X130.935 Y91.986 E0.012
G1 X130.594 Y91.685 E0.011
G1 X130.224 Y91.419 E0.011
G1 X129.831 Y91.192 E0.012
G1 X129.416 Y91.005 E0.011
G1 X128.985 Y90.86 E0.011
G1 X128.541 Y90.759 E0.012
G1 X128.059 Y90.701 E0.012
G1 X127.636 Y90.69 E0.01
G1 X127.183 Y90.725 E0.012
G1 X126.735 Y90.803 E0.011
G1 X126.297 Y90.927 E0.011
G1 X125.874 Y91.093 E0.012
G1 X125.47 Y91.3 E0.011
G1 X125.088 Y91.547 E0.011
G1 X124.732 Y91.831 E0.012
G1 X124.407 Y92.148 E0.011
G1 X124.114 Y92.496 E0.011
G1 X123.859 Y92.872 E0.012
G1 X123.641 Y93.271 E0.011
G1 X123.464 Y93.691 E0.011
G1 X123.331 Y94.125 E0.012
G1 X123.241 Y94.57 E0.011
G1 X123.195 Y95.023 E0.011
G1 Y95.477 E0.012
G1 X123.241 Y95.93 E0.011
G1 X123.331 Y96.375 E0.011
G1 X123.464 Y96.809 E0.012
G1 X123.641 Y97.229 E0.011
G1 X123.859 Y97.628 E0.012
G1 X124.114 Y98.004 E0.011
G1 X124.407 Y98.352 E0.011
G1 X124.732 Y98.669 E0.012
G1 X125.088 Y98.953 E0.011
G1 X125.47 Y99.2 E0.011
G1 X125.874 Y99.407 E0.012
G1 X126.297 Y99.573 E0.011
G1 X126.735 Y99.697 E0.011
G1 X127.183 Y99.775 E0.012
G1 X127.636 Y99.81 E0.011
G1 X128.091 Y99.798 E0.011
G1 X128.543 Y99.741 E0.012
G1 X128.984 Y99.64 E0.011
G1 X129.416 Y99.496 E0.011
G1 X129.831 Y99.308 E0.012
G1 X130.224 Y99.081 E0.011
G1 X130.594 Y98.815 E0.011
G1 X130.935 Y98.514 E0.012
G1 X131.243 Y98.182 E0.011
G1 X131.518 Y97.819 E0.011
G1 X131.755 Y97.431 E0.012
G1 X131.953 Y97.022 E0.011
G1 X132.108 Y96.594 E0.011
G1 X132.221 Y96.154 E0.012
G1 X132.288 Y95.704 E0.011
G1 X132.311 Y95.25 E0.011
G1 F2100 E-0.5
;rapid-dry
G0 X135.45 Y88.7 F7200
G1 F2100 E0.5
;bead-perimeter_outer
G1 Y117.573 F1800 E0.721
G1 X133.45 E0.05
G1 Y107.3 E0.256
G1 X122.05 E0.284
G1 Y117.573 E0.256
G1 X120.05 E0.05
G1 Y88.7 E0.721
G1 X135.45 E0.384
;rapid-leaky
G0 X135.09 Y89.06 F7200
;bead-perimeter_inner
G1 Y117.213 F2400 E0.702
G1 X133.81 E0.032
G1 Y106.94 E0.256
G1 X121.69 E0.303
G1 Y117.213 E0.256
G1 X120.41 E0.032
G1 Y89.06 E0.702
G1 X135.09 E0.366
;rapid-leaky
G0 X134.77 Y95.918 F7200
;bead-solid_infill
G1 X124.068 Y106.62 F1800 E0.378
G1 X124.633 E0.014
G1 X134.77 Y96.483 E0.357
G1 Y97.049 E0.015
G1 X125.199 Y106.62 E0.337
G1 X125.765 E0.014
G1 X134.77 Y97.615 E0.318
G1 Y98.18 E0.014
G1 X126.33 Y106.62 E0.298
G1 X126.896 E0.014
G1 X134.77 Y98.746 E0.278
G1 Y99.312 E0.014
G1 X127.462 Y106.62 E0.258
G1 X128.027 E0.014
G1 X134.77 Y99.877 E0.238
G1 Y100.443 E0.014
G1 X128.593 Y106.62 E0.218
G1 X129.159 E0.014
G1 X134.77 Y101.009 E0.198
G1 Y101.574 E0.014
G1 X129.724 Y106.62 E0.178
G1 X130.29 E0.014
G1 X134.77 Y102.14 E0.158
G1 Y102.706 E0.014
G1 X130.856 Y106.62 E0.138
;rapid-leaky
G0 X134.77 Y103.271 F7200
;bead-solid_infill
G1 X131.421 Y106.62 F1800 E0.118
G1 X131.987 E0.014
G1 X134.77 Y103.837 E0.099
G1 Y104.403 E0.014
G1 X132.553 Y106.62 E0.078
G1 X133.118 E0.014
G1 X134.77 Y104.968 E0.058
G1 Y105.534 E0.014
G1 X133.684 Y106.62 E0.039
G1 X134.13 E0.011
G1 Y106.74 E0.003
G1 X134.77 Y106.1 E0.022
G1 Y106.666 E0.015
G1 X134.13 Y107.306 E0.022
G1 Y107.871 E0.014
G1 X134.77 Y107.231 E0.023
G1 Y107.797 E0.014
G1 X134.13 Y108.437 E0.023
G1 Y109.003 E0.014
G1 X134.77 Y108.363 E0.022
G1 Y108.928 E0.014
G1 X134.13 Y109.568 E0.023
G1 Y110.134 E0.014
G1 X134.77 Y109.494 E0.023
G1 Y110.06 E0.014
G1 X134.13 Y110.7 E0.022
G1 Y111.265 E0.014
G1 X134.77 Y110.625 E0.023
G1 Y111.191 E0.014
G1 X134.13 Y111.831 E0.023
G1 Y112.397 E0.014
G1 X134.77 Y111.757 E0.022
G1 Y112.322 E0.014
G1 X134.13 Y112.962 E0.023
G1 Y113.528 E0.014
G1 X134.77 Y112.888 E0.023
G1 Y113.454 E0.014
G1 X134.13 Y114.094 E0.022
G1 Y114.659 E0.015
G1 X134.77 Y114.019 E0.022
G1 Y114.585 E0.014
G1 X134.13 Y115.225 E0.023
G1 Y115.791 E0.014
G1 X134.77 Y115.151 E0.022
G1 Y115.717 E0.015
G1 X134.148 Y116.338 E0.021
G1 X134.714 E0.015
G1 X134.77 Y116.282 E0.002
;rapid-leaky
G0 X134.525 Y116.738 F7200
;bead-sparse_infill
G1 X134.507 Y116.893 F3600 E0.003
G1 F2100 E-0.5
;rapid-dry
G0 X121.138 Y116.338 F7200
G1 F2100 E0.5
;bead-solid_infill
G1 X121.37 Y116.106 F1800 E0.009
G1 Y115.54 E0.014
G1 X120.73 Y116.18 E0.022
G1 Y115.614 E0.014
G1 X121.37 Y114.974 E0.023
G1 Y114.409 E0.014
G1 X120.73 Y115.049 E0.023
G1 Y114.483 E0.014
G1 X121.37 Y113.843 E0.022
G1 Y113.277 E0.015
G1 X120.73 Y113.917 E0.022
G1 Y113.352 E0.014
G1 X121.37 Y112.712 E0.023
G1 Y112.146 E0.014
G1 X120.73 Y112.786 E0.022
G1 Y112.22 E0.015
G1 X121.37 Y111.58 E0.022
G1 Y111.015 E0.014
G1 X120.73 Y111.655 E0.023
G1 Y111.089 E0.014
G1 X121.37 Y110.449 E0.023
G1 Y109.883 E0.014
G1 X120.73 Y110.523 E0.022
G1 Y109.958 E0.014
G1 X121.37 Y109.318 E0.023
G1 Y108.752 E0.014
G1 X120.73 Y109.392 E0.023
G1 Y108.826 E0.014
G1 X121.37 Y108.186 E0.022
G1 Y107.62 E0.014
G1 X120.73 Y108.26 E0.023
G1 Y107.695 E0.014
G1 X121.37 Y107.055 E0.023
G1 F2100 E-0.5
;rapid-dry
G0 X120.943 Y89.38 F7200
G1 F2100 E0.5
;bead-solid_infill
G1 X120.73 Y89.593 F1800 E0.007
G1 Y90.159 E0.014
G1 X121.509 Y89.38 E0.028
G1 X122.074 E0.014
G1 X120.73 Y90.724 E0.047
G1 Y91.29 E0.014
G1 X122.64 Y89.38 E0.068
G1 X123.206 E0.014
G1 X120.73 Y91.856 E0.087
G1 Y92.421 E0.014
G1 X123.771 Y89.38 E0.108
G1 X124.337 E0.014
G1 X120.73 Y92.987 E0.127
G1 Y93.553 E0.014
G1 X124.903 Y89.38 E0.147
G1 X125.468 E0.014
G1 X120.73 Y94.118 E0.168
G1 Y94.684 E0.014
G1 X126.034 Y89.38 E0.187
G1 X126.6 E0.014
G1 X120.73 Y95.25 E0.207
G1 Y95.815 E0.014
G1 X123.307 Y93.238 E0.091
G1 X123.163 Y93.581 E0.009
G1 X123.02 Y94.046 E0.012
G1 X123.009 Y94.102 E0.002
G1 X120.73 Y96.381 E0.08
G1 Y96.947 E0.014
G1 X122.898 Y94.779 E0.077
G1 X122.875 Y95.007 E0.006
G1 Y95.367 E0.009
G1 X120.73 Y97.512 E0.075
G1 Y98.078 E0.014
G1 X122.915 Y95.893 E0.077
G1 X122.924 Y95.978 E0.003
G1 X123.003 Y96.371 E0.01
G1 X120.73 Y98.644 E0.08
G1 Y99.209 E0.014
G1 X123.129 Y96.81 E0.084
G1 X123.163 Y96.919 E0.003
G1 X123.258 Y97.144 E0.006
G1 X123.288 Y97.217 E0.002
G1 X120.73 Y99.775 E0.091
G1 Y100.341 E0.014
G1 X123.476 Y97.595 E0.097
G1 X123.585 Y97.796 E0.005
G1 X123.689 Y97.948 E0.005
G1 X120.73 Y100.907 E0.104
G1 Y101.472 E0.014
G1 X123.926 Y98.277 E0.113
G1 X124.172 Y98.57 E0.01
G1 X124.185 Y98.583
G1 X120.73 Y102.038 E0.122
G1 Y102.604 E0.014
G1 X124.471 Y98.862 E0.132
G1 X124.52 Y98.91 E0.002
G1 X124.781 Y99.118 E0.008
G1 X120.73 Y103.169 E0.143
G1 Y103.735 E0.014
G1 X125.114 Y99.351 E0.155
G1 X125.31 Y99.477 E0.006
G1 X125.471 Y99.56 E0.004
G1 X120.73 Y104.301 E0.167
G1 Y104.866 E0.015
G1 X125.854 Y99.743 E0.18
G1 X126.195 Y99.877 E0.009
G1 X126.265 Y99.897 E0.002
G1 X120.73 Y105.432 E0.196
G1 Y105.998 E0.014
G1 X126.711 Y100.017 E0.211
G1 X127.143 Y100.093 E0.011
G1 X127.196 Y100.097 E0.001
G1 X120.73 Y106.563 E0.228
G1 Y107.129 E0.014
G1 X127.732 Y100.127 E0.247
G1 X128.115 Y100.118 E0.01
G1 X128.335 Y100.09 E0.005
G1 X121.805 Y106.62 E0.231
G1 X122.37 E0.014
G1 X129.034 Y99.957 E0.235
G1 X129.071 Y99.948 E0.001
G1 X129.533 Y99.794 E0.012
G1 X129.619 Y99.755 E0.002
G1 X129.952 Y99.604 E0.009
G1 X122.936 Y106.62 E0.248
G1 X123.502 E0.014
G1 X134.77 Y95.352 E0.397
G1 Y94.786 E0.015
G1 X132.097 Y97.459 E0.094
G1 X132.248 Y97.146 E0.009
G1 X132.414 Y96.689 E0.012
G1 X132.453 Y96.538 E0.004
G1 X134.77 Y94.22 E0.081
G1 Y93.655 E0.014
G1 X132.592 Y95.833 E0.077
G1 X132.607 Y95.735 E0.003
G1 X132.631 Y95.25 E0.012
G1 X132.63 Y95.229
G1 X134.77 Y93.089 E0.076
G1 Y92.523 E0.014
G1 X132.597 Y94.697 E0.077
G1 X132.571 Y94.523 E0.004
G1 X132.535 Y94.282 E0.006
G1 X132.516 Y94.211 E0.002
G1 X134.77 Y91.958 E0.079
G1 Y91.392 E0.015
G1 X132.397 Y93.765 E0.083
G1 X132.248 Y93.354 E0.011
G1 X132.246 Y93.35
G1 X134.77 Y90.826 E0.089
G1 Y90.261 E0.014
G1 X132.062 Y92.968 E0.096
G1 X132.037 Y92.915 E0.001
G1 X131.852 Y92.613 E0.009
G1 X134.77 Y89.695 E0.103
G1 Y89.38 E0.008
G1 X134.519 E0.006
G1 X131.617 Y92.282 E0.103
G1 X131.489 Y92.113 E0.005
G1 X131.36 Y91.974 E0.005
G1 X133.954 Y89.38 E0.091
G1 X133.388 E0.014
G1 X131.08 Y91.688 E0.082
G1 X130.793 Y91.434 E0.009
G1 X130.779 Y91.424 E0.001
G1 X132.822 Y89.38 E0.072
G1 X132.257 E0.014
G1 X130.45 Y91.187 E0.064
G1 X130.398 Y91.15 E0.001
G1 X130.096 Y90.975 E0.009
G1 X131.691 Y89.38 E0.056
G1 X131.125 E0.014
G1 X129.716 Y90.789 E0.05
G1 X129.533 Y90.707 E0.005
G1 X129.308 Y90.631 E0.006
G1 X130.559 Y89.38 E0.044
G1 X129.994 E0.014
G1 X128.869 Y90.505 E0.04
G1 X128.764 Y90.481 E0.003
G1 X128.596 Y90.443 E0.004
G1 X128.39 Y90.418 E0.005
G1 X129.428 Y89.38 E0.037
G1 X128.862 E0.014
G1 X127.866 Y90.376 E0.035
G1 X127.628 Y90.37 E0.006
G1 X127.603 Y90.372 E0.001
G1 X127.28 Y90.396 E0.008
G1 X128.297 Y89.38 E0.035
G1 X127.731 E0.015
G1 X126.603 Y90.508 E0.039
G1 X126.195 Y90.623 E0.011
G1 X125.969 Y90.712 E0.006
G1 X125.746 Y90.8 E0.006
G1 X127.165 Y89.38 E0.05
G1 F2100 E-0.5
;LAYER:4
M106 S255
;rapid-dry
G0 X126.023 Y99.078 Z0.65 F7200
G1 F2100 E0.5
;bead-perimeter_outer
G1 X126.412 Y99.232 F1800 E0.01
G1 X126.816 Y99.345 E0.011
G1 X127.228 Y99.418 E0.01
G1 X127.645 Y99.449 E0.011
G1 X128.064 Y99.439 E0.01
G1 X128.48 Y99.386 E0.011
G1 X128.887 Y99.293 E0.01
G1 X129.284 Y99.16 E0.011
G1 X129.666 Y98.987 E0.01
G1 X130.029 Y98.778 E0.01
G1 X130.369 Y98.534 E0.011
G1 X130.683 Y98.256 E0.01
G1 X130.967 Y97.95 E0.011
G1 X131.22 Y97.616 E0.01
G1 X131.439 Y97.259 E0.011
G1 X131.621 Y96.882 E0.01
G1 X131.763 Y96.488 E0.011
G1 X131.867 Y96.083 E0.01
G1 X131.929 Y95.668 E0.011
G1 X131.95 Y95.25 E0.01
G1 X131.929 Y94.832 E0.01
G1 X131.867 Y94.417 E0.011
G1 X131.763 Y94.012 E0.01
G1 X131.621 Y93.618 E0.011
G1 X131.439 Y93.241 E0.01
G1 X131.22 Y92.884 E0.011
G1 X130.967 Y92.55 E0.01
G1 X130.683 Y92.244 E0.01
G1 X130.369 Y91.966 E0.011
G1 X130.029 Y91.722 E0.01
G1 X129.666 Y91.513 E0.011
G1 X129.284 Y91.341 E0.01
G1 X128.887 Y91.207 E0.011
G1 X128.48 Y91.114 E0.01
G1 X128.064 Y91.061 E0.011
G1 X127.645 Y91.051 E0.01
G1 X127.228 Y91.082 E0.011
G1 X126.816 Y91.155 E0.01
G1 X126.412 Y91.268 E0.01
G1 X126.023 Y91.422 E0.011
G1 X125.65 Y91.613 E0.01
G1 X125.298 Y91.839 E0.011
G1 X124.97 Y92.101 E0.01
G1 X124.671 Y92.393 E0.011
G1 X124.401 Y92.714 E0.01
G1 X124.166 Y93.06 E0.011
G1 X123.966 Y93.427 E0.01
G1 X123.803 Y93.814 E0.01
G1 X123.68 Y94.214 E0.011
G1 X123.597 Y94.624 E0.01
G1 X123.555 Y95.041 E0.011
G1 Y95.459 E0.01
G1 X123.597 Y95.876 E0.011
G1 X123.68 Y96.286 E0.01
G1 X123.803 Y96.686 E0.011
G1 X123.966 Y97.073 E0.01
G1 X124.166 Y97.44 E0.01
G1 X124.401 Y97.786 E0.011
G1 X124.671 Y98.107 E0.01
G1 X124.97 Y98.399 E0.011
G1 X125.298 Y98.661 E0.01
G1 X125.65 Y98.887 E0.011
G1 X126.023 Y99.078 E0.01
;rapid-leaky
G0 X125.874 Y99.407 F7200
;bead-perimeter_inner
G1 X126.297 Y99.573 F2400 E0.011
G1 X126.735 Y99.697 E0.012
G1 X127.183 Y99.775 E0.011
G1 X127.636 Y99.81 E0.011
G1 X128.091 Y99.798 E0.012
G1 X128.543 Y99.741 E0.011
G1 X128.984 Y99.64 E0.011
G1 X129.416 Y99.496 E0.012
G1 X129.831 Y99.308 E0.011
G1 X130.224 Y99.081 E0.012
G1 X130.594 Y98.815 E0.011
G1 X130.935 Y98.514 E0.011
G1 X131.243 Y98.182 E0.012
G1 X131.518 Y97.819 E0.011
G1 X131.755 Y97.431 E0.011
G1 X131.953 Y97.022 E0.012
G1 X132.108 Y96.594 E0.011
G1 X132.221 Y96.154 E0.011
G1 X132.288 Y95.704 E0.012
G1 X132.311 Y95.25 E0.011
G1 X132.288 Y94.796 E0.011
G1 X132.221 Y94.346 E0.012
G1 X132.108 Y93.906 E0.011
G1 X131.953 Y93.478 E0.011
G1 X131.755 Y93.069 E0.012
G1 X131.518 Y92.681 E0.011
G1 X131.243 Y92.319 E0.011
G1 X130.935 Y91.986 E0.012
G1 X130.594 Y91.685 E0.011
G1 X130.224 Y91.419 E0.011
G1 X129.831 Y91.192 E0.012
G1 X129.416 Y91.005 E0.011
G1 X128.985 Y90.86 E0.011
G1 X128.543 Y90.759 E0.012
G1 X128.091 Y90.702 E0.011
G1 X127.636 Y90.69 E0.011
G1 X127.183 Y90.725 E0.012
G1 X126.735 Y90.803 E0.011
G1 X126.297 Y90.927 E0.011
G1 X125.874 Y91.093 E0.012
G1 X125.47 Y91.3 E0.011
G1 X125.088 Y91.547 E0.011
G1 X124.732 Y91.831 E0.012
G1 X124.407 Y92.148 E0.011
G1 X124.114 Y92.496 E0.011
G1 X123.859 Y92.872 E0.012
G1 X123.641 Y93.271 E0.011
G1 X123.464 Y93.691 E0.012
G1 X123.331 Y94.125 E0.011
G1 X123.241 Y94.57 E0.011
G1 X123.195 Y95.023 E0.012
G1 Y95.477 E0.011
G1 X123.241 Y95.93 E0.011
G1 X123.331 Y96.375 E0.012
G1 X123.464 Y96.809 E0.011
G1 X123.641 Y97.229 E0.011
G1 X123.859 Y97.628 E0.012
G1 X124.114 Y98.004 E0.011
G1 X124.407 Y98.352 E0.011
G1 X124.732 Y98.669 E0.012
G1 X125.088 Y98.953 E0.011
G1 X125.47 Y99.2 E0.011
G1 X125.874 Y99.407 E0.012
;rapid-leaky
G0 X122.05 Y107.3 F7200
;bead-perimeter_outer
G1 Y117.905 F1800 E0.264
G1 X120.05 E0.05
G1 Y88.7 E0.729
G1 X135.45 E0.384
G1 Y117.905 E0.728
G1 X133.45 E0.05
G1 Y107.3 E0.265
G1 X122.05 E0.284
;rapid-leaky
G0 X121.69 Y106.94 F7200
;bead-perimeter_inner
G1 Y117.545 F2400 E0.265
G1 X120.41 E0.032
G1 Y89.06 E0.71
G1 X135.09 E0.366
G1 Y117.545 E0.711
G1 X133.81 E0.032
G1 Y106.94 E0.264
G1 X121.69 E0.303
;rapid-leaky
G0 X122.985 Y96.281 F7200
;bead-sparse_infill
G1 X121.999 Y97.045 F3600 E0.031
G1 X121.494 Y98.113 E0.029
G1 X121.723 Y99.181 E0.027
G1 X122.422 Y100.25 E0.032
G1 X123.801 Y101.318 E0.044
G1 X124.307 Y102.386 E0.029
G1 X124.077 Y103.454 E0.028
G1 X123.378 Y104.522 E0.031
G1 X121.999 Y105.59 E0.044
G1 X121.512 Y106.62 E0.028
G1 X126.744 E0.131
G1 X128.074 Y105.59 E0.042
G1 X128.579 Y104.522 E0.029
G1 X128.349 Y103.454 E0.028
G1 X127.651 Y102.386 E0.031
G1 X126.272 Y101.318 E0.044
G1 X125.766 Y100.25 E0.029
G1 X125.874 Y99.751 E0.013
G1 X126.195 Y99.877 E0.009
G1 X126.664 Y100.009 E0.012
G1 X127.143 Y100.093 E0.012
G1 X127.628 Y100.13 E0.012
G1 X128.115 Y100.118 E0.012
G1 X128.599 Y100.057 E0.012
G1 X129.071 Y99.948 E0.013
G1 X129.533 Y99.794 E0.012
G1 X129.977 Y99.593 E0.012
G1 X130.384 Y99.358 E0.012
G1 X130.967 Y100.25 E0.026
G1 X132.346 Y101.318 E0.044
G1 X132.852 Y102.386 E0.029
G1 X132.622 Y103.454 E0.027
G1 X131.923 Y104.522 E0.032
G1 X130.544 Y105.59 E0.044
G1 X130.057 Y106.62 E0.028
G1 X134.13 E0.102
G1 Y117.225 E0.264
G1 X134.336 E0.005
G1 X134.541 Y116.272 E0.025
G1 X134.77 Y115.922 E0.01
G1 Y109.764 E0.154
G1 X134.311 Y108.795 E0.027
G1 X134.541 Y107.727 E0.027
G1 X134.77 Y107.376 E0.01
G1 Y101.219 E0.154
G1 X134.311 Y100.25 E0.027
G1 X134.541 Y99.181 E0.027
G1 X134.77 Y98.831 E0.01
G1 Y92.674 E0.154
G1 X134.311 Y91.704 E0.027
G1 X134.541 Y90.636 E0.027
G1 X134.77 Y90.286 E0.01
G1 Y89.38 E0.023
G1 X130.128 E0.116
G1 X130.039 Y89.568 E0.005
G1 X130.268 Y90.636 E0.027
G1 X130.788 Y91.43 E0.024
G1 X130.793 Y91.434
G1 X131.158 Y91.756 E0.012
G1 X131.476 Y92.098 E0.012
G1 X132.346 Y92.773 E0.027
G1 X132.852 Y93.841 E0.03
G1 X132.622 Y94.909 E0.027
G1 X132.615 Y94.92
G1 F2100 E-0.5
;rapid-dry
G0 X125.981 Y90.707 F7200
G1 F2100 E0.5
;bead-sparse_infill
G1 X125.996 Y90.636 F3600 E0.002
G1 X126.694 Y89.568 E0.032
G1 X126.937 Y89.38 E0.008
G1 X121.583 E0.133
G1 X121.494 Y89.568 E0.005
G1 X121.723 Y90.636 E0.028
G1 X122.422 Y91.704 E0.032
G1 X123.629 Y92.64 E0.038
G1 F2100 E-0.5
;rapid-dry
G0 X117.725 Y93.527 F7200
G1 F2100 E0.5
;bead-support
G1 X118.475 Y93.094 F3300 E0.021
G1 X119.28 Y93.092 E0.02
G1 Y95.709 E0.066
G1 X118.583 Y96.112 E0.02
G1 X118.582
G1 X118.215 Y96.619 E0.015
G1 X117.712 Y96.983 E0.016
G1 X116.844 Y97.188 E0.022
G1 X116.755 Y97.167 E0.002
G1 X116.457 Y97.339 E0.009
G1 X116.045 Y97.26 E0.01
G1 X115.586 Y97.008 E0.013
G1 X115.014 Y96.4 E0.021
G1 X114.789 Y95.92 E0.013
G1 X114.689 Y95.396 E0.014
G1 X114.705 Y95.271 E0.003
G1 X114.938 Y95.137 E0.007
G1 F2100 E-0.5
G0 X114.705 Y95.271 F2400
G0 X114.689 Y95.396 F2400
G0 X114.789 Y95.92 F2400
G0 X114.819 Y95.985 F2400
G0 X114.789 Y95.92 F2400
G0 X114.689 Y95.396 F2400
G0 X114.705 Y95.271 F2400
G0 X114.938 Y95.137 F2400
;rapid-dry
G0 X120.363 Y119.395 F7200
G1 F2100 E0.5
;bead-support
G1 X120.183 Y119.084 F3300 E0.009
G1 X120.184 Y118.884 E0.005
G1 X120.838 E0.016
G1 X121.133 Y119.395 E0.015
G1 X121.903 E0.019
G1 X121.608 Y118.884 E0.015
G1 F2100 E-0.5
G0 X121.903 Y119.395 F2400
G0 X121.493 F2400
G0 X121.903 F2400
G0 X121.608 Y118.884 F2400
;rapid-dry
G0 X134.219 Y119.395 F7200
G1 F2100 E0.5
;bead-support
G1 X133.924 Y118.884 F3300 E0.014
G1 X134.694 E0.019
G1 X134.989 Y119.395 E0.015
G1 F2100 E-0.5
G0 X134.694 Y118.884 F2400
G0 X134.284 F2400
G0 X134.694 F2400
G0 X134.989 Y119.395 F2400
;LAYER:5
;rapid-leaky
G0 X134.827 Y119.115 Z0.8 F7200
G1 F2100 E0.5
;bead-support
G1 X135.123 Y119.626 F3300 E0.015
G1 X134.353 E0.019
G1 X134.058 Y119.115 E0.015
G1 X133.583 E0.012
G1 X133.582 Y119.625 E0.012
G1 X133.583 Y119.626
G1 F2100 E-0.5
G0 X133.582 Y119.625 F2400
G0 X133.583 Y119.115 F2400
G0 X134.058 F2400
G0 X134.065 Y119.128 F2400
G0 X134.058 Y119.115 F2400
G0 X133.583 F2400
G0 X133.582 Y119.625 F2400
G0 X133.583 Y119.626 F2400
;rapid-dry
G0 X121.741 Y119.115 F7200
G1 F2100 E0.5
;bead-support
G1 X121.912 Y119.411 F3300 E0.009
G1 Y119.626 E0.005
G1 X121.266 E0.016
G1 X120.971 Y119.115 E0.015
G1 X120.201 E0.019
G1 X120.496 Y119.626 E0.015
G1 F2100 E-0.5
G0 X120.201 Y119.115 F2400
G0 X120.611 F2400
G0 X120.201 F2400
G0 X120.496 Y119.626 F2400
;rapid-dry
G0 X123.803 Y96.686 F7200
G1 F2100 E0.5
;bead-perimeter_outer
G1 X123.966 Y97.073 F1800 E0.01
G1 X124.166 Y97.44 E0.011
G1 X124.401 Y97.786 E0.01
G1 X124.671 Y98.107 E0.011
G1 X124.97 Y98.399 E0.01
G1 X125.298 Y98.661 E0.011
G1 X125.65 Y98.887 E0.01
G1 X126.023 Y99.078 E0.011
G1 X126.412 Y99.232 E0.01
G1 X126.816 Y99.345 E0.01
G1 X127.228 Y99.418 E0.011
G1 X127.645 Y99.449 E0.01
G1 X128.064 Y99.439 E0.011
G1 X128.48 Y99.386 E0.01
G1 X128.887 Y99.293 E0.011
G1 X129.284 Y99.16 E0.01
G1 X129.666 Y98.987 E0.011
G1 X130.029 Y98.778 E0.01
G1 X130.369 Y98.534 E0.01
G1 X130.683 Y98.256 E0.011
G1 X130.967 Y97.95 E0.01
G1 X131.22 Y97.616 E0.011
G1 X131.439 Y97.259 E0.01
G1 X131.621 Y96.882 E0.011
G1 X131.763 Y96.488 E0.01
G1 X131.867 Y96.083 E0.011
G1 X131.929 Y95.668 E0.01
G1 X131.95 Y95.25 E0.01
G1 X131.929 Y94.832 E0.011
G1 X131.867 Y94.417 E0.01
G1 X131.763 Y94.012 E0.011
G1 X131.621 Y93.618 E0.01
G1 X131.439 Y93.241 E0.011
G1 X131.22 Y92.884 E0.01
G1 X130.967 Y92.55 E0.011
G1 X130.683 Y92.244 E0.01
G1 X130.369 Y91.966 E0.01
G1 X130.029 Y91.722 E0.011
G1 X129.666 Y91.513 E0.01
G1 X129.284 Y91.341 E0.011
G1 X128.887 Y91.207 E0.01
G1 X128.48 Y91.114 E0.011
G1 X128.064 Y91.061 E0.01
G1 X127.645 Y91.051 E0.011
G1 X127.228 Y91.082 E0.01
G1 X126.816 Y91.155 E0.01
G1 X126.412 Y91.268 E0.011
G1 X126.023 Y91.422 E0.01
G1 X125.65 Y91.613 E0.011
G1 X125.297 Y91.84 E0.01
G1 X124.934 Y92.137 E0.012
G1 X124.671 Y92.393 E0.009
G1 X124.401 Y92.714 E0.011
G1 X124.166 Y93.06 E0.01
G1 X123.966 Y93.427 E0.01
G1 X123.803 Y93.814 E0.011
G1 X123.68 Y94.214 E0.01
G1 X123.597 Y94.624 E0.011
G1 X123.555 Y95.041 E0.01
G1 Y95.459 E0.011
G1 X123.597 Y95.876 E0.01
G1 X123.68 Y96.286 E0.011
G1 X123.803 Y96.686 E0.01
;rapid-leaky
G0 X123.464 Y96.809 F7200
;bead-perimeter_inner
G1 X123.641 Y97.229 F2400 E0.011
G1 X123.859 Y97.628 E0.012
G1 X124.114 Y98.004 E0.011
G1 X124.407 Y98.352 E0.011
G1 X124.732 Y98.669 E0.012
G1 X125.088 Y98.953 E0.011
G1 X125.47 Y99.2 E0.011
G1 X125.874 Y99.407 E0.012
G1 X126.297 Y99.573 E0.011
G1 X126.735 Y99.697 E0.011
G1 X127.183 Y99.775 E0.012
G1 X127.636 Y99.81 E0.011
G1 X128.091 Y99.798 E0.012
G1 X128.543 Y99.741 E0.011
G1 X128.984 Y99.64 E0.011
G1 X129.416 Y99.496 E0.012
G1 X129.831 Y99.308 E0.011
G1 X130.224 Y99.081 E0.011
G1 X130.594 Y98.815 E0.012
G1 X130.935 Y98.514 E0.011
G1 X131.243 Y98.182 E0.011
G1 X131.518 Y97.819 E0.012
G1 X131.755 Y97.431 E0.011
G1 X131.953 Y97.022 E0.011
G1 X132.108 Y96.594 E0.012
G1 X132.221 Y96.154 E0.011
G1 X132.288 Y95.704 E0.011
G1 X132.311 Y95.25 E0.012
G1 X132.288 Y94.796 E0.011
G1 X132.221 Y94.346 E0.011
G1 X132.108 Y93.906 E0.012
G1 X131.953 Y93.478 E0.011
G1 X131.755 Y93.069 E0.011
G1 X131.518 Y92.681 E0.012
G1 X131.243 Y92.319 E0.011
G1 X130.935 Y91.986 E0.011
G1 X130.594 Y91.685 E0.012
G1 X130.224 Y91.419 E0.011
G1 X129.831 Y91.192 E0.011
G1 X129.416 Y91.005 E0.012
G1 X128.985 Y90.86 E0.011
G1 X128.543 Y90.759 E0.011
G1 X128.091 Y90.702 E0.012
G1 X127.636 Y90.69 E0.011
G1 X127.183 Y90.725 E0.011
G1 X126.735 Y90.803 E0.012
G1 X126.297 Y90.927 E0.011
G1 X125.874 Y91.093 E0.011
G1 X125.47 Y91.3 E0.012
G1 X125.085 Y91.548 E0.011
G1 X124.694 Y91.868 E0.013
G1 X124.407 Y92.148 E0.01
G1 X124.114 Y92.496 E0.011
G1 X123.859 Y92.872 E0.012
G1 X123.641 Y93.271 E0.011
G1 X123.464 Y93.691 E0.011
G1 X123.331 Y94.125 E0.012
G1 X123.241 Y94.57 E0.011
G1 X123.195 Y95.023 E0.011
G1 Y95.477 E0.012
G1 X123.241 Y95.93 E0.011
G1 X123.331 Y96.375 E0.011
G1 X123.464 Y96.809 E0.012
G1 F2100 E-0.5
;rapid-dry
G0 X114.938 Y95.137 F7200
G1 F2100 E0.5
;bead-support
G1 X114.705 Y95.271 F3300 E0.006
G1 X114.689 Y95.396 E0.003
G1 X114.789 Y95.92 E0.014
G1 X115.014 Y96.4 E0.013
G1 X115.586 Y97.008 E0.021
G1 X116.045 Y97.26 E0.013
G1 X116.457 Y97.339 E0.01
G1 X116.755 Y97.167 E0.009
G1 X116.844 Y97.188 E0.002
G1 X117.712 Y96.983 E0.022
G1 X118.215 Y96.619 E0.016
G1 X118.582 Y96.112 E0.016
G1 X118.583
G1 X119.28 Y95.709 E0.02
G1 Y93.092 E0.065
G1 X118.475 Y93.094 E0.02
G1 X117.725 Y93.527 E0.022
G1 F2100 E-0.5
G0 X118.475 Y93.094 F2400
G0 X118.61 F2400
G0 X118.475 F2400
G0 X117.725 Y93.527 F2400
;rapid-dry
G0 X120.05 Y88.7 F7200
G1 F2100 E0.5
;bead-perimeter_outer
G1 X135.45 F1800 E0.384
G1 Y118.197 E0.736
G1 X133.45 E0.049
G1 Y107.3 E0.272
G1 X122.05 E0.285
G1 Y118.197 E0.271
G1 X120.05 E0.05
G1 Y88.7 E0.736
;rapid-leaky
G0 X120.41 Y89.06 F7200
;bead-perimeter_inner
G1 X135.09 F2400 E0.366
G1 Y117.837 E0.718
G1 X133.81 E0.032
G1 Y106.94 E0.272
G1 X121.69 E0.302
G1 Y117.837 E0.272
G1 X120.41 E0.032
G1 Y89.06 E0.718
;rapid-leaky
G0 X121.394 Y89.38 F7200
;bead-sparse_infill
G1 X121.332 Y89.568 F3600 E0.005
G1 X121.672 Y90.636 E0.028
G1 X122.481 Y91.704 E0.033
G1 X123.716 Y92.512 E0.037
G1 X123.859 Y92.303 E0.006
G1 X124.172 Y91.93 E0.012
G1 X124.48 Y91.629 E0.011
G1 X124.897 Y91.289 E0.014
G1 X125.31 Y91.023 E0.012
G1 X125.742 Y90.801 E0.012
G1 X125.914 Y90.734 E0.005
G1 X125.945 Y90.636 E0.002
G1 X126.754 Y89.568 E0.034
G1 X127.041 Y89.38 E0.008
G1 X129.939 E0.072
G1 X129.877 Y89.568 E0.005
G1 X130.217 Y90.636 E0.028
G1 X130.878 Y91.509 E0.028
G1 X131.158 Y91.756 E0.009
G1 X131.24 Y91.844 E0.003
G1 X132.66 Y92.773 E0.042
G1 X133.014 Y93.841 E0.028
G1 X132.673 Y94.909 E0.028
G1 X132.618 Y94.982 E0.003
G1 X132.631 Y95.25 E0.006
G1 X132.607 Y95.735 E0.012
G1 X132.535 Y96.218 E0.013
G1 X132.414 Y96.689 E0.012
G1 X132.248 Y97.146 E0.012
G1 X132.037 Y97.585 E0.012
G1 X131.783 Y98 E0.012
G1 X131.489 Y98.387 E0.012
G1 X131.158 Y98.744 E0.012
G1 X130.793 Y99.066 E0.013
G1 X130.398 Y99.35 E0.012
G1 X130.361 Y99.371 E0.001
G1 X131.026 Y100.25 E0.027
G1 X132.66 Y101.318 E0.049
G1 X133.014 Y102.386 E0.028
G1 X132.673 Y103.454 E0.028
G1 X131.864 Y104.522 E0.033
G1 X130.231 Y105.59 E0.049
G1 X129.889 Y106.62 E0.027
G1 X126.812 E0.077
G1 X128.387 Y105.59 E0.047
G1 X128.741 Y104.522 E0.028
G1 X128.401 Y103.454 E0.028
G1 X127.592 Y102.386 E0.033
G1 X125.958 Y101.318 E0.049
G1 X125.604 Y100.25 E0.028
G1 X125.776 Y99.712 E0.014
G1 X125.742 Y99.699 E0.001
G1 X125.31 Y99.477 E0.012
G1 X124.901 Y99.214 E0.012
G1 X124.52 Y98.91 E0.012
G1 X124.172 Y98.57 E0.013
G1 X123.859 Y98.197 E0.012
G1 X123.585 Y97.796 E0.012
G1 X123.352 Y97.369 E0.012
G1 X123.163 Y96.919 E0.012
G1 X123.02 Y96.454 E0.012
G1 X122.97 Y96.205 E0.007
G1 X121.686 Y97.045 E0.038
G1 X121.332 Y98.113 E0.028
G1 X121.672 Y99.181 E0.028
G1 X122.481 Y100.25 E0.033
G1 X124.115 Y101.318 E0.049
G1 X124.469 Y102.386 E0.028
G1 X124.128 Y103.454 E0.028
G1 X123.319 Y104.522 E0.033
G1 X121.686 Y105.59 E0.049
G1 X121.332 Y106.658 E0.028
G1 X121.37 Y106.779 E0.003
G1 Y115.087 E0.208
G1 X121.332 Y115.204 E0.003
G1 X121.37 Y115.324 E0.003
G1 F2100 E-0.5
;rapid-dry
G0 X134.208 Y117.517 F7200
G1 F2100 E0.5
;bead-sparse_infill
G1 X134.149 Y117.34 F3600 E0.005
G1 X134.49 Y116.272 E0.027
G1 X134.77 Y115.902 E0.012
G1 Y110.037 E0.146
G1 X134.503 Y109.863 E0.008
G1 X134.149 Y108.795 E0.028
G1 X134.49 Y107.727 E0.028
G1 X134.77 Y107.357 E0.012
G1 Y101.492 E0.146
G1 X134.503 Y101.318 E0.008
G1 X134.149 Y100.25 E0.028
G1 X134.49 Y99.181 E0.028
G1 X134.77 Y98.812 E0.012
G1 Y92.947 E0.146
G1 X134.503 Y92.773 E0.008
G1 X134.149 Y91.704 E0.028
G1 X134.49 Y90.636 E0.028
G1 X134.77 Y90.266 E0.012
G1 F2100 E-0.5
;LAYER:6
;rapid-dry
G0 X126.412 Y99.232 Z0.95 F7200
G1 F2100 E0.5
;bead-perimeter_outer
G1 X126.816 Y99.345 F1800 E0.01
G1 X127.228 Y99.418 E0.011
G1 X127.645 Y99.449 E0.01
G1 X128.064 Y99.439 E0.01
G1 X128.48 Y99.386 E0.011
G1 X128.887 Y99.293 E0.01
G1 X129.284 Y99.16 E0.011
G1 X129.666 Y98.987 E0.01
G1 X130.029 Y98.778 E0.011
G1 X130.369 Y98.534 E0.01
G1 X130.683 Y98.256 E0.011
G1 X130.967 Y97.95 E0.01
G1 X131.22 Y97.616 E0.01
G1 X131.439 Y97.259 E0.011
G1 X131.621 Y96.882 E0.01
G1 X131.763 Y96.488 E0.011
G1 X131.867 Y96.083 E0.01
G1 X131.929 Y95.668 E0.011
G1 X131.95 Y95.25 E0.01
G1 X131.929 Y94.832 E0.011
G1 X131.867 Y94.417 E0.01
G1 X131.763 Y94.012 E0.01
G1 X131.621 Y93.618 E0.011
G1 X131.439 Y93.241 E0.01
G1 X131.22 Y92.884 E0.011
G1 X130.967 Y92.55 E0.01
G1 X130.683 Y92.244 E0.011
G1 X130.369 Y91.966 E0.01
G1 X130.029 Y91.722 E0.011
G1 X129.666 Y91.513 E0.01
G1 X129.284 Y91.341 E0.01
G1 X128.887 Y91.207 E0.011
G1 X128.48 Y91.114 E0.01
G1 X128.064 Y91.061 E0.011
G1 X127.645 Y91.051 E0.01
G1 X127.228 Y91.082 E0.011
G1 X126.816 Y91.155 E0.01
G1 X126.412 Y91.268 E0.011
G1 X126.023 Y91.422 E0.01
G1 X125.65 Y91.613 E0.01
G1 X125.298 Y91.839 E0.011
G1 X124.97 Y92.101 E0.01
G1 X124.67 Y92.394 E0.011
G1 X124.367 Y92.764 E0.012
G1 X124.166 Y93.06 E0.009
G1 X123.966 Y93.427 E0.01
G1 X123.803 Y93.814 E0.011
G1 X123.68 Y94.214 E0.01
G1 X123.597 Y94.624 E0.01
G1 X123.555 Y95.041 E0.011
G1 Y95.459 E0.01
G1 X123.597 Y95.876 E0.011
G1 X123.68 Y96.286 E0.01
G1 X123.803 Y96.686 E0.011
G1 X123.966 Y97.073 E0.01
G1 X124.166 Y97.44 E0.011
G1 X124.401 Y97.786 E0.01
G1 X124.671 Y98.107 E0.01
G1 X124.97 Y98.399 E0.011
G1 X125.298 Y98.661 E0.01
G1 X125.65 Y98.887 E0.011
G1 X126.023 Y99.078 E0.01
G1 X126.412 Y99.232 E0.011
;rapid-leaky
G0 X126.297 Y99.573 F7200
;bead-perimeter_inner
G1 X126.735 Y99.697 F2400 E0.011
G1 X127.183 Y99.775 E0.011
G1 X127.636 Y99.81 E0.012
G1 X128.091 Y99.798 E0.011
G1 X128.543 Y99.741 E0.011
G1 X128.984 Y99.64 E0.012
G1 X129.416 Y99.496 E0.011
G1 X129.831 Y99.308 E0.011
G1 X130.224 Y99.081 E0.012
G1 X130.594 Y98.815 E0.011
G1 X130.935 Y98.514 E0.011
G1 X131.243 Y98.182 E0.012
G1 X131.518 Y97.819 E0.011
G1 X131.755 Y97.431 E0.011
G1 X131.953 Y97.022 E0.012
G1 X132.108 Y96.594 E0.011
G1 X132.221 Y96.154 E0.011
G1 X132.288 Y95.704 E0.012
G1 X132.311 Y95.25 E0.011
G1 X132.288 Y94.796 E0.011
G1 X132.221 Y94.346 E0.012
G1 X132.108 Y93.906 E0.011
G1 X131.953 Y93.478 E0.012
G1 X131.755 Y93.069 E0.011
G1 X131.518 Y92.681 E0.011
G1 X131.243 Y92.319 E0.012
G1 X130.935 Y91.986 E0.011
G1 X130.594 Y91.685 E0.011
G1 X130.224 Y91.419 E0.012
G1 X129.831 Y91.192 E0.011
G1 X129.416 Y91.005 E0.011
G1 X128.985 Y90.86 E0.012
G1 X128.543 Y90.759 E0.011
G1 X128.091 Y90.702 E0.011
G1 X127.636 Y90.69 E0.012
G1 X127.183 Y90.725 E0.011
G1 X126.735 Y90.803 E0.011
G1 X126.297 Y90.927 E0.012
G1 X125.874 Y91.093 E0.011
G1 X125.47 Y91.3 E0.011
G1 X125.088 Y91.547 E0.012
G1 X124.732 Y91.831 E0.011
G1 X124.405 Y92.15 E0.011
G1 X124.078 Y92.549 E0.013
G1 X123.858 Y92.872 E0.01
G1 X123.641 Y93.271 E0.011
G1 X123.464 Y93.691 E0.012
G1 X123.331 Y94.125 E0.011
G1 X123.241 Y94.57 E0.011
G1 X123.195 Y95.023 E0.012
G1 Y95.477 E0.011
G1 X123.241 Y95.93 E0.011
G1 X123.331 Y96.375 E0.012
G1 X123.464 Y96.809 E0.011
G1 X123.641 Y97.229 E0.011
G1 X123.859 Y97.628 E0.012
G1 X124.114 Y98.004 E0.011
G1 X124.407 Y98.352 E0.011
G1 X124.732 Y98.669 E0.012
G1 X125.088 Y98.953 E0.011
G1 X125.47 Y99.2 E0.011
G1 X125.874 Y99.407 E0.012
G1 X126.297 Y99.573 E0.011
;rapid-leaky
G0 X122.05 Y107.3 F7200
;bead-perimeter_outer
G1 Y118.458 F1800 E0.279
G1 X120.05 E0.049
G1 Y88.7 E0.743
G1 X135.45 E0.384
G1 Y118.458 E0.742
G1 X133.45 E0.05
G1 Y107.3 E0.278
G1 X122.05 E0.285
;rapid-leaky
G0 X121.69 Y106.94 F7200
;bead-perimeter_inner
G1 Y118.098 F2400 E0.278
G1 X120.41 E0.032
G1 Y89.06 E0.724
G1 X135.09 E0.367
G1 Y118.098 E0.724
G1 X133.81 E0.032
G1 Y106.94 E0.278
G1 X121.69 E0.303
;rapid-leaky
G0 X121.37 Y115.722 F7200
;bead-sparse_infill
G1 X121.144 Y115.204 F3600 E0.014
G1 X121.077 Y114.135 E0.026
G1 X121.37 Y113.992 E0.009
G1 Y107.177 E0.17
G1 X121.144 Y106.658 E0.014
G1 X121.077 Y105.59 E0.026
G1 X123.263 Y104.522 E0.061
G1 X124.191 Y103.454 E0.035
G1 X124.656 Y102.386 E0.029
G1 X124.724 Y101.318 E0.027
G1 X122.537 Y100.25 E0.061
G1 X121.609 Y99.181 E0.035
G1 X121.144 Y98.113 E0.029
G1 X121.077 Y97.045 E0.027
G1 X122.954 Y96.128 E0.052
G1 X123.02 Y96.454 E0.008
G1 X123.163 Y96.919 E0.012
G1 X123.352 Y97.369 E0.013
G1 X123.585 Y97.796 E0.012
G1 X123.859 Y98.197 E0.012
G1 X124.172 Y98.57 E0.012
G1 X124.52 Y98.91 E0.012
G1 X124.901 Y99.214 E0.012
G1 X125.31 Y99.477 E0.012
G1 X125.672 Y99.663 E0.011
G1 X125.417 Y100.25 E0.015
G1 X125.349 Y101.318 E0.027
G1 X127.535 Y102.386 E0.061
G1 X128.463 Y103.454 E0.035
G1 X128.928 Y104.522 E0.029
G1 X128.996 Y105.59 E0.027
G1 X126.889 Y106.62 E0.058
G1 X129.687 E0.07
G1 X129.622 Y105.59 E0.026
G1 X131.808 Y104.522 E0.061
G1 X132.736 Y103.454 E0.035
G1 X133.201 Y102.386 E0.029
G1 X133.269 Y101.318 E0.027
G1 X131.083 Y100.25 E0.06
G1 X130.333 Y99.387 E0.029
G1 X130.398 Y99.35 E0.002
G1 X130.793 Y99.066 E0.012
G1 X131.158 Y98.744 E0.012
G1 X131.489 Y98.387 E0.012
G1 X131.783 Y98 E0.012
G1 X132.037 Y97.585 E0.012
G1 X132.248 Y97.146 E0.013
G1 X132.414 Y96.689 E0.012
G1 X132.535 Y96.218 E0.012
G1 X132.607 Y95.735 E0.012
G1 X132.631 Y95.25 E0.012
G1 X132.621 Y95.042 E0.005
G1 X132.736 Y94.909 E0.005
G1 X133.201 Y93.841 E0.029
G1 X133.269 Y92.773 E0.027
G1 X131.12 Y91.723 E0.059
G1 X131.027 Y91.64 E0.003
G1 X130.154 Y90.636 E0.033
G1 X129.69 Y89.568 E0.03
G1 X129.678 Y89.38 E0.004
G1 X127.195 E0.062
G1 X126.81 Y89.568 E0.011
G1 X125.882 Y90.636 E0.035
G1 X125.824 Y90.769 E0.004
G1 X125.742 Y90.801 E0.002
G1 X125.31 Y91.023 E0.012
G1 X124.901 Y91.286 E0.012
G1 X124.52 Y91.591 E0.012
G1 X124.168 Y91.933 E0.013
G1 X123.836 Y92.339 E0.013
G1 X122.537 Y91.704 E0.036
G1 X121.609 Y90.636 E0.035
G1 X121.144 Y89.568 E0.029
G1 X121.133 Y89.38 E0.005
G1 F2100 E-0.5
;rapid-dry
G0 X117.725 Y93.527 F7200
G1 F2100 E0.5
;bead-support
G1 X118.475 Y93.094 F3300 E0.021
G1 X119.28 Y93.092 E0.02
G1 Y95.709 E0.066
G1 X118.583 Y96.112 E0.02
G1 X118.582
G1 X118.215 Y96.619 E0.015
G1 X117.712 Y96.983 E0.016
G1 X116.844 Y97.188 E0.022
G1 X116.755 Y97.167 E0.002
G1 X116.457 Y97.339 E0.009
G1 X116.045 Y97.26 E0.011
G1 X115.586 Y97.008 E0.013
G1 X115.014 Y96.4 E0.02
G1 X114.789 Y95.92 E0.014
G1 X114.689 Y95.396 E0.013
G1 X114.705 Y95.271 E0.003
G1 X114.938 Y95.137 E0.007
G1 F2100 E-0.5
G0 X114.705 Y95.271 F2400
G0 X114.689 Y95.396 F2400
G0 X114.789 Y95.92 F2400
G0 X114.819 Y95.985 F2400
G0 X114.789 Y95.92 F2400
G0 X114.689 Y95.396 F2400
G0 X114.705 Y95.271 F2400
G0 X114.938 Y95.137 F2400
;rapid-dry
G0 X134.77 Y90.242 F7200
G1 F2100 E0.5
;bead-sparse_infill
G1 X134.427 Y90.636 F3600 E0.013
G1 X133.962 Y91.704 E0.029
G1 X133.894 Y92.773 E0.027
G1 X134.77 Y93.2 E0.024
G1 Y98.787 E0.139
G1 X134.427 Y99.181 E0.013
G1 X133.962 Y100.25 E0.029
G1 X133.894 Y101.318 E0.027
G1 X134.77 Y101.746 E0.024
G1 Y107.332 E0.14
G1 X134.427 Y107.727 E0.013
G1 X134.13 Y108.409 E0.018
G1 Y109.978 E0.04
G1 X134.77 Y110.291 E0.017
G1 Y115.877 E0.14
G1 X134.427 Y116.272 E0.013
G1 X134.13 Y116.954 E0.018
G1 F2100 E-0.5
;rapid-dry
G0 X134.961 Y119.346 F7200
G1 F2100 E0.5
;bead-support
G1 X135.256 Y119.857 F3300 E0.015
G1 X134.486 Y119.856 E0.019
G1 X134.191 Y119.346 E0.015
G1 X133.583 E0.015
G1 Y119.626 E0.007
G1 X133.716 Y119.856 E0.007
G1 F2100 E-0.5
G0 X133.583 Y119.626 F2400
G0 Y119.346 F2400
G0 X134.038 F2400
G0 X133.583 F2400
G0 Y119.626 F2400
G0 X133.716 Y119.856 F2400
;rapid-dry
G0 X121.874 Y119.346 F7200
G1 F2100 E0.5
;bead-support
G1 X121.912 Y119.412 F3300 E0.002
G1 Y119.857 E0.011
G1 X121.399 E0.012
G1 X121.104 Y119.346 E0.015
G1 X120.335 E0.019
G1 X120.629 Y119.856 E0.015
G1 F2100 E-0.5
G0 X120.335 Y119.346 F2400
G0 X120.745 F2400
G0 X120.335 F2400
G0 X120.629 Y119.856 F2400
;LAYER:7
;rapid-leaky
G0 X120.743 Y120.054 Z1.1 F7200
G1 F2100 E0.5
;bead-support
G1 X120.468 Y119.576 F3300 E0.014
G1 X121.238 Y119.577 E0.019
G1 X121.513 Y120.054 E0.014
G1 F2100 E-0.5
G0 X121.238 Y119.577 F2400
G0 X120.789 Y119.576 F2400
G0 X121.238 Y119.577 F2400
G0 X121.513 Y120.054 F2400
;rapid-dry
G0 X133.83 F7200
G1 F2100 E0.5
;bead-support
G1 X133.582 Y119.625 F3300 E0.012
G1 X133.583 Y119.576 E0.001
G1 X134.324 E0.019
G1 X134.6 Y120.054 E0.014
G1 X135.004 E0.01
G1 X135.065 Y120.044 E0.001
G1 X135.311 E0.006
G1 Y119.953 E0.003
G1 X135.094 Y119.577 E0.01
G1 F2100 E-0.5
G0 X135.311 Y119.953 F2400
G0 Y120.044 F2400
G0 X135.065 F2400
G0 X135.004 Y120.054 F2400
G0 X134.837 F2400
G0 X135.004 F2400
G0 X135.065 Y120.044 F2400
G0 X135.311 F2400
G0 Y119.953 F2400
G0 X135.094 Y119.577 F2400
;rapid-dry
G0 X122.05 Y107.3 F7200
G1 F2100 E0.5
;bead-perimeter_outer
G1 Y118.683 F1800 E0.284
G1 X120.05 E0.05
G1 Y88.7 E0.748
G1 X135.45 E0.384
G1 Y118.683 E0.748
G1 X133.45 E0.05
G1 Y107.3 E0.284
G1 X122.05 E0.284
;rapid-leaky
G0 X121.69 Y106.94 F7200
;bead-perimeter_inner
G1 Y118.323 F2400 E0.284
G1 X120.41 E0.032
G1 Y89.06 E0.73
G1 X135.09 E0.367
G1 Y118.323 E0.73
G1 X133.81 E0.031
G1 Y106.94 E0.284
G1 X121.69 E0.303
;rapid-leaky
G0 X127.228 Y99.418 F7200
;bead-perimeter_outer
G1 X127.645 Y99.449 F1800 E0.01
G1 X128.064 Y99.439 E0.011
G1 X128.48 Y99.386 E0.01
G1 X128.887 Y99.293 E0.01
G1 X129.284 Y99.16 E0.011
G1 X129.666 Y98.987 E0.01
G1 X130.029 Y98.778 E0.011
G1 X130.369 Y98.534 E0.01
G1 X130.683 Y98.256 E0.011
G1 X130.967 Y97.95 E0.01
G1 X131.22 Y97.616 E0.011
G1 X131.439 Y97.259 E0.01
G1 X131.621 Y96.882 E0.01
G1 X131.763 Y96.488 E0.011
G1 X131.867 Y96.083 E0.01
G1 X131.929 Y95.668 E0.011
G1 X131.95 Y95.25 E0.01
G1 X131.929 Y94.832 E0.011
G1 X131.867 Y94.417 E0.01
G1 X131.763 Y94.012 E0.011
G1 X131.621 Y93.618 E0.01
G1 X131.439 Y93.241 E0.01
G1 X131.22 Y92.884 E0.011
G1 X130.967 Y92.55 E0.01
G1 X130.683 Y92.244 E0.011
G1 X130.369 Y91.966 E0.01
G1 X130.029 Y91.722 E0.011
G1 X129.666 Y91.513 E0.01
G1 X129.284 Y91.341 E0.011
G1 X128.887 Y91.207 E0.01
G1 X128.48 Y91.114 E0.01
G1 X128.064 Y91.061 E0.011
G1 X127.645 Y91.051 E0.01
G1 X127.228 Y91.082 E0.011
G1 X126.816 Y91.155 E0.01
G1 X126.412 Y91.268 E0.011
G1 X126.023 Y91.422 E0.01
G1 X125.65 Y91.613 E0.011
G1 X125.298 Y91.839 E0.01
G1 X124.97 Y92.101 E0.011
G1 X124.671 Y92.393 E0.01
G1 X124.401 Y92.714 E0.01
G1 X124.166 Y93.06 E0.011
G1 X123.966 Y93.427 E0.01
G1 X123.803 Y93.814 E0.011
G1 X123.68 Y94.214 E0.01
G1 X123.597 Y94.624 E0.011
G1 X123.555 Y95.041 E0.01
G1 Y95.459 E0.011
G1 X123.597 Y95.876 E0.01
G1 X123.68 Y96.286 E0.01
G1 X123.803 Y96.686 E0.011
G1 X123.966 Y97.073 E0.01
G1 X124.166 Y97.44 E0.011
G1 X124.401 Y97.786 E0.01
G1 X124.671 Y98.107 E0.011
G1 X124.97 Y98.399 E0.01
G1 X125.298 Y98.661 E0.011
G1 X125.65 Y98.887 E0.01
G1 X126.023 Y99.078 E0.01
G1 X126.412 Y99.232 E0.011
G1 X126.816 Y99.345 E0.01
G1 X127.228 Y99.418 E0.011
;rapid-leaky
G0 X127.183 Y99.775 F7200
;bead-perimeter_inner
G1 X127.636 Y99.81 F2400 E0.011
G1 X128.091 Y99.798 E0.011
G1 X128.543 Y99.741 E0.012
G1 X128.984 Y99.64 E0.011
G1 X129.416 Y99.496 E0.011
G1 X129.831 Y99.308 E0.012
G1 X130.224 Y99.081 E0.011
G1 X130.594 Y98.815 E0.011
G1 X130.935 Y98.514 E0.012
G1 X131.243 Y98.182 E0.011
G1 X131.518 Y97.819 E0.012
G1 X131.755 Y97.431 E0.011
G1 X131.953 Y97.022 E0.011
G1 X132.108 Y96.594 E0.012
G1 X132.221 Y96.154 E0.011
G1 X132.288 Y95.704 E0.011
G1 X132.311 Y95.25 E0.012
G1 X132.288 Y94.796 E0.011
G1 X132.221 Y94.346 E0.011
G1 X132.108 Y93.906 E0.012
G1 X131.953 Y93.478 E0.011
G1 X131.755 Y93.069 E0.011
G1 X131.518 Y92.681 E0.012
G1 X131.243 Y92.319 E0.011
G1 X130.935 Y91.986 E0.011
G1 X130.594 Y91.685 E0.012
G1 X130.224 Y91.419 E0.011
G1 X129.831 Y91.192 E0.011
G1 X129.416 Y91.005 E0.012
G1 X128.985 Y90.86 E0.011
G1 X128.543 Y90.759 E0.011
G1 X128.092 Y90.702 E0.012
G1 X127.636 Y90.69 E0.011
G1 X127.183 Y90.725 E0.011
G1 X126.735 Y90.803 E0.012
G1 X126.297 Y90.927 E0.011
G1 X125.874 Y91.093 E0.011
G1 X125.47 Y91.3 E0.012
G1 X125.088 Y91.547 E0.011
G1 X124.732 Y91.831 E0.011
G1 X124.407 Y92.148 E0.012
G1 X124.114 Y92.496 E0.011
G1 X123.859 Y92.872 E0.011
G1 X123.641 Y93.271 E0.012
G1 X123.464 Y93.691 E0.011
G1 X123.331 Y94.125 E0.011
G1 X123.241 Y94.57 E0.012
G1 X123.195 Y95.023 E0.011
G1 Y95.477 E0.011
G1 X123.241 Y95.93 E0.012
G1 X123.331 Y96.375 E0.011
G1 X123.464 Y96.809 E0.011
G1 X123.641 Y97.229 E0.012
G1 X123.859 Y97.628 E0.011
G1 X124.114 Y98.004 E0.012
G1 X124.407 Y98.352 E0.011
G1 X124.732 Y98.669 E0.011
G1 X125.088 Y98.953 E0.012
G1 X125.47 Y99.2 E0.011
G1 X125.874 Y99.407 E0.011
G1 X126.297 Y99.573 E0.012
G1 X126.735 Y99.697 E0.011
G1 X127.183 Y99.775 E0.011
;rapid-leaky
G0 X125.582 Y99.617 F7200
;bead-sparse_infill
G1 X125.036 Y100.495 F3600 E0.026
G1 X123.968 Y100.793 E0.028
G1 X122.9 Y100.423 E0.028
G1 X121.832 Y99.587 E0.034
G1 X120.764 Y97.867 E0.05
G1 X120.73 Y97.858 E0.001
G1 Y96.168 E0.042
G1 X120.764 Y96.223 E0.002
G1 X121.832 Y96.52 E0.028
G1 X122.9 Y96.151 E0.028
G1 X122.951 Y96.111 E0.001
G1 F2100 E-0.5
;rapid-dry
G0 X114.938 Y95.137 F7200
G1 F2100 E0.5
;bead-support
G1 X114.705 Y95.271 F3300 E0.007
G1 X114.689 Y95.396 E0.003
G1 X114.789 Y95.92 E0.014
G1 X115.014 Y96.4 E0.013
G1 X115.586 Y97.008 E0.021
G1 X116.045 Y97.26 E0.013
G1 X116.457 Y97.339 E0.01
G1 X116.755 Y97.167 E0.009
G1 X116.844 Y97.188 E0.002
G1 X117.712 Y96.983 E0.022
G1 X118.215 Y96.619 E0.016
G1 X118.582 Y96.112 E0.015
G1 X118.583
G1 X119.28 Y95.709 E0.02
G1 Y93.092 E0.066
G1 X118.475 Y93.094 E0.02
G1 X117.725 Y93.527 E0.021
G1 F2100 E-0.5
G0 X118.475 Y93.094 F2400
G0 X118.61 F2400
G0 X118.475 F2400
G0 X117.725 Y93.527 F2400
;rapid-dry
G0 X134.77 Y115.772 F7200
G1 F2100 E0.5
;bead-sparse_infill
G1 X134.65 Y115.866 F3600 E0.004
G1 X134.13 Y116.703 E0.025
G1 Y110.532 E0.154
G1 X134.65 Y110.388 E0.013
G1 X134.77 Y110.429 E0.003
G1 Y107.227 E0.08
G1 X134.65 Y107.321 E0.004
G1 X134.13 Y108.158 E0.025
G1 Y106.62 E0.038
G1 X129.438 E0.117
G1 X129.309 Y106.413 E0.006
G1 X128.241 Y106.115 E0.028
G1 X127.173 Y106.485 E0.028
G1 X127 Y106.62 E0.005
G1 X121.37 E0.141
G1 Y107.388 E0.019
G1 X120.764 Y106.413 E0.029
G1 X120.73 Y106.403 E0.001
G1 Y104.714 E0.042
G1 X120.764 Y104.768 E0.001
G1 X121.832 Y105.065 E0.028
G1 X122.9 Y104.696 E0.028
G1 X123.968 Y103.859 E0.034
G1 X125.036 Y102.14 E0.05
G1 X126.105 Y101.843 E0.028
G1 X127.173 Y102.212 E0.028
G1 X128.241 Y103.049 E0.034
G1 X129.309 Y104.768 E0.051
G1 X130.377 Y105.065 E0.027
G1 X131.445 Y104.696 E0.028
G1 X132.513 Y103.859 E0.034
G1 X133.582 Y102.14 E0.051
G1 X134.65 Y101.843 E0.027
G1 X134.77 Y101.884 E0.004
G1 Y98.682 E0.08
G1 X134.65 Y98.776 E0.003
G1 X133.582 Y100.495 E0.051
G1 X132.513 Y100.793 E0.027
G1 X131.445 Y100.423 E0.029
G1 X130.377 Y99.587 E0.034
G1 X130.274 Y99.421 E0.004
G1 X130.398 Y99.35 E0.004
G1 X130.793 Y99.066 E0.012
G1 X131.158 Y98.744 E0.012
G1 X131.489 Y98.387 E0.012
G1 X131.783 Y98 E0.012
G1 X132.037 Y97.585 E0.013
G1 X132.248 Y97.146 E0.012
G1 X132.414 Y96.689 E0.012
G1 X132.535 Y96.218 E0.012
G1 X132.607 Y95.735 E0.012
G1 X132.631 Y95.25 E0.012
G1 X132.625 Y95.134 E0.003
G1 X133.582 Y93.595 E0.045
G1 X134.65 Y93.297 E0.028
G1 X134.77 Y93.339 E0.003
G1 Y90.137 E0.08
G1 X134.65 Y90.231 E0.004
G1 X133.582 Y91.95 E0.05
G1 X132.513 Y92.248 E0.028
G1 X131.445 Y91.878 E0.028
G1 X130.377 Y91.042 E0.034
G1 X129.345 Y89.38 E0.049
G1 X127.214 E0.053
G1 X127.173 Y89.394 E0.001
G1 X126.105 Y90.231 E0.034
G1 X125.753 Y90.797 E0.017
G1 X125.742 Y90.801
G1 X125.31 Y91.023 E0.012
G1 X124.901 Y91.287 E0.012
G1 X124.52 Y91.591 E0.012
G1 X124.172 Y91.93 E0.012
G1 X123.919 Y92.231 E0.01
G1 X122.9 Y91.878 E0.027
G1 X121.832 Y91.042 E0.034
G1 X120.8 Y89.38 E0.049
;rapid-leaky
G0 X120.73 Y114.948 F7200
;bead-sparse_infill
G1 X120.764 Y114.958 F3600 E0.001
G1 X121.37 Y115.933 E0.028
G1 Y113.482 E0.061
G1 X120.764 Y113.313 E0.016
G1 X120.73 Y113.259 E0.002
G1 F2100 E-0.5
;LAYER:8
;rapid-dry
G0 X120.83 Y120.204 Z1.25 F7200
G1 F2100 E0.5
;bead-support
G1 X120.581 Y119.773 F3300 E0.012
G1 X121.251 Y119.77 E0.017
G1 X121.349 Y119.769 E0.002
G1 X121.582 Y120.173 E0.012
G1 F2100 E-0.5
G0 X121.349 Y119.769 F2400
G0 X121.251 Y119.77 F2400
G0 X120.815 Y119.772 F2400
G0 X121.251 Y119.77 F2400
G0 X121.349 Y119.769 F2400
G0 X121.582 Y120.173 F2400
;rapid-dry
G0 X133.917 Y120.204 F7200
G1 F2100 E0.5
;bead-support
G1 X133.666 Y119.77 F3300 E0.012
G1 X133.883 Y119.774 E0.006
G1 X134.436 Y119.771 E0.014
G1 X134.686 Y120.204 E0.012
G1 X134.796 E0.003
G1 X135.007 Y120.169 E0.005
G1 X135.311 Y120.17 E0.008
G1 Y119.953 E0.005
G1 X135.204 Y119.766 E0.006
G1 F2100 E-0.5
G0 X135.311 Y119.953 F2400
G0 Y120.17 F2400
G0 F2400
G0 X135.007 Y120.169 F2400
G0 X134.796 Y120.204 F2400
G0 X134.746 F2400
G0 X134.796 F2400
G0 X135.007 Y120.169 F2400
G0 X135.311 Y120.17 F2400
G0 F2400
G0 Y119.953 F2400
G0 X135.204 Y119.766 F2400
;rapid-dry
G0 X133.45 Y107.3 F7200
G1 F2100 E0.5
;bead-perimeter_outer
G1 X122.05 F1800 E0.284
G1 Y118.9 E0.289
G1 X120.05 E0.05
G1 Y88.7 E0.754
G1 X135.45 E0.384
G1 Y118.9 E0.753
G1 X133.45 E0.05
G1 Y107.3 E0.289
;rapid-leaky
G0 X133.81 Y106.94 F7200
;bead-perimeter_inner
G1 X121.69 F2400 E0.303
G1 Y118.54 E0.289
G1 X120.41 E0.032
G1 Y89.06 E0.735
G1 X135.09 E0.367
G1 Y118.54 E0.735
G1 X133.81 E0.032
G1 Y106.94 E0.289
;rapid-leaky
G0 X130.369 Y98.534 F7200
;bead-perimeter_outer
G1 X130.683 Y98.256 F1800 E0.011
G1 X130.967 Y97.95 E0.01
G1 X131.22 Y97.616 E0.011
G1 X131.439 Y97.259 E0.01
G1 X131.621 Y96.882 E0.01
G1 X131.763 Y96.488 E0.011
G1 X131.867 Y96.083 E0.01
G1 X131.929 Y95.668 E0.011
G1 X131.95 Y95.25 E0.01
G1 X131.929 Y94.832 E0.011
G1 X131.867 Y94.417 E0.01
G1 X131.763 Y94.012 E0.011
G1 X131.621 Y93.618 E0.01
G1 X131.439 Y93.241 E0.01
G1 X131.22 Y92.884 E0.011
G1 X130.967 Y92.55 E0.01
G1 X130.683 Y92.244 E0.011
G1 X130.369 Y91.966 E0.01
G1 X130.029 Y91.722 E0.011
G1 X129.666 Y91.513 E0.01
G1 X129.284 Y91.341 E0.011
G1 X128.887 Y91.207 E0.01
G1 X128.48 Y91.114 E0.01
G1 X128.064 Y91.061 E0.011
G1 X127.645 Y91.051 E0.01
G1 X127.228 Y91.082 E0.011
G1 X126.816 Y91.155 E0.01
G1 X126.412 Y91.268 E0.011
G1 X126.023 Y91.422 E0.01
G1 X125.65 Y91.613 E0.011
G1 X125.298 Y91.839 E0.01
G1 X124.97 Y92.101 E0.01
G1 X124.671 Y92.393 E0.011
G1 X124.401 Y92.714 E0.01
G1 X124.166 Y93.06 E0.011
G1 X123.966 Y93.427 E0.01
G1 X123.803 Y93.814 E0.011
G1 X123.68 Y94.214 E0.01
G1 X123.597 Y94.624 E0.011
G1 X123.555 Y95.041 E0.01
G1 Y95.459 E0.01
G1 X123.597 Y95.876 E0.011
G1 X123.68 Y96.286 E0.01
G1 X123.803 Y96.686 E0.011
G1 X123.966 Y97.073 E0.01
G1 X124.166 Y97.44 E0.011
G1 X124.401 Y97.786 E0.01
G1 X124.671 Y98.107 E0.011
G1 X124.97 Y98.399 E0.01
G1 X125.298 Y98.661 E0.01
G1 X125.65 Y98.887 E0.011
G1 X126.023 Y99.078 E0.01
G1 X126.412 Y99.232 E0.011
G1 X126.816 Y99.345 E0.01
G1 X127.228 Y99.418 E0.011
G1 X127.645 Y99.449 E0.01
G1 X128.064 Y99.439 E0.011
G1 X128.48 Y99.386 E0.01
G1 X128.887 Y99.293 E0.01
G1 X129.284 Y99.16 E0.011
G1 X129.666 Y98.987 E0.01
G1 X130.029 Y98.778 E0.011
G1 X130.369 Y98.534 E0.01
;rapid-leaky
G0 X130.594 Y98.815 F7200
;bead-perimeter_inner
G1 X130.935 Y98.514 F2400 E0.012
G1 X131.243 Y98.182 E0.011
G1 X131.518 Y97.819 E0.011
G1 X131.755 Y97.431 E0.012
G1 X131.953 Y97.022 E0.011
G1 X132.108 Y96.594 E0.011
G1 X132.221 Y96.154 E0.012
G1 X132.288 Y95.704 E0.011
G1 X132.311 Y95.25 E0.011
G1 X132.288 Y94.796 E0.012
G1 X132.221 Y94.346 E0.011
G1 X132.108 Y93.906 E0.011
G1 X131.953 Y93.478 E0.012
G1 X131.755 Y93.069 E0.011
G1 X131.518 Y92.681 E0.011
G1 X131.243 Y92.319 E0.012
G1 X130.935 Y91.986 E0.011
G1 X130.594 Y91.685 E0.011
G1 X130.224 Y91.419 E0.012
G1 X129.831 Y91.192 E0.011
G1 X129.416 Y91.005 E0.011
G1 X128.985 Y90.86 E0.012
G1 X128.543 Y90.759 E0.011
G1 X128.091 Y90.702 E0.011
G1 X127.636 Y90.69 E0.012
G1 X127.183 Y90.725 E0.011
G1 X126.735 Y90.803 E0.011
G1 X126.297 Y90.927 E0.012
G1 X125.874 Y91.093 E0.011
G1 X125.47 Y91.3 E0.011
G1 X125.088 Y91.547 E0.012
G1 X124.732 Y91.831 E0.011
G1 X124.407 Y92.148 E0.011
G1 X124.114 Y92.496 E0.012
G1 X123.859 Y92.872 E0.011
G1 X123.641 Y93.271 E0.012
G1 X123.464 Y93.691 E0.011
G1 X123.331 Y94.125 E0.011
G1 X123.241 Y94.57 E0.012
G1 X123.195 Y95.023 E0.011
G1 Y95.477 E0.011
G1 X123.241 Y95.93 E0.012
G1 X123.331 Y96.375 E0.011
G1 X123.464 Y96.809 E0.011
G1 X123.641 Y97.229 E0.012
G1 X123.859 Y97.628 E0.011
G1 X124.114 Y98.004 E0.011
G1 X124.407 Y98.352 E0.012
G1 X124.732 Y98.669 E0.011
G1 X125.088 Y98.953 E0.011
G1 X125.47 Y99.2 E0.012
G1 X125.874 Y99.407 E0.011
G1 X126.297 Y99.573 E0.011
G1 X126.735 Y99.697 E0.012
G1 X127.183 Y99.775 E0.011
G1 X127.636 Y99.81 E0.011
G1 X128.091 Y99.798 E0.012
G1 X128.543 Y99.741 E0.011
G1 X128.984 Y99.64 E0.011
G1 X129.416 Y99.496 E0.012
G1 X129.831 Y99.308 E0.011
G1 X130.224 Y99.081 E0.011
G1 X130.594 Y98.815 E0.012
G1 F2100 E-0.5
;rapid-dry
G0 X121.37 Y116.117 F7200
G1 F2100 E0.5
;bead-sparse_infill
G1 X120.764 Y115.305 F3600 E0.025
G1 X120.73 Y115.29 E0.001
G1 Y112.921 E0.059
G1 X120.764 Y112.966 E0.001
G1 X121.37 Y113.237 E0.017
G1 Y107.571 E0.141
G1 X120.764 Y106.76 E0.026
G1 X120.73 Y106.745 E0.001
G1 Y104.376 E0.059
G1 X120.764 Y104.421 E0.001
G1 X121.832 Y104.898 E0.029
G1 X122.9 Y104.642 E0.028
G1 X123.968 Y103.918 E0.032
G1 X125.036 Y102.487 E0.044
G1 X126.105 Y102.01 E0.03
G1 X127.173 Y102.266 E0.027
G1 X128.241 Y102.99 E0.032
G1 X129.309 Y104.421 E0.045
G1 X130.377 Y104.898 E0.029
G1 X131.445 Y104.642 E0.027
G1 X132.513 Y103.918 E0.032
G1 X133.582 Y102.487 E0.045
G1 X134.65 Y102.01 E0.029
G1 X134.77 Y102.039 E0.003
G1 Y98.636 E0.085
G1 X134.65 Y98.718 E0.004
G1 X133.582 Y100.148 E0.044
G1 X132.513 Y100.625 E0.029
G1 X131.445 Y100.37 E0.028
G1 X130.377 Y99.645 E0.032
G1 X130.23 Y99.447 E0.006
G1 X130.398 Y99.35 E0.005
G1 X130.793 Y99.066 E0.012
G1 X131.158 Y98.744 E0.012
G1 X131.489 Y98.387 E0.012
G1 X131.783 Y98 E0.013
G1 X132.037 Y97.585 E0.012
G1 X132.248 Y97.146 E0.012
G1 X132.414 Y96.689 E0.012
G1 X132.535 Y96.218 E0.012
G1 X132.607 Y95.735 E0.012
G1 X132.631 Y95.25 E0.012
G1 X132.629 Y95.217 E0.001
G1 X133.582 Y93.942 E0.04
G1 X134.65 Y93.465 E0.029
G1 X134.77 Y93.494 E0.003
G1 Y90.091 E0.085
G1 X134.65 Y90.173 E0.004
G1 X133.582 Y91.603 E0.044
G1 X132.513 Y92.08 E0.029
G1 X131.445 Y91.824 E0.028
G1 X130.377 Y91.1 E0.032
G1 X129.309 Y89.669 E0.045
G1 X128.661 Y89.38 E0.017
G1 X127.458 E0.03
G1 X127.173 Y89.448 E0.008
G1 X126.105 Y90.173 E0.032
G1 X125.569 Y90.89 E0.022
G1 X125.31 Y91.023 E0.007
G1 X124.901 Y91.287 E0.013
G1 X124.52 Y91.591 E0.012
G1 X124.172 Y91.93 E0.012
G1 X124.093 Y92.024 E0.003
G1 X123.968 Y92.08 E0.003
G1 X122.9 Y91.824 E0.028
G1 X121.832 Y91.1 E0.032
G1 X120.764 Y89.669 E0.044
G1 X120.73 Y89.654 E0.001
G1 F2100 E-0.5
;rapid-dry
G0 X117.725 Y93.527 F7200
G1 F2100 E0.5
;bead-support
G1 X118.475 Y93.094 F3300 E0.022
G1 X119.28 Y93.092 E0.02
G1 Y95.709 E0.065
G1 X118.583 Y96.112 E0.02
G1 X118.582
G1 X118.215 Y96.619 E0.016
G1 X117.712 Y96.983 E0.015
G1 X116.844 Y97.188 E0.023
G1 X116.755 Y97.167 E0.002
G1 X116.457 Y97.339 E0.009
G1 X116.045 Y97.26 E0.01
G1 X115.586 Y97.008 E0.013
G1 X115.014 Y96.4 E0.021
G1 X114.789 Y95.92 E0.013
G1 X114.689 Y95.396 E0.013
G1 X114.705 Y95.271 E0.004
G1 X114.938 Y95.137 E0.006
G1 F2100 E-0.5
G0 X114.705 Y95.271 F2400
G0 X114.689 Y95.396 F2400
G0 X114.789 Y95.92 F2400
G0 X114.819 Y95.985 F2400
G0 X114.789 Y95.92 F2400
G0 X114.689 Y95.396 F2400
G0 X114.705 Y95.271 F2400
G0 X114.938 Y95.137 F2400
;rapid-dry
G0 X122.942 Y96.068 F7200
G1 F2100 E0.5
;bead-sparse_infill
G1 X122.9 Y96.097 F3600 E0.002
G1 X121.832 Y96.352 E0.027
G1 X120.764 Y95.876 E0.029
G1 X120.73 Y95.83 E0.002
G1 Y98.199 E0.059
G1 X120.764 Y98.215 E0.001
G1 X121.832 Y99.645 E0.044
G1 X122.9 Y100.37 E0.032
G1 X123.968 Y100.625 E0.028
G1 X125.036 Y100.148 E0.029
G1 X125.474 Y99.562 E0.018
;rapid-leaky
G0 X127.052 Y106.62 F7200
;bead-sparse_infill
G1 X127.173 Y106.538 F3600 E0.004
G1 X128.241 Y106.283 E0.027
G1 X128.996 Y106.62 E0.021
G1 X134.13 E0.128
G1 Y107.959 E0.033
G1 X134.65 Y107.263 E0.022
G1 X134.77 Y107.181 E0.004
G1 Y110.584 E0.084
G1 X134.65 Y110.555 E0.004
G1 X134.13 Y110.787 E0.014
G1 Y116.504 E0.142
G1 X134.65 Y115.808 E0.022
G1 X134.77 Y115.726 E0.004
G1 F2100 E-0.5
;LAYER:9
;rapid-dry
G0 X135.275 Y119.889 Z1.4 F7200
G1 F2100 E0.5
;bead-support
G1 X135.311 Y119.953 F3300 E0.001
G1 Y120.3 E0.009
G1 Y120.318 E0.001
G1 X134.811 E0.012
G1 X134.757 Y120.327 E0.001
G1 X134.525 Y119.924 E0.012
G1 X133.923 E0.015
G1 X133.742 Y119.889 E0.005
G1 X133.735
G1 X134.004 Y120.355 E0.013
G1 F2100 E-0.5
G0 X133.735 Y119.889 F2400
G0 X133.742 F2400
G0 F2400
G0 X133.923 Y119.924 F2400
G0 X134.193 F2400
G0 X133.923 F2400
G0 X133.742 Y119.889 F2400
G0 F2400
G0 X133.735 F2400
G0 X134.004 Y120.355 F2400
;rapid-dry
G0 X121.666 Y120.318 F7200
G1 F2100 E0.5
;bead-support
G1 X121.432 Y119.914 F3300 E0.012
G1 X121.373 Y119.924 E0.001
G1 X120.668 E0.018
G1 X120.917 Y120.355 E0.012
G1 F2100 E-0.5
G0 X120.668 Y119.924 F2400
G0 X121.171 F2400
G0 X120.668 F2400
G0 X120.917 Y120.355 F2400
;rapid-dry
G0 X114.938 Y95.137 F7200
G1 F2100 E0.5
;bead-support
G1 X114.705 Y95.271 F3300 E0.007
G1 X114.689 Y95.396 E0.003
G1 X114.789 Y95.92 E0.014
G1 X115.014 Y96.4 E0.013
G1 X115.586 Y97.008 E0.021
G1 X116.045 Y97.26 E0.013
G1 X116.457 Y97.339 E0.01
G1 X116.755 Y97.167 E0.009
G1 X116.844 Y97.188 E0.002
G1 X117.712 Y96.983 E0.022
G1 X118.215 Y96.619 E0.016
G1 X118.582 Y96.112 E0.015
G1 X118.583
G1 X119.28 Y95.709 E0.02
G1 Y93.092 E0.066
G1 X118.475 Y93.094 E0.02
G1 X117.725 Y93.527 E0.021
G1 F2100 E-0.5
G0 X118.475 Y93.094 F2400
G0 X118.61 F2400
G0 X118.475 F2400
G0 X117.725 Y93.527 F2400
;rapid-dry
G0 X130.683 Y92.244 F7200
G1 F2100 E0.5
;bead-perimeter_outer
G1 X130.369 Y91.966 F1800 E0.011
G1 X130.029 Y91.722 E0.01
G1 X129.666 Y91.513 E0.011
G1 X129.284 Y91.341 E0.01
G1 X128.887 Y91.207 E0.011
G1 X128.48 Y91.114 E0.01
G1 X128.064 Y91.061 E0.01
G1 X127.645 Y91.051 E0.011
G1 X127.228 Y91.082 E0.01
G1 X126.816 Y91.155 E0.011
G1 X126.412 Y91.268 E0.01
G1 X126.023 Y91.422 E0.011
G1 X125.65 Y91.613 E0.01
G1 X125.298 Y91.839 E0.011
G1 X124.9 Y92.17 E0.013
G1 X124.671 Y92.393 E0.007
G1 X124.401 Y92.714 E0.011
G1 X124.166 Y93.06 E0.01
G1 X123.966 Y93.427 E0.011
G1 X123.803 Y93.814 E0.01
G1 X123.68 Y94.214 E0.011
G1 X123.597 Y94.624 E0.01
G1 X123.555 Y95.041 E0.011
G1 Y95.459 E0.01
G1 X123.597 Y95.876 E0.01
G1 X123.68 Y96.286 E0.011
G1 X123.803 Y96.686 E0.01
G1 X123.966 Y97.073 E0.011
G1 X124.166 Y97.44 E0.01
G1 X124.401 Y97.786 E0.011
G1 X124.671 Y98.107 E0.01
G1 X124.97 Y98.399 E0.011
G1 X125.298 Y98.661 E0.01
G1 X125.65 Y98.887 E0.011
G1 X126.023 Y99.078 E0.01
G1 X126.412 Y99.232 E0.01
G1 X126.816 Y99.345 E0.011
G1 X127.228 Y99.418 E0.01
G1 X127.645 Y99.449 E0.011
G1 X128.064 Y99.439 E0.01
G1 X128.48 Y99.386 E0.011
G1 X128.887 Y99.293 E0.01
G1 X129.284 Y99.16 E0.011
G1 X129.666 Y98.987 E0.01
G1 X130.029 Y98.778 E0.01
G1 X130.369 Y98.534 E0.011
G1 X130.683 Y98.256 E0.01
G1 X130.967 Y97.95 E0.011
G1 X131.22 Y97.616 E0.01
G1 X131.439 Y97.259 E0.011
G1 X131.621 Y96.882 E0.01
G1 X131.763 Y96.488 E0.011
G1 X131.867 Y96.083 E0.01
G1 X131.929 Y95.668 E0.01
G1 X131.95 Y95.25 E0.011
G1 X131.929 Y94.832 E0.01
G1 X131.867 Y94.417 E0.011
G1 X131.763 Y94.012 E0.01
G1 X131.621 Y93.618 E0.011
G1 X131.439 Y93.241 E0.01
G1 X131.22 Y92.884 E0.011
G1 X130.967 Y92.55 E0.01
G1 X130.683 Y92.244 E0.01
;rapid-leaky
G0 X130.935 Y91.986 F7200
;bead-perimeter_inner
G1 X130.594 Y91.685 F2400 E0.012
G1 X130.224 Y91.419 E0.011
G1 X129.831 Y91.192 E0.011
G1 X129.416 Y91.005 E0.012
G1 X128.985 Y90.86 E0.011
G1 X128.543 Y90.759 E0.011
G1 X128.091 Y90.702 E0.012
G1 X127.636 Y90.69 E0.011
G1 X127.183 Y90.725 E0.011
G1 X126.735 Y90.803 E0.012
G1 X126.297 Y90.927 E0.011
G1 X125.874 Y91.093 E0.012
G1 X125.47 Y91.3 E0.011
G1 X125.088 Y91.547 E0.011
G1 X124.648 Y91.912 E0.014
G1 X124.407 Y92.148 E0.009
G1 X124.114 Y92.496 E0.011
G1 X123.859 Y92.872 E0.012
G1 X123.641 Y93.271 E0.011
G1 X123.464 Y93.691 E0.011
G1 X123.331 Y94.125 E0.012
G1 X123.241 Y94.57 E0.011
G1 X123.195 Y95.023 E0.011
G1 Y95.477 E0.012
G1 X123.241 Y95.93 E0.011
G1 X123.331 Y96.375 E0.011
G1 X123.464 Y96.809 E0.012
G1 X123.641 Y97.229 E0.011
G1 X123.859 Y97.628 E0.011
G1 X124.114 Y98.004 E0.012
G1 X124.407 Y98.352 E0.011
G1 X124.732 Y98.669 E0.011
G1 X125.088 Y98.953 E0.012
G1 X125.47 Y99.2 E0.011
G1 X125.874 Y99.407 E0.011
G1 X126.297 Y99.573 E0.012
G1 X126.735 Y99.697 E0.011
G1 X127.183 Y99.775 E0.011
G1 X127.636 Y99.81 E0.012
G1 X128.091 Y99.798 E0.011
G1 X128.543 Y99.741 E0.011
G1 X128.984 Y99.64 E0.012
G1 X129.416 Y99.496 E0.011
G1 X129.831 Y99.308 E0.011
G1 X130.224 Y99.081 E0.012
G1 X130.594 Y98.815 E0.011
G1 X130.935 Y98.514 E0.011
G1 X131.243 Y98.182 E0.012
G1 X131.518 Y97.819 E0.011
G1 X131.755 Y97.431 E0.011
G1 X131.953 Y97.022 E0.012
G1 X132.108 Y96.594 E0.011
G1 X132.221 Y96.154 E0.011
G1 X132.288 Y95.704 E0.012
G1 X132.311 Y95.25 E0.011
G1 X132.288 Y94.796 E0.012
G1 X132.221 Y94.346 E0.011
G1 X132.108 Y93.906 E0.011
G1 X131.953 Y93.478 E0.012
G1 X131.755 Y93.069 E0.011
G1 X131.518 Y92.681 E0.011
G1 X131.243 Y92.319 E0.012
G1 X130.935 Y91.986 E0.011
;rapid-leaky
G0 X135.45 Y88.7 F7200
;bead-perimeter_outer
G1 Y119.084 F1800 E0.758
G1 X133.45 E0.05
G1 Y107.3 E0.294
G1 X122.05 E0.284
G1 Y119.084 E0.294
G1 X120.05 E0.05
G1 Y88.7 E0.758
G1 X135.45 E0.384
;rapid-leaky
G0 X135.09 Y89.06 F7200
;bead-perimeter_inner
G1 Y118.724 F2400 E0.74
G1 X133.81 E0.032
G1 Y106.94 E0.294
G1 X121.69 E0.302
G1 Y118.724 E0.294
G1 X120.41 E0.032
G1 Y89.06 E0.74
G1 X135.09 E0.366
;rapid-leaky
G0 X134.77 Y115.677 F7200
;bead-sparse_infill
G1 X134.65 Y115.747 F3600 E0.004
G1 X134.13 Y116.353 E0.02
G1 Y110.983 E0.134
G1 X134.65 Y110.702 E0.014
G1 X134.77 Y110.719 E0.003
G1 Y107.132 E0.09
G1 X134.65 Y107.201 E0.003
G1 X134.13 Y107.807 E0.02
G1 Y106.62 E0.03
G1 X128.594 E0.138
G1 X128.241 Y106.429 E0.01
G1 X127.173 Y106.581 E0.027
G1 X127.106 Y106.62 E0.002
;rapid-leaky
G0 X125.373 Y99.51 F7200
;bead-sparse_infill
G1 X125.036 Y99.902 F3600 E0.013
G1 X123.968 Y100.479 E0.03
G1 X122.9 Y100.327 E0.027
G1 X121.832 Y99.707 E0.031
G1 X120.764 Y98.461 E0.041
G1 X120.73 Y98.443 E0.001
G1 Y95.59 E0.071
G1 X120.764 Y95.629 E0.001
G1 X121.832 Y96.206 E0.03
G1 X122.9 Y96.054 E0.027
G1 X122.935 Y96.034 E0.001
G1 F2100 E-0.5
;rapid-dry
G0 X121.37 Y116.258 F7200
G1 F2100 E0.5
;bead-sparse_infill
G1 X120.764 Y115.551 F3600 E0.023
G1 X120.73 Y115.533 E0.001
G1 Y112.68 E0.072
G1 X120.764 Y112.72 E0.001
G1 X121.37 Y113.047 E0.017
G1 Y107.713 E0.133
G1 X120.764 Y107.006 E0.023
G1 X120.73 Y106.988 E0.001
G1 Y104.135 E0.071
G1 X120.764 Y104.174 E0.002
G1 X121.832 Y104.751 E0.03
G1 X122.9 Y104.599 E0.027
G1 X123.968 Y103.979 E0.031
G1 X125.036 Y102.734 E0.041
G1 X126.105 Y102.157 E0.03
G1 X127.173 Y102.309 E0.027
G1 X128.241 Y102.929 E0.031
G1 X129.309 Y104.174 E0.041
G1 X130.377 Y104.751 E0.03
G1 X131.445 Y104.599 E0.027
G1 X132.513 Y103.979 E0.031
G1 X133.582 Y102.734 E0.041
G1 X134.65 Y102.157 E0.03
G1 X134.77 Y102.174 E0.003
G1 Y98.586 E0.089
G1 X134.65 Y98.656 E0.004
G1 X133.582 Y99.902 E0.041
G1 X132.513 Y100.479 E0.03
G1 X131.445 Y100.327 E0.027
G1 X130.377 Y99.707 E0.031
G1 X130.18 Y99.476 E0.007
G1 X130.398 Y99.35 E0.007
G1 X130.793 Y99.066 E0.012
G1 X131.158 Y98.744 E0.012
G1 X131.489 Y98.387 E0.012
G1 X131.783 Y98 E0.012
G1 X132.037 Y97.585 E0.012
G1 X132.248 Y97.146 E0.012
G1 X132.414 Y96.689 E0.013
G1 X132.535 Y96.218 E0.012
G1 X132.607 Y95.735 E0.012
G1 X132.629 Y95.3 E0.011
G1 X133.582 Y94.188 E0.036
G1 X134.65 Y93.612 E0.031
G1 X134.77 Y93.629 E0.003
G1 Y90.041 E0.089
G1 X134.65 Y90.111 E0.004
G1 X133.582 Y91.357 E0.041
G1 X132.513 Y91.934 E0.03
G1 X131.445 Y91.782 E0.027
G1 X130.569 Y91.273 E0.025
G1 X130.398 Y91.15 E0.005
G1 X130.337 Y91.115 E0.002
G1 X129.309 Y89.916 E0.039
G1 X128.317 Y89.38 E0.029
G1 X127.953 E0.009
G1 X127.173 Y89.491 E0.019
G1 X126.105 Y90.111 E0.031
G1 X125.333 Y91.011 E0.03
G1 X125.31 Y91.023
G1 X124.898 Y91.288 E0.013
G1 X124.434 Y91.674 E0.015
G1 X124.415 Y91.692
G1 X123.968 Y91.934 E0.013
G1 X122.9 Y91.782 E0.027
G1 X121.832 Y91.161 E0.031
G1 X120.764 Y89.916 E0.041
G1 X120.73 Y89.898
G1 F2100 E-0.5
;LAYER:10
;rapid-leaky
G0 X120.05 Y88.7 Z1.55 F7200
G1 F2100 E0.5
;bead-perimeter_outer
G1 X135.45 F1800 E0.385
G1 Y119.268 E0.762
G1 X133.45 E0.05
G1 Y107.3 E0.299
G1 X122.05 E0.284
G1 Y119.268 E0.299
G1 X120.05 E0.049
G1 Y88.7 E0.763
;rapid-leaky
G0 X120.41 Y89.06 F7200
;bead-perimeter_inner
G1 X135.09 F2400 E0.366
G1 Y118.908 E0.745
G1 X133.81 E0.032
G1 Y106.94 E0.298
G1 X121.69 E0.302
G1 Y118.908 E0.299
G1 X120.41 E0.032
G1 Y89.06 E0.745
G1 F2100 E-0.5
;rapid-dry
G0 X117.725 Y93.527 F7200
G1 F2100 E0.5
;bead-support
G1 X118.475 Y93.094 F3300 E0.021
G1 X119.28 Y93.092 E0.02
G1 Y95.709 E0.065
G1 X118.583 Y96.112 E0.021
G1 X118.582
G1 X118.215 Y96.619 E0.015
G1 X117.712 Y96.983 E0.016
G1 X116.844 Y97.188 E0.022
G1 X116.755 Y97.167 E0.002
G1 X116.457 Y97.339 E0.009
G1 X116.045 Y97.26 E0.01
G1 X115.586 Y97.008 E0.013
G1 X115.014 Y96.4 E0.021
G1 X114.789 Y95.92 E0.013
G1 X114.689 Y95.396 E0.014
G1 X114.705 Y95.271 E0.003
G1 X114.938 Y95.137 E0.007
G1 F2100 E-0.5
G0 X114.705 Y95.271 F2400
G0 X114.689 Y95.396 F2400
G0 X114.789 Y95.92 F2400
G0 X114.819 Y95.985 F2400
G0 X114.789 Y95.92 F2400
G0 X114.689 Y95.396 F2400
G0 X114.705 Y95.271 F2400
G0 X114.938 Y95.137 F2400
;rapid-dry
G0 X123.68 Y94.214 F7200
G1 F2100 E0.5
;bead-perimeter_outer
G1 X123.597 Y94.624 F1800 E0.01
G1 X123.555 Y95.041 E0.01
G1 Y95.459 E0.011
G1 X123.597 Y95.876 E0.01
G1 X123.68 Y96.286 E0.011
G1 X123.803 Y96.686 E0.01
G1 X123.966 Y97.073 E0.011
G1 X124.166 Y97.44 E0.01
G1 X124.401 Y97.786 E0.011
G1 X124.671 Y98.107 E0.01
G1 X124.97 Y98.399 E0.01
G1 X125.298 Y98.661 E0.011
G1 X125.65 Y98.887 E0.01
G1 X126.023 Y99.078 E0.011
G1 X126.412 Y99.232 E0.01
G1 X126.816 Y99.345 E0.011
G1 X127.228 Y99.418 E0.01
G1 X127.645 Y99.449 E0.011
G1 X128.064 Y99.439 E0.01
G1 X128.48 Y99.386 E0.01
G1 X128.887 Y99.293 E0.011
G1 X129.284 Y99.16 E0.01
G1 X129.666 Y98.987 E0.011
G1 X130.029 Y98.778 E0.01
G1 X130.369 Y98.534 E0.011
G1 X130.683 Y98.256 E0.01
G1 X130.967 Y97.95 E0.011
G1 X131.22 Y97.616 E0.01
G1 X131.439 Y97.259 E0.01
G1 X131.621 Y96.882 E0.011
G1 X131.763 Y96.488 E0.01
G1 X131.867 Y96.083 E0.011
G1 X131.929 Y95.668 E0.01
G1 X131.95 Y95.25 E0.011
G1 X131.929 Y94.832 E0.01
G1 X131.867 Y94.417 E0.011
G1 X131.763 Y94.012 E0.01
G1 X131.621 Y93.618 E0.01
G1 X131.439 Y93.241 E0.011
G1 X131.22 Y92.884 E0.01
G1 X130.967 Y92.55 E0.011
G1 X130.683 Y92.244 E0.01
G1 X130.369 Y91.966 E0.011
G1 X130.029 Y91.722 E0.01
G1 X129.666 Y91.513 E0.011
G1 X129.284 Y91.341 E0.01
G1 X128.887 Y91.207 E0.01
G1 X128.48 Y91.114 E0.011
G1 X128.065 Y91.061 E0.01
G1 X127.645 Y91.051 E0.011
G1 X127.228 Y91.082 E0.01
G1 X126.816 Y91.155 E0.011
G1 X126.412 Y91.268 E0.01
G1 X126.023 Y91.422 E0.011
G1 X125.65 Y91.613 E0.01
G1 X125.298 Y91.839 E0.01
G1 X124.97 Y92.101 E0.011
G1 X124.671 Y92.393 E0.01
G1 X124.401 Y92.714 E0.011
G1 X124.166 Y93.06 E0.01
G1 X123.966 Y93.427 E0.011
G1 X123.803 Y93.814 E0.01
G1 X123.68 Y94.214 E0.011
;rapid-leaky
G0 X123.331 Y94.125 F7200
;bead-perimeter_inner
G1 X123.241 Y94.57 F2400 E0.011
G1 X123.195 Y95.023 E0.011
G1 Y95.477 E0.012
G1 X123.241 Y95.93 E0.011
G1 X123.331 Y96.375 E0.011
G1 X123.464 Y96.809 E0.012
G1 X123.641 Y97.229 E0.011
G1 X123.859 Y97.628 E0.011
G1 X124.114 Y98.004 E0.012
G1 X124.407 Y98.352 E0.011
G1 X124.732 Y98.669 E0.011
G1 X125.088 Y98.953 E0.012
G1 X125.47 Y99.2 E0.011
G1 X125.874 Y99.407 E0.011
G1 X126.297 Y99.573 E0.012
G1 X126.735 Y99.697 E0.011
G1 X127.183 Y99.775 E0.011
G1 X127.636 Y99.81 E0.012
G1 X128.091 Y99.798 E0.011
G1 X128.543 Y99.741 E0.011
G1 X128.984 Y99.64 E0.012
G1 X129.416 Y99.496 E0.011
G1 X129.831 Y99.308 E0.011
G1 X130.224 Y99.081 E0.012
G1 X130.594 Y98.815 E0.011
G1 X130.935 Y98.514 E0.011
G1 X131.243 Y98.182 E0.012
G1 X131.518 Y97.819 E0.011
G1 X131.755 Y97.431 E0.011
G1 X131.953 Y97.022 E0.012
G1 X132.108 Y96.594 E0.011
G1 X132.221 Y96.154 E0.011
G1 X132.288 Y95.704 E0.012
G1 X132.311 Y95.25 E0.011
G1 X132.288 Y94.796 E0.012
G1 X132.221 Y94.346 E0.011
G1 X132.108 Y93.906 E0.011
G1 X131.953 Y93.478 E0.012
G1 X131.755 Y93.069 E0.011
G1 X131.518 Y92.681 E0.011
G1 X131.243 Y92.319 E0.012
G1 X130.935 Y91.986 E0.011
G1 X130.594 Y91.685 E0.011
G1 X130.224 Y91.419 E0.012
G1 X129.831 Y91.192 E0.011
G1 X129.416 Y91.005 E0.011
G1 X128.985 Y90.86 E0.012
G1 X128.543 Y90.759 E0.011
G1 X128.093 Y90.702 E0.011
G1 X127.635 Y90.691 E0.012
G1 X127.183 Y90.725 E0.011
G1 X126.735 Y90.803 E0.011
G1 X126.297 Y90.927 E0.012
G1 X125.874 Y91.093 E0.011
G1 X125.47 Y91.3 E0.011
G1 X125.088 Y91.547 E0.012
G1 X124.732 Y91.831 E0.011
G1 X124.407 Y92.148 E0.011
G1 X124.114 Y92.496 E0.012
G1 X123.859 Y92.872 E0.011
G1 X123.641 Y93.271 E0.011
G1 X123.464 Y93.691 E0.012
G1 X123.331 Y94.125 E0.011
;rapid-leaky
G0 X122.93 Y96.007 F7200
;bead-sparse_infill
G1 X122.9 Y96.021 F3600 E0.001
G1 X121.832 Y96.077 E0.027
G1 X120.764 Y95.43 E0.031
G1 X120.73 Y95.394 E0.001
G1 Y98.64 E0.081
G1 X120.764 Y98.661 E0.001
G1 X121.832 Y99.772 E0.038
G1 X122.9 Y100.294 E0.03
G1 X123.968 Y100.35 E0.027
G1 X125.036 Y99.702 E0.031
G1 X125.275 Y99.454 E0.008
;rapid-leaky
G0 X127.16 Y106.62 F7200
;bead-sparse_infill
G1 X127.173 Y106.614 F3600 E0.001
G1 X128.241 Y106.558 E0.026
G1 X128.343 Y106.62 E0.003
G1 X134.13 E0.145
G1 Y107.677 E0.026
G1 X134.65 Y107.136 E0.019
G1 X134.77 Y107.077 E0.003
G1 Y110.837 E0.094
G1 X134.65 Y110.831 E0.003
G1 X134.13 Y111.146 E0.015
;rapid-leaky
G0 X134.77 Y114.077 F7200
;bead-solid_infill
G1 X134.727 Y114.034 F1800 E0.002
G1 X134.161 E0.014
G1 X134.77 Y114.643 E0.021
G1 Y115.209 E0.014
G1 X134.13 Y114.569 E0.023
G1 Y115.135 E0.014
G1 X134.77 Y115.775 E0.023
G1 Y116.34 E0.014
G1 X134.13 Y115.7 E0.022
G1 Y116.266 E0.014
G1 X134.77 Y116.906 E0.023
G1 Y116.982 E0.002
G1 X134.28 E0.012
G1 X134.13 Y116.832 E0.005
G1 F2100 E-0.5
;rapid-dry
G0 X134.779 Y120.364 F7200
G1 F2100 E0.5
;bead-support
G1 X134.608 Y120.068 F3300 E0.009
G1 X134.565 Y120.075 E0.001
G1 X133.991 E0.014
G1 X133.823 Y120.042 E0.005
G1 X134.008 Y120.363 E0.009
G1 F2100 E-0.5
G0 X133.823 Y120.042 F2400
G0 X133.991 Y120.075 F2400
G0 F2400
G0 X134.45 F2400
G0 X133.991 F2400
G0 F2400
G0 X133.823 Y120.042 F2400
G0 X134.008 Y120.363 F2400
;rapid-dry
G0 X121.693 Y120.365 F7200
G1 F2100 E0.5
;bead-support
G1 X121.504 Y120.038 F3300 E0.009
G1 X121.389 E0.003
G1 X121.165 Y120.075 E0.006
G1 X120.756 E0.01
G1 X120.922 Y120.363 E0.008
G1 F2100 E-0.5
G0 X120.756 Y120.075 F2400
G0 X121.165 F2400
G0 X121.389 Y120.038 F2400
G0 X121.42 F2400
G0 X121.389 F2400
G0 X121.165 Y120.075 F2400
G0 X120.756 F2400
G0 X120.922 Y120.363 F2400
;rapid-dry
G0 X120.73 Y116.442 F7200
G1 F2100 E0.5
;bead-solid_infill
G1 X121.27 Y116.982 F1800 E0.019
G1 X121.37 E0.003
G1 Y116.517 E0.012
G1 X120.73 Y115.877 E0.022
G1 Y115.311 E0.014
G1 X121.37 Y115.951 E0.023
G1 Y115.385 E0.014
G1 X120.73 Y114.745 E0.022
G1 Y114.18 E0.015
G1 X121.37 Y114.82 E0.022
G1 Y114.254 E0.014
G1 X121.15 Y114.034 E0.008
;rapid-leaky
G0 X120.73 Y112.485 F7200
;bead-sparse_infill
G1 X120.764 Y112.52 F3600 E0.001
G1 X121.37 Y112.887 E0.018
G1 Y107.836 E0.126
G1 X120.764 Y107.206 E0.022
G1 X120.73 Y107.185 E0.001
G1 Y103.94 E0.081
G1 X120.764 Y103.975 E0.001
G1 X121.832 Y104.622 E0.031
G1 X122.9 Y104.567 E0.027
G1 X123.968 Y104.044 E0.029
G1 X125.036 Y102.933 E0.039
G1 X126.105 Y102.286 E0.031
G1 X127.173 Y102.341 E0.027
G1 X128.241 Y102.864 E0.029
G1 X129.309 Y103.975 E0.039
G1 X130.377 Y104.622 E0.031
G1 X131.445 Y104.567 E0.027
G1 X132.513 Y104.044 E0.029
G1 X133.582 Y102.933 E0.039
G1 X134.65 Y102.286 E0.031
G1 X134.77 Y102.292 E0.003
G1 Y98.532 E0.094
G1 X134.65 Y98.591 E0.003
G1 X133.582 Y99.702 E0.038
G1 X132.513 Y100.35 E0.032
G1 X131.445 Y100.294 E0.026
G1 X130.377 Y99.772 E0.03
G1 X130.124 Y99.508 E0.009
G1 X130.398 Y99.35 E0.008
G1 X130.793 Y99.066 E0.012
G1 X131.158 Y98.744 E0.012
G1 X131.489 Y98.387 E0.012
G1 X131.783 Y98 E0.013
G1 X132.037 Y97.585 E0.012
G1 X132.248 Y97.146 E0.012
G1 X132.414 Y96.689 E0.012
G1 X132.535 Y96.218 E0.012
G1 X132.607 Y95.735 E0.012
G1 X132.624 Y95.384 E0.009
G1 X133.582 Y94.388 E0.035
G1 X134.65 Y93.741 E0.031
G1 X134.77 Y93.747 E0.003
G1 Y89.987 E0.093
G1 X134.65 Y90.046 E0.004
G1 X133.582 Y91.157 E0.038
G1 X132.513 Y91.805 E0.031
G1 X131.445 Y91.749 E0.027
G1 X130.776 Y91.422 E0.019
G1 X130.398 Y91.15 E0.011
G1 X130.185 Y91.027 E0.006
G1 X129.309 Y90.116 E0.032
G1 X128.241 Y89.468 E0.031
G1 X127.173 Y89.524 E0.027
G1 X126.105 Y90.046 E0.029
G1 X125.036 Y91.157 E0.039
G1 X123.968 Y91.805 E0.031
G1 X122.9 Y91.749 E0.027
G1 X121.832 Y91.227 E0.029
G1 X120.764 Y90.116 E0.039
G1 X120.73 Y90.095 E0.001
G1 F2100 E-0.5
;LAYER:11
;rapid-dry
G0 X117.725 Y93.527 Z1.7 F7200
G1 F2100 E0.5
;bead-support
G1 X118.475 Y93.094 F3300 E0.021
G1 X119.28 Y93.092 E0.02
G1 Y95.709 E0.066
G1 X118.583 Y96.112 E0.02
G1 X118.582
G1 X118.215 Y96.619 E0.016
G1 X117.712 Y96.983 E0.015
G1 X116.844 Y97.188 E0.022
G1 X116.755 Y97.167 E0.003
G1 X116.457 Y97.339 E0.008
G1 X116.045 Y97.26 E0.011
G1 X115.586 Y97.008 E0.013
G1 X115.014 Y96.4 E0.02
G1 X114.789 Y95.92 E0.014
G1 X114.689 Y95.396 E0.013
G1 X114.705 Y95.271 E0.003
G1 X114.938 Y95.137 E0.007
G1 F2100 E-0.5
G0 X114.705 Y95.271 F2400
G0 X114.689 Y95.396 F2400
G0 X114.789 Y95.92 F2400
G0 X114.819 Y95.985 F2400
G0 X114.789 Y95.92 F2400
G0 X114.689 Y95.396 F2400
G0 X114.705 Y95.271 F2400
G0 X114.938 Y95.137 F2400
;rapid-dry
G0 X128.064 Y99.439 F7200
G1 F2100 E0.5
;bead-perimeter_outer
G1 X128.48 Y99.386 F1800 E0.01
G1 X128.887 Y99.293 E0.011
G1 X129.284 Y99.16 E0.01
