;legatura deget mare
;Printer name: Prusa i3 MK3
;TIME:1110
;Print time: 18m:30s
;Extruder 1 material used: 629mm
;Extruder 1 material name: 
;Extruder 1 filament diameter: 1.75mm
;Extruder 1 nozzle diameter: 0.4mm
;Extruder 1 offset x: 0mm
;Extruder 1 offset y: 0mm
;Extruder 1 offset z: 0mm
;Extruder 1 max temp: 200
;Bed temp: 70
;Layer count: 141
;Width: 250mm
;Depth: 210mm
;Height: 210mm
;Center x: 125mm
;Center y: 105mm
;Center z: 0mm
;Count of bodies: 1
;Fusion version: 2.0.19440
G21
M115 U3.0.10 ;tell printer latest fw version
G28 W ;home all without mesh bed level
;--------------------------------
;Selected Profile: PLA Direct Drive
;--------------------------------
;Selected Printer: Prusa, i3 MK3
;--------------------------------
T0
M140 S70
M104 S200 T0
M190 S70
M109 S200 T0
G80 ;mesh bed leveling
G92 E0
G90
M83
G0 X10 Y10 Z10 F7200
G92 E0
;--------------------------------
;Part 1
;LAYER_COUNT:141
;LAYER:1
M107
;rapid-leaky
G0 X20 Y20.5 Z0.2 F7200
;bead-prime
G1 X120 F720 E8.315
G1 F2100 E-0.5
;rapid-dry
G0 X129.971 Y93.81 F7200
G1 F2100 E0.5
;bead-skirt/brim
G1 X130.76 Y93.767 F960 E0.026
G1 X131.55 Y93.789 E0.027
G1 X132.335 Y93.873 E0.026
G1 X133.116 Y94.022 E0.026
G1 X133.909 Y94.243 E0.028
G1 X134.614 Y94.501 E0.025
G1 X135.331 Y94.829 E0.026
G1 X136.019 Y95.215 E0.026
G1 X136.68 Y95.657 E0.027
G1 X137.321 Y96.17 E0.027
G1 X137.873 Y96.687 E0.025
G1 X138.401 Y97.268 E0.026
G1 X138.885 Y97.893 E0.026
G1 X139.317 Y98.558 E0.027
G1 X139.69 Y99.248 E0.026
G1 X140.013 Y99.976 E0.026
G1 X140.281 Y100.754 E0.028
G1 X140.47 Y101.481 E0.025
G1 X140.607 Y102.258 E0.026
G1 X140.68 Y103.044 E0.026
G1 X140.692 Y103.833 E0.026
G1 X140.638 Y104.623 E0.027
G1 X140.521 Y105.409 E0.026
G1 X140.332 Y106.207 E0.028
G1 X140.104 Y106.922 E0.024
G1 X139.805 Y107.652 E0.027
G1 X139.445 Y108.36 E0.026
G1 X139.032 Y109.031 E0.026
G1 X138.567 Y109.668 E0.027
G1 X138.052 Y110.264 E0.026
G1 X137.49 Y110.819 E0.026
G1 X136.885 Y111.327 E0.026
G1 X136.242 Y111.784 E0.027
G1 X135.563 Y112.188 E0.026
G1 X134.849 Y112.538 E0.026
G1 X134.083 Y112.838 E0.028
G1 X133.363 Y113.056 E0.025
G1 X132.669 Y113.207 E0.023
G1 X116.847 Y115.999 E0.535
G1 X116.845 Y115.986
G1 X112.601 Y116.746 E0.144
G1 X110.872 Y107.038 E0.327
G1 X109.508 Y97.42 E0.324
G1 X114.768 Y96.477 E0.177
G1 X114.765 Y96.461 E0.001
G1 X129.265 Y93.906 E0.49
G1 X129.971 Y93.81 E0.023
;rapid-leaky
G0 X130.008 Y94.208 F7200
;bead-skirt/brim
G1 X130.765 Y94.168 F960 E0.025
G1 X131.523 Y94.188 E0.026
G1 X132.276 Y94.269 E0.025
G1 X133.025 Y94.412 E0.025
G1 X133.787 Y94.624 E0.027
G1 X134.462 Y94.872 E0.023
G1 X135.149 Y95.186 E0.026
G1 X135.809 Y95.556 E0.025
G1 X136.443 Y95.98 E0.025
G1 X137.059 Y96.473 E0.026
G1 X137.588 Y96.968 E0.024
G1 X138.094 Y97.526 E0.025
G1 X138.558 Y98.124 E0.026
G1 X138.973 Y98.762 E0.025
G1 X139.331 Y99.424 E0.025
G1 X139.64 Y100.122 E0.025
G1 X139.898 Y100.87 E0.027
G1 X140.079 Y101.567 E0.024
G1 X140.21 Y102.311 E0.025
G1 X140.281 Y103.065 E0.025
G1 X140.292 Y103.823 E0.025
G1 X140.24 Y104.579 E0.025
G1 X140.128 Y105.333 E0.026
G1 X139.947 Y106.1 E0.026
G1 X139.728 Y106.785 E0.024
G1 X139.441 Y107.486 E0.025
G1 X139.096 Y108.164 E0.025
G1 X138.7 Y108.808 E0.026
G1 X138.254 Y109.418 E0.025
G1 X137.76 Y109.991 E0.025
G1 X137.221 Y110.523 E0.025
G1 X136.64 Y111.01 E0.025
G1 X136.023 Y111.448 E0.025
G1 X135.372 Y111.836 E0.026
G1 X134.688 Y112.172 E0.025
G1 X133.952 Y112.459 E0.026
G1 X133.262 Y112.668 E0.024
G1 X132.592 Y112.814 E0.023
G1 X117.171 Y115.534 E0.521
G1 X117.169 Y115.522
G1 X112.924 Y116.282 E0.144
G1 X111.267 Y106.975 E0.314
G1 X109.958 Y97.745 E0.31
G1 X115.231 Y96.801 E0.178
G1 X115.228 Y96.786 E0.001
G1 X129.326 Y94.301 E0.476
G1 X130.008 Y94.208 E0.023
;rapid-leaky
G0 X130.046 Y94.607 F7200
;bead-skirt/brim
G1 X130.771 Y94.568 F960 E0.024
G1 X131.496 Y94.587 E0.024
G1 X132.217 Y94.665 E0.024
G1 X132.934 Y94.801 E0.024
G1 X133.664 Y95.005 E0.026
G1 X134.31 Y95.242 E0.023
G1 X134.968 Y95.543 E0.024
G1 X135.6 Y95.897 E0.024
G1 X136.206 Y96.303 E0.024
G1 X136.797 Y96.775 E0.025
G1 X137.302 Y97.248 E0.023
G1 X137.788 Y97.783 E0.024
G1 X138.232 Y98.356 E0.024
G1 X138.628 Y98.967 E0.025
G1 X138.972 Y99.601 E0.024
G1 X139.268 Y100.269 E0.024
G1 X139.514 Y100.985 E0.025
G1 X139.687 Y101.652 E0.023
G1 X139.814 Y102.365 E0.024
G1 X139.881 Y103.087 E0.024
G1 X139.891 Y103.812 E0.024
G1 X139.842 Y104.536 E0.024
G1 X139.735 Y105.258 E0.025
G1 X139.561 Y105.993 E0.025
G1 X139.352 Y106.648 E0.023
G1 X139.077 Y107.319 E0.024
G1 X138.747 Y107.968 E0.024
G1 X138.367 Y108.585 E0.024
G1 X137.94 Y109.169 E0.024
G1 X137.467 Y109.717 E0.024
G1 X136.951 Y110.227 E0.024
G1 X136.395 Y110.693 E0.024
G1 X135.805 Y111.113 E0.025
G1 X135.181 Y111.484 E0.024
G1 X134.526 Y111.805 E0.024
G1 X133.821 Y112.081 E0.025
G1 X133.161 Y112.281 E0.023
G1 X132.514 Y112.422 E0.022
G1 X117.495 Y115.07 E0.507
G1 X117.493 Y115.057 E0.001
G1 X113.248 Y115.817 E0.143
G1 X111.662 Y106.912 E0.301
G1 X110.409 Y98.071 E0.297
G1 X115.694 Y97.124 E0.179
G1 X115.692 Y97.11
G1 X129.388 Y94.696 E0.463
G1 X130.046 Y94.607 E0.022
;rapid-leaky
G0 X130.084 Y95.005 F7200
;bead-skirt/brim
G1 X130.776 Y94.968 F960 E0.023
G1 X131.469 Y94.987 E0.023
G1 X132.158 Y95.061 E0.023
G1 X132.842 Y95.191 E0.023
G1 X133.541 Y95.386 E0.024
G1 X134.158 Y95.612 E0.022
G1 X134.787 Y95.9 E0.023
G1 X135.391 Y96.238 E0.023
G1 X135.97 Y96.626 E0.023
G1 X136.535 Y97.078 E0.024
G1 X137.017 Y97.529 E0.022
G1 X137.481 Y98.04 E0.023
G1 X137.906 Y98.588 E0.023
G1 X138.284 Y99.171 E0.023
G1 X138.612 Y99.778 E0.023
G1 X138.895 Y100.415 E0.024
G1 X139.131 Y101.101 E0.024
G1 X139.296 Y101.737 E0.022
G1 X139.417 Y102.418 E0.023
G1 X139.481 Y103.108 E0.023
G1 X139.491 Y103.801 E0.023
G1 X139.444 Y104.493 E0.023
G1 X139.342 Y105.182 E0.023
G1 X139.175 Y105.886 E0.024
G1 X138.975 Y106.511 E0.022
G1 X138.713 Y107.152 E0.023
G1 X138.398 Y107.772 E0.023
G1 X138.035 Y108.362 E0.023
G1 X137.627 Y108.92 E0.023
G1 X137.175 Y109.444 E0.023
G1 X136.682 Y109.931 E0.023
G1 X136.15 Y110.376 E0.023
G1 X135.586 Y110.777 E0.023
G1 X134.991 Y111.132 E0.023
G1 X134.365 Y111.439 E0.023
G1 X133.69 Y111.703 E0.024
G1 X133.061 Y111.893 E0.022
G1 X132.437 Y112.029 E0.022
G1 X119.142 Y114.374 E0.449
G1 X117.819 Y114.605 E0.044
G1 X117.817 Y114.593 E0.001
G1 X113.571 Y115.353 E0.143
G1 X112.057 Y106.848 E0.287
G1 X110.859 Y98.397 E0.284
G1 X116.157 Y97.448 E0.179
G1 X116.155 Y97.435 E0.001
G1 X129.449 Y95.092 E0.449
G1 X130.084 Y95.005 E0.021
;rapid-leaky
G0 X130.122 Y95.404 F7200
;bead-skirt/brim
G1 X130.781 Y95.368 F960 E0.022
G1 X131.442 Y95.386 E0.022
G1 X132.099 Y95.457 E0.022
G1 X132.751 Y95.581 E0.022
G1 X133.418 Y95.767 E0.023
G1 X134.006 Y95.982 E0.021
G1 X134.606 Y96.257 E0.022
G1 X135.181 Y96.579 E0.022
G1 X135.733 Y96.949 E0.022
G1 X136.273 Y97.381 E0.023
G1 X136.732 Y97.81 E0.021
G1 X137.174 Y98.298 E0.022
G1 X137.579 Y98.82 E0.022
G1 X137.94 Y99.376 E0.022
G1 X138.253 Y99.954 E0.022
G1 X138.522 Y100.562 E0.022
G1 X138.748 Y101.216 E0.023
G1 X138.905 Y101.822 E0.021
G1 X139.02 Y102.472 E0.022
G1 X139.081 Y103.13 E0.021
G1 X139.091 Y103.79 E0.022
G1 X139.046 Y104.45 E0.022
G1 X138.948 Y105.107 E0.023
G1 X138.789 Y105.779 E0.023
G1 X138.599 Y106.375 E0.02
G1 X138.349 Y106.986 E0.022
G1 X138.049 Y107.577 E0.022
G1 X137.703 Y108.139 E0.022
G1 X137.314 Y108.671 E0.022
G1 X136.882 Y109.171 E0.022
G1 X136.412 Y109.635 E0.022
G1 X135.906 Y110.06 E0.022
G1 X135.368 Y110.442 E0.022
G1 X134.8 Y110.78 E0.022
G1 X134.204 Y111.072 E0.022
G1 X133.559 Y111.325 E0.023
G1 X132.96 Y111.506 E0.021
G1 X132.36 Y111.637 E0.02
G1 X119.466 Y113.911 E0.436
G1 X118.143 Y114.141 E0.045
G1 X118.141 Y114.129
G1 X113.895 Y114.889 E0.143
G1 X112.452 Y106.785 E0.274
G1 X111.309 Y98.723 E0.271
G1 X116.62 Y97.771 E0.179
G1 X116.618 Y97.759 E0.001
G1 X129.511 Y95.487 E0.435
G1 X130.122 Y95.404 E0.021
;rapid-leaky
G0 X130.159 Y95.803 F7200
;bead-skirt/brim
G1 X130.787 Y95.769 F960 E0.021
G1 X131.415 Y95.786 E0.021
G1 X132.04 Y95.853 E0.02
G1 X132.66 Y95.971 E0.021
G1 X133.295 Y96.148 E0.022
G1 X133.853 Y96.353 E0.02
G1 X134.424 Y96.614 E0.021
G1 X134.972 Y96.921 E0.021
G1 X135.497 Y97.272 E0.021
G1 X136.011 Y97.683 E0.022
G1 X136.447 Y98.091 E0.02
G1 X136.868 Y98.555 E0.021
G1 X137.253 Y99.052 E0.02
G1 X137.596 Y99.58 E0.021
G1 X137.894 Y100.131 E0.021
G1 X138.15 Y100.708 E0.021
G1 X138.365 Y101.332 E0.022
G1 X138.514 Y101.907 E0.02
G1 X138.623 Y102.525 E0.021
G1 X138.682 Y103.151 E0.021
G1 X138.691 Y103.779 E0.021
G1 X138.648 Y104.407 E0.021
G1 X138.555 Y105.031 E0.021
G1 X138.404 Y105.672 E0.021
G1 X138.223 Y106.238 E0.02
G1 X137.985 Y106.819 E0.021
G1 X137.699 Y107.381 E0.021
G1 X137.37 Y107.915 E0.021
G1 X137 Y108.422 E0.021
G1 X136.59 Y108.897 E0.021
G1 X136.143 Y109.339 E0.021
G1 X135.661 Y109.743 E0.02
G1 X135.149 Y110.106 E0.021
G1 X134.609 Y110.428 E0.021
G1 X134.043 Y110.706 E0.021
G1 X133.428 Y110.946 E0.022
G1 X132.859 Y111.118 E0.02
G1 X132.282 Y111.244 E0.02
G1 X119.791 Y113.447 E0.421
G1 X118.467 Y113.676 E0.045
G1 X118.465 Y113.664 E0.001
G1 X114.219 Y114.424 E0.143
G1 X112.847 Y106.722 E0.26
G1 X111.759 Y99.048 E0.258
G1 X117.084 Y98.094 E0.18
G1 X117.082 Y98.084
G1 X129.573 Y95.882 E0.422
G1 X130.159 Y95.803 E0.02
;rapid-leaky
G0 X130.197 Y96.201 F7200
;bead-skirt/brim
G1 X130.792 Y96.169 F960 E0.02
G1 X131.388 Y96.185 E0.02
G1 X131.981 Y96.249 E0.019
G1 X132.568 Y96.361 E0.02
G1 X133.173 Y96.529 E0.021
G1 X133.701 Y96.723 E0.019
G1 X134.243 Y96.971 E0.02
G1 X134.763 Y97.262 E0.019
G1 X135.26 Y97.595 E0.02
G1 X135.749 Y97.986 E0.021
G1 X136.161 Y98.372 E0.019
G1 X136.561 Y98.812 E0.02
G1 X136.926 Y99.284 E0.02
G1 X137.252 Y99.784 E0.019
G1 X137.534 Y100.307 E0.02
G1 X137.777 Y100.854 E0.02
G1 X137.981 Y101.448 E0.021
G1 X138.123 Y101.993 E0.019
G1 X138.227 Y102.579 E0.02
G1 X138.282 Y103.173 E0.019
G1 X138.291 Y103.769 E0.02
G1 X138.25 Y104.364 E0.02
G1 X138.162 Y104.955 E0.02
G1 X138.018 Y105.565 E0.021
G1 X137.847 Y106.101 E0.018
G1 X137.621 Y106.652 E0.02
G1 X137.35 Y107.185 E0.02
G1 X137.038 Y107.692 E0.02
G1 X136.687 Y108.173 E0.02
G1 X136.297 Y108.624 E0.02
G1 X135.873 Y109.043 E0.019
G1 X135.416 Y109.426 E0.02
G1 X134.931 Y109.771 E0.02
G1 X134.419 Y110.076 E0.02
G1 X133.881 Y110.34 E0.02
G1 X133.297 Y110.568 E0.021
G1 X132.759 Y110.731 E0.018
G1 X132.205 Y110.852 E0.019
G1 X120.115 Y112.984 E0.409
G1 X120.114 Y112.973
G1 X118.791 Y113.211 E0.045
G1 X118.788 Y113.2
G1 X114.542 Y113.96 E0.143
G1 X113.242 Y106.659 E0.247
G1 X112.209 Y99.374 E0.245
G1 X117.545 Y98.408 E0.18
G1 X129.634 Y96.277 E0.408
G1 X130.197 Y96.201 E0.019
;rapid-leaky
G0 X130.235 Y96.6 F7200
;bead-skirt/brim
G1 X130.798 Y96.569 F960 E0.019
G1 X131.361 Y96.584 E0.019
G1 X131.922 Y96.645 E0.019
G1 X132.477 Y96.751 E0.018
G1 X133.05 Y96.91 E0.02
G1 X133.549 Y97.093 E0.018
G1 X134.062 Y97.328 E0.019
G1 X134.553 Y97.603 E0.018
G1 X135.023 Y97.918 E0.019
G1 X135.487 Y98.288 E0.02
G1 X135.876 Y98.653 E0.018
G1 X136.255 Y99.07 E0.018
G1 X136.6 Y99.515 E0.019
G1 X136.907 Y99.989 E0.019
G1 X137.175 Y100.484 E0.019
G1 X137.405 Y101.001 E0.018
G1 X137.598 Y101.563 E0.02
G1 X137.732 Y102.078 E0.018
G1 X137.83 Y102.632 E0.019
G1 X137.882 Y103.194 E0.018
G1 X137.89 Y103.758 E0.019
G1 X137.852 Y104.321 E0.019
G1 X137.769 Y104.88 E0.019
G1 X137.632 Y105.458 E0.019
G1 X137.471 Y105.964 E0.018
G1 X137.257 Y106.486 E0.019
G1 X137.001 Y106.989 E0.019
G1 X136.706 Y107.469 E0.018
G1 X136.373 Y107.924 E0.019
G1 X136.005 Y108.35 E0.019
G1 X135.604 Y108.747 E0.019
G1 X135.172 Y109.109 E0.018
G1 X134.712 Y109.436 E0.019
G1 X134.228 Y109.724 E0.019
G1 X133.72 Y109.973 E0.019
G1 X133.166 Y110.19 E0.019
G1 X132.658 Y110.344 E0.018
G1 X132.127 Y110.459 E0.018
G1 X120.44 Y112.52 E0.395
G1 X120.438 Y112.509
G1 X119.114 Y112.747 E0.045
G1 X119.112 Y112.736
G1 X114.866 Y113.496 E0.144
G1 X113.637 Y106.596 E0.233
G1 X112.66 Y99.7 E0.232
G1 X118.009 Y98.733 E0.18
G1 X129.696 Y96.673 E0.395
G1 X130.235 Y96.6 E0.018
;rapid-leaky
G0 X130.272 Y96.998 F7200
;bead-skirt/brim
G1 X130.803 Y96.97 F960 E0.018
G1 X131.334 Y96.984 E0.018
G1 X131.863 Y97.041 E0.017
G1 X132.386 Y97.14 E0.018
G1 X132.927 Y97.291 E0.019
G1 X133.397 Y97.464 E0.016
G1 X133.881 Y97.685 E0.018
G1 X134.344 Y97.944 E0.018
G1 X134.787 Y98.241 E0.017
G1 X135.225 Y98.591 E0.019
G1 X135.591 Y98.934 E0.017
G1 X135.948 Y99.327 E0.017
G1 X136.274 Y99.747 E0.018
G1 X136.563 Y100.193 E0.018
G1 X136.816 Y100.66 E0.017
G1 X137.032 Y101.147 E0.018
G1 X137.215 Y101.679 E0.019
G1 X137.341 Y102.163 E0.017
G1 X137.433 Y102.686 E0.017
G1 X137.483 Y103.216 E0.018
G1 X137.49 Y103.747 E0.018
G1 X137.454 Y104.278 E0.017
G1 X137.376 Y104.804 E0.018
G1 X137.247 Y105.351 E0.019
G1 X137.094 Y105.827 E0.016
G1 X136.893 Y106.319 E0.018
G1 X136.652 Y106.794 E0.018
G1 X136.373 Y107.246 E0.017
G1 X136.06 Y107.675 E0.018
G1 X135.713 Y108.077 E0.018
G1 X135.334 Y108.451 E0.017
G1 X134.927 Y108.792 E0.018
G1 X134.494 Y109.1 E0.018
G1 X134.037 Y109.372 E0.017
G1 X133.559 Y109.607 E0.018
G1 X133.035 Y109.811 E0.019
G1 X132.557 Y109.956 E0.016
G1 X132.05 Y110.067 E0.018
G1 X120.764 Y112.057 E0.381
G1 X120.762 Y112.044
G1 X119.438 Y112.282 E0.045
G1 X119.436 Y112.271
G1 X115.19 Y113.031 E0.144
G1 X114.032 Y106.533 E0.219
G1 X113.11 Y100.025 E0.219
G1 X117.821 Y99.181 E0.159
G1 X117.823 Y99.192 E0.001
G1 X118.475 Y99.074 E0.022
G1 X118.472 Y99.057
G1 X129.758 Y97.068 E0.381
G1 X130.272 Y96.998 E0.018
;rapid-leaky
G0 X130.31 Y97.397 F7200
;bead-skirt/brim
G1 X130.808 Y97.37 F960 E0.016
G1 X131.307 Y97.383 E0.017
G1 X131.804 Y97.437 E0.016
G1 X132.295 Y97.53 E0.017
G1 X132.804 Y97.673 E0.018
G1 X133.245 Y97.834 E0.015
G1 X133.7 Y98.042 E0.017
G1 X134.135 Y98.285 E0.016
G1 X134.55 Y98.564 E0.017
G1 X134.963 Y98.894 E0.018
G1 X135.306 Y99.215 E0.015
G1 X135.641 Y99.584 E0.017
G1 X135.947 Y99.979 E0.016
G1 X136.219 Y100.398 E0.017
G1 X136.457 Y100.837 E0.017
G1 X136.659 Y101.294 E0.016
G1 X136.832 Y101.794 E0.018
G1 X136.95 Y102.248 E0.016
G1 X137.036 Y102.739 E0.016
G1 X137.083 Y103.237 E0.017
G1 X137.09 Y103.736 E0.016
G1 X137.056 Y104.235 E0.017
G1 X136.983 Y104.729 E0.017
G1 X136.861 Y105.243 E0.017
G1 X136.718 Y105.69 E0.016
G1 X136.529 Y106.152 E0.016
G1 X136.303 Y106.598 E0.017
G1 X136.041 Y107.023 E0.017
G1 X135.747 Y107.426 E0.016
G1 X135.42 Y107.804 E0.017
G1 X135.065 Y108.155 E0.016
G1 X134.682 Y108.475 E0.017
G1 X134.275 Y108.765 E0.017
G1 X133.846 Y109.02 E0.016
G1 X133.398 Y109.24 E0.017
G1 X132.904 Y109.433 E0.017
G1 X132.456 Y109.569 E0.016
G1 X131.973 Y109.674 E0.017
G1 X121.089 Y111.594 E0.367
G1 X118.935 Y99.382 E0.413
G1 X129.819 Y97.463 E0.367
G1 X130.31 Y97.397 E0.017
;rapid-leaky
G0 X118.898 Y99.404 F7200
;bead-skirt/brim
G1 X119.098 Y101.311 F960 E0.063
G1 X119.433 Y102.553 E0.043
G1 X119.542 Y103.827 E0.043
G1 X119.841 Y105.067 E0.042
G1 X119.96 Y105.494 E0.015
G1 X120.142 Y107.227 E0.058
G1 X120.47 Y108.445 E0.042
G1 X120.523 Y108.987 E0.018
G1 X120.778 Y109.923 E0.032
G1 X120.76 Y110.566 E0.022
G1 X120.796 Y110.847 E0.009
G1 X121.076 Y111.581 E0.026
G1 X119.762 Y111.817 E0.044
G1 X117.603 Y99.639 E0.412
G1 X118.898 Y99.404 E0.044
;rapid-leaky
G0 X117.497 Y99.646 F7200
;bead-skirt/brim
G1 X119.655 Y111.826 F960 E0.411
G1 X115.513 Y112.567 E0.14
G1 X114.427 Y106.47 E0.206
G1 X113.56 Y100.351 E0.205
G1 X117.497 Y99.646 E0.134
G1 F2100 E-0.5
;rapid-dry
G0 X114.267 Y101.631 F7200
G1 F2100 E0.5
;bead-support
G1 X116.472 Y100.358 F1320 E0.084
G1 X117.076 Y100.25 E0.021
G1 X117.532 Y102.825 E0.087
G1 X114.67 Y104.477 E0.11
G1 X114.941 Y106.387 E0.064
G1 X115.105 Y107.306 E0.031
G1 X118.027 Y105.619 E0.112
G1 X118.522 Y108.412 E0.094
G1 X115.602 Y110.098 E0.112
G1 X115.934 Y111.964 E0.064
G1 X118.499 Y111.504 E0.086
G1 X119.017 Y111.205 E0.02
G1 F2100 E-0.5
G0 X118.499 Y111.504 F2400
G0 X118.103 Y111.575 F2400
G0 X118.499 Y111.504 F2400
G0 X119.017 Y111.205 F2400
;rapid-dry
G0 X120.248 Y110.263 F7200
G1 F2100 E0.5
;bead-support
G1 X119.911 Y109.679 F1320 E0.022
G1 X119.57 Y107.755 E0.065
G1 X119.9 Y108.326 E0.022
G1 X119.629 Y107.323 E0.035
G1 X119.527 Y106.347 E0.033
G1 X119.229 Y105.831 E0.019
G1 X119.174 Y105.52 E0.011
G1 X118.888 Y103.907 E0.054
G1 X119.125 Y104.318 E0.016
G1 X119.027 Y103.91 E0.014
G1 X118.919 Y102.644 E0.042
G1 X118.91 Y102.612 E0.002
G1 X118.547 Y101.983 E0.024
G1 X118.206 Y100.059 E0.065
G1 X118.497 Y100.563 E0.019
G1 F2100 E-0.5
G0 X118.206 Y100.059 F2400
G0 X118.279 Y100.47 F2400
G0 X118.206 Y100.059 F2400
G0 X118.497 Y100.563 F2400
;rapid-dry
G0 X134.041 Y100.79 F7200
G1 F2100 E0.5
;bead-perimeter_outer
G1 X133.748 Y100.49 F720 E0.014
G1 X133.428 Y100.221 E0.014
G1 X133.082 Y99.985 E0.014
G1 X132.714 Y99.786 E0.014
G1 X132.329 Y99.623 E0.014
G1 X131.929 Y99.499 E0.014
G1 X131.518 Y99.416 E0.014
G1 X131.101 Y99.375 E0.014
G1 X130.682 E0.013
G1 X130.266 Y99.416 E0.014
G1 X129.855 Y99.499 E0.014
G1 X129.455 Y99.623 E0.014
G1 X129.069 Y99.786 E0.014
G1 X128.702 Y99.985 E0.014
G1 X128.356 Y100.221 E0.014
G1 X128.035 Y100.49 E0.014
G1 X127.743 Y100.791 E0.014
G1 X127.481 Y101.118 E0.014
G1 X127.255 Y101.47 E0.014
G1 X127.064 Y101.842 E0.014
G1 X126.91 Y102.232 E0.014
G1 X126.797 Y102.634 E0.013
G1 X126.724 Y103.047 E0.014
G1 X126.693 Y103.465 E0.014
G1 X126.703 Y103.883 E0.014
G1 X126.756 Y104.299 E0.014
G1 X126.848 Y104.707 E0.014
G1 X126.982 Y105.104 E0.014
G1 X127.154 Y105.485 E0.014
G1 X127.364 Y105.849 E0.014
G1 X127.607 Y106.189 E0.014
G1 X127.885 Y106.503 E0.014
G1 X128.192 Y106.787 E0.014
G1 X128.526 Y107.041 E0.014
G1 X128.883 Y107.258 E0.014
G1 X129.26 Y107.439 E0.013
G1 X129.654 Y107.583 E0.014
G1 X130.059 Y107.686 E0.014
G1 X130.474 Y107.749 E0.014
G1 X130.892 Y107.77 E0.014
G1 X131.31 Y107.749 E0.014
G1 X131.724 Y107.686 E0.014
G1 X132.154 Y107.575 E0.015
G1 X132.524 Y107.439 E0.013
G1 X132.901 Y107.258 E0.014
G1 X133.258 Y107.041 E0.014
G1 X133.592 Y106.787 E0.014
G1 X133.898 Y106.503 E0.014
G1 X134.176 Y106.189 E0.013
G1 X134.42 Y105.849 E0.014
G1 X134.629 Y105.485 E0.014
G1 X134.801 Y105.104 E0.014
G1 X134.935 Y104.707 E0.014
G1 X135.028 Y104.299 E0.014
G1 X135.081 Y103.883 E0.014
G1 X135.091 Y103.465 E0.014
G1 X135.06 Y103.047 E0.014
G1 X134.987 Y102.634 E0.014
G1 X134.874 Y102.232 E0.014
G1 X134.72 Y101.842 E0.014
G1 X134.529 Y101.47 E0.014
G1 X134.303 Y101.118 E0.014
G1 X134.041 Y100.79 E0.013
;rapid-leaky
G0 X134.311 Y100.552 F7200
;bead-perimeter_inner
G1 X133.993 Y100.226 F960 E0.016
G1 X133.646 Y99.934 E0.015
G1 X133.27 Y99.677 E0.015
G1 X132.87 Y99.461 E0.015
G1 X132.452 Y99.284 E0.015
G1 X132.018 Y99.15 E0.015
G1 X131.571 Y99.059 E0.015
G1 X131.118 Y99.015 E0.015
G1 X130.664 E0.016
G1 X130.213 Y99.059 E0.015
G1 X129.766 Y99.15 E0.015
G1 X129.332 Y99.284 E0.015
G1 X128.913 Y99.461 E0.015
G1 X128.514 Y99.678 E0.015
G1 X128.138 Y99.934 E0.015
G1 X127.79 Y100.226 E0.015
G1 X127.472 Y100.552 E0.016
G1 X127.189 Y100.908 E0.015
G1 X126.943 Y101.29 E0.015
G1 X126.735 Y101.693 E0.015
G1 X126.569 Y102.117 E0.015
G1 X126.445 Y102.554 E0.015
G1 X126.367 Y103.002 E0.015
G1 X126.332 Y103.456 E0.015
G1 X126.344 Y103.91 E0.016
G1 X126.401 Y104.361 E0.015
G1 X126.501 Y104.804 E0.015
G1 X126.646 Y105.236 E0.015
G1 X126.833 Y105.65 E0.015
G1 X127.061 Y106.044 E0.015
G1 X127.325 Y106.413 E0.015
G1 X127.627 Y106.755 E0.015
G1 X127.961 Y107.064 E0.016
G1 X128.323 Y107.339 E0.015
G1 X128.711 Y107.575 E0.015
G1 X129.12 Y107.771 E0.015
G1 X129.548 Y107.928 E0.015
G1 X129.988 Y108.04 E0.015
G1 X130.438 Y108.108 E0.015
G1 X130.892 Y108.131 E0.015
G1 X131.346 Y108.108 E0.016
G1 X131.797 Y108.039 E0.015
G1 X132.261 Y107.919 E0.016
G1 X132.664 Y107.771 E0.014
G1 X133.073 Y107.575 E0.015
G1 X133.461 Y107.339 E0.015
G1 X133.823 Y107.063 E0.015
G1 X134.156 Y106.755 E0.015
G1 X134.457 Y106.414 E0.015
G1 X134.723 Y106.044 E0.016
G1 X134.95 Y105.649 E0.015
G1 X135.137 Y105.236 E0.015
G1 X135.282 Y104.805 E0.015
G1 X135.383 Y104.362 E0.015
G1 X135.44 Y103.91 E0.015
G1 X135.452 Y103.456 E0.015
G1 X135.417 Y103.002 E0.015
G1 X135.339 Y102.554 E0.016
G1 X135.215 Y102.117 E0.015
G1 X135.049 Y101.693 E0.015
G1 X134.841 Y101.29 E0.015
G1 X134.595 Y100.908 E0.015
G1 X134.311 Y100.552 E0.015
G1 F2100 E-0.5
;rapid-dry
G0 X135.335 Y99.842 F7200
G1 F2100 E0.5
;bead-perimeter_outer
G1 X135.621 Y100.211 F720 E0.016
G1 X135.875 Y100.602 E0.015
G1 X136.097 Y101.013 E0.016
G1 X136.287 Y101.44 E0.015
G1 X136.448 Y101.91 E0.017
G1 X136.558 Y102.334 E0.014
G1 X136.64 Y102.793 E0.016
G1 X136.683 Y103.259 E0.015
G1 X136.69 Y103.726 E0.016
G1 X136.658 Y104.191 E0.016
G1 X136.589 Y104.653 E0.015
G1 X136.475 Y105.136 E0.017
G1 X136.342 Y105.554 E0.014
G1 X136.165 Y105.986 E0.016
G1 X135.953 Y106.402 E0.015
G1 X135.709 Y106.799 E0.016
G1 X135.433 Y107.176 E0.015
G1 X135.128 Y107.53 E0.016
G1 X134.795 Y107.859 E0.015
G1 X134.438 Y108.159 E0.016
G1 X134.057 Y108.429 E0.015
G1 X133.656 Y108.668 E0.016
G1 X133.236 Y108.874 E0.015
G1 X132.773 Y109.055 E0.017
G1 X132.356 Y109.181 E0.015
G1 X131.895 Y109.282 E0.015
G1 X121.413 Y111.13 E0.354
G1 X119.399 Y99.706 E0.386
G1 X129.881 Y97.859 E0.354
G1 X130.348 Y97.795 E0.016
G1 X130.814 Y97.77 E0.015
G1 X131.281 Y97.783 E0.016
G1 X131.746 Y97.833 E0.015
G1 X132.203 Y97.92 E0.016
G1 X132.682 Y98.054 E0.016
G1 X133.093 Y98.204 E0.015
G1 X133.518 Y98.398 E0.015
G1 X133.925 Y98.627 E0.016
G1 X134.314 Y98.886 E0.016
G1 X134.701 Y99.196 E0.016
G1 X135.02 Y99.495 E0.015
G1 X135.335 Y99.842 E0.015
;rapid-leaky
G0 X135.059 Y100.073 F7200
;bead-perimeter_inner
G1 X135.327 Y100.42 F960 E0.015
G1 X135.565 Y100.786 E0.014
G1 X135.774 Y101.172 E0.015
G1 X135.951 Y101.572 E0.014
G1 X136.103 Y102.014 E0.016
G1 X136.206 Y102.41 E0.014
G1 X136.283 Y102.841 E0.014
G1 X136.323 Y103.278 E0.015
G1 X136.33 Y103.716 E0.014
G1 X136.3 Y104.153 E0.015
G1 X136.236 Y104.585 E0.014
G1 X136.128 Y105.04 E0.016
G1 X136.003 Y105.43 E0.014
G1 X135.837 Y105.836 E0.014
G1 X135.639 Y106.226 E0.015
G1 X135.41 Y106.599 E0.014
G1 X135.151 Y106.952 E0.015
G1 X134.865 Y107.284 E0.014
G1 X134.553 Y107.593 E0.015
G1 X134.217 Y107.873 E0.015
G1 X133.86 Y108.127 E0.014
G1 X133.484 Y108.351 E0.015
G1 X133.091 Y108.544 E0.014
G1 X132.656 Y108.714 E0.016
G1 X132.265 Y108.833 E0.013
G1 X131.826 Y108.928 E0.015
G1 X121.705 Y110.713 E0.342
G1 X119.816 Y99.998 E0.362
G1 X129.936 Y98.214 E0.342
G1 X130.382 Y98.154 E0.015
G1 X130.819 Y98.13 E0.014
G1 X131.256 Y98.142 E0.015
G1 X131.693 Y98.189 E0.014
G1 X132.121 Y98.271 E0.015
G1 X132.571 Y98.396 E0.015
G1 X132.956 Y98.537 E0.014
G1 X133.355 Y98.72 E0.015
G1 X133.737 Y98.934 E0.014
G1 X134.101 Y99.177 E0.015
G1 X134.465 Y99.469 E0.015
G1 X134.764 Y99.748 E0.014
G1 X135.059 Y100.073 E0.015
G1 F2100 E-0.5
;rapid-dry
G0 X129.336 Y98.645 F7200
G1 F2100 E0.5
;bead-solid_infill
G1 X128.835 Y99.146 F720 E0.023
G1 X128.961 Y99.093 E0.005
G1 X129.222 Y98.983 E0.009
G1 X129.687 Y98.839 E0.016
G1 X129.713 Y98.834 E0.001
G1 X130.021 Y98.526 E0.015
G1 X130.412 Y98.473 E0.013
G1 X130.653 Y98.46 E0.008
G1 X130.392 Y98.72 E0.012
G1 X130.649 Y98.695 E0.009
G1 X130.983 E0.011
G1 X131.217 Y98.461 E0.011
G1 X131.235 Y98.462
G1 X131.645 Y98.506 E0.014
G1 X131.723 Y98.521 E0.003
G1 X131.512 Y98.732 E0.01
G1 X131.618 Y98.743 E0.003
G1 X131.992 Y98.818 E0.013
G1 X132.188 Y98.622 E0.009
G1 X132.473 Y98.701 E0.01
G1 X132.62 Y98.755 E0.005
G1 X132.432 Y98.943 E0.009
G1 X132.562 Y98.983 E0.005
G1 X132.84 Y99.101 E0.01
G1 X133.022 Y98.919 E0.008
G1 X133.21 Y99.005 E0.007
G1 X133.397 Y99.11 E0.007
G1 X133.22 Y99.287 E0.008
G1 X133.437 Y99.404 E0.009
G1 X133.575 Y99.498 E0.005
G1 X133.747 Y99.325 E0.008
G1 X133.911 Y99.436 E0.007
G1 X134.073 Y99.565 E0.007
G1 X133.905 Y99.734 E0.008
G1 X134.041 Y99.848 E0.006
G1 X134.211 Y99.991 E0.007
G1 X134.212 Y99.992
G1 X134.378 Y99.826 E0.008
G1 X134.535 Y99.973 E0.007
G1 X134.66 Y100.11 E0.006
G1 X134.491 Y100.278 E0.008
G1 X134.551 Y100.34 E0.003
G1 X134.749 Y100.587 E0.01
G1 X134.919 Y100.416 E0.008
G1 X135.066 Y100.605 E0.008
G1 X135.156 Y100.744 E0.006
G1 X134.983 Y100.918 E0.008
G1 X135.119 Y101.129 E0.008
G1 X135.193 Y101.274 E0.006
G1 X135.37 Y101.097 E0.008
G1 X135.487 Y101.313 E0.008
G1 X135.558 Y101.474 E0.006
G1 X135.378 Y101.655 E0.009
G1 X135.519 Y102.015 E0.013
G1 X135.533 Y102.065 E0.001
G1 X135.719 Y101.879 E0.009
G1 X135.797 Y102.106 E0.008
G1 X135.851 Y102.313 E0.007
G1 X135.655 Y102.508 E0.009
G1 X135.735 Y102.963 E0.016
G1 X135.737 Y102.992 E0.001
G1 X135.947 Y102.782 E0.009
G1 X135.965 Y102.884 E0.004
G1 X136.003 Y103.292 E0.014
G1 X135.77 Y103.525 E0.011
G1 X135.76 Y103.934 E0.013
G1 X135.736 Y104.125 E0.007
G1 X135.999 Y103.862 E0.012
G1 X135.981 Y104.118 E0.008
G1 X135.924 Y104.502 E0.013
G1 X135.607 Y104.82 E0.015
G1 X135.59 Y104.892 E0.003
G1 X135.473 Y105.242 E0.012
G1 X135.435 Y105.353 E0.004
G1 X135.37 Y105.498 E0.005
G1 X135.267 Y105.725 E0.009
G1 X135.717 Y105.275 E0.021
G1 X135.702 Y105.321 E0.001
G1 X135.546 Y105.702 E0.014
G1 X135.36 Y106.069 E0.014
G1 X135.166 Y106.384 E0.012
G1 X135.154 Y106.404 E0.001
G1 X133.732 Y107.826 E0.067
G1 X133.685 Y107.859 E0.002
G1 X133.331 Y108.07 E0.013
G1 X132.962 Y108.251 E0.014
G1 X132.599 Y108.393 E0.013
G1 X133.053 Y107.94 E0.021
G1 X132.789 Y108.066 E0.01
G1 X132.356 Y108.225 E0.015
G1 X132.147 Y108.279 E0.007
G1 X131.825 Y108.601 E0.016
G1 X131.764 Y108.614 E0.002
G1 X131.135 Y108.725 E0.021
G1 X131.444 Y108.417 E0.014
G1 X131.379 Y108.427 E0.003
G1 X130.892 Y108.451 E0.016
G1 X130.846 Y108.449 E0.001
G1 X130.449 Y108.846 E0.019
G1 X129.762 Y108.967 E0.023
G1 X130.316 Y108.413 E0.026
G1 X129.924 Y108.354 E0.014
G1 X129.833 Y108.33 E0.003
G1 X129.075 Y109.089 E0.035
G1 X128.388 Y109.21 E0.024
G1 X129.388 Y108.21 E0.047
G1 X129.187 Y108.137 E0.007
G1 X128.995 Y108.067 E0.006
G1 X128.975 Y108.057 E0.001
G1 X127.701 Y109.331 E0.06
G1 X127.015 Y109.452 E0.023
G1 X128.594 Y107.873 E0.075
G1 X128.558 Y107.856 E0.001
G1 X128.239 Y107.662 E0.012
G1 X126.328 Y109.573 E0.09
G1 X125.641 Y109.694 E0.023
G1 X127.909 Y107.426 E0.107
G1 X127.755 Y107.309 E0.006
G1 X127.602 Y107.168 E0.007
G1 X124.954 Y109.815 E0.125
G1 X124.267 Y109.936 E0.023
G1 X127.317 Y106.887 E0.144
G1 X127.075 Y106.613 E0.012
G1 X127.054 Y106.584 E0.001
G1 X123.581 Y110.058 E0.163
G1 X122.894 Y110.179 E0.024
G1 X126.818 Y106.254 E0.184
G1 X126.792 Y106.217 E0.002
G1 X126.712 Y106.08 E0.005
G1 X126.608 Y105.899 E0.007
G1 X122.207 Y110.3 E0.207
G1 X121.965 Y110.343 E0.008
G1 X121.91 Y110.031 E0.011
G1 X126.423 Y105.519 E0.212
G1 X126.348 Y105.353 E0.006
G1 X126.266 Y105.109 E0.008
G1 X121.825 Y109.55 E0.209
G1 X121.74 Y109.069 E0.017
G1 X126.142 Y104.668 E0.207
G1 X126.085 Y104.417 E0.008
G1 X126.056 Y104.188 E0.008
G1 X121.656 Y108.589 E0.207
G1 X121.571 Y108.108 E0.016
G1 X126.018 Y103.661 E0.209
G1 X126.012 Y103.448 E0.007
G1 X126.04 Y103.072 E0.013
G1 X121.486 Y107.627 E0.214
G1 X121.401 Y107.146 E0.016
G1 X126.16 Y102.387 E0.224
G1 X126.265 Y102.015 E0.013
G1 X126.443 Y101.561 E0.016
G1 X126.467 Y101.514 E0.002
G1 X121.316 Y106.665 E0.242
G1 X121.232 Y106.184 E0.016
G1 X128.649 Y98.766 E0.349
G1 X127.963 Y98.887 E0.024
G1 X121.147 Y105.703 E0.32
G1 X121.062 Y105.222 E0.016
G1 X127.276 Y99.008 E0.293
G1 X126.589 Y99.129 E0.023
G1 X120.977 Y104.741 E0.264
G1 X120.892 Y104.261 E0.016
G1 X125.903 Y99.25 E0.236
G1 X125.216 Y99.371 E0.023
G1 X120.808 Y103.78 E0.207
G1 X120.723 Y103.299 E0.017
G1 X124.529 Y99.492 E0.179
G1 X123.842 Y99.613 E0.023
G1 X120.638 Y102.818 E0.151
G1 X120.553 Y102.337 E0.016
G1 X123.156 Y99.735 E0.122
G1 X122.469 Y99.856 E0.023
G1 X120.468 Y101.856 E0.094
G1 X120.384 Y101.375 E0.017
G1 X121.782 Y99.977 E0.066
G1 X121.095 Y100.098 E0.023
G1 X120.299 Y100.894 E0.037
G1 X120.214 Y100.413 E0.016
G1 X120.409 Y100.219 E0.01
G1 F2100 E-0.5
;LAYER:2
M107
;rapid-dry
G0 X118.206 Y100.059 Z0.35 F7200
G1 F2100 E0.5
;bead-support
G1 X118.299 Y100.219 F3300 E0.004
G1 X119.229 Y105.831 E0.142
G1 X119.332 Y106.01 E0.005
G1 X119.985 Y109.806 E0.096
G1 X119.911 Y109.679 E0.004
G1 F2100 E-0.5
G0 X119.985 Y109.806 F2400
G0 X119.84 Y108.966 F2400
G0 X119.985 Y109.806 F2400
G0 X119.911 Y109.679 F2400
;rapid-dry
G0 X119.017 Y111.205 F7200
G1 F2100 E0.5
;bead-support
G1 X118.499 Y111.504 F3300 E0.015
G1 X115.934 Y111.964 E0.065
G1 X115.602 Y110.098 E0.047
G1 X118.522 Y108.412 E0.084
G1 X118.027 Y105.619 E0.071
G1 X115.105 Y107.306 E0.084
G1 X114.941 Y106.387 E0.024
G1 X114.67 Y104.477 E0.048
G1 X117.532 Y102.825 E0.082
G1 X117.076 Y100.249 E0.065
G1 X116.473 Y100.357 E0.016
G1 X114.267 Y101.631 E0.063
G1 F2100 E-0.5
G0 X115.133 Y101.131 F2400
G0 X114.267 Y101.631 F2400
;rapid-dry
G0 X134.935 Y104.707 F7200
G1 F2100 E0.5
;bead-perimeter_outer
G1 X135.028 Y104.299 F1800 E0.011
G1 X135.081 Y103.883 E0.01
G1 X135.091 Y103.465 E0.011
G1 X135.06 Y103.047 E0.01
G1 X134.987 Y102.634 E0.01
G1 X134.874 Y102.232 E0.011
G1 X134.72 Y101.842 E0.01
G1 X134.529 Y101.47 E0.011
G1 X134.303 Y101.118 E0.01
G1 X134.041 Y100.79 E0.011
G1 X133.748 Y100.49 E0.01
G1 X133.428 Y100.221 E0.011
G1 X133.082 Y99.985 E0.01
G1 X132.714 Y99.786 E0.01
G1 X132.329 Y99.623 E0.011
G1 X131.929 Y99.499 E0.01
G1 X131.518 Y99.416 E0.011
G1 X131.101 Y99.375 E0.01
G1 X130.682 E0.011
G1 X130.266 Y99.416 E0.01
G1 X129.855 Y99.499 E0.011
G1 X129.455 Y99.623 E0.01
G1 X129.069 Y99.786 E0.01
G1 X128.702 Y99.985 E0.011
G1 X128.356 Y100.221 E0.01
G1 X128.035 Y100.49 E0.011
G1 X127.743 Y100.791 E0.01
G1 X127.481 Y101.118 E0.011
G1 X127.255 Y101.47 E0.01
G1 X127.064 Y101.842 E0.011
G1 X126.91 Y102.232 E0.01
G1 X126.797 Y102.634 E0.01
G1 X126.724 Y103.047 E0.011
G1 X126.693 Y103.465 E0.01
G1 X126.703 Y103.883 E0.011
G1 X126.756 Y104.299 E0.01
G1 X126.848 Y104.707 E0.011
G1 X126.982 Y105.104 E0.01
G1 X127.154 Y105.485 E0.011
G1 X127.364 Y105.849 E0.01
G1 X127.607 Y106.189 E0.01
G1 X127.885 Y106.503 E0.011
G1 X128.192 Y106.787 E0.01
G1 X128.526 Y107.041 E0.011
G1 X128.883 Y107.258 E0.01
G1 X129.26 Y107.439 E0.011
G1 X129.654 Y107.583 E0.01
G1 X130.059 Y107.686 E0.011
G1 X130.474 Y107.749 E0.01
G1 X130.892 Y107.77 E0.01
G1 X131.31 Y107.749 E0.011
G1 X131.725 Y107.686 E0.01
G1 X132.178 Y107.566 E0.012
G1 X132.524 Y107.439 E0.009
G1 X132.901 Y107.258 E0.011
G1 X133.258 Y107.041 E0.01
G1 X133.592 Y106.787 E0.011
G1 X133.898 Y106.503 E0.01
G1 X134.176 Y106.189 E0.01
G1 X134.42 Y105.849 E0.011
G1 X134.629 Y105.485 E0.01
G1 X134.801 Y105.104 E0.011
G1 X134.935 Y104.707 E0.01
;rapid-leaky
G0 X135.282 Y104.805 F7200
;bead-perimeter_inner
G1 X135.383 Y104.362 F2400 E0.012
G1 X135.44 Y103.91 E0.011
G1 X135.452 Y103.456 E0.011
G1 X135.417 Y103.002 E0.012
G1 X135.339 Y102.554 E0.011
G1 X135.215 Y102.117 E0.011
G1 X135.049 Y101.693 E0.012
G1 X134.841 Y101.29 E0.011
G1 X134.595 Y100.908 E0.011
G1 X134.311 Y100.552 E0.012
G1 X133.993 Y100.226 E0.011
G1 X133.646 Y99.934 E0.011
G1 X133.27 Y99.677 E0.012
G1 X132.87 Y99.461 E0.011
G1 X132.452 Y99.284 E0.011
G1 X132.018 Y99.15 E0.012
G1 X131.571 Y99.059 E0.011
G1 X131.118 Y99.015 E0.011
G1 X130.664 E0.012
G1 X130.213 Y99.059 E0.011
G1 X129.766 Y99.15 E0.011
G1 X129.332 Y99.284 E0.012
G1 X128.913 Y99.461 E0.011
G1 X128.514 Y99.678 E0.011
G1 X128.138 Y99.934 E0.012
G1 X127.79 Y100.226 E0.011
G1 X127.472 Y100.552 E0.011
G1 X127.189 Y100.908 E0.012
G1 X126.943 Y101.29 E0.011
G1 X126.735 Y101.693 E0.011
G1 X126.569 Y102.117 E0.012
G1 X126.445 Y102.554 E0.011
G1 X126.367 Y103.002 E0.012
G1 X126.332 Y103.456 E0.011
G1 X126.344 Y103.91 E0.011
G1 X126.401 Y104.361 E0.012
G1 X126.501 Y104.804 E0.011
G1 X126.646 Y105.236 E0.011
G1 X126.833 Y105.65 E0.012
G1 X127.061 Y106.044 E0.011
G1 X127.325 Y106.413 E0.011
G1 X127.627 Y106.755 E0.012
G1 X127.961 Y107.064 E0.011
G1 X128.323 Y107.339 E0.011
G1 X128.711 Y107.575 E0.012
G1 X129.12 Y107.771 E0.011
G1 X129.548 Y107.928 E0.011
G1 X129.988 Y108.04 E0.012
G1 X130.438 Y108.108 E0.011
G1 X130.892 Y108.131 E0.011
G1 X131.346 Y108.108 E0.012
G1 X131.798 Y108.039 E0.011
G1 X132.286 Y107.91 E0.013
G1 X132.664 Y107.771 E0.01
G1 X133.073 Y107.575 E0.011
G1 X133.461 Y107.339 E0.011
G1 X133.823 Y107.063 E0.012
G1 X134.156 Y106.755 E0.011
G1 X134.457 Y106.414 E0.011
G1 X134.723 Y106.044 E0.012
G1 X134.95 Y105.649 E0.011
G1 X135.137 Y105.236 E0.011
G1 X135.282 Y104.805 E0.012
G1 F2100 E-0.5
;rapid-dry
G0 X136.466 Y105.164 F7200
G1 F2100 E0.5
;bead-perimeter_outer
G1 X136.342 Y105.554 F1800 E0.01
G1 X136.165 Y105.986 E0.012
G1 X135.953 Y106.402 E0.011
G1 X135.709 Y106.799 E0.012
G1 X135.433 Y107.176 E0.012
G1 X135.128 Y107.53 E0.011
G1 X134.796 Y107.858 E0.012
G1 X134.389 Y108.193 E0.013
G1 X134.057 Y108.429 E0.01
G1 X133.656 Y108.668 E0.012
G1 X133.236 Y108.874 E0.011
G1 X132.802 Y109.046 E0.012
G1 X132.356 Y109.181 E0.012
G1 X131.895 Y109.282 E0.011
G1 X121.081 Y111.189 E0.274
G1 X119.068 Y99.765 E0.29
G1 X129.881 Y97.859 E0.274
G1 X130.348 Y97.795 E0.011
G1 X130.814 Y97.77 E0.012
G1 X131.28 Y97.783 E0.012
G1 X131.804 Y97.844 E0.013
G1 X132.204 Y97.92 E0.01
G1 X132.654 Y98.044 E0.012
G1 X133.093 Y98.204 E0.011
G1 X133.518 Y98.398 E0.012
G1 X133.925 Y98.627 E0.012
G1 X134.313 Y98.886 E0.011
G1 X134.723 Y99.217 E0.013
G1 X135.02 Y99.495 E0.011
G1 X135.335 Y99.842 E0.011
G1 X135.621 Y100.211 E0.012
G1 X135.875 Y100.602 E0.012
G1 X136.097 Y101.013 E0.011
G1 X136.287 Y101.441 E0.012
G1 X136.44 Y101.881 E0.011
G1 X136.558 Y102.334 E0.012
G1 X136.64 Y102.793 E0.012
G1 X136.683 Y103.259 E0.011
G1 X136.69 Y103.726 E0.012
G1 X136.658 Y104.191 E0.012
G1 X136.589 Y104.653 E0.011
G1 X136.466 Y105.164 E0.014
;rapid-leaky
G0 X136.119 Y105.067 F7200
;bead-perimeter_inner
G1 X136.003 Y105.43 F2400 E0.009
G1 X135.837 Y105.836 E0.011
G1 X135.639 Y106.226 E0.011
G1 X135.41 Y106.599 E0.011
G1 X135.151 Y106.952 E0.011
G1 X134.865 Y107.284 E0.011
G1 X134.554 Y107.591 E0.011
G1 X134.17 Y107.907 E0.012
G1 X133.86 Y108.127 E0.009
G1 X133.484 Y108.351 E0.011
G1 X133.09 Y108.545 E0.011
G1 X132.683 Y108.706 E0.011
G1 X132.265 Y108.833 E0.011
G1 X131.826 Y108.928 E0.011
G1 X121.373 Y110.772 E0.265
G1 X119.485 Y100.057 E0.271
G1 X129.936 Y98.214 E0.265
G1 X130.382 Y98.154 E0.011
G1 X130.819 Y98.13 E0.011
G1 X131.254 Y98.142 E0.011
G1 X131.749 Y98.2 E0.013
G1 X132.122 Y98.271 E0.009
G1 X132.544 Y98.387 E0.011
G1 X132.956 Y98.537 E0.011
G1 X133.355 Y98.72 E0.011
G1 X133.737 Y98.934 E0.011
G1 X134.1 Y99.176 E0.011
G1 X134.486 Y99.489 E0.012
G1 X134.764 Y99.748 E0.01
G1 X135.059 Y100.073 E0.011
G1 X135.327 Y100.42 E0.01
G1 X135.565 Y100.786 E0.011
G1 X135.774 Y101.172 E0.011
G1 X135.952 Y101.573 E0.011
G1 X136.096 Y101.986 E0.011
G1 X136.206 Y102.411 E0.011
G1 X136.283 Y102.841 E0.011
G1 X136.323 Y103.278 E0.011
G1 X136.33 Y103.716 E0.011
G1 X136.3 Y104.153 E0.011
G1 X136.236 Y104.584 E0.011
G1 X136.119 Y105.067 E0.012
G1 F2100 E-0.5
;rapid-dry
G0 X129.775 Y108.965 F7200
G1 F2100 E0.5
;bead-solid_infill
G1 X128.766 Y107.956 F1800 E0.036
G1 X128.995 Y108.067 E0.006
G1 X129.187 Y108.137 E0.005
G1 X129.453 Y108.234 E0.007
G1 X129.663 Y108.287 E0.006
G1 X130.256 Y108.88 E0.021
G1 X130.737 Y108.796 E0.012
G1 X130.361 Y108.42 E0.013
G1 X130.406 Y108.427 E0.001
G1 X130.892 Y108.451 E0.012
G1 X130.955 Y108.448 E0.002
G1 X131.218 Y108.711 E0.009
G1 X131.698 Y108.626 E0.012
G1 X131.483 Y108.411 E0.008
G1 X131.863 Y108.353 E0.009
G1 X131.964 Y108.326 E0.003
G1 X132.165 Y108.527 E0.007
G1 X132.184 Y108.523 E0.001
G1 X132.578 Y108.403 E0.01
G1 X132.599 Y108.395
G1 X132.409 Y108.205 E0.007
G1 X132.789 Y108.067 E0.01
G1 X132.821 Y108.051 E0.001
G1 X133.001 Y108.232 E0.006
G1 X133.331 Y108.07 E0.01
G1 X133.377 Y108.042 E0.001
G1 X133.203 Y107.867 E0.006
G1 X133.226 Y107.856 E0.001
G1 X133.445 Y107.723 E0.006
G1 X133.556 Y107.655 E0.003
G1 X133.729 Y107.828 E0.007
G1 X133.976 Y107.653 E0.007
G1 X134.055 Y107.588 E0.003
G1 X133.885 Y107.418 E0.006
G1 X134.029 Y107.309 E0.004
G1 X134.191 Y107.159 E0.006
G1 X134.363 Y107.33 E0.006
G1 X134.631 Y107.066 E0.009
G1 X134.646 Y107.048 E0.001
G1 X134.475 Y106.877 E0.006
G1 X134.708 Y106.613 E0.008
G1 X134.737 Y106.573 E0.002
G1 X134.907 Y106.744 E0.006
G1 X135.144 Y106.42 E0.01
G1 X135.146 Y106.417
G1 X134.973 Y106.244 E0.006
G1 X134.993 Y106.217 E0.001
G1 X135.182 Y105.887 E0.009
G1 X135.361 Y106.066 E0.007
G1 X135.546 Y105.702 E0.01
G1 X135.551 Y105.69
G1 X135.366 Y105.506 E0.007
G1 X135.37 Y105.498
G1 X135.435 Y105.353 E0.004
G1 X135.473 Y105.242 E0.003
G1 X135.522 Y105.095 E0.004
G1 X135.713 Y105.287 E0.006
G1 X135.811 Y104.981 E0.008
G1 X135.842 Y104.85 E0.004
G1 X135.645 Y104.653 E0.007
G1 X135.699 Y104.418 E0.006
G1 X135.706 Y104.355 E0.001
G1 X135.73 Y104.172 E0.005
G1 X135.942 Y104.384 E0.007
G1 X135.981 Y104.118 E0.007
G1 X135.998 Y103.875 E0.006
G1 X135.767 Y103.643 E0.008
G1 X135.772 Y103.448 E0.005
G1 X135.769 Y103.405 E0.001
G1 X135.742 Y103.053 E0.009
G1 X136.004 Y103.315 E0.009
G1 Y103.295 E0.001
G1 X135.965 Y102.884 E0.01
G1 X135.928 Y102.673 E0.005
G1 X135.617 Y102.362 E0.011
G1 X135.519 Y102.015 E0.009
G1 X135.341 Y101.561 E0.013
G1 X135.298 Y101.477 E0.002
G1 X135.73 Y101.91 E0.015
G1 X135.654 Y101.691 E0.006
G1 X135.608 Y101.587 E0.003
G1 X135.487 Y101.313 E0.007
G1 X135.382 Y101.12 E0.006
G1 X135.29 Y100.95 E0.005
G1 X135.204 Y100.818 E0.003
G1 X133.64 Y99.254 E0.056
G1 X133.569 Y99.207 E0.002
G1 X133.379 Y99.1 E0.005
G1 X133.21 Y99.005 E0.005
G1 X133.023 Y98.92 E0.005
G1 X132.835 Y98.834 E0.005
G1 X132.55 Y98.73 E0.008
G1 X132.981 Y99.16 E0.015
G1 X132.562 Y98.983 E0.011
G1 X132.097 Y98.839 E0.013
G1 X132.093
G1 X131.788 Y98.533 E0.01
G1 X131.701 Y98.516 E0.003
G1 X131.231 Y98.462 E0.011
G1 X131.149 Y98.459 E0.002
G1 X131.411 Y98.722 E0.01
G1 X131.134 Y98.695 E0.007
G1 X130.818 E0.008
G1 X130.587 Y98.463 E0.008
G1 X130.428 Y98.472 E0.004
G1 X130.412 Y98.473
G1 X130.076 Y98.518 E0.009
G1 X130.288 Y98.731 E0.007
G1 X130.165 Y98.743 E0.003
G1 X129.807 Y98.815 E0.009
G1 X129.592 Y98.6 E0.008
G1 X129.111 Y98.685 E0.012
G1 X129.365 Y98.939 E0.009
G1 X129.222 Y98.983 E0.004
G1 X128.961 Y99.093 E0.007
G1 X128.956 Y99.095
G1 X128.63 Y98.77 E0.011
G1 X128.149 Y98.854 E0.013
G1 X128.575 Y99.28 E0.015
G1 X128.47 Y99.337 E0.003
G1 X128.346 Y99.404 E0.003
G1 X128.266 Y99.459 E0.003
G1 X128.22 Y99.491 E0.001
G1 X127.669 Y98.939 E0.019
G1 X127.188 Y99.024 E0.013
G1 X127.889 Y99.725 E0.024
G1 X127.581 Y99.983 E0.01
G1 X126.707 Y99.109 E0.031
G1 X126.226 Y99.194 E0.012
G1 X127.301 Y100.269 E0.038
G1 X127.232 Y100.34 E0.003
G1 X127.043 Y100.577 E0.007
G1 X125.745 Y99.278 E0.046
G1 X125.264 Y99.363 E0.012
G1 X126.808 Y100.907 E0.055
G1 X126.665 Y101.129 E0.006
G1 X126.597 Y101.262 E0.004
G1 X124.783 Y99.448 E0.064
G1 X124.302 Y99.533 E0.012
G1 X126.411 Y101.642 E0.075
G1 X126.265 Y102.015 E0.01
G1 X126.255 Y102.051 E0.001
G1 X123.821 Y99.618 E0.085
G1 X123.341 Y99.702 E0.013
G1 X126.131 Y102.493 E0.098
G1 X126.088 Y102.736 E0.006
G1 X126.049 Y102.963 E0.006
G1 X126.048 Y102.975
G1 X122.86 Y99.787 E0.113
G1 X122.379 Y99.872 E0.012
G1 X126.014 Y103.507 E0.128
G1 X126.024 Y103.934 E0.011
G1 X126.046 Y104.105 E0.004
G1 X121.898 Y99.957 E0.146
G1 X121.417 Y100.042 E0.013
G1 X126.171 Y104.796 E0.167
G1 X126.193 Y104.891 E0.003
G1 X126.348 Y105.353 E0.012
G1 X126.5 Y105.691 E0.009
G1 X120.936 Y100.126 E0.196
G1 X120.455 Y100.211 E0.013
G1 X129.294 Y109.05 E0.311
G1 X128.813 Y109.135 E0.013
G1 X119.974 Y100.296 E0.311
G1 X119.855 Y100.317 E0.003
G1 X119.947 Y100.834 E0.014
G1 X128.332 Y109.22 E0.295
G1 X127.852 Y109.305 E0.013
G1 X120.068 Y101.521 E0.274
G1 X120.189 Y102.207 E0.018
G1 X127.371 Y109.389 E0.253
G1 X126.89 Y109.474 E0.012
G1 X120.31 Y102.894 E0.232
G1 X120.431 Y103.581 E0.018
G1 X126.409 Y109.559 E0.211
G1 X125.928 Y109.644 E0.012
G1 X120.552 Y104.267 E0.189
G1 X120.646 Y104.803 E0.014
G1 X120.673 Y104.954 E0.004
G1 X125.447 Y109.729 E0.168
G1 X124.966 Y109.813 E0.012
G1 X120.794 Y105.641 E0.148
G1 X120.915 Y106.328 E0.017
G1 X124.485 Y109.898 E0.126
G1 X124.005 Y109.983 E0.012
G1 X121.036 Y107.014 E0.105
G1 X121.157 Y107.701 E0.017
G1 X123.524 Y110.068 E0.084
G1 X123.043 Y110.153 E0.012
G1 X121.278 Y108.388 E0.062
G1 X121.399 Y109.075 E0.018
G1 X122.562 Y110.238 E0.041
G1 X122.081 Y110.322 E0.012
G1 X121.52 Y109.761 E0.02
G1 F2100 E-0.5
;LAYER:3
M107
;rapid-dry
G0 X119.017 Y111.205 Z0.5 F7200
G1 F2100 E0.5
;bead-support
G1 X118.499 Y111.504 F3300 E0.014
G1 X115.934 Y111.964 E0.066
G1 X115.602 Y110.098 E0.047
G1 X118.522 Y108.412 E0.084
G1 X118.027 Y105.619 E0.071
G1 X115.105 Y107.306 E0.084
G1 X114.941 Y106.387 E0.023
G1 X114.67 Y104.477 E0.048
G1 X117.532 Y102.825 E0.083
G1 X117.076 Y100.25 E0.065
G1 X116.472 Y100.358 E0.015
G1 X114.267 Y101.631 E0.064
G1 F2100 E-0.5
G0 X115.133 Y101.131 F2400
G0 X114.267 Y101.631 F2400
;rapid-dry
G0 X133.258 Y107.041 F7200
G1 F2100 E0.5
;bead-perimeter_outer
G1 X133.592 Y106.787 F1800 E0.01
G1 X133.898 Y106.503 E0.011
G1 X134.176 Y106.189 E0.01
G1 X134.42 Y105.849 E0.011
G1 X134.629 Y105.485 E0.01
G1 X134.801 Y105.104 E0.01
G1 X134.935 Y104.707 E0.011
G1 X135.028 Y104.299 E0.01
G1 X135.081 Y103.883 E0.011
G1 X135.091 Y103.465 E0.01
G1 X135.06 Y103.047 E0.011
G1 X134.987 Y102.634 E0.01
G1 X134.874 Y102.232 E0.011
G1 X134.72 Y101.842 E0.01
G1 X134.529 Y101.47 E0.01
G1 X134.303 Y101.118 E0.011
G1 X134.041 Y100.79 E0.01
G1 X133.748 Y100.49 E0.011
G1 X133.428 Y100.221 E0.01
G1 X133.082 Y99.985 E0.011
G1 X132.714 Y99.786 E0.01
G1 X132.329 Y99.623 E0.011
G1 X131.929 Y99.499 E0.01
G1 X131.518 Y99.416 E0.01
G1 X131.101 Y99.375 E0.011
G1 X130.682 E0.01
G1 X130.266 Y99.416 E0.011
G1 X129.855 Y99.499 E0.01
G1 X129.455 Y99.623 E0.011
G1 X129.069 Y99.786 E0.01
G1 X128.702 Y99.985 E0.011
G1 X128.356 Y100.221 E0.01
G1 X128.035 Y100.49 E0.01
G1 X127.743 Y100.791 E0.011
G1 X127.481 Y101.118 E0.01
G1 X127.255 Y101.47 E0.011
G1 X127.064 Y101.842 E0.01
G1 X126.91 Y102.232 E0.011
G1 X126.797 Y102.634 E0.01
G1 X126.724 Y103.047 E0.011
G1 X126.693 Y103.465 E0.01
G1 X126.703 Y103.883 E0.01
G1 X126.756 Y104.299 E0.011
G1 X126.848 Y104.707 E0.01
G1 X126.982 Y105.104 E0.011
G1 X127.154 Y105.485 E0.01
G1 X127.364 Y105.849 E0.011
G1 X127.607 Y106.189 E0.01
G1 X127.885 Y106.503 E0.011
G1 X128.192 Y106.787 E0.01
G1 X128.526 Y107.041 E0.01
G1 X128.883 Y107.258 E0.011
G1 X129.26 Y107.439 E0.01
G1 X129.654 Y107.583 E0.011
G1 X130.059 Y107.686 E0.01
G1 X130.474 Y107.749 E0.011
G1 X130.892 Y107.77 E0.01
G1 X131.31 Y107.749 E0.011
G1 X131.724 Y107.686 E0.01
G1 X132.13 Y107.583 E0.01
G1 X132.524 Y107.439 E0.011
G1 X132.901 Y107.258 E0.01
G1 X133.258 Y107.041 E0.011
;rapid-leaky
G0 X133.461 Y107.339 F7200
;bead-perimeter_inner
G1 X133.823 Y107.063 F2400 E0.011
G1 X134.156 Y106.755 E0.011
G1 X134.457 Y106.414 E0.012
G1 X134.723 Y106.044 E0.011
G1 X134.95 Y105.649 E0.012
G1 X135.137 Y105.236 E0.011
G1 X135.282 Y104.805 E0.011
G1 X135.383 Y104.362 E0.012
G1 X135.44 Y103.91 E0.011
G1 X135.452 Y103.456 E0.011
G1 X135.417 Y103.002 E0.012
G1 X135.339 Y102.554 E0.011
G1 X135.215 Y102.117 E0.011
G1 X135.049 Y101.693 E0.012
G1 X134.841 Y101.29 E0.011
G1 X134.595 Y100.908 E0.011
G1 X134.311 Y100.552 E0.012
G1 X133.993 Y100.226 E0.011
G1 X133.646 Y99.934 E0.011
G1 X133.27 Y99.677 E0.012
G1 X132.87 Y99.461 E0.011
G1 X132.452 Y99.284 E0.011
G1 X132.018 Y99.15 E0.012
G1 X131.571 Y99.059 E0.011
G1 X131.118 Y99.015 E0.011
G1 X130.664 E0.012
G1 X130.213 Y99.059 E0.011
G1 X129.766 Y99.15 E0.011
G1 X129.332 Y99.284 E0.012
G1 X128.913 Y99.461 E0.011
G1 X128.514 Y99.678 E0.011
G1 X128.138 Y99.934 E0.012
G1 X127.79 Y100.226 E0.011
G1 X127.472 Y100.552 E0.011
G1 X127.189 Y100.908 E0.012
G1 X126.943 Y101.29 E0.011
G1 X126.735 Y101.693 E0.011
G1 X126.569 Y102.117 E0.012
G1 X126.445 Y102.554 E0.011
G1 X126.367 Y103.002 E0.011
G1 X126.332 Y103.456 E0.012
G1 X126.344 Y103.91 E0.011
G1 X126.401 Y104.361 E0.012
G1 X126.501 Y104.804 E0.011
G1 X126.646 Y105.236 E0.011
G1 X126.833 Y105.65 E0.012
G1 X127.061 Y106.044 E0.011
G1 X127.325 Y106.413 E0.011
G1 X127.627 Y106.755 E0.012
G1 X127.961 Y107.064 E0.011
G1 X128.323 Y107.339 E0.011
G1 X128.711 Y107.575 E0.012
G1 X129.12 Y107.771 E0.011
G1 X129.548 Y107.928 E0.011
G1 X129.988 Y108.04 E0.012
G1 X130.437 Y108.108 E0.011
G1 X130.892 Y108.131 E0.011
G1 X131.346 Y108.108 E0.012
G1 X131.795 Y108.04 E0.011
G1 X132.236 Y107.928 E0.011
G1 X132.664 Y107.771 E0.012
G1 X133.073 Y107.575 E0.011
G1 X133.461 Y107.339 E0.011
G1 F2100 E-0.5
;rapid-dry
G0 X134.057 Y108.429 F7200
G1 F2100 E0.5
;bead-perimeter_outer
G1 X133.656 Y108.668 F1800 E0.012
G1 X133.236 Y108.874 E0.012
G1 X132.802 Y109.046 E0.011
G1 X132.356 Y109.181 E0.012
G1 X131.895 Y109.282 E0.012
G1 X120.84 Y111.232 E0.28
G1 X118.826 Y99.808 E0.289
G1 X129.881 Y97.859 E0.28
G1 X130.348 Y97.795 E0.012
G1 X130.814 Y97.77 E0.011
G1 X131.281 Y97.783 E0.012
G1 X131.746 Y97.833 E0.012
G1 X132.204 Y97.92 E0.011
G1 X132.654 Y98.044 E0.012
G1 X133.093 Y98.204 E0.012
G1 X133.518 Y98.398 E0.011
G1 X133.925 Y98.627 E0.012
G1 X134.314 Y98.887 E0.012
G1 X134.679 Y99.177 E0.011
G1 X135.02 Y99.495 E0.012
G1 X135.335 Y99.842 E0.012
G1 X135.621 Y100.211 E0.011
G1 X135.875 Y100.602 E0.012
G1 X136.097 Y101.013 E0.012
G1 X136.287 Y101.441 E0.011
G1 X136.441 Y101.882 E0.012
G1 X136.558 Y102.334 E0.012
G1 X136.64 Y102.793 E0.011
G1 X136.683 Y103.259 E0.012
G1 X136.69 Y103.726 E0.012
G1 X136.658 Y104.191 E0.011
G1 X136.589 Y104.654 E0.012
G1 X136.459 Y105.187 E0.014
G1 X136.342 Y105.554 E0.009
G1 X136.165 Y105.986 E0.012
G1 X135.953 Y106.402 E0.011
G1 X135.709 Y106.799 E0.012
G1 X135.433 Y107.176 E0.012
G1 X135.127 Y107.531 E0.011
G1 X134.795 Y107.859 E0.012
G1 X134.438 Y108.159 E0.012
G1 X134.057 Y108.429 E0.011
;rapid-leaky
G0 X133.86 Y108.127 F7200
;bead-perimeter_inner
G1 X133.484 Y108.351 F2400 E0.011
G1 X133.09 Y108.545 E0.011
G1 X132.683 Y108.706 E0.011
G1 X132.265 Y108.833 E0.011
G1 X131.826 Y108.928 E0.011
G1 X121.132 Y110.815 E0.271
G1 X119.243 Y100.1 E0.272
G1 X129.936 Y98.214 E0.27
G1 X130.382 Y98.154 E0.012
G1 X130.819 Y98.13 E0.011
G1 X131.256 Y98.142 E0.01
G1 X131.693 Y98.189 E0.011
G1 X132.122 Y98.271 E0.011
G1 X132.544 Y98.387 E0.011
G1 X132.956 Y98.537 E0.011
G1 X133.355 Y98.72 E0.011
G1 X133.737 Y98.934 E0.011
G1 X134.102 Y99.178 E0.011
G1 X134.444 Y99.45 E0.011
G1 X134.764 Y99.748 E0.011
G1 X135.059 Y100.073 E0.011
G1 X135.327 Y100.42 E0.011
G1 X135.565 Y100.786 E0.011
G1 X135.774 Y101.172 E0.01
G1 X135.952 Y101.573 E0.011
G1 X136.096 Y101.987 E0.011
G1 X136.206 Y102.41 E0.011
G1 X136.283 Y102.841 E0.011
G1 X136.323 Y103.278 E0.011
G1 X136.33 Y103.716 E0.011
G1 X136.3 Y104.153 E0.011
G1 X136.235 Y104.586 E0.011
G1 X136.116 Y105.078 E0.013
G1 X136.003 Y105.43 E0.009
G1 X135.837 Y105.836 E0.011
G1 X135.639 Y106.226 E0.011
G1 X135.41 Y106.599 E0.011
G1 X135.151 Y106.952 E0.01
G1 X134.864 Y107.286 E0.011
G1 X134.553 Y107.592 E0.011
G1 X134.217 Y107.873 E0.011
G1 X133.86 Y108.127 E0.011
G1 F2100 E-0.5
;rapid-dry
G0 X129.336 Y98.645 F7200
G1 F2100 E0.5
;bead-solid_infill
G1 X128.835 Y99.146 F1800 E0.018
G1 X128.961 Y99.093 E0.003
G1 X129.222 Y98.983 E0.007
G1 X129.687 Y98.839 E0.012
G1 X129.713 Y98.834 E0.001
G1 X130.021 Y98.526 E0.011
G1 X130.307 Y98.487 E0.007
G1 X130.412 Y98.473 E0.003
G1 X130.427 Y98.472
G1 X130.653 Y98.46 E0.006
G1 X130.392 Y98.72 E0.009
G1 X130.649 Y98.695 E0.006
G1 X130.983 E0.009
G1 X131.217 Y98.461 E0.008
G1 X131.235 Y98.462 E0.001
G1 X131.645 Y98.506 E0.01
G1 X131.723 Y98.521 E0.002
G1 X131.512 Y98.732 E0.007
G1 X131.618 Y98.743 E0.003
G1 X131.992 Y98.818 E0.009
G1 X132.189 Y98.621 E0.007
G1 X132.447 Y98.692 E0.007
G1 X132.62 Y98.755 E0.005
G1 X132.432 Y98.943 E0.006
G1 X132.562 Y98.983 E0.004
G1 X132.84 Y99.101 E0.007
G1 X133.022 Y98.919 E0.007
G1 X133.21 Y99.005 E0.005
G1 X133.397 Y99.11 E0.005
G1 X133.22 Y99.287 E0.006
G1 X133.437 Y99.404 E0.006
G1 X133.575 Y99.498 E0.005
G1 X133.747 Y99.325 E0.006
G1 X133.913 Y99.437 E0.005
G1 X134.074 Y99.564 E0.005
G1 X133.905 Y99.734 E0.006
G1 X134.041 Y99.848 E0.004
G1 X134.211 Y99.991 E0.006
G1 X134.212 Y99.992
G1 X134.378 Y99.826 E0.006
G1 X134.536 Y99.973 E0.005
G1 X134.66 Y100.11 E0.005
G1 X134.491 Y100.278 E0.006
G1 X134.551 Y100.34 E0.002
G1 X134.749 Y100.587 E0.008
G1 X134.919 Y100.416 E0.006
G1 X135.066 Y100.605 E0.006
G1 X135.156 Y100.744 E0.004
G1 X134.983 Y100.918 E0.006
G1 X135.119 Y101.129 E0.006
G1 X135.193 Y101.274 E0.004
G1 X135.37 Y101.097 E0.006
G1 X135.487 Y101.313 E0.007
G1 X135.558 Y101.474 E0.004
G1 X135.378 Y101.655 E0.006
G1 X135.519 Y102.015 E0.01
G1 X135.533 Y102.065 E0.001
G1 X135.719 Y101.879 E0.007
G1 X135.79 Y102.08 E0.005
G1 X135.818 Y102.19 E0.003
G1 X135.85 Y102.313 E0.003
G1 X135.655 Y102.508 E0.007
G1 X135.735 Y102.963 E0.012
G1 X135.737 Y102.992
G1 X135.947 Y102.782 E0.008
G1 X135.953 Y102.817 E0.001
G1 X135.965 Y102.884 E0.001
G1 X136.003 Y103.292 E0.011
G1 X135.77 Y103.525 E0.008
G1 X135.76 Y103.934 E0.01
G1 X135.736 Y104.125 E0.005
G1 X135.999 Y103.862 E0.009
G1 X135.981 Y104.118 E0.006
G1 X135.951 Y104.322 E0.006
G1 X135.924 Y104.502 E0.004
G1 X135.607 Y104.82 E0.011
G1 X135.59 Y104.892 E0.002
G1 X135.473 Y105.242 E0.009
G1 X135.435 Y105.353 E0.003
G1 X135.37 Y105.498 E0.004
G1 X135.267 Y105.725 E0.007
G1 X135.717 Y105.275 E0.015
G1 X135.702 Y105.321 E0.002
G1 X135.546 Y105.702 E0.01
G1 X135.36 Y106.069 E0.01
G1 X135.166 Y106.384 E0.009
G1 X135.154 Y106.404 E0.001
G1 X133.732 Y107.826 E0.05
G1 X133.685 Y107.859 E0.002
G1 X133.331 Y108.07 E0.01
G1 X132.96 Y108.252 E0.01
G1 X132.596 Y108.396 E0.01
G1 X133.053 Y107.94 E0.016
G1 X132.789 Y108.067 E0.007
G1 X132.331 Y108.234 E0.012
G1 X132.145 Y108.281 E0.005
G1 X131.825 Y108.601 E0.012
G1 X131.764 Y108.614 E0.001
G1 X131.135 Y108.725 E0.016
G1 X131.444 Y108.417 E0.011
G1 X131.379 Y108.427 E0.002
G1 X130.892 Y108.451 E0.012
G1 X130.846 Y108.449 E0.001
G1 X130.449 Y108.846 E0.014
G1 X129.762 Y108.968 E0.017
G1 X130.316 Y108.413 E0.02
G1 X129.924 Y108.354 E0.01
G1 X129.833 Y108.33 E0.002
G1 X129.075 Y109.089 E0.027
G1 X128.964 Y109.108 E0.003
G1 X128.388 Y109.21 E0.014
G1 X129.388 Y108.21 E0.036
G1 X129.187 Y108.137 E0.005
G1 X128.995 Y108.067 E0.005
G1 X128.975 Y108.057
G1 X127.701 Y109.331 E0.045
G1 X127.014 Y109.452 E0.018
G1 X128.594 Y107.873 E0.056
G1 X128.558 Y107.856 E0.001
G1 X128.239 Y107.662 E0.009
G1 X126.327 Y109.574 E0.067
G1 X125.64 Y109.695 E0.018
G1 X127.909 Y107.426 E0.08
G1 X127.755 Y107.309 E0.005
G1 X127.602 Y107.168 E0.005
G1 X124.954 Y109.816 E0.093
G1 X124.267 Y109.937 E0.018
G1 X127.317 Y106.887 E0.107
G1 X127.075 Y106.613 E0.009
G1 X127.054 Y106.584 E0.001
G1 X123.58 Y110.058 E0.123
G1 X122.893 Y110.18 E0.017
G1 X126.818 Y106.254 E0.139
G1 X126.792 Y106.217 E0.001
G1 X126.712 Y106.08 E0.004
G1 X126.608 Y105.899 E0.005
G1 X122.206 Y110.301 E0.155
G1 X121.571 Y110.413 E0.016
G1 X121.565 Y110.376 E0.001
G1 X126.423 Y105.519 E0.172
G1 X126.348 Y105.353 E0.004
G1 X126.266 Y105.109 E0.007
G1 X121.48 Y109.896 E0.168
G1 X121.395 Y109.415 E0.013
G1 X126.142 Y104.668 E0.167
G1 X126.085 Y104.417 E0.006
G1 X126.056 Y104.188 E0.006
G1 X121.31 Y108.934 E0.168
G1 X121.225 Y108.453 E0.012
G1 X126.018 Y103.661 E0.169
G1 X126.012 Y103.448 E0.005
G1 X126.04 Y103.072 E0.01
G1 X121.141 Y107.972 E0.172
G1 X121.056 Y107.491 E0.013
G1 X126.16 Y102.387 E0.18
G1 X126.265 Y102.015 E0.009
G1 X126.443 Y101.561 E0.012
G1 X126.467 Y101.514 E0.002
G1 X120.971 Y107.01 E0.194
G1 X120.886 Y106.529 E0.012
G1 X128.649 Y98.766 E0.274
G1 X127.963 Y98.887 E0.017
G1 X120.801 Y106.049 E0.253
G1 X120.717 Y105.568 E0.012
G1 X127.276 Y99.009 E0.231
G1 X126.589 Y99.13 E0.018
G1 X120.632 Y105.087 E0.21
G1 X120.547 Y104.606 E0.012
G1 X125.902 Y99.251 E0.189
G1 X125.215 Y99.372 E0.017
G1 X120.462 Y104.125 E0.168
G1 X120.377 Y103.644 E0.012
G1 X124.528 Y99.493 E0.147
G1 X123.842 Y99.614 E0.017
G1 X120.293 Y103.163 E0.125
G1 X120.208 Y102.682 E0.012
G1 X123.155 Y99.735 E0.104
G1 X122.468 Y99.856 E0.018
G1 X120.123 Y102.201 E0.083
G1 X120.038 Y101.721 E0.012
G1 X121.781 Y99.978 E0.061
G1 X121.094 Y100.099 E0.018
G1 X119.953 Y101.24 E0.04
G1 X119.869 Y100.759 E0.012
G1 X120.408 Y100.22 E0.019
G1 F2100 E-0.5
;LAYER:4
M106 S255
;rapid-dry
G0 X114.267 Y101.631 Z0.65 F7200
G1 F2100 E0.5
;bead-support
G1 X116.472 Y100.358 F1980 E0.064
G1 X117.076 Y100.25 E0.015
G1 X117.532 Y102.825 E0.065
G1 X114.67 Y104.477 E0.083
G1 X114.941 Y106.387 E0.048
G1 X115.105 Y107.306 E0.023
G1 X118.027 Y105.619 E0.084
G1 X118.522 Y108.412 E0.071
G1 X115.602 Y110.098 E0.084
G1 X115.934 Y111.964 E0.047
G1 X118.499 Y111.504 E0.065
G1 X119.017 Y111.205 E0.015
G1 F2100 E-0.5
G0 X118.499 Y111.504 F2400
G0 X118.103 Y111.575 F2400
G0 X118.499 Y111.504 F2400
G0 X119.017 Y111.205 F2400
;rapid-dry
G0 X127.364 Y105.849 F7200
G1 F2100 E0.5
;bead-perimeter_outer
G1 X127.607 Y106.189 F1200 E0.011
G1 X127.885 Y106.503 E0.01
G1 X128.192 Y106.787 E0.011
G1 X128.526 Y107.041 E0.01
G1 X128.883 Y107.258 E0.01
G1 X129.26 Y107.439 E0.011
G1 X129.654 Y107.583 E0.01
G1 X130.059 Y107.686 E0.011
G1 X130.474 Y107.749 E0.01
G1 X130.892 Y107.77 E0.011
G1 X131.31 Y107.749 E0.01
G1 X131.724 Y107.686 E0.011
G1 X132.13 Y107.583 E0.01
G1 X132.524 Y107.439 E0.01
G1 X132.901 Y107.258 E0.011
G1 X133.258 Y107.041 E0.01
G1 X133.592 Y106.787 E0.011
G1 X133.898 Y106.503 E0.01
G1 X134.176 Y106.189 E0.011
G1 X134.42 Y105.849 E0.01
G1 X134.629 Y105.485 E0.011
G1 X134.801 Y105.104 E0.01
G1 X134.935 Y104.707 E0.01
G1 X135.028 Y104.299 E0.011
G1 X135.081 Y103.883 E0.01
G1 X135.091 Y103.465 E0.011
G1 X135.06 Y103.047 E0.01
G1 X134.987 Y102.634 E0.011
G1 X134.874 Y102.232 E0.01
G1 X134.72 Y101.842 E0.011
G1 X134.529 Y101.47 E0.01
G1 X134.303 Y101.118 E0.01
G1 X134.041 Y100.79 E0.011
G1 X133.748 Y100.49 E0.01
G1 X133.428 Y100.221 E0.011
G1 X133.082 Y99.985 E0.01
G1 X132.714 Y99.786 E0.011
G1 X132.329 Y99.623 E0.01
G1 X131.929 Y99.499 E0.011
G1 X131.518 Y99.416 E0.01
G1 X131.101 Y99.375 E0.01
G1 X130.682 E0.011
G1 X130.266 Y99.416 E0.01
G1 X129.855 Y99.499 E0.011
G1 X129.455 Y99.623 E0.01
G1 X129.069 Y99.786 E0.011
G1 X128.702 Y99.985 E0.01
G1 X128.356 Y100.221 E0.011
G1 X128.035 Y100.49 E0.01
G1 X127.743 Y100.791 E0.01
G1 X127.481 Y101.118 E0.011
G1 X127.255 Y101.47 E0.01
G1 X127.064 Y101.842 E0.011
G1 X126.91 Y102.232 E0.01
G1 X126.797 Y102.634 E0.011
G1 X126.724 Y103.047 E0.01
G1 X126.693 Y103.465 E0.011
G1 X126.703 Y103.883 E0.01
G1 X126.756 Y104.299 E0.01
G1 X126.848 Y104.707 E0.011
G1 X126.982 Y105.104 E0.01
G1 X127.154 Y105.485 E0.011
G1 X127.364 Y105.849 E0.01
;rapid-leaky
G0 X127.061 Y106.044 F7200
;bead-perimeter_inner
G1 X127.325 Y106.413 F1440 E0.012
G1 X127.627 Y106.755 E0.011
G1 X127.961 Y107.064 E0.011
G1 X128.323 Y107.339 E0.012
G1 X128.711 Y107.575 E0.011
G1 X129.12 Y107.771 E0.011
G1 X129.548 Y107.928 E0.012
G1 X129.988 Y108.04 E0.011
G1 X130.438 Y108.108 E0.011
G1 X130.892 Y108.131 E0.012
G1 X131.346 Y108.108 E0.011
G1 X131.795 Y108.04 E0.011
G1 X132.235 Y107.928 E0.012
G1 X132.664 Y107.771 E0.011
G1 X133.073 Y107.575 E0.011
G1 X133.461 Y107.339 E0.012
G1 X133.823 Y107.063 E0.011
G1 X134.156 Y106.755 E0.011
G1 X134.457 Y106.414 E0.012
G1 X134.723 Y106.044 E0.011
G1 X134.95 Y105.649 E0.011
G1 X135.137 Y105.236 E0.012
G1 X135.282 Y104.805 E0.011
G1 X135.383 Y104.362 E0.011
G1 X135.44 Y103.91 E0.012
G1 X135.452 Y103.456 E0.011
G1 X135.417 Y103.002 E0.011
G1 X135.339 Y102.554 E0.012
G1 X135.215 Y102.117 E0.011
G1 X135.049 Y101.693 E0.012
G1 X134.841 Y101.29 E0.011
G1 X134.595 Y100.908 E0.011
G1 X134.311 Y100.552 E0.012
G1 X133.993 Y100.226 E0.011
G1 X133.646 Y99.934 E0.011
G1 X133.27 Y99.677 E0.012
G1 X132.87 Y99.461 E0.011
G1 X132.452 Y99.284 E0.011
G1 X132.018 Y99.15 E0.012
G1 X131.571 Y99.059 E0.011
G1 X131.118 Y99.015 E0.011
G1 X130.664 E0.012
G1 X130.213 Y99.059 E0.011
G1 X129.766 Y99.15 E0.011
G1 X129.332 Y99.284 E0.012
G1 X128.913 Y99.461 E0.011
G1 X128.514 Y99.678 E0.011
G1 X128.138 Y99.934 E0.012
G1 X127.79 Y100.226 E0.011
G1 X127.472 Y100.552 E0.011
G1 X127.189 Y100.908 E0.012
G1 X126.943 Y101.29 E0.011
G1 X126.735 Y101.693 E0.011
G1 X126.569 Y102.117 E0.012
G1 X126.445 Y102.554 E0.011
G1 X126.367 Y103.002 E0.011
G1 X126.332 Y103.456 E0.012
G1 X126.344 Y103.91 E0.011
G1 X126.401 Y104.361 E0.011
G1 X126.501 Y104.804 E0.012
G1 X126.646 Y105.236 E0.011
G1 X126.833 Y105.65 E0.011
G1 X127.061 Y106.044 E0.012
G1 F2100 E-0.5
;rapid-dry
G0 X131.895 Y109.282 F7200
G1 F2100 E0.5
;bead-perimeter_outer
G1 X120.651 Y111.265 F1200 E0.285
G1 X118.637 Y99.841 E0.289
G1 X129.881 Y97.859 E0.285
G1 X130.348 Y97.795 E0.012
G1 X130.814 Y97.77 E0.011
G1 X131.281 Y97.783 E0.012
G1 X131.746 Y97.833 E0.012
G1 X132.204 Y97.92 E0.011
G1 X132.654 Y98.044 E0.012
G1 X133.093 Y98.204 E0.011
G1 X133.518 Y98.398 E0.012
G1 X133.925 Y98.627 E0.012
G1 X134.314 Y98.887 E0.011
G1 X134.679 Y99.177 E0.012
G1 X135.02 Y99.495 E0.012
G1 X135.335 Y99.842 E0.011
G1 X135.621 Y100.211 E0.012
G1 X135.875 Y100.602 E0.012
G1 X136.097 Y101.013 E0.011
G1 X136.287 Y101.441 E0.012
G1 X136.44 Y101.881 E0.012
G1 X136.558 Y102.334 E0.011
G1 X136.64 Y102.793 E0.012
G1 X136.683 Y103.259 E0.012
G1 X136.69 Y103.726 E0.011
G1 X136.658 Y104.191 E0.012
G1 X136.589 Y104.654 E0.012
G1 X136.484 Y105.108 E0.011
G1 X136.342 Y105.554 E0.012
G1 X136.165 Y105.986 E0.011
G1 X135.953 Y106.402 E0.012
G1 X135.709 Y106.799 E0.012
G1 X135.433 Y107.176 E0.011
G1 X135.128 Y107.53 E0.012
G1 X134.795 Y107.859 E0.012
G1 X134.437 Y108.159 E0.011
G1 X134.057 Y108.429 E0.012
G1 X133.656 Y108.668 E0.012
G1 X133.236 Y108.874 E0.011
G1 X132.802 Y109.046 E0.012
G1 X132.356 Y109.181 E0.012
G1 X131.895 Y109.282 E0.011
;rapid-leaky
G0 X131.826 Y108.928 F7200
;bead-perimeter_inner
G1 X120.943 Y110.848 F1440 E0.276
G1 X119.054 Y100.133 E0.271
G1 X129.936 Y98.214 E0.276
G1 X130.382 Y98.154 E0.011
G1 X130.819 Y98.13 E0.011
G1 X131.256 Y98.142 E0.011
G1 X131.693 Y98.189 E0.011
G1 X132.122 Y98.271 E0.011
G1 X132.544 Y98.387 E0.011
G1 X132.956 Y98.537 E0.011
G1 X133.355 Y98.72 E0.011
G1 X133.737 Y98.934 E0.011
G1 X134.102 Y99.178 E0.011
G1 X134.444 Y99.45 E0.011
G1 X134.764 Y99.748 E0.01
G1 X135.059 Y100.073 E0.011
G1 X135.327 Y100.42 E0.011
G1 X135.565 Y100.786 E0.011
G1 X135.774 Y101.172 E0.011
G1 X135.952 Y101.573 E0.011
G1 X136.096 Y101.986 E0.011
G1 X136.206 Y102.411 E0.011
G1 X136.283 Y102.841 E0.011
G1 X136.323 Y103.278 E0.011
G1 X136.33 Y103.716 E0.011
G1 X136.3 Y104.153 E0.011
G1 X136.235 Y104.586 E0.011
G1 X136.137 Y105.012 E0.011
G1 X136.003 Y105.431 E0.01
G1 X135.837 Y105.836 E0.011
G1 X135.639 Y106.226 E0.011
G1 X135.41 Y106.599 E0.011
G1 X135.151 Y106.952 E0.011
G1 X134.865 Y107.284 E0.011
G1 X134.553 Y107.593 E0.011
G1 X134.217 Y107.874 E0.011
G1 X133.86 Y108.127 E0.011
G1 X133.484 Y108.351 E0.011
G1 X133.09 Y108.545 E0.011
G1 X132.683 Y108.706 E0.011
G1 X132.265 Y108.833 E0.011
G1 X131.826 Y108.928 E0.011
G1 F2100 E-0.5
;rapid-dry
G0 X124.938 Y99.421 F7200
G1 F2100 E0.5
;bead-sparse_infill
G1 X124.751 Y99.706 F2160 E0.008
G1 X124.521 Y100.774 E0.028
G1 X125.027 Y101.843 E0.029
G1 X126.1 Y102.673 E0.034
G1 X126.133 Y102.483 E0.005
G1 X126.265 Y102.015 E0.012
G1 X126.443 Y101.561 E0.012
G1 X126.665 Y101.129 E0.012
G1 X126.928 Y100.721 E0.012
G1 X127.232 Y100.34 E0.012
G1 X127.572 Y99.991 E0.013
G1 X127.945 Y99.679 E0.012
G1 X128.347 Y99.404 E0.012
G1 X128.774 Y99.172 E0.012
G1 X128.897 Y99.12 E0.003
G1 X128.815 Y98.737 E0.01
G1 X129.986 Y98.531 E0.03
G1 X130.412 Y98.473 E0.01
G1 X130.823 Y98.451 E0.011
G1 X131.235 Y98.462 E0.01
G1 X131.646 Y98.506 E0.01
G1 X132.05 Y98.583 E0.011
G1 X132.447 Y98.692 E0.01
G1 X132.835 Y98.834 E0.01
G1 X133.21 Y99.005 E0.01
G1 X133.569 Y99.207 E0.011
G1 X133.607 Y99.232 E0.001
G1 X133.476 Y99.431 E0.006
G1 X133.84 Y99.679 E0.011
G1 X134.211 Y99.991 E0.012
G1 X134.551 Y100.34 E0.012
G1 X134.856 Y100.721 E0.012
G1 X135.119 Y101.129 E0.012
G1 X135.341 Y101.561 E0.012
G1 X135.519 Y102.015 E0.013
G1 X135.651 Y102.483 E0.012
G1 X135.735 Y102.963 E0.012
G1 X135.772 Y103.448 E0.012
G1 X135.76 Y103.934 E0.012
G1 X135.715 Y104.285 E0.009
G1 X135.841 Y104.87 E0.015
G1 X135.828 Y104.928 E0.001
G1 X135.702 Y105.321 E0.011
G1 X135.546 Y105.702 E0.01
G1 X135.36 Y106.069 E0.01
G1 X135.293 Y106.178 E0.003
G1 X134.659 Y106.669 E0.02
G1 X134.386 Y106.978 E0.011
G1 X134.029 Y107.309 E0.012
G1 X133.798 Y107.485 E0.007
G1 X133.468 Y107.988 E0.015
G1 X133.331 Y108.07 E0.004
G1 X132.96 Y108.252 E0.01
G1 X132.578 Y108.403 E0.011
G1 X132.184 Y108.523 E0.01
G1 X131.764 Y108.614 E0.011
G1 X129.52 Y109.01 E0.056
G1 X129.023 Y108.251 E0.023
G1 X128.982 Y108.06 E0.005
G1 X128.558 Y107.856 E0.012
G1 X128.143 Y107.603 E0.012
G1 X127.755 Y107.309 E0.012
G1 X127.398 Y106.979 E0.012
G1 X127.075 Y106.613 E0.012
G1 X126.792 Y106.217 E0.012
G1 X126.762 Y106.167 E0.002
G1 X125.45 Y107.183 E0.041
G1 X124.751 Y108.251 E0.032
G1 X124.521 Y109.32 E0.027
G1 X124.771 Y109.848 E0.015
G1 X122.4 Y110.266 E0.06
G1 X121.177 Y109.32 E0.039
G1 X120.933 Y108.946 E0.011
G1 X120.521 Y106.609 E0.059
G1 X120.754 Y106.115 E0.014
G1 X122.133 Y105.047 E0.043
G1 X122.832 Y103.979 E0.032
G1 X123.062 Y102.911 E0.027
G1 X122.556 Y101.843 E0.03
G1 X121.177 Y100.774 E0.043
G1 X120.772 Y100.155 E0.019
G1 F2100 E-0.5
;LAYER:5
;rapid-dry
G0 X114.267 Y101.631 Z0.8 F7200
G1 F2100 E0.5
;bead-support
G1 X116.473 Y100.357 F1989 E0.063
G1 X117.076 Y100.249 E0.015
G1 X117.532 Y102.825 E0.066
G1 X114.67 Y104.477 E0.082
G1 X114.941 Y106.387 E0.048
G1 X115.105 Y107.306 E0.024
G1 X118.027 Y105.619 E0.084
G1 X118.522 Y108.412 E0.07
G1 X115.602 Y110.098 E0.085
G1 X115.934 Y111.964 E0.047
G1 X118.499 Y111.504 E0.065
G1 X119.017 Y111.205 E0.015
G1 F2100 E-0.5
G0 X118.499 Y111.504 F2400
G0 X118.103 Y111.575 F2400
G0 X118.499 Y111.504 F2400
G0 X119.017 Y111.205 F2400
;rapid-dry
G0 X126.848 Y104.707 F7200
G1 F2100 E0.5
;bead-perimeter_outer
G1 X126.982 Y105.104 F1200 E0.01
G1 X127.154 Y105.485 E0.011
G1 X127.364 Y105.849 E0.01
G1 X127.607 Y106.189 E0.011
G1 X127.885 Y106.503 E0.01
G1 X128.192 Y106.787 E0.01
G1 X128.526 Y107.041 E0.011
G1 X128.883 Y107.258 E0.01
G1 X129.26 Y107.439 E0.011
G1 X129.654 Y107.583 E0.01
G1 X130.059 Y107.686 E0.011
G1 X130.474 Y107.749 E0.01
G1 X130.892 Y107.77 E0.011
G1 X131.31 Y107.749 E0.01
G1 X131.724 Y107.686 E0.01
G1 X132.13 Y107.583 E0.011
G1 X132.524 Y107.439 E0.01
G1 X132.901 Y107.258 E0.011
G1 X133.258 Y107.041 E0.01
G1 X133.592 Y106.787 E0.011
G1 X133.898 Y106.503 E0.01
G1 X134.176 Y106.189 E0.011
G1 X134.42 Y105.849 E0.01
G1 X134.629 Y105.485 E0.01
G1 X134.801 Y105.104 E0.011
G1 X134.935 Y104.707 E0.01
G1 X135.028 Y104.299 E0.011
G1 X135.081 Y103.883 E0.01
G1 X135.091 Y103.465 E0.011
G1 X135.06 Y103.047 E0.01
G1 X134.987 Y102.634 E0.011
G1 X134.874 Y102.232 E0.01
G1 X134.72 Y101.842 E0.01
G1 X134.529 Y101.47 E0.011
G1 X134.303 Y101.118 E0.01
G1 X134.041 Y100.79 E0.011
G1 X133.748 Y100.49 E0.01
G1 X133.428 Y100.221 E0.011
G1 X133.082 Y99.985 E0.01
G1 X132.714 Y99.786 E0.011
G1 X132.329 Y99.623 E0.01
G1 X131.929 Y99.499 E0.01
G1 X131.518 Y99.416 E0.011
G1 X131.101 Y99.375 E0.01
G1 X130.682 E0.011
G1 X130.266 Y99.416 E0.01
G1 X129.855 Y99.499 E0.011
G1 X129.455 Y99.623 E0.01
G1 X129.069 Y99.786 E0.011
G1 X128.702 Y99.985 E0.01
G1 X128.356 Y100.221 E0.01
G1 X128.035 Y100.49 E0.011
G1 X127.743 Y100.791 E0.01
G1 X127.481 Y101.118 E0.011
G1 X127.255 Y101.47 E0.01
G1 X127.064 Y101.842 E0.011
G1 X126.91 Y102.232 E0.01
G1 X126.797 Y102.634 E0.011
G1 X126.724 Y103.047 E0.01
G1 X126.693 Y103.465 E0.01
G1 X126.703 Y103.883 E0.011
G1 X126.756 Y104.299 E0.01
G1 X126.848 Y104.707 E0.011
;rapid-leaky
G0 X126.501 Y104.804 F7200
;bead-perimeter_inner
G1 X126.646 Y105.236 F1447 E0.011
G1 X126.833 Y105.65 E0.012
G1 X127.061 Y106.044 E0.011
G1 X127.325 Y106.413 E0.011
G1 X127.627 Y106.755 E0.012
G1 X127.961 Y107.064 E0.011
G1 X128.323 Y107.339 E0.011
G1 X128.711 Y107.575 E0.012
G1 X129.12 Y107.771 E0.011
G1 X129.548 Y107.928 E0.011
G1 X129.988 Y108.04 E0.012
G1 X130.438 Y108.108 E0.011
G1 X130.892 Y108.131 E0.011
G1 X131.346 Y108.108 E0.012
G1 X131.795 Y108.04 E0.011
G1 X132.236 Y107.928 E0.011
G1 X132.664 Y107.771 E0.012
G1 X133.073 Y107.575 E0.011
G1 X133.461 Y107.339 E0.011
G1 X133.823 Y107.063 E0.012
G1 X134.156 Y106.755 E0.011
G1 X134.457 Y106.414 E0.011
G1 X134.723 Y106.044 E0.012
G1 X134.95 Y105.649 E0.011
G1 X135.137 Y105.236 E0.011
G1 X135.282 Y104.805 E0.012
G1 X135.383 Y104.362 E0.011
G1 X135.44 Y103.91 E0.011
G1 X135.452 Y103.456 E0.012
G1 X135.417 Y103.002 E0.011
G1 X135.339 Y102.554 E0.011
G1 X135.215 Y102.117 E0.012
G1 X135.049 Y101.693 E0.011
G1 X134.841 Y101.29 E0.011
G1 X134.595 Y100.908 E0.012
G1 X134.311 Y100.552 E0.011
G1 X133.993 Y100.226 E0.011
G1 X133.646 Y99.934 E0.012
G1 X133.27 Y99.677 E0.011
G1 X132.87 Y99.461 E0.012
G1 X132.452 Y99.284 E0.011
G1 X132.018 Y99.15 E0.011
G1 X131.571 Y99.059 E0.012
G1 X131.118 Y99.015 E0.011
G1 X130.664 E0.011
G1 X130.213 Y99.059 E0.012
G1 X129.766 Y99.15 E0.011
G1 X129.332 Y99.284 E0.011
G1 X128.913 Y99.461 E0.012
G1 X128.514 Y99.678 E0.011
G1 X128.138 Y99.934 E0.011
G1 X127.79 Y100.226 E0.012
G1 X127.472 Y100.552 E0.011
G1 X127.189 Y100.908 E0.011
G1 X126.943 Y101.29 E0.012
G1 X126.735 Y101.693 E0.011
G1 X126.569 Y102.117 E0.011
G1 X126.445 Y102.554 E0.012
G1 X126.367 Y103.002 E0.011
G1 X126.332 Y103.456 E0.011
G1 X126.344 Y103.91 E0.012
G1 X126.401 Y104.361 E0.011
G1 X126.501 Y104.804 E0.011
G1 F2100 E-0.5
;rapid-dry
G0 X131.895 Y109.282 F7200
G1 F2100 E0.5
;bead-perimeter_outer
G1 X120.495 Y111.292 F1200 E0.289
G1 X118.481 Y99.868 E0.289
G1 X129.881 Y97.859 E0.289
G1 X130.348 Y97.795 E0.012
G1 X130.814 Y97.77 E0.012
G1 X131.281 Y97.783 E0.011
G1 X131.746 Y97.833 E0.012
G1 X132.204 Y97.92 E0.012
G1 X132.654 Y98.044 E0.011
G1 X133.093 Y98.204 E0.012
G1 X133.518 Y98.398 E0.012
G1 X133.925 Y98.627 E0.011
G1 X134.314 Y98.887 E0.012
G1 X134.679 Y99.177 E0.011
G1 X135.02 Y99.495 E0.012
G1 X135.335 Y99.842 E0.012
G1 X135.621 Y100.211 E0.011
G1 X135.875 Y100.602 E0.012
G1 X136.097 Y101.013 E0.012
G1 X136.287 Y101.441 E0.011
G1 X136.44 Y101.881 E0.012
G1 X136.558 Y102.334 E0.012
G1 X136.64 Y102.793 E0.011
G1 X136.683 Y103.259 E0.012
G1 X136.69 Y103.726 E0.012
G1 X136.658 Y104.191 E0.011
G1 X136.589 Y104.654 E0.012
G1 X136.484 Y105.108 E0.012
G1 X136.342 Y105.554 E0.011
G1 X136.101 Y106.112 E0.015
G1 X135.953 Y106.402 E0.009
G1 X135.709 Y106.799 E0.011
G1 X135.433 Y107.176 E0.012
G1 X135.128 Y107.53 E0.012
G1 X134.795 Y107.859 E0.011
G1 X134.438 Y108.159 E0.012
G1 X134.057 Y108.429 E0.011
G1 X133.656 Y108.668 E0.012
G1 X133.236 Y108.874 E0.012
G1 X132.802 Y109.046 E0.011
G1 X132.356 Y109.181 E0.012
G1 X131.895 Y109.282 E0.012
;rapid-leaky
G0 X131.826 Y108.928 F7200
;bead-perimeter_inner
G1 X120.787 Y110.875 F1447 E0.279
G1 X118.898 Y100.16 E0.272
G1 X129.936 Y98.214 E0.279
G1 X130.382 Y98.154 E0.012
G1 X130.819 Y98.13 E0.011
G1 X131.256 Y98.142 E0.01
G1 X131.693 Y98.189 E0.011
G1 X132.122 Y98.271 E0.011
G1 X132.544 Y98.387 E0.011
G1 X132.956 Y98.537 E0.011
G1 X133.355 Y98.72 E0.011
G1 X133.737 Y98.934 E0.011
G1 X134.102 Y99.178 E0.011
G1 X134.444 Y99.45 E0.011
G1 X134.764 Y99.748 E0.011
G1 X135.059 Y100.073 E0.011
G1 X135.327 Y100.42 E0.011
G1 X135.565 Y100.786 E0.011
G1 X135.774 Y101.172 E0.011
G1 X135.952 Y101.573 E0.01
G1 X136.096 Y101.986 E0.011
G1 X136.206 Y102.411 E0.011
G1 X136.283 Y102.841 E0.011
G1 X136.323 Y103.278 E0.011
G1 X136.33 Y103.716 E0.011
G1 X136.3 Y104.153 E0.011
G1 X136.235 Y104.586 E0.011
G1 X136.137 Y105.012 E0.011
G1 X136.003 Y105.431 E0.011
G1 X135.78 Y105.949 E0.014
G1 X135.639 Y106.226 E0.008
G1 X135.41 Y106.599 E0.011
G1 X135.151 Y106.952 E0.01
G1 X134.865 Y107.284 E0.011
G1 X134.553 Y107.593 E0.011
G1 X134.217 Y107.873 E0.011
G1 X133.86 Y108.127 E0.011
G1 X133.484 Y108.351 E0.011
G1 X133.09 Y108.545 E0.011
G1 X132.683 Y108.706 E0.011
G1 X132.265 Y108.833 E0.011
G1 X131.826 Y108.928 E0.011
G1 F2100 E-0.5
;rapid-dry
G0 X124.913 Y99.425 F7200
G1 F2100 E0.5
;bead-sparse_infill
G1 X124.7 Y99.706 F2170 E0.009
G1 X124.359 Y100.774 E0.028
G1 X124.713 Y101.843 E0.028
G1 X126.088 Y102.741 E0.041
G1 X126.133 Y102.483 E0.006
G1 X126.265 Y102.015 E0.013
G1 X126.443 Y101.561 E0.012
G1 X126.665 Y101.129 E0.012
G1 X126.928 Y100.721 E0.012
G1 X127.232 Y100.34 E0.012
G1 X127.572 Y99.991 E0.012
G1 X127.945 Y99.679 E0.012
G1 X128.347 Y99.404 E0.013
G1 X128.774 Y99.172 E0.012
G1 X128.799 Y99.162
G1 X128.671 Y98.762 E0.011
G1 X129.986 Y98.531 E0.033
G1 X130.412 Y98.473 E0.011
G1 X130.823 Y98.451 E0.01
G1 X131.235 Y98.462 E0.01
G1 X131.645 Y98.506 E0.011
G1 X132.05 Y98.583 E0.01
G1 X132.447 Y98.692 E0.01
G1 X132.835 Y98.834 E0.011
G1 X133.21 Y99.005 E0.01
G1 X133.569 Y99.207 E0.01
G1 X133.605 Y99.231 E0.001
G1 X133.461 Y99.42 E0.006
G1 X133.84 Y99.679 E0.012
G1 X134.211 Y99.991 E0.012
G1 X134.551 Y100.34 E0.012
G1 X134.856 Y100.721 E0.012
G1 X135.119 Y101.129 E0.012
G1 X135.341 Y101.561 E0.012
G1 X135.519 Y102.015 E0.012
G1 X135.651 Y102.483 E0.013
G1 X135.735 Y102.963 E0.012
G1 X135.772 Y103.448 E0.012
G1 X135.76 Y103.934 E0.012
G1 X135.739 Y104.098 E0.004
G1 X135.902 Y104.609 E0.013
G1 X135.828 Y104.928 E0.009
G1 X135.703 Y105.318 E0.01
G1 X135.49 Y105.813 E0.013
G1 X135.36 Y106.069 E0.007
G1 X135.144 Y106.42 E0.011
G1 X135.073 Y106.517 E0.003
G1 X134.411 Y106.95 E0.019
G1 X134.386 Y106.978 E0.001
G1 X134.029 Y107.309 E0.012
G1 X133.863 Y107.435 E0.006
G1 X133.425 Y108.014 E0.018
G1 X133.331 Y108.07 E0.003
G1 X132.96 Y108.252 E0.01
G1 X132.578 Y108.403 E0.01
G1 X132.184 Y108.523 E0.01
G1 X131.764 Y108.614 E0.011
G1 X129.544 Y109.006 E0.056
G1 X128.972 Y108.251 E0.024
G1 X128.899 Y108.02 E0.006
G1 X128.558 Y107.856 E0.009
G1 X128.143 Y107.603 E0.013
G1 X127.755 Y107.309 E0.012
G1 X127.398 Y106.979 E0.012
G1 X127.075 Y106.613 E0.012
G1 X126.853 Y106.304 E0.009
G1 X125.509 Y107.183 E0.041
G1 X124.7 Y108.251 E0.033
G1 X124.359 Y109.32 E0.028
G1 X124.547 Y109.887 E0.015
G1 X122.623 Y110.227 E0.049
G1 X121.236 Y109.32 E0.041
G1 X120.717 Y108.634 E0.021
G1 X120.331 Y106.446 E0.056
G1 X120.441 Y106.115 E0.009
G1 X122.074 Y105.047 E0.048
G1 X122.883 Y103.979 E0.034
G1 X123.224 Y102.911 E0.028
G1 X122.87 Y101.843 E0.028
G1 X121.236 Y100.774 E0.048
G1 X120.767 Y100.156 E0.02
G1 F2100 E-0.5
;LAYER:6
;rapid-dry
G0 X114.267 Y101.631 Z0.95 F7200
G1 F2100 E0.5
;bead-support
G1 X116.472 Y100.358 F2000 E0.063
G1 X117.076 Y100.25 E0.016
G1 X117.532 Y102.825 E0.065
G1 X114.67 Y104.477 E0.082
G1 X114.941 Y106.387 E0.048
G1 X115.105 Y107.306 E0.024
G1 X118.027 Y105.619 E0.084
G1 X118.522 Y108.412 E0.071
G1 X115.602 Y110.098 E0.084
G1 X115.934 Y111.964 E0.047
G1 X118.499 Y111.504 E0.065
G1 X119.017 Y111.205 E0.015
G1 F2100 E-0.5
G0 X118.499 Y111.504 F2400
G0 X118.103 Y111.575 F2400
G0 X118.499 Y111.504 F2400
G0 X119.017 Y111.205 F2400
;rapid-dry
G0 X132.524 Y107.439 F7200
G1 F2100 E0.5
;bead-perimeter_outer
G1 X132.901 Y107.258 F1200 E0.01
G1 X133.258 Y107.041 E0.011
G1 X133.592 Y106.787 E0.01
G1 X133.898 Y106.503 E0.011
G1 X134.176 Y106.189 E0.01
G1 X134.42 Y105.849 E0.011
G1 X134.629 Y105.485 E0.01
G1 X134.801 Y105.104 E0.01
G1 X134.935 Y104.707 E0.011
G1 X135.028 Y104.299 E0.01
G1 X135.081 Y103.883 E0.011
G1 X135.091 Y103.465 E0.01
G1 X135.06 Y103.047 E0.011
G1 X134.987 Y102.634 E0.01
G1 X134.874 Y102.232 E0.011
G1 X134.72 Y101.842 E0.01
G1 X134.529 Y101.47 E0.01
G1 X134.303 Y101.118 E0.011
G1 X134.041 Y100.79 E0.01
G1 X133.748 Y100.49 E0.011
G1 X133.428 Y100.221 E0.01
G1 X133.082 Y99.985 E0.011
G1 X132.714 Y99.786 E0.01
G1 X132.329 Y99.623 E0.011
G1 X131.929 Y99.499 E0.01
G1 X131.518 Y99.416 E0.01
G1 X131.101 Y99.375 E0.011
G1 X130.682 E0.01
G1 X130.266 Y99.416 E0.011
G1 X129.855 Y99.499 E0.01
G1 X129.455 Y99.623 E0.011
G1 X129.069 Y99.786 E0.01
G1 X128.702 Y99.985 E0.011
G1 X128.356 Y100.221 E0.01
G1 X128.035 Y100.49 E0.01
G1 X127.743 Y100.791 E0.011
G1 X127.481 Y101.118 E0.01
G1 X127.255 Y101.47 E0.011
G1 X127.064 Y101.842 E0.01
G1 X126.91 Y102.232 E0.011
G1 X126.797 Y102.634 E0.01
G1 X126.724 Y103.047 E0.011
G1 X126.693 Y103.465 E0.01
G1 X126.703 Y103.883 E0.01
G1 X126.756 Y104.299 E0.011
G1 X126.848 Y104.707 E0.01
G1 X126.982 Y105.104 E0.011
G1 X127.154 Y105.485 E0.01
G1 X127.364 Y105.849 E0.011
G1 X127.607 Y106.189 E0.01
G1 X127.885 Y106.503 E0.011
G1 X128.192 Y106.787 E0.01
G1 X128.526 Y107.041 E0.01
G1 X128.883 Y107.258 E0.011
G1 X129.026 Y107.327 E0.004
G1 X129.26 Y107.44 E0.006
G1 X129.654 Y107.583 E0.011
G1 X130.059 Y107.686 E0.01
G1 X130.474 Y107.749 E0.011
G1 X130.892 Y107.77 E0.01
G1 X131.31 Y107.749 E0.011
G1 X131.724 Y107.686 E0.01
G1 X132.13 Y107.583 E0.01
G1 X132.524 Y107.439 E0.011
;rapid-leaky
G0 X132.664 Y107.771 F7200
;bead-perimeter_inner
G1 X133.073 Y107.575 F1455 E0.011
G1 X133.461 Y107.339 E0.012
G1 X133.823 Y107.063 E0.011
G1 X134.156 Y106.755 E0.011
G1 X134.457 Y106.414 E0.012
G1 X134.723 Y106.044 E0.011
G1 X134.95 Y105.649 E0.011
G1 X135.137 Y105.236 E0.012
G1 X135.282 Y104.805 E0.011
G1 X135.383 Y104.362 E0.011
G1 X135.44 Y103.91 E0.012
G1 X135.452 Y103.456 E0.011
G1 X135.417 Y103.002 E0.011
G1 X135.339 Y102.554 E0.012
G1 X135.215 Y102.117 E0.011
G1 X135.049 Y101.693 E0.011
G1 X134.841 Y101.29 E0.012
G1 X134.595 Y100.908 E0.011
G1 X134.311 Y100.552 E0.011
G1 X133.993 Y100.226 E0.012
G1 X133.646 Y99.934 E0.011
G1 X133.27 Y99.677 E0.011
G1 X132.87 Y99.461 E0.012
G1 X132.452 Y99.284 E0.011
G1 X132.018 Y99.15 E0.011
G1 X131.571 Y99.059 E0.012
G1 X131.118 Y99.015 E0.011
G1 X130.664 E0.011
G1 X130.213 Y99.059 E0.012
G1 X129.766 Y99.15 E0.011
G1 X129.332 Y99.284 E0.012
G1 X128.913 Y99.461 E0.011
G1 X128.514 Y99.678 E0.011
G1 X128.138 Y99.934 E0.012
G1 X127.79 Y100.226 E0.011
G1 X127.472 Y100.552 E0.011
G1 X127.189 Y100.908 E0.012
G1 X126.943 Y101.29 E0.011
G1 X126.735 Y101.693 E0.011
G1 X126.569 Y102.117 E0.012
G1 X126.445 Y102.554 E0.011
G1 X126.367 Y103.002 E0.011
G1 X126.332 Y103.456 E0.012
G1 X126.344 Y103.91 E0.011
G1 X126.401 Y104.361 E0.011
G1 X126.501 Y104.804 E0.012
G1 X126.646 Y105.236 E0.011
G1 X126.833 Y105.65 E0.011
G1 X127.061 Y106.044 E0.012
G1 X127.325 Y106.413 E0.011
G1 X127.627 Y106.755 E0.011
G1 X127.961 Y107.064 E0.012
G1 X128.323 Y107.339 E0.011
G1 X128.711 Y107.574 E0.011
G1 X128.87 Y107.651 E0.005
G1 X129.12 Y107.772 E0.007
G1 X129.548 Y107.928 E0.011
G1 X129.988 Y108.04 E0.011
G1 X130.438 Y108.108 E0.012
G1 X130.892 Y108.131 E0.011
G1 X131.346 Y108.108 E0.011
G1 X131.795 Y108.04 E0.012
G1 X132.236 Y107.928 E0.011
G1 X132.664 Y107.771 E0.011
;rapid-leaky
G0 X133.236 Y108.874 F7200
;bead-perimeter_outer
G1 X132.802 Y109.046 F1200 E0.012
G1 X132.356 Y109.181 E0.012
G1 X131.895 Y109.282 E0.011
G1 X120.36 Y111.316 E0.293
G1 X118.346 Y99.892 E0.289
G1 X129.881 Y97.859 E0.292
G1 X130.348 Y97.795 E0.012
G1 X130.814 Y97.77 E0.012
G1 X131.281 Y97.783 E0.011
G1 X131.746 Y97.833 E0.012
G1 X132.204 Y97.92 E0.012
G1 X132.654 Y98.044 E0.011
G1 X133.093 Y98.204 E0.012
G1 X133.518 Y98.398 E0.012
G1 X133.925 Y98.627 E0.011
G1 X134.314 Y98.887 E0.012
G1 X134.679 Y99.177 E0.011
G1 X135.02 Y99.495 E0.012
G1 X135.335 Y99.842 E0.012
G1 X135.621 Y100.211 E0.011
G1 X135.875 Y100.602 E0.012
G1 X136.097 Y101.013 E0.012
G1 X136.287 Y101.441 E0.011
G1 X136.441 Y101.881 E0.012
G1 X136.558 Y102.334 E0.012
G1 X136.64 Y102.793 E0.011
G1 X136.683 Y103.259 E0.012
G1 X136.69 Y103.726 E0.012
G1 X136.658 Y104.191 E0.011
G1 X136.589 Y104.654 E0.012
G1 X136.484 Y105.108 E0.012
G1 X136.431 Y105.273 E0.004
G1 X136.342 Y105.554 E0.007
G1 X136.165 Y105.986 E0.012
G1 X135.953 Y106.402 E0.012
G1 X135.709 Y106.799 E0.011
G1 X135.433 Y107.177 E0.012
G1 X135.128 Y107.53 E0.012
G1 X134.795 Y107.859 E0.011
G1 X134.438 Y108.159 E0.012
G1 X134.057 Y108.429 E0.011
G1 X133.656 Y108.668 E0.012
G1 X133.236 Y108.874 E0.012
;rapid-leaky
G0 X133.09 Y108.545 F7200
;bead-perimeter_inner
G1 X132.683 Y108.706 F1455 E0.011
G1 X132.265 Y108.833 E0.011
G1 X131.826 Y108.928 E0.011
G1 X120.652 Y110.899 E0.283
G1 X118.763 Y100.184 E0.271
G1 X129.936 Y98.214 E0.283
G1 X130.382 Y98.154 E0.011
G1 X130.819 Y98.13 E0.011
G1 X131.256 Y98.142 E0.011
G1 X131.693 Y98.189 E0.011
G1 X132.122 Y98.271 E0.011
G1 X132.544 Y98.387 E0.011
G1 X132.956 Y98.537 E0.011
G1 X133.355 Y98.72 E0.011
G1 X133.737 Y98.934 E0.011
G1 X134.102 Y99.178 E0.011
G1 X134.444 Y99.45 E0.011
G1 X134.764 Y99.748 E0.011
G1 X135.059 Y100.073 E0.011
G1 X135.327 Y100.42 E0.011
G1 X135.565 Y100.786 E0.01
G1 X135.774 Y101.172 E0.011
G1 X135.952 Y101.573 E0.011
G1 X136.096 Y101.987 E0.011
G1 X136.206 Y102.41 E0.011
G1 X136.283 Y102.841 E0.011
G1 X136.323 Y103.278 E0.011
G1 X136.33 Y103.716 E0.011
G1 X136.3 Y104.153 E0.011
G1 X136.235 Y104.586 E0.011
G1 X136.088 Y105.164 E0.015
G1 X136.003 Y105.43 E0.007
G1 X135.837 Y105.836 E0.011
G1 X135.639 Y106.226 E0.011
G1 X135.41 Y106.599 E0.01
G1 X135.151 Y106.952 E0.011
G1 X134.865 Y107.284 E0.011
G1 X134.553 Y107.593 E0.011
G1 X134.217 Y107.873 E0.011
G1 X133.86 Y108.127 E0.011
G1 X133.484 Y108.351 E0.011
G1 X133.09 Y108.545 E0.011
G1 F2100 E-0.5
;rapid-dry
G0 X124.876 Y99.432 F7200
G1 F2100 E0.5
;bead-sparse_infill
G1 X124.637 Y99.706 F2182 E0.009
G1 X124.172 Y100.774 E0.029
G1 X124.104 Y101.843 E0.027
G1 X126.076 Y102.806 E0.055
G1 X126.133 Y102.483 E0.008
G1 X126.265 Y102.015 E0.012
G1 X126.443 Y101.561 E0.012
G1 X126.665 Y101.129 E0.012
G1 X126.928 Y100.721 E0.012
G1 X127.232 Y100.34 E0.012
G1 X127.572 Y99.991 E0.013
G1 X127.945 Y99.679 E0.012
G1 X128.347 Y99.404 E0.012
G1 X128.696 Y99.215 E0.01
G1 X128.511 Y98.791 E0.011
G1 X129.986 Y98.531 E0.038
G1 X130.412 Y98.473 E0.01
G1 X130.823 Y98.451 E0.011
G1 X131.235 Y98.462 E0.01
G1 X131.645 Y98.506 E0.01
G1 X132.05 Y98.583 E0.01
G1 X132.447 Y98.692 E0.011
G1 X132.835 Y98.834 E0.01
G1 X133.21 Y99.005 E0.01
G1 X133.569 Y99.207 E0.011
G1 X133.599 Y99.226
G1 X133.442 Y99.407 E0.006
G1 X133.84 Y99.679 E0.012
G1 X134.211 Y99.991 E0.013
G1 X134.551 Y100.34 E0.012
G1 X134.856 Y100.721 E0.012
G1 X135.119 Y101.129 E0.012
G1 X135.341 Y101.561 E0.012
G1 X135.519 Y102.015 E0.012
G1 X135.651 Y102.483 E0.012
G1 X135.735 Y102.963 E0.013
G1 X135.772 Y103.448 E0.012
G1 X135.76 Y103.934 E0.012
G1 X135.755 Y103.969 E0.001
G1 X135.764 Y103.979
G1 X135.941 Y104.387 E0.011
G1 X135.921 Y104.523 E0.004
G1 X135.781 Y105.076 E0.014
G1 X135.702 Y105.321 E0.006
G1 X135.546 Y105.702 E0.01
G1 X135.36 Y106.069 E0.011
G1 X135.144 Y106.42 E0.01
G1 X134.9 Y106.753 E0.01
G1 X134.835 Y106.829 E0.003
G1 X134.225 Y107.127 E0.017
G1 X134.029 Y107.309 E0.006
G1 X133.946 Y107.372 E0.003
G1 X133.349 Y108.059 E0.023
G1 X133.331 Y108.07
G1 X132.96 Y108.252 E0.011
G1 X132.578 Y108.403 E0.01
G1 X132.184 Y108.523 E0.01
G1 X131.764 Y108.614 E0.011
G1 X129.562 Y109.003 E0.056
G1 X128.91 Y108.251 E0.024
G1 X128.785 Y107.966 E0.008
G1 X128.73 Y107.94 E0.002
G1 X128.557 Y107.855 E0.005
G1 X128.143 Y107.603 E0.012
G1 X127.755 Y107.309 E0.012
G1 X127.398 Y106.979 E0.012
G1 X127.075 Y106.613 E0.012
G1 X126.986 Y106.489 E0.004
G1 X125.565 Y107.183 E0.039
G1 X124.637 Y108.251 E0.036
G1 X124.172 Y109.32 E0.029
G1 X124.131 Y109.961 E0.016
G1 X123.01 Y110.159 E0.028
G1 X121.292 Y109.32 E0.048
G1 X120.547 Y108.462 E0.028
G1 X120.11 Y105.979 E0.063
G1 X122.018 Y105.047 E0.053
G1 X122.946 Y103.979 E0.035
G1 X123.411 Y102.911 E0.029
G1 X123.479 Y101.843 E0.027
G1 X121.292 Y100.774 E0.061
G1 X120.757 Y100.158 E0.02
G1 F2100 E-0.5
;LAYER:7
;rapid-dry
G0 X114.267 Y101.631 Z1.1 F7200
G1 F2100 E0.5
;bead-support
G1 X116.472 Y100.358 F1991 E0.064
G1 X117.076 Y100.25 E0.015
G1 X117.532 Y102.825 E0.065
G1 X114.67 Y104.477 E0.083
G1 X114.941 Y106.387 E0.048
G1 X115.105 Y107.306 E0.023
G1 X118.027 Y105.619 E0.084
G1 X118.522 Y108.412 E0.071
G1 X115.602 Y110.098 E0.084
G1 X115.934 Y111.964 E0.047
G1 X118.499 Y111.504 E0.065
G1 X119.017 Y111.205 E0.015
G1 F2100 E-0.5
G0 X118.499 Y111.504 F2400
G0 X118.103 Y111.575 F2400
G0 X118.499 Y111.504 F2400
G0 X119.017 Y111.205 F2400
;rapid-dry
G0 X135.081 Y103.883 F7200
G1 F2100 E0.5
;bead-perimeter_outer
G1 X135.091 Y103.465 F1200 E0.011
G1 X135.06 Y103.047 E0.01
G1 X134.987 Y102.634 E0.011
G1 X134.874 Y102.232 E0.01
G1 X134.72 Y101.842 E0.01
G1 X134.529 Y101.47 E0.011
G1 X134.303 Y101.118 E0.01
G1 X134.041 Y100.79 E0.011
G1 X133.748 Y100.49 E0.01
G1 X133.428 Y100.221 E0.011
G1 X133.082 Y99.985 E0.01
G1 X132.714 Y99.786 E0.011
G1 X132.329 Y99.623 E0.01
G1 X131.929 Y99.499 E0.01
G1 X131.518 Y99.416 E0.011
G1 X131.101 Y99.375 E0.01
G1 X130.682 E0.011
G1 X130.266 Y99.416 E0.01
G1 X129.855 Y99.499 E0.011
G1 X129.455 Y99.623 E0.01
G1 X129.069 Y99.786 E0.011
G1 X128.702 Y99.985 E0.01
G1 X128.356 Y100.221 E0.01
G1 X128.035 Y100.49 E0.011
G1 X127.743 Y100.791 E0.01
G1 X127.481 Y101.118 E0.011
G1 X127.255 Y101.47 E0.01
G1 X127.064 Y101.842 E0.011
G1 X126.91 Y102.232 E0.01
G1 X126.797 Y102.634 E0.011
G1 X126.724 Y103.047 E0.01
G1 X126.693 Y103.465 E0.011
G1 X126.703 Y103.883 E0.01
G1 X126.756 Y104.299 E0.01
G1 X126.848 Y104.707 E0.011
G1 X126.982 Y105.104 E0.01
G1 X127.154 Y105.485 E0.011
G1 X127.364 Y105.849 E0.01
G1 X127.607 Y106.189 E0.011
G1 X127.885 Y106.503 E0.01
G1 X128.192 Y106.787 E0.011
G1 X128.526 Y107.041 E0.01
G1 X128.883 Y107.258 E0.01
G1 X129.049 Y107.338 E0.005
G1 X129.26 Y107.44 E0.006
G1 X129.654 Y107.583 E0.01
G1 X130.059 Y107.686 E0.011
G1 X130.474 Y107.749 E0.01
G1 X130.892 Y107.77 E0.011
G1 X131.31 Y107.749 E0.01
G1 X131.724 Y107.686 E0.011
G1 X132.13 Y107.583 E0.01
G1 X132.524 Y107.439 E0.01
G1 X132.901 Y107.258 E0.011
G1 X133.258 Y107.041 E0.01
G1 X133.592 Y106.787 E0.011
G1 X133.898 Y106.503 E0.01
G1 X134.176 Y106.189 E0.011
G1 X134.42 Y105.849 E0.01
G1 X134.629 Y105.485 E0.011
G1 X134.801 Y105.104 E0.01
G1 X134.935 Y104.707 E0.01
G1 X135.028 Y104.299 E0.011
G1 X135.081 Y103.883 E0.01
;rapid-leaky
G0 X135.44 Y103.91 F7200
;bead-perimeter_inner
G1 X135.452 Y103.456 F1448 E0.012
G1 X135.417 Y103.002 E0.011
G1 X135.339 Y102.554 E0.011
G1 X135.215 Y102.117 E0.012
G1 X135.049 Y101.693 E0.011
G1 X134.841 Y101.29 E0.011
G1 X134.595 Y100.908 E0.012
G1 X134.311 Y100.552 E0.011
G1 X133.993 Y100.226 E0.011
G1 X133.646 Y99.934 E0.012
G1 X133.27 Y99.677 E0.011
G1 X132.87 Y99.461 E0.011
G1 X132.452 Y99.284 E0.012
G1 X132.018 Y99.15 E0.011
G1 X131.571 Y99.059 E0.011
G1 X131.118 Y99.015 E0.012
G1 X130.664 E0.011
G1 X130.213 Y99.059 E0.011
G1 X129.766 Y99.15 E0.012
G1 X129.332 Y99.284 E0.011
G1 X128.913 Y99.461 E0.012
G1 X128.514 Y99.678 E0.011
G1 X128.138 Y99.934 E0.011
G1 X127.79 Y100.226 E0.012
G1 X127.472 Y100.552 E0.011
G1 X127.189 Y100.908 E0.011
G1 X126.943 Y101.29 E0.012
G1 X126.735 Y101.693 E0.011
G1 X126.569 Y102.117 E0.011
G1 X126.445 Y102.554 E0.012
G1 X126.367 Y103.002 E0.011
G1 X126.332 Y103.456 E0.011
G1 X126.344 Y103.91 E0.012
G1 X126.401 Y104.361 E0.011
G1 X126.501 Y104.804 E0.011
G1 X126.646 Y105.236 E0.012
G1 X126.833 Y105.65 E0.011
G1 X127.061 Y106.044 E0.011
G1 X127.325 Y106.413 E0.012
G1 X127.627 Y106.755 E0.011
G1 X127.961 Y107.064 E0.011
G1 X128.323 Y107.339 E0.012
G1 X128.711 Y107.574 E0.011
G1 X128.893 Y107.662 E0.005
G1 X129.12 Y107.772 E0.006
G1 X129.548 Y107.928 E0.012
G1 X129.988 Y108.04 E0.011
G1 X130.438 Y108.108 E0.011
G1 X130.892 Y108.131 E0.012
G1 X131.346 Y108.108 E0.011
G1 X131.795 Y108.04 E0.011
G1 X132.236 Y107.928 E0.012
G1 X132.664 Y107.771 E0.011
G1 X133.073 Y107.575 E0.011
G1 X133.461 Y107.339 E0.012
G1 X133.823 Y107.063 E0.011
G1 X134.156 Y106.755 E0.011
G1 X134.457 Y106.414 E0.012
G1 X134.723 Y106.044 E0.011
G1 X134.95 Y105.649 E0.012
G1 X135.137 Y105.236 E0.011
G1 X135.282 Y104.805 E0.011
G1 X135.383 Y104.362 E0.011
G1 X135.44 Y103.91 E0.012
;rapid-leaky
G0 X136.658 Y104.191 F7200
;bead-perimeter_outer
G1 X136.589 Y104.654 F1200 E0.012
G1 X136.484 Y105.108 E0.011
G1 X136.342 Y105.554 E0.012
G1 X136.165 Y105.986 E0.011
G1 X135.953 Y106.402 E0.012
G1 X135.709 Y106.799 E0.012
G1 X135.433 Y107.176 E0.011
G1 X135.128 Y107.53 E0.012
G1 X134.795 Y107.859 E0.012
G1 X134.438 Y108.159 E0.011
G1 X134.057 Y108.429 E0.012
G1 X133.656 Y108.668 E0.012
G1 X133.236 Y108.874 E0.011
G1 X132.802 Y109.046 E0.012
G1 X132.356 Y109.181 E0.012
G1 X131.895 Y109.282 E0.011
G1 X120.244 Y111.336 E0.295
G1 X118.231 Y99.912 E0.29
G1 X129.881 Y97.859 E0.295
G1 X130.348 Y97.795 E0.012
G1 X130.814 Y97.77 E0.011
G1 X131.281 Y97.783 E0.012
G1 X131.746 Y97.833 E0.012
G1 X132.204 Y97.92 E0.011
G1 X132.654 Y98.044 E0.012
G1 X133.093 Y98.204 E0.012
G1 X133.518 Y98.398 E0.011
G1 X133.925 Y98.627 E0.012
G1 X134.314 Y98.887 E0.012
G1 X134.679 Y99.177 E0.011
G1 X135.02 Y99.495 E0.012
G1 X135.335 Y99.842 E0.012
G1 X135.621 Y100.211 E0.011
G1 X135.875 Y100.602 E0.012
G1 X136.097 Y101.013 E0.011
G1 X136.287 Y101.441 E0.012
G1 X136.44 Y101.881 E0.012
G1 X136.558 Y102.334 E0.011
G1 X136.64 Y102.793 E0.012
G1 X136.683 Y103.259 E0.012
G1 X136.69 Y103.726 E0.011
G1 X136.658 Y104.191 E0.012
;rapid-leaky
G0 X136.3 Y104.152 F7200
;bead-perimeter_inner
G1 X136.235 Y104.586 F1448 E0.011
G1 X136.137 Y105.012 E0.011
G1 X136.003 Y105.431 E0.011
G1 X135.837 Y105.836 E0.011
G1 X135.639 Y106.226 E0.011
G1 X135.41 Y106.599 E0.011
G1 X135.151 Y106.952 E0.011
G1 X134.865 Y107.284 E0.01
G1 X134.553 Y107.593 E0.011
G1 X134.217 Y107.873 E0.011
G1 X133.86 Y108.127 E0.011
G1 X133.484 Y108.351 E0.011
G1 X133.09 Y108.545 E0.011
G1 X132.683 Y108.706 E0.011
G1 X132.265 Y108.833 E0.011
G1 X131.826 Y108.928 E0.011
G1 X120.536 Y110.919 E0.286
G1 X118.648 Y100.204 E0.272
G1 X129.936 Y98.214 E0.285
G1 X130.382 Y98.154 E0.012
G1 X130.819 Y98.13 E0.011
G1 X131.256 Y98.142 E0.01
G1 X131.693 Y98.189 E0.011
G1 X132.122 Y98.271 E0.011
G1 X132.544 Y98.387 E0.011
G1 X132.956 Y98.537 E0.011
G1 X133.355 Y98.72 E0.011
G1 X133.737 Y98.934 E0.011
G1 X134.102 Y99.178 E0.011
G1 X134.444 Y99.45 E0.011
G1 X134.764 Y99.748 E0.011
G1 X135.059 Y100.073 E0.011
G1 X135.327 Y100.42 E0.011
G1 X135.565 Y100.786 E0.011
G1 X135.774 Y101.172 E0.011
G1 X135.952 Y101.573 E0.01
G1 X136.096 Y101.986 E0.011
G1 X136.206 Y102.411 E0.011
G1 X136.283 Y102.841 E0.011
G1 X136.323 Y103.278 E0.011
G1 X136.33 Y103.716 E0.011
G1 X136.3 Y104.152 E0.011
;rapid-leaky
G0 X133.544 Y99.192 F7200
;bead-sparse_infill
G1 X133.405 Y99.301 F2172 E0.004
G1 X133.365 Y99.365 E0.002
G1 X133.437 Y99.404 E0.002
G1 X133.84 Y99.679 E0.013
G1 X134.211 Y99.991 E0.012
G1 X134.551 Y100.34 E0.012
G1 X134.856 Y100.721 E0.012
G1 X135.119 Y101.129 E0.012
G1 X135.341 Y101.561 E0.012
G1 X135.519 Y102.015 E0.012
G1 X135.651 Y102.483 E0.012
G1 X135.735 Y102.963 E0.013
G1 X135.772 Y103.448 E0.012
G1 X135.76 Y103.926 E0.012
G1 X135.962 Y104.251 E0.009
G1 X135.921 Y104.527 E0.007
G1 X135.828 Y104.928 E0.01
G1 X135.702 Y105.321 E0.011
G1 X135.546 Y105.702 E0.01
G1 X135.36 Y106.069 E0.01
G1 X135.144 Y106.42 E0.011
G1 X134.901 Y106.753 E0.01
G1 X134.767 Y106.908 E0.005
G1 X134.473 Y107.009 E0.008
G1 X133.405 Y107.846 E0.034
G1 X133.237 Y108.116 E0.007
G1 X132.96 Y108.252 E0.008
G1 X132.578 Y108.403 E0.01
G1 X132.184 Y108.523 E0.011
G1 X131.764 Y108.614 E0.01
G1 X129.572 Y109.001 E0.056
G1 X129.132 Y108.657 E0.014
G1 X128.668 Y107.909 E0.022
G1 X128.558 Y107.856 E0.003
G1 X128.143 Y107.603 E0.012
G1 X127.755 Y107.309 E0.012
G1 X127.398 Y106.979 E0.012
G1 X127.132 Y106.678 E0.01
G1 X126.996 Y106.64 E0.004
G1 X125.928 Y107.009 E0.028
G1 X124.86 Y107.846 E0.034
G1 X123.791 Y109.565 E0.05
G1 X122.723 Y109.863 E0.028
G1 X121.655 Y109.493 E0.028
G1 X120.587 Y108.657 E0.034
G1 X120.413 Y108.377 E0.008
G1 X119.888 Y105.396 E0.076
G1 X120.587 Y105.59 E0.018
G1 X121.655 Y105.221 E0.028
G1 X122.723 Y104.384 E0.034
G1 X123.791 Y102.665 E0.05
G1 X124.86 Y102.367 E0.028
G1 X125.928 Y102.737 E0.028
G1 X126.069 Y102.848 E0.005
G1 X126.133 Y102.483 E0.009
G1 X126.265 Y102.015 E0.012
G1 X126.443 Y101.561 E0.012
G1 X126.665 Y101.129 E0.012
G1 X126.928 Y100.721 E0.013
G1 X127.232 Y100.34 E0.012
G1 X127.572 Y99.991 E0.012
G1 X127.945 Y99.679 E0.012
G1 X128.347 Y99.404 E0.012
G1 X128.605 Y99.264 E0.007
G1 X128.331 Y98.822 E0.013
G1 X124.767 Y99.451 E0.091
G1 X123.791 Y101.02 E0.046
G1 X122.723 Y101.318 E0.027
G1 X121.655 Y100.948 E0.029
G1 X120.666 Y100.173 E0.031
G1 F2100 E-0.5
;LAYER:8
;rapid-dry
G0 X114.267 Y101.631 Z1.25 F7200
G1 F2100 E0.5
;bead-support
G1 X116.473 Y100.357 F1992 E0.064
G1 X117.076 Y100.249 E0.015
G1 X117.532 Y102.825 E0.065
G1 X114.67 Y104.477 E0.082
G1 X114.941 Y106.387 E0.049
G1 X115.105 Y107.306 E0.023
G1 X118.027 Y105.619 E0.084
G1 X118.522 Y108.412 E0.071
G1 X115.602 Y110.098 E0.084
G1 X115.934 Y111.964 E0.047
G1 X118.499 Y111.504 E0.065
G1 X119.017 Y111.205 E0.015
G1 F2100 E-0.5
G0 X118.499 Y111.504 F2400
G0 X118.103 Y111.575 F2400
G0 X118.499 Y111.504 F2400
G0 X119.017 Y111.205 F2400
;rapid-dry
G0 X134.303 Y101.118 F7200
G1 F2100 E0.5
;bead-perimeter_outer
G1 X134.041 Y100.79 F1200 E0.011
G1 X133.748 Y100.49 E0.01
G1 X133.428 Y100.221 E0.01
G1 X133.082 Y99.985 E0.011
G1 X132.714 Y99.786 E0.01
G1 X132.329 Y99.623 E0.011
G1 X131.929 Y99.499 E0.01
G1 X131.518 Y99.416 E0.011
G1 X131.101 Y99.375 E0.01
G1 X130.682 E0.011
G1 X130.266 Y99.416 E0.01
G1 X129.855 Y99.499 E0.01
G1 X129.455 Y99.623 E0.011
G1 X129.069 Y99.786 E0.01
G1 X128.702 Y99.985 E0.011
G1 X128.356 Y100.221 E0.01
G1 X128.035 Y100.49 E0.011
G1 X127.743 Y100.791 E0.01
G1 X127.481 Y101.118 E0.011
G1 X127.255 Y101.47 E0.01
G1 X127.064 Y101.842 E0.01
G1 X126.91 Y102.232 E0.011
G1 X126.797 Y102.634 E0.01
G1 X126.724 Y103.047 E0.011
G1 X126.693 Y103.465 E0.01
G1 X126.703 Y103.883 E0.011
G1 X126.756 Y104.299 E0.01
G1 X126.848 Y104.707 E0.011
G1 X126.982 Y105.104 E0.01
G1 X127.154 Y105.485 E0.01
G1 X127.364 Y105.849 E0.011
G1 X127.607 Y106.189 E0.01
G1 X127.885 Y106.503 E0.011
G1 X128.192 Y106.787 E0.01
G1 X128.526 Y107.041 E0.011
G1 X128.883 Y107.258 E0.01
G1 X129.26 Y107.439 E0.011
G1 X129.654 Y107.583 E0.01
G1 X130.059 Y107.686 E0.01
G1 X130.474 Y107.749 E0.011
G1 X130.892 Y107.77 E0.01
G1 X131.31 Y107.749 E0.011
G1 X131.724 Y107.686 E0.01
G1 X132.13 Y107.583 E0.011
G1 X132.524 Y107.439 E0.01
G1 X132.901 Y107.258 E0.011
G1 X133.258 Y107.041 E0.01
G1 X133.592 Y106.787 E0.011
G1 X133.898 Y106.503 E0.01
G1 X134.176 Y106.189 E0.01
G1 X134.42 Y105.849 E0.011
G1 X134.629 Y105.485 E0.01
G1 X134.801 Y105.104 E0.011
G1 X134.935 Y104.707 E0.01
G1 X135.028 Y104.299 E0.011
G1 X135.081 Y103.883 E0.01
G1 X135.091 Y103.465 E0.011
G1 X135.06 Y103.047 E0.01
G1 X134.987 Y102.634 E0.01
G1 X134.874 Y102.232 E0.011
G1 X134.72 Y101.842 E0.01
G1 X134.529 Y101.47 E0.011
G1 X134.303 Y101.118 E0.01
;rapid-leaky
G0 X134.595 Y100.908 F7200
;bead-perimeter_inner
G1 X134.311 Y100.552 F1448 E0.012
G1 X133.993 Y100.226 E0.011
G1 X133.646 Y99.934 E0.011
G1 X133.27 Y99.677 E0.012
G1 X132.87 Y99.461 E0.011
G1 X132.452 Y99.284 E0.011
G1 X132.018 Y99.15 E0.012
G1 X131.571 Y99.059 E0.011
G1 X131.118 Y99.015 E0.011
G1 X130.664 E0.012
G1 X130.213 Y99.059 E0.011
G1 X129.766 Y99.15 E0.011
G1 X129.332 Y99.284 E0.012
G1 X128.913 Y99.461 E0.011
G1 X128.514 Y99.678 E0.011
G1 X128.138 Y99.934 E0.012
G1 X127.79 Y100.226 E0.011
G1 X127.472 Y100.552 E0.011
G1 X127.189 Y100.908 E0.012
G1 X126.943 Y101.29 E0.011
G1 X126.735 Y101.693 E0.011
G1 X126.569 Y102.117 E0.012
G1 X126.445 Y102.554 E0.011
G1 X126.367 Y103.002 E0.011
G1 X126.332 Y103.456 E0.012
G1 X126.344 Y103.91 E0.011
G1 X126.401 Y104.361 E0.011
G1 X126.501 Y104.804 E0.012
G1 X126.646 Y105.236 E0.011
G1 X126.833 Y105.65 E0.011
G1 X127.061 Y106.044 E0.012
G1 X127.325 Y106.413 E0.011
G1 X127.627 Y106.755 E0.011
G1 X127.961 Y107.064 E0.012
G1 X128.323 Y107.339 E0.011
G1 X128.711 Y107.575 E0.012
G1 X129.12 Y107.771 E0.011
G1 X129.548 Y107.928 E0.011
G1 X129.988 Y108.04 E0.012
G1 X130.438 Y108.108 E0.011
G1 X130.892 Y108.131 E0.011
G1 X131.346 Y108.108 E0.012
G1 X131.795 Y108.04 E0.011
G1 X132.236 Y107.928 E0.011
G1 X132.665 Y107.771 E0.012
G1 X133.073 Y107.575 E0.011
G1 X133.461 Y107.339 E0.011
G1 X133.823 Y107.063 E0.012
G1 X134.156 Y106.755 E0.011
G1 X134.457 Y106.414 E0.011
G1 X134.723 Y106.044 E0.012
G1 X134.95 Y105.649 E0.011
G1 X135.137 Y105.236 E0.011
G1 X135.282 Y104.805 E0.012
G1 X135.383 Y104.362 E0.011
G1 X135.44 Y103.91 E0.011
G1 X135.452 Y103.456 E0.012
G1 X135.417 Y103.002 E0.011
G1 X135.339 Y102.554 E0.011
G1 X135.215 Y102.117 E0.012
G1 X135.049 Y101.693 E0.011
G1 X134.841 Y101.29 E0.011
G1 X134.595 Y100.908 E0.012
;rapid-leaky
G0 X135.621 Y100.211 F7200
;bead-perimeter_outer
G1 X135.875 Y100.602 F1200 E0.011
G1 X136.097 Y101.013 E0.012
G1 X136.287 Y101.441 E0.012
G1 X136.44 Y101.881 E0.011
G1 X136.558 Y102.334 E0.012
G1 X136.64 Y102.793 E0.012
G1 X136.683 Y103.259 E0.011
G1 X136.69 Y103.726 E0.012
G1 X136.658 Y104.191 E0.012
G1 X136.589 Y104.654 E0.011
G1 X136.484 Y105.108 E0.012
G1 X136.342 Y105.554 E0.012
G1 X136.165 Y105.986 E0.011
G1 X135.953 Y106.402 E0.012
G1 X135.709 Y106.799 E0.011
G1 X135.433 Y107.176 E0.012
G1 X135.128 Y107.53 E0.012
G1 X134.795 Y107.859 E0.011
G1 X134.438 Y108.159 E0.012
G1 X134.057 Y108.429 E0.012
G1 X133.656 Y108.668 E0.011
G1 X133.236 Y108.874 E0.012
G1 X132.802 Y109.046 E0.012
G1 X132.356 Y109.181 E0.011
G1 X131.895 Y109.282 E0.012
G1 X120.15 Y111.353 E0.298
G1 X118.136 Y99.929 E0.289
G1 X129.881 Y97.859 E0.297
G1 X130.348 Y97.795 E0.012
G1 X130.814 Y97.77 E0.012
G1 X131.281 Y97.783 E0.011
G1 X131.746 Y97.833 E0.012
G1 X132.204 Y97.92 E0.012
G1 X132.654 Y98.044 E0.011
G1 X133.093 Y98.204 E0.012
G1 X133.518 Y98.398 E0.012
G1 X133.925 Y98.627 E0.011
G1 X134.314 Y98.887 E0.012
G1 X134.679 Y99.177 E0.012
G1 X135.02 Y99.495 E0.011
G1 X135.335 Y99.842 E0.012
G1 X135.621 Y100.211 E0.012
;rapid-leaky
G0 X135.327 Y100.42 F7200
;bead-perimeter_inner
G1 X135.565 Y100.786 F1448 E0.011
G1 X135.774 Y101.172 E0.011
G1 X135.952 Y101.573 E0.01
G1 X136.096 Y101.986 E0.011
G1 X136.206 Y102.411 E0.011
G1 X136.283 Y102.841 E0.011
G1 X136.323 Y103.278 E0.011
G1 X136.33 Y103.716 E0.011
G1 X136.3 Y104.153 E0.011
G1 X136.235 Y104.586 E0.011
G1 X136.137 Y105.012 E0.011
G1 X136.003 Y105.431 E0.011
G1 X135.838 Y105.835 E0.011
G1 X135.639 Y106.226 E0.011
G1 X135.41 Y106.599 E0.011
G1 X135.151 Y106.952 E0.01
G1 X134.865 Y107.284 E0.011
G1 X134.553 Y107.593 E0.011
G1 X134.217 Y107.873 E0.011
G1 X133.86 Y108.127 E0.011
G1 X133.484 Y108.351 E0.011
G1 X133.09 Y108.545 E0.011
G1 X132.683 Y108.706 E0.011
G1 X132.265 Y108.833 E0.011
G1 X131.826 Y108.928 E0.011
G1 X120.442 Y110.936 E0.288
G1 X118.553 Y100.221 E0.272
G1 X129.936 Y98.214 E0.288
G1 X130.382 Y98.154 E0.011
G1 X130.819 Y98.13 E0.011
G1 X131.256 Y98.142 E0.011
G1 X131.693 Y98.189 E0.011
G1 X132.122 Y98.271 E0.011
G1 X132.544 Y98.387 E0.011
G1 X132.956 Y98.537 E0.011
G1 X133.355 Y98.72 E0.011
G1 X133.737 Y98.934 E0.011
G1 X134.102 Y99.178 E0.011
G1 X134.444 Y99.45 E0.011
G1 X134.764 Y99.748 E0.011
G1 X135.059 Y100.073 E0.011
G1 X135.327 Y100.42 E0.01
;rapid-leaky
G0 X133.508 Y99.172 F7200
;bead-sparse_infill
G1 X133.405 Y99.243 F2173 E0.004
G1 X133.328 Y99.345 E0.003
G1 X133.437 Y99.404 E0.003
G1 X133.84 Y99.679 E0.012
G1 X134.211 Y99.991 E0.012
G1 X134.551 Y100.34 E0.012
G1 X134.856 Y100.721 E0.012
G1 X135.119 Y101.129 E0.013
G1 X135.341 Y101.561 E0.012
G1 X135.519 Y102.015 E0.012
G1 X135.651 Y102.483 E0.012
G1 X135.735 Y102.963 E0.012
G1 X135.772 Y103.448 E0.012
G1 X135.763 Y103.812 E0.009
G1 X135.982 Y104.106 E0.01
G1 X135.981 Y104.118
G1 X135.921 Y104.527 E0.01
G1 X135.828 Y104.928 E0.01
G1 X135.702 Y105.321 E0.011
G1 X135.546 Y105.702 E0.01
G1 X135.36 Y106.069 E0.01
G1 X135.144 Y106.42 E0.01
G1 X134.901 Y106.753 E0.011
G1 X134.674 Y107.015 E0.008
G1 X134.473 Y107.063 E0.006
G1 X133.405 Y107.788 E0.032
G1 X133.115 Y108.176 E0.012
G1 X132.96 Y108.252 E0.004
G1 X132.578 Y108.403 E0.01
G1 X132.184 Y108.523 E0.011
G1 X131.764 Y108.614 E0.01
G1 X129.558 Y109.004 E0.056
G1 X129.132 Y108.715 E0.013
G1 X128.434 Y107.781 E0.029
G1 X128.143 Y107.603 E0.009
G1 X127.755 Y107.309 E0.012
G1 X127.415 Y106.995 E0.011
G1 X126.996 Y106.808 E0.012
G1 X125.928 Y107.063 E0.027
G1 X124.86 Y107.788 E0.032
G1 X123.791 Y109.218 E0.045
G1 X122.723 Y109.695 E0.029
G1 X121.655 Y109.44 E0.028
G1 X120.587 Y108.715 E0.032
G1 X120.31 Y108.344 E0.011
G1 X119.727 Y105.039 E0.084
G1 X120.587 Y105.422 E0.024
G1 X121.655 Y105.167 E0.027
G1 X122.723 Y104.442 E0.032
G1 X123.791 Y103.012 E0.045
G1 X124.86 Y102.535 E0.029
G1 X125.928 Y102.791 E0.027
G1 X126.063 Y102.882 E0.004
G1 X126.133 Y102.483 E0.01
G1 X126.265 Y102.015 E0.013
G1 X126.443 Y101.561 E0.012
G1 X126.665 Y101.129 E0.012
G1 X126.928 Y100.721 E0.012
G1 X127.232 Y100.34 E0.012
G1 X127.572 Y99.991 E0.012
G1 X127.945 Y99.679 E0.012
G1 X128.347 Y99.404 E0.013
G1 X128.499 Y99.322 E0.004
G1 X128.15 Y98.854 E0.014
G1 X124.695 Y99.463 E0.088
G1 X123.791 Y100.673 E0.038
G1 X122.723 Y101.15 E0.029
G1 X121.655 Y100.894 E0.027
G1 X120.608 Y100.184 E0.032
G1 F2100 E-0.5
;LAYER:9
;rapid-dry
G0 X114.267 Y101.631 Z1.4 F7200
G1 F2100 E0.5
;bead-support
G1 X116.472 Y100.358 F1993 E0.063
G1 X117.076 Y100.25 E0.016
G1 X117.532 Y102.825 E0.065
G1 X114.67 Y104.477 E0.082
G1 X114.941 Y106.387 E0.048
G1 X115.105 Y107.306 E0.024
G1 X118.027 Y105.619 E0.084
G1 X118.522 Y108.412 E0.071
G1 X115.602 Y110.098 E0.084
G1 X115.934 Y111.964 E0.047
G1 X118.499 Y111.504 E0.065
G1 X119.017 Y111.205 E0.015
G1 F2100 E-0.5
G0 X118.499 Y111.504 F2400
G0 X118.103 Y111.575 F2400
G0 X118.499 Y111.504 F2400
G0 X119.017 Y111.205 F2400
;rapid-dry
G0 X132.13 Y107.583 F7200
G1 F2100 E0.5
;bead-perimeter_outer
G1 X132.524 Y107.439 F1200 E0.01
G1 X132.901 Y107.258 E0.011
G1 X133.258 Y107.041 E0.01
G1 X133.592 Y106.787 E0.011
G1 X133.898 Y106.503 E0.01
G1 X134.176 Y106.189 E0.011
G1 X134.42 Y105.849 E0.01
G1 X134.629 Y105.485 E0.01
G1 X134.801 Y105.104 E0.011
G1 X134.935 Y104.707 E0.01
G1 X135.028 Y104.299 E0.011
G1 X135.081 Y103.883 E0.01
G1 X135.091 Y103.465 E0.011
G1 X135.06 Y103.047 E0.01
G1 X134.987 Y102.634 E0.011
G1 X134.874 Y102.232 E0.01
G1 X134.72 Y101.842 E0.01
G1 X134.529 Y101.47 E0.011
G1 X134.303 Y101.118 E0.01
G1 X134.041 Y100.79 E0.011
G1 X133.748 Y100.49 E0.01
G1 X133.428 Y100.221 E0.011
G1 X133.082 Y99.985 E0.01
G1 X132.714 Y99.786 E0.011
G1 X132.329 Y99.623 E0.01
G1 X131.929 Y99.499 E0.01
G1 X131.518 Y99.416 E0.011
G1 X131.101 Y99.375 E0.01
G1 X130.682 E0.011
G1 X130.266 Y99.416 E0.01
G1 X129.855 Y99.499 E0.011
G1 X129.455 Y99.623 E0.01
G1 X129.069 Y99.786 E0.011
G1 X128.702 Y99.985 E0.01
G1 X128.356 Y100.221 E0.01
G1 X128.035 Y100.49 E0.011
G1 X127.743 Y100.791 E0.01
G1 X127.481 Y101.118 E0.011
G1 X127.255 Y101.47 E0.01
G1 X127.064 Y101.842 E0.011
G1 X126.91 Y102.232 E0.01
G1 X126.797 Y102.634 E0.011
G1 X126.724 Y103.047 E0.01
G1 X126.693 Y103.465 E0.01
G1 X126.703 Y103.883 E0.011
G1 X126.756 Y104.299 E0.01
G1 X126.848 Y104.707 E0.011
G1 X126.982 Y105.104 E0.01
G1 X127.154 Y105.485 E0.011
G1 X127.364 Y105.849 E0.01
G1 X127.607 Y106.189 E0.011
G1 X127.885 Y106.503 E0.01
G1 X128.192 Y106.787 E0.01
G1 X128.526 Y107.041 E0.011
G1 X128.883 Y107.258 E0.01
G1 X129.26 Y107.439 E0.011
G1 X129.654 Y107.583 E0.01
G1 X130.059 Y107.686 E0.011
G1 X130.474 Y107.749 E0.01
G1 X130.892 Y107.77 E0.011
G1 X131.31 Y107.749 E0.01
G1 X131.724 Y107.686 E0.01
G1 X132.13 Y107.583 E0.011
;rapid-leaky
G0 X132.236 Y107.928 F7200
;bead-perimeter_inner
G1 X132.664 Y107.771 F1450 E0.011
G1 X133.073 Y107.575 E0.012
G1 X133.461 Y107.339 E0.011
G1 X133.823 Y107.063 E0.011
G1 X134.156 Y106.755 E0.012
G1 X134.457 Y106.414 E0.011
G1 X134.723 Y106.044 E0.011
G1 X134.95 Y105.649 E0.012
G1 X135.137 Y105.236 E0.011
G1 X135.282 Y104.805 E0.011
G1 X135.383 Y104.362 E0.012
G1 X135.44 Y103.91 E0.011
G1 X135.452 Y103.456 E0.011
G1 X135.417 Y103.002 E0.012
G1 X135.339 Y102.554 E0.011
G1 X135.215 Y102.117 E0.011
G1 X135.049 Y101.693 E0.012
G1 X134.841 Y101.29 E0.011
G1 X134.595 Y100.908 E0.011
G1 X134.311 Y100.552 E0.012
G1 X133.993 Y100.226 E0.011
G1 X133.646 Y99.934 E0.011
G1 X133.27 Y99.677 E0.012
G1 X132.87 Y99.461 E0.011
G1 X132.452 Y99.284 E0.011
G1 X132.018 Y99.15 E0.012
G1 X131.571 Y99.059 E0.011
G1 X131.118 Y99.015 E0.012
G1 X130.664 E0.011
G1 X130.213 Y99.059 E0.011
G1 X129.766 Y99.15 E0.012
G1 X129.332 Y99.284 E0.011
G1 X128.913 Y99.461 E0.011
G1 X128.514 Y99.678 E0.012
G1 X128.138 Y99.934 E0.011
G1 X127.79 Y100.226 E0.011
G1 X127.472 Y100.552 E0.012
G1 X127.189 Y100.908 E0.011
G1 X126.943 Y101.29 E0.011
G1 X126.735 Y101.693 E0.012
G1 X126.569 Y102.117 E0.011
G1 X126.445 Y102.554 E0.011
G1 X126.367 Y103.002 E0.012
G1 X126.332 Y103.456 E0.011
G1 X126.344 Y103.91 E0.011
G1 X126.401 Y104.361 E0.012
G1 X126.501 Y104.804 E0.011
G1 X126.646 Y105.236 E0.011
G1 X126.833 Y105.65 E0.012
G1 X127.061 Y106.044 E0.011
G1 X127.325 Y106.413 E0.011
G1 X127.627 Y106.755 E0.012
G1 X127.961 Y107.064 E0.011
G1 X128.323 Y107.339 E0.011
G1 X128.711 Y107.575 E0.012
G1 X129.12 Y107.771 E0.011
G1 X129.548 Y107.928 E0.011
G1 X129.988 Y108.04 E0.012
G1 X130.438 Y108.108 E0.011
G1 X130.892 Y108.131 E0.011
G1 X131.346 Y108.108 E0.012
G1 X131.795 Y108.04 E0.011
G1 X132.236 Y107.928 E0.011
;rapid-leaky
G0 X132.802 Y109.046 F7200
;bead-perimeter_outer
G1 X132.356 Y109.181 F1200 E0.012
G1 X131.895 Y109.282 E0.012
G1 X120.063 Y111.368 E0.3
G1 X118.049 Y99.945 E0.289
G1 X129.881 Y97.859 E0.3
G1 X130.348 Y97.795 E0.011
G1 X130.814 Y97.77 E0.012
G1 X131.281 Y97.783 E0.012
G1 X131.746 Y97.833 E0.011
G1 X132.204 Y97.92 E0.012
G1 X132.654 Y98.044 E0.012
G1 X133.093 Y98.204 E0.011
G1 X133.518 Y98.398 E0.012
G1 X133.925 Y98.627 E0.012
G1 X134.314 Y98.887 E0.011
G1 X134.679 Y99.177 E0.012
G1 X135.02 Y99.495 E0.012
G1 X135.335 Y99.842 E0.011
G1 X135.621 Y100.211 E0.012
G1 X135.875 Y100.602 E0.011
G1 X136.097 Y101.013 E0.012
G1 X136.287 Y101.441 E0.012
G1 X136.441 Y101.881 E0.011
