;rola deget 2
;Printer name: Prusa i3 MK3
;TIME:1394
;Print time: 23m:14s
;Extruder 1 material used: 1013mm
;Extruder 1 material name: 
;Extruder 1 filament diameter: 1.75mm
;Extruder 1 nozzle diameter: 0.4mm
;Extruder 1 offset x: 0mm
;Extruder 1 offset y: 0mm
;Extruder 1 offset z: 0mm
;Extruder 1 max temp: 200
;Bed temp: 70
;Layer count: 65
;Width: 250mm
;Depth: 210mm
;Height: 210mm
;Center x: 125mm
;Center y: 105mm
;Center z: 0mm
;Count of bodies: 8
;Fusion version: 2.0.19440
G21
M115 U3.0.10 ;tell printer latest fw version
G28 W ;home all without mesh bed level
;--------------------------------
;Selected Profile: PLA Direct Drive
;--------------------------------
;Selected Printer: Prusa, i3 MK3
;--------------------------------
T0
M140 S70
M104 S200 T0
M190 S70
M109 S200 T0
G80 ;mesh bed leveling
G92 E0
G90
M83
G0 X10 Y10 Z10 F7200
G92 E0
;--------------------------------
;Part 1
;LAYER_COUNT:65
;LAYER:1
M107
;rapid-leaky
G0 X20 Y20.5 Z0.2 F7200
;bead-prime
G1 X120 F720 E8.315
G1 F2100 E-0.5
;rapid-dry
G0 X118.89 Y91.205 F7200
G1 F2100 E0.5
;bead-skirt/brim
G1 X119.664 Y91.283 F960 E0.026
G1 X120.423 Y91.436 E0.026
G1 X121.166 Y91.665 E0.026
G1 X121.888 Y91.968 E0.026
G1 X122.57 Y92.341 E0.025
G1 X123.212 Y92.778 E0.026
G1 X123.809 Y93.28 E0.026
G1 X124 Y93.475 E0.009
G1 X124.193 Y93.277 E0.009
G1 X124.788 Y92.778 E0.026
G1 X125.43 Y92.341 E0.026
G1 X126.112 Y91.969 E0.026
G1 X126.833 Y91.665 E0.026
G1 X127.577 Y91.436 E0.026
G1 X128.336 Y91.283 E0.026
G1 X129.11 Y91.205 E0.025
G1 X129.89 E0.026
G1 X130.664 Y91.283 E0.026
G1 X131.423 Y91.436 E0.026
G1 X132.166 Y91.665 E0.026
G1 X132.888 Y91.968 E0.026
G1 X133.57 Y92.341 E0.026
G1 X134.212 Y92.778 E0.026
G1 X134.809 Y93.28 E0.026
G1 X135.351 Y93.835 E0.025
G1 X135.838 Y94.445 E0.026
G1 X136 Y94.696 E0.01
G1 X136.162 Y94.445 E0.01
G1 X136.647 Y93.837 E0.026
G1 X137.193 Y93.277 E0.026
G1 X137.788 Y92.778 E0.026
G1 X138.43 Y92.341 E0.026
G1 X139.112 Y91.969 E0.026
G1 X139.833 Y91.665 E0.026
G1 X140.577 Y91.436 E0.026
G1 X141.336 Y91.283 E0.025
G1 X142.11 Y91.205 E0.026
G1 X142.89 E0.026
G1 X143.664 Y91.283 E0.026
G1 X144.423 Y91.436 E0.026
G1 X145.166 Y91.665 E0.026
G1 X145.888 Y91.968 E0.026
G1 X146.57 Y92.341 E0.025
G1 X147.212 Y92.778 E0.026
G1 X147.809 Y93.28 E0.026
G1 X148.351 Y93.835 E0.026
G1 X148.838 Y94.445 E0.026
G1 X149.26 Y95.099 E0.026
G1 X149.613 Y95.789 E0.026
G1 X149.898 Y96.513 E0.026
G1 X150.11 Y97.265 E0.026
G1 X150.244 Y98.03 E0.025
G1 X150.303 Y98.804 E0.026
G1 X150.283 Y99.585 E0.026
G1 X150.185 Y100.359 E0.026
G1 X150.012 Y101.115 E0.026
G1 X149.765 Y101.85 E0.026
G1 X149.446 Y102.559 E0.026
G1 X149.056 Y103.234 E0.026
G1 X148.601 Y103.867 E0.025
G1 X148.086 Y104.45 E0.026
G1 X147.482 Y105.005 E0.028
G1 X147.809 Y105.279 E0.014
G1 X148.351 Y105.835 E0.026
G1 X148.838 Y106.445 E0.026
G1 X149.26 Y107.099 E0.025
G1 X149.613 Y107.789 E0.026
G1 X149.898 Y108.513 E0.026
G1 X150.11 Y109.265 E0.026
G1 X150.244 Y110.03 E0.026
G1 X150.303 Y110.804 E0.026
G1 X150.283 Y111.585 E0.026
G1 X150.185 Y112.359 E0.026
G1 X150.012 Y113.115 E0.025
G1 X149.765 Y113.85 E0.026
G1 X149.446 Y114.559 E0.026
G1 X149.056 Y115.234 E0.026
G1 X148.601 Y115.867 E0.026
G1 X148.087 Y116.45 E0.026
G1 X147.517 Y116.978 E0.026
G1 X146.897 Y117.448 E0.026
G1 X146.234 Y117.854 E0.025
G1 X145.53 Y118.193 E0.026
G1 X144.801 Y118.457 E0.026
G1 X144.048 Y118.65 E0.026
G1 X143.275 Y118.766 E0.026
G1 X142.5 Y118.805 E0.026
G1 X141.725 Y118.766 E0.026
G1 X140.952 Y118.65 E0.026
G1 X140.199 Y118.457 E0.026
G1 X139.47 Y118.193 E0.025
G1 X138.766 Y117.854 E0.026
G1 X138.103 Y117.448 E0.026
G1 X137.483 Y116.978 E0.026
G1 X136.914 Y116.45 E0.026
G1 X136.399 Y115.867 E0.026
G1 X136 Y115.312 E0.022
G1 X135.601 Y115.867 E0.023
G1 X135.087 Y116.45 E0.026
G1 X134.517 Y116.978 E0.026
G1 X133.898 Y117.448 E0.026
G1 X133.234 Y117.854 E0.026
G1 X132.53 Y118.193 E0.026
G1 X131.801 Y118.457 E0.025
G1 X131.048 Y118.65 E0.026
G1 X130.275 Y118.766 E0.026
G1 X129.5 Y118.805 E0.026
G1 X128.725 Y118.766 E0.026
G1 X127.952 Y118.65 E0.026
G1 X127.199 Y118.457 E0.026
G1 X126.47 Y118.193 E0.025
G1 X125.766 Y117.854 E0.026
G1 X125.103 Y117.448 E0.026
G1 X124.483 Y116.978 E0.026
G1 X124 Y116.53 E0.022
G1 X123.517 Y116.978 E0.022
G1 X122.897 Y117.448 E0.026
G1 X122.234 Y117.854 E0.026
G1 X121.53 Y118.193 E0.026
G1 X120.801 Y118.457 E0.026
G1 X120.048 Y118.65 E0.025
G1 X119.275 Y118.766 E0.026
G1 X118.5 Y118.805 E0.026
G1 X117.725 Y118.766 E0.026
G1 X116.952 Y118.65 E0.026
G1 X116.199 Y118.457 E0.026
G1 X115.47 Y118.193 E0.026
G1 X114.766 Y117.854 E0.026
G1 X114.103 Y117.448 E0.026
G1 X113.483 Y116.978 E0.025
G1 X113 Y116.53 E0.022
G1 X112.517 Y116.978 E0.022
G1 X111.897 Y117.448 E0.026
G1 X111.234 Y117.854 E0.026
G1 X110.53 Y118.193 E0.026
G1 X109.801 Y118.457 E0.026
G1 X109.048 Y118.65 E0.026
G1 X108.275 Y118.766 E0.026
G1 X107.5 Y118.805 E0.025
G1 X106.725 Y118.766 E0.026
G1 X105.952 Y118.65 E0.026
G1 X105.199 Y118.457 E0.026
G1 X104.47 Y118.193 E0.026
G1 X103.766 Y117.854 E0.026
G1 X103.103 Y117.448 E0.026
G1 X102.483 Y116.978 E0.026
G1 X101.914 Y116.45 E0.025
G1 X101.399 Y115.867 E0.026
G1 X100.944 Y115.234 E0.026
G1 X100.557 Y114.563 E0.026
G1 X100.235 Y113.854 E0.026
G1 X99.986 Y113.111 E0.026
G1 X99.814 Y112.355 E0.026
G1 X99.717 Y111.585 E0.025
G1 X99.697 Y110.804 E0.026
G1 X99.756 Y110.03 E0.026
G1 X99.89 Y109.265 E0.026
G1 X100.102 Y108.513 E0.026
G1 X100.387 Y107.789 E0.026
G1 X100.74 Y107.099 E0.026
G1 X101.162 Y106.445 E0.026
G1 X101.647 Y105.837 E0.026
G1 X102.193 Y105.277 E0.026
G1 X102.518 Y105.005 E0.014
G1 X101.914 Y104.45 E0.027
G1 X101.399 Y103.867 E0.026
G1 X100.944 Y103.234 E0.026
G1 X100.557 Y102.563 E0.025
G1 X100.235 Y101.854 E0.026
G1 X99.986 Y101.111 E0.026
G1 X99.814 Y100.355 E0.026
G1 X99.717 Y99.585 E0.026
G1 X99.697 Y98.804 E0.026
G1 X99.756 Y98.03 E0.026
G1 X99.89 Y97.265 E0.026
G1 X100.102 Y96.513 E0.026
G1 X100.387 Y95.789 E0.026
G1 X100.74 Y95.099 E0.025
G1 X101.162 Y94.445 E0.026
G1 X101.647 Y93.837 E0.026
G1 X102.193 Y93.277 E0.026
G1 X102.788 Y92.778 E0.026
G1 X103.43 Y92.341 E0.026
G1 X104.112 Y91.969 E0.026
G1 X104.833 Y91.665 E0.026
G1 X105.577 Y91.436 E0.025
G1 X106.336 Y91.283 E0.026
G1 X107.11 Y91.205 E0.026
G1 X107.89 E0.026
G1 X108.664 Y91.283 E0.026
G1 X109.423 Y91.436 E0.026
G1 X110.167 Y91.665 E0.026
G1 X110.888 Y91.968 E0.026
G1 X111.57 Y92.341 E0.025
G1 X112.212 Y92.778 E0.026
G1 X112.809 Y93.28 E0.026
G1 X113 Y93.475 E0.009
G1 X113.193 Y93.277 E0.009
G1 X113.788 Y92.778 E0.026
G1 X114.43 Y92.341 E0.026
G1 X115.112 Y91.969 E0.026
G1 X115.833 Y91.665 E0.026
G1 X116.577 Y91.436 E0.026
G1 X117.336 Y91.283 E0.026
G1 X118.11 Y91.205 E0.026
G1 X118.89 E0.025
;rapid-leaky
G0 X118.87 Y91.605 F7200
;bead-skirt/brim
G1 X119.604 Y91.679 F960 E0.025
G1 X120.325 Y91.825 E0.024
G1 X121.03 Y92.041 E0.025
G1 X121.714 Y92.329 E0.025
G1 X122.361 Y92.683 E0.024
G1 X122.97 Y93.097 E0.025
G1 X123.537 Y93.573 E0.024
G1 X124 Y94.048 E0.022
G1 X124.465 Y93.571 E0.023
G1 X125.03 Y93.097 E0.024
G1 X125.639 Y92.683 E0.025
G1 X126.286 Y92.329 E0.024
G1 X126.97 Y92.041 E0.025
G1 X127.675 Y91.825 E0.024
G1 X128.396 Y91.679 E0.025
G1 X129.13 Y91.605 E0.024
G1 X129.87 E0.025
G1 X130.604 Y91.679 E0.024
G1 X131.325 Y91.825 E0.025
G1 X132.03 Y92.041 E0.024
G1 X132.714 Y92.329 E0.025
G1 X133.361 Y92.683 E0.025
G1 X133.97 Y93.097 E0.024
G1 X134.537 Y93.573 E0.025
G1 X135.051 Y94.1 E0.024
G1 X135.513 Y94.678 E0.025
G1 X135.913 Y95.299 E0.024
G1 X136 Y95.469 E0.007
G1 X136.087 Y95.299 E0.006
G1 X136.487 Y94.678 E0.025
G1 X136.947 Y94.102 E0.024
G1 X137.465 Y93.571 E0.025
G1 X138.03 Y93.097 E0.024
G1 X138.639 Y92.683 E0.025
G1 X139.286 Y92.329 E0.024
G1 X139.97 Y92.041 E0.025
G1 X140.675 Y91.825 E0.025
G1 X141.396 Y91.679 E0.024
G1 X142.13 Y91.605 E0.025
G1 X142.87 E0.024
G1 X143.604 Y91.679 E0.025
G1 X144.325 Y91.825 E0.024
G1 X145.03 Y92.041 E0.025
G1 X145.714 Y92.329 E0.025
G1 X146.361 Y92.683 E0.024
G1 X146.97 Y93.097 E0.025
G1 X147.537 Y93.573 E0.024
G1 X148.051 Y94.1 E0.025
G1 X148.513 Y94.678 E0.024
G1 X148.913 Y95.299 E0.025
G1 X149.248 Y95.953 E0.024
G1 X149.519 Y96.64 E0.025
G1 X149.719 Y97.354 E0.024
G1 X149.847 Y98.08 E0.025
G1 X149.902 Y98.814 E0.024
G1 X149.884 Y99.555 E0.025
G1 X149.791 Y100.289 E0.025
G1 X149.626 Y101.007 E0.024
G1 X149.392 Y101.704 E0.025
G1 X149.089 Y102.377 E0.024
G1 X148.72 Y103.017 E0.025
G1 X148.288 Y103.617 E0.024
G1 X147.8 Y104.17 E0.025
G1 X147.26 Y104.671 E0.024
G1 X146.827 Y104.999 E0.019
G1 X146.97 Y105.097 E0.005
G1 X147.537 Y105.573 E0.025
G1 X148.051 Y106.1 E0.024
G1 X148.513 Y106.678 E0.025
G1 X148.913 Y107.299 E0.025
G1 X149.248 Y107.953 E0.024
G1 X149.519 Y108.64 E0.025
G1 X149.719 Y109.354 E0.024
G1 X149.847 Y110.08 E0.025
G1 X149.902 Y110.814 E0.024
G1 X149.884 Y111.555 E0.025
G1 X149.791 Y112.289 E0.024
G1 X149.626 Y113.007 E0.025
G1 X149.392 Y113.704 E0.024
G1 X149.089 Y114.377 E0.025
G1 X148.72 Y115.017 E0.025
G1 X148.288 Y115.617 E0.024
G1 X147.8 Y116.17 E0.025
G1 X147.26 Y116.671 E0.024
G1 X146.672 Y117.117 E0.025
G1 X146.042 Y117.502 E0.024
G1 X145.375 Y117.824 E0.025
G1 X144.683 Y118.074 E0.024
G1 X143.968 Y118.258 E0.025
G1 X143.235 Y118.367 E0.025
G1 X142.5 Y118.404 E0.024
G1 X141.765 Y118.367 E0.025
G1 X141.032 Y118.258 E0.024
G1 X140.317 Y118.074 E0.025
G1 X139.625 Y117.824 E0.024
G1 X138.958 Y117.502 E0.025
G1 X138.328 Y117.117 E0.024
G1 X137.74 Y116.671 E0.025
G1 X137.2 Y116.17 E0.024
G1 X136.712 Y115.617 E0.025
G1 X136.282 Y115.02 E0.024
G1 X136 Y114.532 E0.019
G1 X135.72 Y115.017 E0.019
G1 X135.288 Y115.617 E0.024
G1 X134.8 Y116.17 E0.025
G1 X134.26 Y116.671 E0.024
G1 X133.672 Y117.117 E0.025
G1 X133.042 Y117.502 E0.025
G1 X132.375 Y117.824 E0.024
G1 X131.683 Y118.074 E0.025
G1 X130.968 Y118.258 E0.024
G1 X130.235 Y118.367 E0.025
G1 X129.5 Y118.404 E0.024
G1 X128.765 Y118.367 E0.025
G1 X128.032 Y118.258 E0.024
G1 X127.317 Y118.074 E0.025
G1 X126.625 Y117.824 E0.025
G1 X125.958 Y117.502 E0.024
G1 X125.328 Y117.117 E0.025
G1 X124.74 Y116.671 E0.024
G1 X124.2 Y116.17 E0.025
G1 X124 Y115.943 E0.01
G1 X123.8 Y116.17 E0.01
G1 X123.26 Y116.671 E0.024
G1 X122.672 Y117.117 E0.025
G1 X122.042 Y117.502 E0.024
G1 X121.375 Y117.824 E0.025
G1 X120.683 Y118.074 E0.025
G1 X119.968 Y118.258 E0.024
G1 X119.235 Y118.367 E0.025
G1 X118.5 Y118.404 E0.024
G1 X117.765 Y118.367 E0.025
G1 X117.032 Y118.258 E0.024
G1 X116.317 Y118.074 E0.025
G1 X115.625 Y117.824 E0.024
G1 X114.958 Y117.502 E0.025
G1 X114.328 Y117.117 E0.025
G1 X113.74 Y116.671 E0.024
G1 X113.2 Y116.17 E0.025
G1 X113 Y115.943 E0.01
G1 X112.8 Y116.17 E0.01
G1 X112.26 Y116.671 E0.024
G1 X111.672 Y117.117 E0.025
G1 X111.042 Y117.502 E0.024
G1 X110.375 Y117.824 E0.025
G1 X109.683 Y118.074 E0.024
G1 X108.968 Y118.258 E0.025
G1 X108.235 Y118.367 E0.025
G1 X107.5 Y118.404 E0.024
G1 X106.765 Y118.367 E0.025
G1 X106.032 Y118.258 E0.024
G1 X105.317 Y118.074 E0.025
G1 X104.625 Y117.824 E0.024
G1 X103.958 Y117.502 E0.025
G1 X103.328 Y117.117 E0.024
G1 X102.74 Y116.671 E0.025
G1 X102.2 Y116.17 E0.025
G1 X101.712 Y115.617 E0.024
G1 X101.28 Y115.017 E0.025
G1 X100.913 Y114.38 E0.024
G1 X100.608 Y113.707 E0.025
G1 X100.371 Y113.003 E0.024
G1 X100.209 Y112.285 E0.025
G1 X100.116 Y111.555 E0.024
G1 X100.098 Y110.814 E0.025
G1 X100.153 Y110.08 E0.024
G1 X100.281 Y109.354 E0.025
G1 X100.481 Y108.64 E0.025
G1 X100.752 Y107.954 E0.024
G1 X101.087 Y107.299 E0.025
G1 X101.488 Y106.678 E0.024
G1 X101.947 Y106.102 E0.025
G1 X102.465 Y105.571 E0.024
G1 X103.03 Y105.097 E0.025
G1 X103.173 Y104.999 E0.006
G1 X102.74 Y104.671 E0.018
G1 X102.2 Y104.17 E0.024
G1 X101.712 Y103.617 E0.025
G1 X101.28 Y103.017 E0.024
G1 X100.913 Y102.38 E0.025
G1 X100.608 Y101.708 E0.024
G1 X100.371 Y101.003 E0.025
G1 X100.209 Y100.285 E0.025
G1 X100.116 Y99.555 E0.024
G1 X100.098 Y98.814 E0.025
G1 X100.153 Y98.08 E0.024
G1 X100.281 Y97.354 E0.025
G1 X100.481 Y96.64 E0.024
G1 X100.752 Y95.954 E0.025
G1 X101.087 Y95.299 E0.024
G1 X101.488 Y94.678 E0.025
G1 X101.947 Y94.102 E0.024
G1 X102.207 Y93.835 E0.013
G1 X102.465 Y93.571 E0.012
G1 X103.03 Y93.097 E0.025
G1 X103.639 Y92.683 E0.024
G1 X104.286 Y92.329 E0.025
G1 X104.97 Y92.041 E0.024
G1 X105.675 Y91.825 E0.025
G1 X106.396 Y91.679 E0.024
G1 X107.13 Y91.605 E0.025
G1 X107.87 E0.025
G1 X108.604 Y91.679 E0.024
G1 X109.325 Y91.825 E0.025
G1 X110.03 Y92.041 E0.024
G1 X110.714 Y92.329 E0.025
G1 X111.361 Y92.683 E0.024
G1 X111.97 Y93.097 E0.025
G1 X112.537 Y93.573 E0.024
G1 X113 Y94.048 E0.022
G1 X113.465 Y93.571 E0.023
G1 X114.03 Y93.097 E0.024
G1 X114.639 Y92.683 E0.025
G1 X115.286 Y92.329 E0.024
G1 X115.97 Y92.041 E0.025
G1 X116.675 Y91.825 E0.024
G1 X117.396 Y91.679 E0.025
G1 X118.13 Y91.605 E0.024
G1 X118.87 E0.025
;rapid-leaky
G0 X118.85 Y92.005 F7200
;bead-skirt/brim
G1 X119.545 Y92.075 F960 E0.023
G1 X120.226 Y92.213 E0.023
G1 X120.893 Y92.418 E0.024
G1 X121.54 Y92.69 E0.023
G1 X122.152 Y93.024 E0.023
G1 X122.728 Y93.416 E0.023
G1 X123.265 Y93.867 E0.024
G1 X123.751 Y94.365 E0.023
G1 X124 Y94.677 E0.013
G1 X124.248 Y94.367 E0.013
G1 X124.737 Y93.865 E0.024
G1 X125.271 Y93.416 E0.023
G1 X125.848 Y93.024 E0.023
G1 X126.46 Y92.69 E0.023
G1 X127.107 Y92.418 E0.023
G1 X127.774 Y92.213 E0.024
G1 X128.455 Y92.075 E0.023
G1 X129.15 Y92.005 E0.023
G1 X129.85 E0.023
G1 X130.545 Y92.075 E0.024
G1 X131.226 Y92.213 E0.023
G1 X131.893 Y92.418 E0.023
G1 X132.54 Y92.69 E0.023
G1 X133.152 Y93.024 E0.023
G1 X133.728 Y93.416 E0.024
G1 X134.264 Y93.867 E0.023
G1 X134.751 Y94.365 E0.023
G1 X135.187 Y94.912 E0.023
G1 X135.566 Y95.499 E0.024
G1 X135.883 Y96.118 E0.023
G1 X136 Y96.415 E0.01
G1 X136.117 Y96.118 E0.011
G1 X136.434 Y95.499 E0.023
G1 X136.813 Y94.912 E0.023
G1 X137.248 Y94.367 E0.023
G1 X137.737 Y93.865 E0.024
G1 X138.272 Y93.416 E0.023
G1 X138.847 Y93.024 E0.023
G1 X139.46 Y92.69 E0.023
G1 X140.107 Y92.418 E0.024
G1 X140.774 Y92.213 E0.023
G1 X141.455 Y92.075 E0.023
G1 X142.15 Y92.005 E0.023
G1 X142.85 E0.024
G1 X143.545 Y92.075 E0.023
G1 X144.226 Y92.213 E0.023
G1 X144.893 Y92.418 E0.023
G1 X145.54 Y92.69 E0.023
G1 X146.153 Y93.024 E0.024
G1 X146.728 Y93.416 E0.023
G1 X147.264 Y93.867 E0.023
G1 X147.751 Y94.365 E0.023
G1 X148.187 Y94.912 E0.024
G1 X148.566 Y95.499 E0.023
G1 X148.883 Y96.118 E0.023
G1 X149.139 Y96.768 E0.023
G1 X149.329 Y97.443 E0.023
G1 X149.449 Y98.13 E0.024
G1 X149.502 Y98.824 E0.023
G1 X149.484 Y99.525 E0.023
G1 X149.397 Y100.22 E0.023
G1 X149.241 Y100.898 E0.024
G1 X149.019 Y101.558 E0.023
G1 X148.733 Y102.194 E0.023
G1 X148.383 Y102.799 E0.023
G1 X147.975 Y103.367 E0.023
G1 X147.513 Y103.89 E0.024
G1 X147.002 Y104.365 E0.023
G1 X146.446 Y104.786 E0.023
G1 X146.102 Y104.997 E0.013
G1 X146.729 Y105.416 E0.026
G1 X147.264 Y105.867 E0.023
G1 X147.751 Y106.365 E0.023
G1 X148.187 Y106.912 E0.023
G1 X148.566 Y107.499 E0.024
G1 X148.883 Y108.118 E0.023
G1 X149.139 Y108.768 E0.023
G1 X149.329 Y109.443 E0.023
G1 X149.449 Y110.13 E0.023
G1 X149.502 Y110.824 E0.024
G1 X149.484 Y111.525 E0.023
G1 X149.397 Y112.219 E0.023
G1 X149.241 Y112.898 E0.023
G1 X149.019 Y113.558 E0.023
G1 X148.733 Y114.194 E0.024
G1 X148.383 Y114.799 E0.023
G1 X147.975 Y115.367 E0.023
G1 X147.513 Y115.89 E0.023
G1 X147.002 Y116.365 E0.024
G1 X146.446 Y116.786 E0.023
G1 X145.85 Y117.15 E0.023
G1 X145.22 Y117.454 E0.023
G1 X144.565 Y117.692 E0.023
G1 X143.889 Y117.865 E0.024
G1 X143.196 Y117.969 E0.023
G1 X142.5 Y118.004 E0.023
G1 X141.804 Y117.969 E0.023
G1 X141.111 Y117.865 E0.024
G1 X140.435 Y117.692 E0.023
G1 X139.78 Y117.454 E0.023
G1 X139.149 Y117.15 E0.023
G1 X138.554 Y116.786 E0.024
G1 X137.998 Y116.365 E0.023
G1 X137.487 Y115.89 E0.023
G1 X137.025 Y115.367 E0.023
G1 X136.618 Y114.802 E0.023
G1 X136.268 Y114.197 E0.024
G1 X135.999 Y113.602 E0.021
G1 X135.733 Y114.194 E0.022
G1 X135.383 Y114.799 E0.023
G1 X134.975 Y115.367 E0.023
G1 X134.513 Y115.89 E0.024
G1 X134.002 Y116.365 E0.023
G1 X133.446 Y116.786 E0.023
G1 X132.85 Y117.15 E0.023
G1 X132.22 Y117.454 E0.023
G1 X131.565 Y117.692 E0.024
G1 X130.889 Y117.865 E0.023
G1 X130.196 Y117.969 E0.023
G1 X129.5 Y118.004 E0.023
G1 X128.804 Y117.969 E0.024
G1 X128.111 Y117.865 E0.023
G1 X127.435 Y117.692 E0.023
G1 X126.78 Y117.454 E0.023
G1 X126.15 Y117.15 E0.023
G1 X125.554 Y116.786 E0.024
G1 X124.998 Y116.365 E0.023
G1 X124.487 Y115.89 E0.023
G1 X124 Y115.333 E0.025
G1 X123.513 Y115.89 E0.024
G1 X123.002 Y116.365 E0.024
G1 X122.446 Y116.786 E0.023
G1 X121.851 Y117.15 E0.023
G1 X121.22 Y117.454 E0.023
G1 X120.565 Y117.692 E0.023
G1 X119.889 Y117.865 E0.024
G1 X119.196 Y117.969 E0.023
G1 X118.5 Y118.004 E0.023
G1 X117.804 Y117.969 E0.023
G1 X117.111 Y117.865 E0.024
G1 X116.435 Y117.692 E0.023
G1 X115.78 Y117.454 E0.023
G1 X115.15 Y117.15 E0.023
G1 X114.554 Y116.786 E0.023
G1 X113.998 Y116.365 E0.024
G1 X113.487 Y115.89 E0.023
G1 X113 Y115.333 E0.025
G1 X112.513 Y115.89 E0.024
G1 X112.002 Y116.365 E0.023
G1 X111.446 Y116.786 E0.024
G1 X110.851 Y117.15 E0.023
G1 X110.22 Y117.454 E0.023
G1 X109.565 Y117.692 E0.023
G1 X108.889 Y117.865 E0.023
G1 X108.196 Y117.969 E0.024
G1 X107.5 Y118.004 E0.023
G1 X106.804 Y117.969 E0.023
G1 X106.111 Y117.865 E0.023
G1 X105.435 Y117.692 E0.024
G1 X104.78 Y117.454 E0.023
G1 X104.15 Y117.15 E0.023
G1 X103.554 Y116.786 E0.023
G1 X102.998 Y116.365 E0.023
G1 X102.487 Y115.89 E0.024
G1 X102.025 Y115.367 E0.023
G1 X101.617 Y114.799 E0.023
G1 X101.269 Y114.197 E0.023
G1 X100.981 Y113.561 E0.024
G1 X100.757 Y112.895 E0.023
G1 X100.603 Y112.216 E0.023
G1 X100.516 Y111.525 E0.023
G1 X100.498 Y110.824 E0.023
G1 X100.551 Y110.13 E0.024
G1 X100.671 Y109.443 E0.023
G1 X100.861 Y108.768 E0.023
G1 X101.117 Y108.118 E0.023
G1 X101.434 Y107.499 E0.024
G1 X101.813 Y106.912 E0.023
G1 X102.248 Y106.367 E0.023
G1 X102.738 Y105.865 E0.023
G1 X103.271 Y105.416 E0.023
G1 X103.898 Y104.997 E0.026
G1 X103.554 Y104.786 E0.013
G1 X102.998 Y104.365 E0.023
G1 X102.487 Y103.89 E0.023
G1 X102.025 Y103.367 E0.024
G1 X101.617 Y102.799 E0.023
G1 X101.269 Y102.197 E0.023
G1 X100.981 Y101.561 E0.023
G1 X100.757 Y100.895 E0.024
G1 X100.603 Y100.216 E0.023
G1 X100.516 Y99.525 E0.023
G1 X100.498 Y98.824 E0.023
G1 X100.551 Y98.13 E0.023
G1 X100.671 Y97.443 E0.024
G1 X100.861 Y96.768 E0.023
G1 X101.117 Y96.118 E0.023
G1 X101.434 Y95.499 E0.023
G1 X101.813 Y94.912 E0.024
G1 X102.248 Y94.367 E0.023
G1 X102.493 Y94.115 E0.011
G1 X102.738 Y93.865 E0.012
G1 X103.272 Y93.416 E0.023
G1 X103.848 Y93.024 E0.023
G1 X104.46 Y92.69 E0.024
G1 X105.107 Y92.418 E0.023
G1 X105.774 Y92.213 E0.023
G1 X106.455 Y92.075 E0.023
G1 X107.15 Y92.005 E0.024
G1 X107.85 E0.023
G1 X108.545 Y92.075 E0.023
G1 X109.226 Y92.213 E0.023
G1 X109.893 Y92.418 E0.023
G1 X110.54 Y92.69 E0.024
G1 X111.152 Y93.024 E0.023
G1 X111.729 Y93.416 E0.023
G1 X112.265 Y93.867 E0.023
G1 X112.751 Y94.365 E0.024
G1 X113 Y94.677 E0.013
G1 X113.248 Y94.367 E0.013
G1 X113.737 Y93.865 E0.023
G1 X114.272 Y93.416 E0.024
G1 X114.848 Y93.024 E0.023
G1 X115.46 Y92.69 E0.023
G1 X116.107 Y92.418 E0.023
G1 X116.774 Y92.213 E0.023
G1 X117.455 Y92.075 E0.024
G1 X118.15 Y92.005 E0.023
G1 X118.85 E0.023
;rapid-leaky
G0 X118.83 Y92.405 F7200
;bead-skirt/brim
G1 X119.485 Y92.471 F960 E0.022
G1 X120.128 Y92.601 E0.022
G1 X120.756 Y92.794 E0.022
G1 X121.366 Y93.051 E0.022
G1 X121.944 Y93.366 E0.022
G1 X122.487 Y93.736 E0.021
G1 X122.992 Y94.16 E0.022
G1 X123.451 Y94.63 E0.022
G1 X123.862 Y95.146 E0.022
G1 X124 Y95.36 E0.009
G1 X124.138 Y95.146 E0.008
G1 X124.548 Y94.632 E0.022
G1 X125.01 Y94.159 E0.022
G1 X125.513 Y93.736 E0.022
G1 X126.056 Y93.366 E0.022
G1 X126.634 Y93.051 E0.022
G1 X127.244 Y92.794 E0.022
G1 X127.872 Y92.601 E0.021
G1 X128.515 Y92.471 E0.022
G1 X129.17 Y92.405 E0.022
G1 X129.83 E0.022
G1 X130.485 Y92.471 E0.022
G1 X131.128 Y92.601 E0.022
G1 X131.756 Y92.794 E0.022
G1 X132.366 Y93.051 E0.022
G1 X132.944 Y93.366 E0.022
G1 X133.487 Y93.736 E0.021
G1 X133.992 Y94.16 E0.022
G1 X134.45 Y94.63 E0.022
G1 X134.862 Y95.146 E0.022
G1 X135.219 Y95.699 E0.022
G1 X135.518 Y96.283 E0.022
G1 X135.759 Y96.896 E0.022
G1 X135.938 Y97.532 E0.022
G1 X136 Y97.883 E0.012
G1 X136.062 Y97.532 E0.011
G1 X136.241 Y96.896 E0.022
G1 X136.482 Y96.283 E0.022
G1 X136.781 Y95.699 E0.022
G1 X137.138 Y95.146 E0.022
G1 X137.548 Y94.632 E0.022
G1 X137.78 Y94.393 E0.011
G1 X138.01 Y94.159 E0.011
G1 X138.513 Y93.736 E0.022
G1 X139.056 Y93.366 E0.022
G1 X139.634 Y93.051 E0.022
G1 X140.244 Y92.794 E0.022
G1 X140.872 Y92.601 E0.021
G1 X141.515 Y92.471 E0.022
G1 X142.17 Y92.405 E0.022
G1 X142.83 E0.022
G1 X143.485 Y92.471 E0.022
G1 X144.128 Y92.601 E0.022
G1 X144.756 Y92.794 E0.022
G1 X145.366 Y93.051 E0.022
G1 X145.944 Y93.366 E0.022
G1 X146.487 Y93.736 E0.021
G1 X146.992 Y94.16 E0.022
G1 X147.451 Y94.63 E0.022
G1 X147.862 Y95.146 E0.022
G1 X148.219 Y95.699 E0.022
G1 X148.518 Y96.283 E0.022
G1 X148.759 Y96.896 E0.022
G1 X148.938 Y97.532 E0.022
G1 X149.052 Y98.179 E0.022
G1 X149.101 Y98.835 E0.021
G1 X149.085 Y99.495 E0.022
G1 X149.002 Y100.15 E0.022
G1 X148.855 Y100.789 E0.022
G1 X148.647 Y101.411 E0.022
G1 X148.376 Y102.012 E0.022
G1 X148.047 Y102.582 E0.022
G1 X147.662 Y103.117 E0.022
G1 X147.226 Y103.611 E0.022
G1 X146.745 Y104.058 E0.022
G1 X146.22 Y104.455 E0.021
G1 X145.659 Y104.799 E0.022
G1 X145.243 Y104.999 E0.016
G1 X145.366 Y105.051 E0.004
G1 X145.944 Y105.366 E0.022
G1 X146.487 Y105.736 E0.022
G1 X146.992 Y106.16 E0.022
G1 X147.451 Y106.63 E0.022
G1 X147.862 Y107.146 E0.022
G1 X148.219 Y107.699 E0.021
G1 X148.518 Y108.283 E0.022
G1 X148.759 Y108.896 E0.022
G1 X148.938 Y109.532 E0.022
G1 X149.052 Y110.179 E0.022
G1 X149.101 Y110.835 E0.022
G1 X149.085 Y111.495 E0.022
G1 X149.002 Y112.15 E0.022
G1 X148.855 Y112.789 E0.022
G1 X148.647 Y113.411 E0.021
G1 X148.376 Y114.012 E0.022
G1 X148.047 Y114.582 E0.022
G1 X147.662 Y115.117 E0.022
G1 X147.226 Y115.611 E0.022
G1 X146.745 Y116.058 E0.022
G1 X146.22 Y116.455 E0.022
G1 X145.659 Y116.799 E0.022
G1 X145.064 Y117.085 E0.022
G1 X144.447 Y117.309 E0.021
G1 X143.809 Y117.473 E0.022
G1 X143.156 Y117.57 E0.022
G1 X142.5 Y117.603 E0.022
G1 X141.844 Y117.57 E0.022
G1 X141.191 Y117.473 E0.022
G1 X140.553 Y117.309 E0.022
G1 X139.936 Y117.085 E0.022
G1 X139.341 Y116.799 E0.022
G1 X138.78 Y116.455 E0.022
G1 X138.255 Y116.058 E0.021
G1 X137.774 Y115.611 E0.022
G1 X137.338 Y115.118 E0.022
G1 X136.955 Y114.584 E0.022
G1 X136.624 Y114.014 E0.022
G1 X136.351 Y113.409 E0.022
G1 X136.144 Y112.786 E0.022
G1 X136 Y112.159 E0.021
G1 X135.855 Y112.789 E0.022
G1 X135.647 Y113.411 E0.022
G1 X135.376 Y114.012 E0.021
G1 X135.047 Y114.582 E0.022
G1 X134.662 Y115.117 E0.022
G1 X134.226 Y115.611 E0.022
G1 X133.745 Y116.058 E0.022
G1 X133.22 Y116.455 E0.022
G1 X132.659 Y116.799 E0.022
G1 X132.064 Y117.085 E0.022
G1 X131.447 Y117.309 E0.022
G1 X130.809 Y117.473 E0.022
G1 X130.156 Y117.57 E0.022
G1 X129.5 Y117.603 E0.021
G1 X128.844 Y117.57 E0.022
G1 X128.191 Y117.473 E0.022
G1 X127.553 Y117.309 E0.022
G1 X126.936 Y117.085 E0.022
G1 X126.341 Y116.799 E0.022
G1 X125.78 Y116.455 E0.022
G1 X125.255 Y116.058 E0.022
G1 X124.774 Y115.611 E0.021
G1 X124.338 Y115.117 E0.022
G1 X124 Y114.647 E0.02
G1 X123.662 Y115.117 E0.019
G1 X123.226 Y115.611 E0.022
G1 X122.745 Y116.058 E0.022
G1 X122.22 Y116.455 E0.022
G1 X121.659 Y116.799 E0.021
G1 X121.064 Y117.085 E0.022
G1 X120.447 Y117.309 E0.022
G1 X119.809 Y117.473 E0.022
G1 X119.156 Y117.57 E0.022
G1 X118.5 Y117.603 E0.022
G1 X117.844 Y117.57 E0.022
G1 X117.191 Y117.473 E0.022
G1 X116.553 Y117.309 E0.022
G1 X115.936 Y117.085 E0.021
G1 X115.341 Y116.799 E0.022
G1 X114.78 Y116.455 E0.022
G1 X114.255 Y116.058 E0.022
G1 X113.774 Y115.611 E0.022
G1 X113.338 Y115.117 E0.022
G1 X113 Y114.647 E0.019
G1 X112.662 Y115.117 E0.019
G1 X112.226 Y115.611 E0.022
G1 X111.745 Y116.058 E0.022
G1 X111.22 Y116.455 E0.022
G1 X110.659 Y116.799 E0.022
G1 X110.064 Y117.085 E0.022
G1 X109.447 Y117.309 E0.022
G1 X108.809 Y117.473 E0.022
G1 X108.156 Y117.57 E0.022
G1 X107.5 Y117.603 E0.021
G1 X106.844 Y117.57 E0.022
G1 X106.191 Y117.473 E0.022
G1 X105.553 Y117.309 E0.022
G1 X104.936 Y117.085 E0.022
G1 X104.341 Y116.799 E0.022
G1 X103.78 Y116.455 E0.022
G1 X103.255 Y116.058 E0.022
G1 X102.774 Y115.611 E0.022
G1 X102.338 Y115.117 E0.022
G1 X101.953 Y114.582 E0.021
G1 X101.625 Y114.014 E0.022
G1 X101.353 Y113.414 E0.022
G1 X101.143 Y112.786 E0.022
G1 X100.997 Y112.146 E0.022
G1 X100.915 Y111.495 E0.022
G1 X100.899 Y110.835 E0.022
G1 X100.948 Y110.179 E0.022
G1 X101.062 Y109.532 E0.022
G1 X101.241 Y108.896 E0.022
G1 X101.482 Y108.283 E0.021
G1 X101.781 Y107.699 E0.022
G1 X102.138 Y107.146 E0.022
G1 X102.548 Y106.632 E0.022
G1 X103.01 Y106.159 E0.022
G1 X103.513 Y105.736 E0.022
G1 X104.056 Y105.366 E0.022
G1 X104.634 Y105.051 E0.022
G1 X104.757 Y104.999 E0.004
G1 X104.341 Y104.799 E0.015
G1 X103.78 Y104.455 E0.022
G1 X103.255 Y104.058 E0.022
G1 X102.774 Y103.611 E0.022
G1 X102.338 Y103.117 E0.022
G1 X101.953 Y102.582 E0.022
G1 X101.625 Y102.014 E0.022
G1 X101.353 Y101.414 E0.022
G1 X101.143 Y100.786 E0.022
G1 X100.997 Y100.146 E0.021
G1 X100.915 Y99.495 E0.022
G1 X100.899 Y98.835 E0.022
G1 X100.948 Y98.179 E0.022
G1 X101.062 Y97.532 E0.022
G1 X101.241 Y96.896 E0.022
G1 X101.482 Y96.283 E0.022
G1 X101.781 Y95.699 E0.022
G1 X102.138 Y95.146 E0.022
G1 X102.548 Y94.632 E0.021
G1 X103.01 Y94.159 E0.022
G1 X103.513 Y93.736 E0.022
G1 X104.056 Y93.366 E0.022
G1 X104.634 Y93.051 E0.022
G1 X105.244 Y92.794 E0.022
G1 X105.872 Y92.601 E0.022
G1 X106.515 Y92.471 E0.022
G1 X107.17 Y92.405 E0.022
G1 X107.83 E0.022
G1 X108.485 Y92.471 E0.021
G1 X109.128 Y92.601 E0.022
G1 X109.757 Y92.794 E0.022
G1 X110.366 Y93.051 E0.022
G1 X110.944 Y93.366 E0.022
G1 X111.487 Y93.736 E0.022
G1 X111.992 Y94.16 E0.022
G1 X112.451 Y94.63 E0.022
G1 X112.862 Y95.146 E0.022
G1 X113 Y95.36 E0.008
G1 X113.138 Y95.146 E0.009
G1 X113.548 Y94.632 E0.021
G1 X114.01 Y94.159 E0.022
G1 X114.513 Y93.736 E0.022
G1 X115.056 Y93.366 E0.022
G1 X115.634 Y93.051 E0.022
G1 X116.244 Y92.794 E0.022
G1 X116.872 Y92.601 E0.022
G1 X117.515 Y92.471 E0.022
G1 X118.17 Y92.405 E0.022
G1 X118.83 E0.022
;rapid-leaky
G0 X118.81 Y92.805 F7200
;bead-skirt/brim
G1 X119.425 Y92.867 F960 E0.02
G1 X120.029 Y92.989 E0.021
G1 X120.62 Y93.17 E0.02
G1 X121.192 Y93.412 E0.021
G1 X121.735 Y93.708 E0.02
G1 X122.245 Y94.055 E0.021
G1 X122.72 Y94.454 E0.02
G1 X123.15 Y94.895 E0.021
G1 X123.537 Y95.38 E0.021
G1 X123.872 Y95.899 E0.02
G1 X124 Y96.149 E0.01
G1 X124.128 Y95.899 E0.009
G1 X124.463 Y95.379 E0.02
G1 X124.849 Y94.897 E0.021
G1 X125.282 Y94.452 E0.021
G1 X125.755 Y94.055 E0.02
G1 X126.265 Y93.708 E0.021
G1 X126.808 Y93.412 E0.02
G1 X127.38 Y93.17 E0.021
G1 X127.971 Y92.989 E0.02
G1 X128.575 Y92.867 E0.021
G1 X129.19 Y92.805 E0.021
G1 X129.81 E0.02
G1 X130.425 Y92.867 E0.021
G1 X131.029 Y92.989 E0.02
G1 X131.62 Y93.17 E0.021
G1 X132.192 Y93.412 E0.02
G1 X132.735 Y93.708 E0.021
G1 X133.245 Y94.055 E0.02
G1 X133.72 Y94.454 E0.021
G1 X134.15 Y94.895 E0.021
G1 X134.537 Y95.38 E0.02
G1 X134.872 Y95.899 E0.021
G1 X135.153 Y96.448 E0.02
G1 X135.38 Y97.024 E0.021
G1 X135.548 Y97.621 E0.021
G1 X135.655 Y98.229 E0.02
G1 X135.701 Y98.845 E0.021
G1 X135.686 Y99.465 E0.02
G1 X135.608 Y100.08 E0.021
G1 X135.47 Y100.681 E0.02
G1 X135.274 Y101.265 E0.021
G1 X135.02 Y101.829 E0.02
G1 X134.711 Y102.365 E0.021
G1 X134.349 Y102.868 E0.021
G1 X133.94 Y103.331 E0.02
G1 X133.487 Y103.751 E0.021
G1 X132.995 Y104.125 E0.02
G1 X132.467 Y104.447 E0.021
G1 X131.909 Y104.716 E0.02
G1 X131.329 Y104.927 E0.021
G1 X131.055 Y104.997 E0.009
G1 X131.62 Y105.17 E0.02
G1 X132.192 Y105.412 E0.021
G1 X132.735 Y105.708 E0.02
G1 X133.245 Y106.055 E0.021
G1 X133.72 Y106.454 E0.02
G1 X134.15 Y106.895 E0.021
G1 X134.537 Y107.38 E0.021
G1 X134.872 Y107.899 E0.02
G1 X135.153 Y108.448 E0.021
G1 X135.38 Y109.024 E0.02
G1 X135.548 Y109.621 E0.021
G1 X135.655 Y110.229 E0.02
G1 X135.701 Y110.845 E0.021
G1 X135.686 Y111.465 E0.021
G1 X135.608 Y112.08 E0.02
G1 X135.47 Y112.681 E0.021
G1 X135.274 Y113.265 E0.02
G1 X135.02 Y113.829 E0.021
G1 X134.711 Y114.365 E0.02
G1 X134.349 Y114.868 E0.021
G1 X133.94 Y115.331 E0.02
G1 X133.487 Y115.751 E0.021
G1 X132.995 Y116.124 E0.021
G1 X132.467 Y116.447 E0.02
G1 X131.909 Y116.716 E0.021
G1 X131.329 Y116.927 E0.02
G1 X130.73 Y117.08 E0.021
G1 X130.116 Y117.172 E0.02
G1 X129.5 Y117.203 E0.021
G1 X128.884 Y117.172 E0.02
G1 X128.27 Y117.08 E0.021
G1 X127.671 Y116.927 E0.021
G1 X127.091 Y116.716 E0.02
G1 X126.533 Y116.447 E0.021
G1 X126.005 Y116.125 E0.02
G1 X125.513 Y115.751 E0.021
G1 X125.06 Y115.331 E0.02
G1 X124.651 Y114.868 E0.021
G1 X124.289 Y114.365 E0.021
G1 X124 Y113.863 E0.019
G1 X123.711 Y114.365 E0.019
G1 X123.349 Y114.868 E0.021
G1 X122.94 Y115.331 E0.02
G1 X122.487 Y115.751 E0.021
G1 X121.995 Y116.124 E0.02
G1 X121.467 Y116.447 E0.021
G1 X120.909 Y116.716 E0.021
G1 X120.329 Y116.927 E0.02
G1 X119.73 Y117.08 E0.021
G1 X119.116 Y117.172 E0.02
G1 X118.5 Y117.203 E0.021
G1 X117.884 Y117.172 E0.02
G1 X117.27 Y117.08 E0.021
G1 X116.671 Y116.927 E0.021
G1 X116.091 Y116.716 E0.02
G1 X115.533 Y116.447 E0.021
G1 X115.005 Y116.125 E0.02
G1 X114.513 Y115.751 E0.021
G1 X114.06 Y115.331 E0.02
G1 X113.651 Y114.868 E0.021
G1 X113.289 Y114.365 E0.021
G1 X113 Y113.863 E0.019
G1 X112.711 Y114.365 E0.019
G1 X112.349 Y114.868 E0.021
G1 X111.94 Y115.331 E0.02
G1 X111.487 Y115.751 E0.021
G1 X110.995 Y116.124 E0.02
G1 X110.467 Y116.447 E0.021
G1 X109.909 Y116.716 E0.021
G1 X109.329 Y116.927 E0.02
G1 X108.73 Y117.08 E0.021
G1 X108.116 Y117.172 E0.02
G1 X107.5 Y117.203 E0.021
G1 X106.884 Y117.172 E0.02
G1 X106.27 Y117.08 E0.021
G1 X105.671 Y116.927 E0.02
G1 X105.091 Y116.716 E0.021
G1 X104.533 Y116.447 E0.021
G1 X104.006 Y116.125 E0.02
G1 X103.513 Y115.751 E0.021
G1 X103.06 Y115.331 E0.02
G1 X102.651 Y114.868 E0.021
G1 X102.289 Y114.365 E0.02
G1 X101.982 Y113.831 E0.021
G1 X101.726 Y113.268 E0.021
G1 X101.528 Y112.678 E0.02
G1 X101.392 Y112.077 E0.021
G1 X101.314 Y111.465 E0.02
G1 X101.299 Y110.845 E0.021
G1 X101.345 Y110.229 E0.02
G1 X101.452 Y109.621 E0.021
G1 X101.62 Y109.024 E0.021
G1 X101.847 Y108.448 E0.02
G1 X102.128 Y107.899 E0.021
G1 X102.463 Y107.38 E0.02
G1 X102.849 Y106.897 E0.021
G1 X103.282 Y106.452 E0.02
G1 X103.755 Y106.055 E0.021
G1 X104.265 Y105.708 E0.02
G1 X104.808 Y105.412 E0.021
G1 X105.38 Y105.17 E0.021
G1 X105.945 Y104.997 E0.019
G1 X105.671 Y104.927 E0.01
G1 X105.091 Y104.716 E0.02
G1 X104.533 Y104.447 E0.021
G1 X104.005 Y104.125 E0.02
G1 X103.513 Y103.751 E0.021
G1 X103.06 Y103.331 E0.021
G1 X102.651 Y102.868 E0.02
G1 X102.289 Y102.365 E0.021
G1 X101.982 Y101.831 E0.02
G1 X101.726 Y101.268 E0.021
G1 X101.528 Y100.678 E0.02
G1 X101.392 Y100.077 E0.021
G1 X101.314 Y99.465 E0.021
G1 X101.299 Y98.845 E0.02
G1 X101.345 Y98.229 E0.021
G1 X101.452 Y97.621 E0.02
G1 X101.62 Y97.024 E0.021
G1 X101.847 Y96.448 E0.02
G1 X102.128 Y95.899 E0.021
G1 X102.463 Y95.379 E0.021
G1 X102.849 Y94.897 E0.02
G1 X103.282 Y94.452 E0.021
G1 X103.755 Y94.055 E0.02
G1 X104.265 Y93.708 E0.021
G1 X104.808 Y93.412 E0.02
G1 X105.38 Y93.17 E0.021
G1 X105.971 Y92.989 E0.021
G1 X106.575 Y92.867 E0.02
G1 X107.19 Y92.805 E0.021
G1 X107.81 E0.02
G1 X108.425 Y92.867 E0.021
G1 X109.029 Y92.989 E0.02
G1 X109.62 Y93.17 E0.021
G1 X110.192 Y93.412 E0.02
G1 X110.735 Y93.708 E0.021
G1 X111.245 Y94.055 E0.021
G1 X111.72 Y94.454 E0.02
G1 X112.15 Y94.895 E0.021
G1 X112.537 Y95.38 E0.02
G1 X112.872 Y95.899 E0.021
G1 X113 Y96.149 E0.009
G1 X113.128 Y95.899 E0.01
G1 X113.463 Y95.38 E0.02
G1 X113.849 Y94.897 E0.021
G1 X114.282 Y94.452 E0.02
G1 X114.755 Y94.055 E0.021
G1 X115.265 Y93.708 E0.02
G1 X115.808 Y93.412 E0.021
G1 X116.38 Y93.17 E0.021
G1 X116.971 Y92.989 E0.02
G1 X117.575 Y92.867 E0.021
G1 X118.19 Y92.805 E0.02
G1 X118.81 E0.021
;rapid-leaky
G0 X118.79 Y93.205 F7200
;bead-skirt/brim
G1 X119.365 Y93.263 F960 E0.019
G1 X119.93 Y93.377 E0.019
G1 X120.483 Y93.547 E0.019
G1 X121.019 Y93.772 E0.02
G1 X121.526 Y94.049 E0.019
G1 X122.003 Y94.374 E0.019
G1 X122.447 Y94.747 E0.02
G1 X122.85 Y95.16 E0.019
G1 X123.212 Y95.613 E0.019
G1 X123.525 Y96.1 E0.019
G1 X123.788 Y96.613 E0.019
G1 X124 Y97.151 E0.02
G1 X124.212 Y96.613 E0.019
G1 X124.475 Y96.1 E0.019
G1 X124.788 Y95.613 E0.019
G1 X125.149 Y95.161 E0.02
G1 X125.554 Y94.746 E0.019
G1 X125.997 Y94.374 E0.019
G1 X126.474 Y94.049 E0.019
G1 X126.981 Y93.772 E0.019
G1 X127.517 Y93.547 E0.02
G1 X128.069 Y93.377 E0.019
G1 X128.635 Y93.263 E0.019
G1 X129.211 Y93.205 E0.019
G1 X129.79 E0.02
G1 X130.365 Y93.263 E0.019
G1 X130.93 Y93.377 E0.019
G1 X131.483 Y93.547 E0.019
G1 X132.018 Y93.772 E0.02
G1 X132.526 Y94.049 E0.019
G1 X133.003 Y94.374 E0.019
G1 X133.447 Y94.747 E0.019
G1 X133.85 Y95.16 E0.02
G1 X134.212 Y95.613 E0.019
G1 X134.525 Y96.1 E0.019
G1 X134.788 Y96.613 E0.019
G1 X135 Y97.151 E0.02
G1 X135.157 Y97.71 E0.019
G1 X135.257 Y98.279 E0.019
G1 X135.301 Y98.855 E0.019
G1 X135.286 Y99.435 E0.02
G1 X135.214 Y100.01 E0.019
G1 X135.085 Y100.572 E0.019
G1 X134.901 Y101.119 E0.019
G1 X134.663 Y101.646 E0.019
G1 X134.374 Y102.148 E0.02
G1 X134.036 Y102.618 E0.019
G1 X133.653 Y103.051 E0.019
G1 X133.23 Y103.444 E0.019
G1 X132.769 Y103.794 E0.02
G1 X132.275 Y104.095 E0.019
G1 X131.753 Y104.347 E0.019
G1 X131.211 Y104.544 E0.019
G1 X130.651 Y104.688 E0.02
G1 X130.077 Y104.773 E0.019
G1 X129.5 Y104.802 E0.019
G1 X128.923 Y104.773 E0.019
G1 X128.349 Y104.688 E0.02
G1 X127.789 Y104.544 E0.019
G1 X127.247 Y104.347 E0.019
G1 X126.725 Y104.095 E0.019
G1 X126.231 Y103.794 E0.02
G1 X125.77 Y103.444 E0.019
G1 X125.347 Y103.051 E0.019
G1 X124.964 Y102.618 E0.019
G1 X124.626 Y102.148 E0.02
G1 X124.338 Y101.648 E0.019
G1 X124.099 Y101.121 E0.019
G1 X124 Y100.825 E0.01
G1 X123.901 Y101.119 E0.011
G1 X123.663 Y101.646 E0.019
G1 X123.374 Y102.148 E0.019
G1 X123.036 Y102.618 E0.019
G1 X122.653 Y103.052 E0.02
G1 X122.23 Y103.444 E0.019
G1 X121.769 Y103.794 E0.019
G1 X121.276 Y104.095 E0.019
G1 X120.753 Y104.347 E0.02
G1 X120.211 Y104.544 E0.019
G1 X119.651 Y104.688 E0.019
G1 X119.077 Y104.773 E0.019
G1 X118.5 Y104.802 E0.02
G1 X117.923 Y104.773 E0.019
G1 X117.35 Y104.688 E0.019
G1 X116.789 Y104.544 E0.019
G1 X116.247 Y104.347 E0.019
G1 X115.725 Y104.095 E0.02
G1 X115.231 Y103.794 E0.019
G1 X114.77 Y103.444 E0.019
G1 X114.347 Y103.051 E0.019
G1 X113.964 Y102.618 E0.02
G1 X113.626 Y102.148 E0.019
G1 X113.338 Y101.648 E0.019
G1 X113.099 Y101.121 E0.019
G1 X113 Y100.825 E0.011
G1 X112.901 Y101.119 E0.01
G1 X112.663 Y101.646 E0.019
G1 X112.374 Y102.148 E0.019
G1 X112.036 Y102.618 E0.02
G1 X111.653 Y103.052 E0.019
G1 X111.23 Y103.444 E0.019
G1 X110.769 Y103.794 E0.019
G1 X110.275 Y104.095 E0.02
G1 X109.753 Y104.347 E0.019
G1 X109.211 Y104.544 E0.019
G1 X108.651 Y104.688 E0.019
G1 X108.077 Y104.773 E0.02
G1 X107.5 Y104.802 E0.019
G1 X106.923 Y104.773 E0.019
G1 X106.35 Y104.688 E0.019
G1 X105.789 Y104.544 E0.02
G1 X105.247 Y104.347 E0.019
G1 X104.725 Y104.095 E0.019
G1 X104.231 Y103.794 E0.019
G1 X103.77 Y103.444 E0.02
G1 X103.347 Y103.051 E0.019
G1 X102.964 Y102.618 E0.019
G1 X102.626 Y102.148 E0.019
G1 X102.338 Y101.648 E0.019
G1 X102.099 Y101.121 E0.02
G1 X101.914 Y100.57 E0.019
G1 X101.786 Y100.008 E0.019
G1 X101.714 Y99.435 E0.019
G1 X101.699 Y98.855 E0.02
G1 X101.743 Y98.279 E0.019
G1 X101.843 Y97.71 E0.019
G1 X102 Y97.151 E0.019
G1 X102.212 Y96.613 E0.02
G1 X102.475 Y96.1 E0.019
G1 X102.788 Y95.613 E0.019
G1 X103.149 Y95.161 E0.019
G1 X103.554 Y94.746 E0.02
G1 X103.997 Y94.374 E0.019
G1 X104.474 Y94.049 E0.019
G1 X104.981 Y93.772 E0.019
G1 X105.517 Y93.547 E0.02
G1 X106.07 Y93.377 E0.019
G1 X106.635 Y93.263 E0.019
G1 X107.21 Y93.205 E0.019
G1 X107.79 E0.02
G1 X108.365 Y93.263 E0.019
G1 X108.93 Y93.377 E0.019
G1 X109.483 Y93.547 E0.019
G1 X110.019 Y93.772 E0.02
G1 X110.526 Y94.049 E0.019
G1 X111.003 Y94.374 E0.019
G1 X111.447 Y94.747 E0.019
G1 X111.85 Y95.16 E0.019
G1 X112.212 Y95.613 E0.02
G1 X112.525 Y96.1 E0.019
G1 X112.788 Y96.613 E0.019
G1 X113 Y97.151 E0.019
G1 X113.212 Y96.613 E0.02
G1 X113.475 Y96.1 E0.019
G1 X113.788 Y95.613 E0.019
G1 X114.149 Y95.161 E0.019
G1 X114.353 Y94.952 E0.01
G1 X114.554 Y94.746 E0.01
G1 X114.997 Y94.374 E0.019
G1 X115.474 Y94.049 E0.019
G1 X115.981 Y93.772 E0.019
G1 X116.517 Y93.547 E0.02
G1 X117.07 Y93.377 E0.019
G1 X117.635 Y93.263 E0.019
G1 X118.21 Y93.205 E0.019
G1 X118.79 E0.019
;rapid-leaky
G0 X118.769 Y93.605 F7200
;bead-skirt/brim
G1 X119.305 Y93.659 F960 E0.018
G1 X119.832 Y93.765 E0.018
G1 X120.346 Y93.923 E0.018
G1 X120.845 Y94.133 E0.018
G1 X121.317 Y94.391 E0.018
G1 X121.761 Y94.694 E0.018
G1 X122.175 Y95.041 E0.018
G1 X122.55 Y95.425 E0.018
G1 X122.886 Y95.847 E0.018
G1 X123.178 Y96.3 E0.018
G1 X123.423 Y96.778 E0.017
G1 X123.621 Y97.279 E0.018
G1 X123.767 Y97.799 E0.018
G1 X123.86 Y98.329 E0.018
G1 X123.9 Y98.865 E0.018
G1 X123.887 Y99.404 E0.018
G1 X123.819 Y99.94 E0.018
G1 X123.699 Y100.463 E0.018
G1 X123.528 Y100.973 E0.018
G1 X123.307 Y101.464 E0.018
G1 X123.038 Y101.93 E0.018
G1 X122.723 Y102.368 E0.017
G1 X122.366 Y102.772 E0.018
G1 X121.972 Y103.138 E0.018
G1 X121.543 Y103.463 E0.018
G1 X121.084 Y103.744 E0.018
G1 X120.598 Y103.978 E0.018
G1 X120.093 Y104.161 E0.018
G1 X119.571 Y104.295 E0.018
G1 X119.037 Y104.375 E0.018
G1 X118.5 Y104.402 E0.018
G1 X117.963 Y104.375 E0.018
G1 X117.429 Y104.295 E0.018
G1 X116.907 Y104.161 E0.017
G1 X116.402 Y103.978 E0.018
G1 X115.916 Y103.744 E0.018
G1 X115.457 Y103.463 E0.018
G1 X115.028 Y103.138 E0.018
G1 X114.634 Y102.772 E0.018
G1 X114.277 Y102.368 E0.018
G1 X113.962 Y101.93 E0.018
G1 X113.694 Y101.465 E0.018
G1 X113.472 Y100.974 E0.018
G1 X113.299 Y100.462 E0.018
G1 X113.181 Y99.938 E0.017
G1 X113.113 Y99.404 E0.018
G1 X113.1 Y98.865 E0.018
G1 X113.14 Y98.329 E0.018
G1 X113.233 Y97.799 E0.018
G1 X113.379 Y97.279 E0.018
G1 X113.577 Y96.778 E0.018
G1 X113.822 Y96.3 E0.018
G1 X114.114 Y95.847 E0.018
G1 X114.449 Y95.426 E0.018
G1 X114.639 Y95.231 E0.009
G1 X114.826 Y95.04 E0.009
G1 X115.239 Y94.694 E0.017
G1 X115.683 Y94.391 E0.018
G1 X116.155 Y94.133 E0.018
G1 X116.654 Y93.923 E0.018
G1 X117.168 Y93.765 E0.018
G1 X117.695 Y93.659 E0.018
G1 X118.231 Y93.605 E0.018
G1 X118.769 E0.018
;rapid-leaky
G0 X118.749 Y94.005 F7200
;bead-skirt/brim
G1 X119.246 Y94.055 F960 E0.016
G1 X119.733 Y94.154 E0.017
G1 X120.21 Y94.3 E0.017
G1 X120.671 Y94.494 E0.016
G1 X121.108 Y94.733 E0.017
G1 X121.52 Y95.013 E0.016
G1 X121.902 Y95.334 E0.017
G1 X122.25 Y95.69 E0.016
G1 X122.561 Y96.081 E0.017
G1 X122.831 Y96.5 E0.017
G1 X123.058 Y96.943 E0.016
G1 X123.241 Y97.407 E0.017
G1 X123.376 Y97.888 E0.016
G1 X123.462 Y98.379 E0.017
G1 X123.5 Y98.875 E0.017
G1 X123.487 Y99.374 E0.016
G1 X123.425 Y99.87 E0.017
G1 X123.314 Y100.355 E0.016
G1 X123.155 Y100.827 E0.017
G1 X122.95 Y101.281 E0.016
G1 X122.701 Y101.713 E0.017
G1 X122.41 Y102.118 E0.017
G1 X122.08 Y102.492 E0.016
G1 X121.715 Y102.831 E0.017
G1 X121.317 Y103.132 E0.016
G1 X120.892 Y103.392 E0.017
G1 X120.443 Y103.609 E0.017
G1 X119.974 Y103.779 E0.016
G1 X119.492 Y103.902 E0.017
G1 X118.997 Y103.976 E0.016
G1 X118.5 Y104.001 E0.017
G1 X118.003 Y103.976 E0.016
G1 X117.508 Y103.902 E0.017
G1 X117.026 Y103.779 E0.017
G1 X116.558 Y103.609 E0.016
G1 X116.108 Y103.392 E0.017
G1 X115.683 Y103.132 E0.016
G1 X115.285 Y102.831 E0.017
G1 X114.92 Y102.492 E0.017
G1 X114.59 Y102.118 E0.016
G1 X114.299 Y101.713 E0.017
G1 X114.05 Y101.282 E0.016
G1 X113.844 Y100.828 E0.017
G1 X113.685 Y100.354 E0.017
G1 X113.575 Y99.869 E0.016
G1 X113.513 Y99.374 E0.017
G1 X113.5 Y98.875 E0.016
G1 X113.538 Y98.379 E0.017
G1 X113.624 Y97.888 E0.016
G1 X113.759 Y97.407 E0.017
G1 X113.942 Y96.943 E0.017
G1 X114.169 Y96.5 E0.016
G1 X114.439 Y96.081 E0.017
G1 X114.75 Y95.691 E0.016
G1 X114.926 Y95.51 E0.009
G1 X115.099 Y95.334 E0.008
G1 X115.481 Y95.013 E0.016
G1 X115.892 Y94.733 E0.017
G1 X116.329 Y94.494 E0.017
G1 X116.79 Y94.3 E0.016
G1 X117.267 Y94.154 E0.017
G1 X117.755 Y94.055 E0.016
G1 X118.251 Y94.005 E0.017
G1 X118.749 E0.017
;rapid-leaky
G0 X118.729 Y94.405 F7200
;bead-skirt/brim
G1 X119.186 Y94.451 F960 E0.015
G1 X119.635 Y94.542 E0.015
G1 X120.073 Y94.676 E0.015
G1 X120.497 Y94.855 E0.016
G1 X120.899 Y95.074 E0.015
G1 X121.278 Y95.332 E0.015
G1 X121.63 Y95.628 E0.015
G1 X121.949 Y95.955 E0.016
G1 X122.236 Y96.314 E0.015
G1 X122.484 Y96.7 E0.015
G1 X122.693 Y97.108 E0.015
G1 X122.861 Y97.534 E0.016
G1 X122.986 Y97.977 E0.015
G1 X123.065 Y98.428 E0.015
G1 X123.1 Y98.885 E0.015
G1 X123.088 Y99.344 E0.016
G1 X123.031 Y99.8 E0.015
G1 X122.928 Y100.246 E0.015
G1 X122.782 Y100.68 E0.015
G1 X122.594 Y101.099 E0.016
G1 X122.365 Y101.496 E0.015
G1 X122.097 Y101.869 E0.015
G1 X121.793 Y102.213 E0.015
G1 X121.457 Y102.524 E0.016
G1 X121.092 Y102.801 E0.015
G1 X120.701 Y103.041 E0.015
G1 X120.287 Y103.24 E0.015
G1 X119.856 Y103.396 E0.016
G1 X119.412 Y103.51 E0.015
G1 X118.958 Y103.578 E0.015
G1 X118.5 Y103.601 E0.015
G1 X118.043 Y103.578 E0.016
G1 X117.588 Y103.51 E0.015
G1 X117.144 Y103.396 E0.015
G1 X116.713 Y103.24 E0.015
G1 X116.3 Y103.041 E0.016
G1 X115.908 Y102.801 E0.015
G1 X115.543 Y102.524 E0.015
G1 X115.207 Y102.213 E0.015
G1 X114.903 Y101.869 E0.016
G1 X114.635 Y101.496 E0.015
G1 X114.407 Y101.099 E0.015
G1 X114.217 Y100.681 E0.016
G1 X114.071 Y100.245 E0.015
G1 X113.969 Y99.799 E0.015
G1 X113.912 Y99.344 E0.015
G1 X113.9 Y98.885 E0.016
G1 X113.935 Y98.428 E0.015
G1 X114.014 Y97.977 E0.015
G1 X114.139 Y97.534 E0.015
G1 X114.307 Y97.108 E0.016
G1 X114.516 Y96.7 E0.015
G1 X114.764 Y96.314 E0.015
G1 X115.05 Y95.956 E0.015
G1 X115.212 Y95.79 E0.008
G1 X115.371 Y95.627 E0.008
G1 X115.722 Y95.332 E0.015
G1 X116.101 Y95.074 E0.015
G1 X116.503 Y94.855 E0.015
G1 X116.927 Y94.676 E0.016
G1 X117.365 Y94.542 E0.015
G1 X117.814 Y94.451 E0.015
G1 X118.271 Y94.405 E0.015
G1 X118.729 E0.016
;rapid-leaky
G0 X118.709 Y94.805 F7200
;bead-skirt/brim
G1 X119.126 Y94.847 F960 E0.014
G1 X119.536 Y94.93 E0.013
G1 X119.936 Y95.053 E0.014
G1 X120.323 Y95.216 E0.014
G1 X120.69 Y95.416 E0.014
G1 X121.036 Y95.651 E0.014
G1 X121.357 Y95.921 E0.014
G1 X121.649 Y96.22 E0.014
G1 X121.911 Y96.548 E0.014
G1 X122.137 Y96.9 E0.014
G1 X122.328 Y97.273 E0.014
G1 X122.482 Y97.662 E0.014
G1 X122.595 Y98.066 E0.014
G1 X122.668 Y98.478 E0.014
G1 X122.699 Y98.895 E0.014
G1 X122.689 Y99.314 E0.013
G1 X122.636 Y99.73 E0.014
G1 X122.543 Y100.137 E0.014
G1 X122.409 Y100.534 E0.014
G1 X122.237 Y100.916 E0.014
G1 X122.028 Y101.279 E0.014
G1 X121.784 Y101.619 E0.014
G1 X121.506 Y101.933 E0.014
G1 X121.2 Y102.217 E0.014
G1 X120.866 Y102.47 E0.014
G1 X120.509 Y102.689 E0.014
G1 X120.132 Y102.871 E0.014
G1 X119.738 Y103.013 E0.014
G1 X119.333 Y103.117 E0.013
G1 X118.918 Y103.179 E0.014
G1 X118.5 Y103.2 E0.014
G1 X118.082 Y103.179 E0.014
G1 X117.667 Y103.117 E0.014
G1 X117.262 Y103.013 E0.014
G1 X116.868 Y102.871 E0.014
G1 X116.491 Y102.689 E0.014
G1 X116.134 Y102.47 E0.014
G1 X115.8 Y102.217 E0.014
G1 X115.494 Y101.933 E0.014
G1 X115.216 Y101.619 E0.014
G1 X114.972 Y101.279 E0.014
G1 X114.763 Y100.916 E0.014
G1 X114.59 Y100.534 E0.013
G1 X114.456 Y100.137 E0.014
G1 X114.364 Y99.73 E0.014
G1 X114.311 Y99.314 E0.014
G1 X114.301 Y98.895 E0.014
G1 X114.332 Y98.478 E0.014
G1 X114.405 Y98.066 E0.014
G1 X114.518 Y97.662 E0.014
G1 X114.672 Y97.273 E0.014
G1 X114.863 Y96.9 E0.014
G1 X115.089 Y96.548 E0.014
G1 X115.351 Y96.221 E0.014
G1 X115.498 Y96.069 E0.007
G1 X115.643 Y95.921 E0.007
G1 X115.964 Y95.651 E0.014
G1 X116.31 Y95.416 E0.013
G1 X116.677 Y95.216 E0.014
G1 X117.064 Y95.053 E0.014
G1 X117.464 Y94.93 E0.014
G1 X117.874 Y94.847 E0.014
G1 X118.291 Y94.805 E0.014
G1 X118.709 E0.014
;rapid-leaky
G0 X110.506 Y101.933 F7200
;bead-skirt/brim
G1 X110.2 Y102.217 F960 E0.014
G1 X109.866 Y102.47 E0.014
G1 X109.509 Y102.689 E0.014
G1 X109.132 Y102.871 E0.014
G1 X108.738 Y103.013 E0.014
G1 X108.333 Y103.117 E0.014
G1 X107.918 Y103.179 E0.013
G1 X107.5 Y103.2 E0.014
G1 X107.082 Y103.179 E0.014
G1 X106.667 Y103.117 E0.014
G1 X106.262 Y103.013 E0.014
G1 X105.868 Y102.871 E0.014
G1 X105.491 Y102.689 E0.014
G1 X105.134 Y102.47 E0.014
G1 X104.8 Y102.217 E0.014
G1 X104.494 Y101.933 E0.014
G1 X104.216 Y101.619 E0.014
G1 X103.972 Y101.279 E0.014
G1 X103.763 Y100.916 E0.014
G1 X103.59 Y100.534 E0.014
G1 X103.456 Y100.137 E0.013
G1 X103.364 Y99.73 E0.014
G1 X103.311 Y99.314 E0.014
G1 X103.301 Y98.895 E0.014
G1 X103.332 Y98.478 E0.014
G1 X103.405 Y98.066 E0.014
G1 X103.518 Y97.662 E0.014
G1 X103.672 Y97.273 E0.014
G1 X103.863 Y96.9 E0.014
G1 X104.089 Y96.548 E0.014
G1 X104.351 Y96.221 E0.014
G1 X104.497 Y96.07 E0.007
G1 X104.643 Y95.921 E0.007
G1 X104.964 Y95.651 E0.014
G1 X105.31 Y95.416 E0.014
G1 X105.677 Y95.216 E0.013
G1 X106.064 Y95.053 E0.014
G1 X106.464 Y94.93 E0.014
G1 X106.874 Y94.847 E0.014
G1 X107.291 Y94.805 E0.014
G1 X107.709 E0.014
G1 X108.126 Y94.847 E0.014
G1 X108.536 Y94.93 E0.014
G1 X108.936 Y95.053 E0.014
G1 X109.323 Y95.216 E0.014
G1 X109.69 Y95.416 E0.014
G1 X110.036 Y95.651 E0.014
G1 X110.357 Y95.921 E0.014
G1 X110.649 Y96.22 E0.013
G1 X110.911 Y96.548 E0.014
G1 X111.137 Y96.9 E0.014
G1 X111.328 Y97.273 E0.014
G1 X111.482 Y97.662 E0.014
G1 X111.595 Y98.066 E0.014
G1 X111.668 Y98.478 E0.014
G1 X111.699 Y98.895 E0.014
G1 X111.689 Y99.314 E0.014
G1 X111.636 Y99.73 E0.014
G1 X111.543 Y100.137 E0.014
G1 X111.409 Y100.534 E0.014
G1 X111.237 Y100.916 E0.014
G1 X111.028 Y101.279 E0.014
G1 X110.784 Y101.619 E0.013
G1 X110.506 Y101.933 E0.014
;rapid-leaky
G0 X110.793 Y102.213 F7200
;bead-skirt/brim
G1 X110.457 Y102.524 F960 E0.016
G1 X110.092 Y102.801 E0.015
G1 X109.701 Y103.041 E0.015
G1 X109.287 Y103.24 E0.015
G1 X108.856 Y103.396 E0.016
G1 X108.412 Y103.51 E0.015
G1 X107.958 Y103.578 E0.015
G1 X107.5 Y103.601 E0.015
G1 X107.043 Y103.578 E0.016
G1 X106.588 Y103.51 E0.015
G1 X106.144 Y103.396 E0.015
G1 X105.713 Y103.24 E0.015
G1 X105.3 Y103.041 E0.016
G1 X104.908 Y102.801 E0.015
G1 X104.543 Y102.524 E0.015
G1 X104.207 Y102.213 E0.015
G1 X103.903 Y101.869 E0.016
G1 X103.635 Y101.496 E0.015
G1 X103.407 Y101.099 E0.015
G1 X103.217 Y100.681 E0.015
G1 X103.071 Y100.245 E0.016
G1 X102.969 Y99.799 E0.015
G1 X102.912 Y99.344 E0.015
G1 X102.9 Y98.885 E0.016
G1 X102.935 Y98.428 E0.015
G1 X103.014 Y97.977 E0.015
G1 X103.139 Y97.534 E0.015
G1 X103.307 Y97.108 E0.016
G1 X103.516 Y96.7 E0.015
G1 X103.764 Y96.314 E0.015
G1 X104.05 Y95.956 E0.015
G1 X104.211 Y95.79 E0.008
G1 X104.371 Y95.627 E0.008
G1 X104.722 Y95.332 E0.015
G1 X105.101 Y95.074 E0.015
G1 X105.503 Y94.855 E0.015
G1 X105.927 Y94.676 E0.016
G1 X106.365 Y94.542 E0.015
G1 X106.814 Y94.451 E0.015
G1 X107.271 Y94.405 E0.015
G1 X107.729 E0.016
G1 X108.186 Y94.451 E0.015
G1 X108.635 Y94.542 E0.015
G1 X109.073 Y94.676 E0.015
G1 X109.497 Y94.855 E0.016
G1 X109.899 Y95.074 E0.015
G1 X110.278 Y95.332 E0.015
G1 X110.63 Y95.628 E0.015
G1 X110.949 Y95.955 E0.016
G1 X111.236 Y96.314 E0.015
G1 X111.484 Y96.7 E0.015
G1 X111.693 Y97.108 E0.015
G1 X111.861 Y97.534 E0.016
G1 X111.986 Y97.977 E0.015
G1 X112.065 Y98.428 E0.015
G1 X112.1 Y98.885 E0.015
G1 X112.088 Y99.344 E0.016
G1 X112.031 Y99.8 E0.015
G1 X111.928 Y100.246 E0.015
G1 X111.782 Y100.68 E0.015
G1 X111.594 Y101.099 E0.016
G1 X111.365 Y101.496 E0.015
G1 X111.097 Y101.869 E0.015
G1 X110.793 Y102.213 E0.015
;rapid-leaky
G0 X111.08 Y102.492 F7200
;bead-skirt/brim
G1 X110.715 Y102.831 F960 E0.017
G1 X110.317 Y103.132 E0.017
G1 X109.892 Y103.392 E0.016
G1 X109.443 Y103.609 E0.017
G1 X108.974 Y103.779 E0.016
G1 X108.492 Y103.902 E0.017
G1 X107.997 Y103.976 E0.017
G1 X107.5 Y104.001 E0.016
G1 X107.003 Y103.976 E0.017
G1 X106.508 Y103.902 E0.016
G1 X106.026 Y103.779 E0.017
G1 X105.557 Y103.609 E0.016
G1 X105.108 Y103.392 E0.017
G1 X104.683 Y103.132 E0.017
G1 X104.285 Y102.831 E0.016
G1 X103.92 Y102.492 E0.017
G1 X103.59 Y102.118 E0.016
G1 X103.299 Y101.713 E0.017
G1 X103.05 Y101.282 E0.016
G1 X102.844 Y100.828 E0.017
G1 X102.685 Y100.354 E0.017
G1 X102.575 Y99.869 E0.016
G1 X102.513 Y99.374 E0.017
G1 X102.5 Y98.875 E0.016
G1 X102.538 Y98.379 E0.017
G1 X102.624 Y97.888 E0.017
G1 X102.759 Y97.407 E0.016
G1 X102.942 Y96.943 E0.017
G1 X103.169 Y96.5 E0.016
G1 X103.439 Y96.081 E0.017
G1 X103.75 Y95.691 E0.017
G1 X103.925 Y95.511 E0.008
G1 X104.099 Y95.334 E0.008
G1 X104.48 Y95.013 E0.017
G1 X104.892 Y94.733 E0.016
G1 X105.329 Y94.494 E0.017
G1 X105.79 Y94.3 E0.016
G1 X106.267 Y94.154 E0.017
G1 X106.754 Y94.055 E0.017
G1 X107.251 Y94.005 E0.016
G1 X107.749 E0.017
G1 X108.246 Y94.055 E0.016
G1 X108.733 Y94.154 E0.017
G1 X109.21 Y94.3 E0.016
G1 X109.671 Y94.494 E0.017
G1 X110.108 Y94.733 E0.017
G1 X110.52 Y95.013 E0.016
G1 X110.902 Y95.334 E0.017
G1 X111.25 Y95.69 E0.016
G1 X111.561 Y96.081 E0.017
G1 X111.831 Y96.5 E0.017
G1 X112.058 Y96.943 E0.016
G1 X112.241 Y97.407 E0.017
G1 X112.376 Y97.888 E0.016
G1 X112.462 Y98.379 E0.017
G1 X112.5 Y98.875 E0.017
G1 X112.487 Y99.374 E0.016
G1 X112.425 Y99.87 E0.017
G1 X112.314 Y100.355 E0.016
G1 X112.155 Y100.827 E0.017
G1 X111.95 Y101.281 E0.016
G1 X111.701 Y101.713 E0.017
G1 X111.41 Y102.118 E0.017
G1 X111.08 Y102.492 E0.016
;rapid-leaky
G0 X111.366 Y102.772 F7200
;bead-skirt/brim
G1 X110.972 Y103.138 F960 E0.018
G1 X110.543 Y103.463 E0.018
G1 X110.084 Y103.744 E0.018
G1 X109.598 Y103.978 E0.018
G1 X109.093 Y104.161 E0.018
G1 X108.571 Y104.295 E0.018
G1 X108.037 Y104.375 E0.018
G1 X107.5 Y104.402 E0.017
G1 X106.963 Y104.375 E0.018
G1 X106.429 Y104.295 E0.018
G1 X105.907 Y104.161 E0.018
G1 X105.402 Y103.978 E0.018
G1 X104.916 Y103.744 E0.018
G1 X104.457 Y103.463 E0.018
G1 X104.028 Y103.138 E0.018
G1 X103.634 Y102.772 E0.018
G1 X103.277 Y102.368 E0.018
G1 X102.962 Y101.93 E0.018
G1 X102.694 Y101.465 E0.017
G1 X102.472 Y100.974 E0.018
G1 X102.299 Y100.462 E0.018
G1 X102.181 Y99.938 E0.018
G1 X102.113 Y99.404 E0.018
G1 X102.1 Y98.865 E0.018
G1 X102.14 Y98.329 E0.018
G1 X102.233 Y97.799 E0.018
G1 X102.379 Y97.279 E0.018
G1 X102.577 Y96.778 E0.018
G1 X102.822 Y96.3 E0.018
G1 X103.114 Y95.847 E0.017
G1 X103.449 Y95.426 E0.018
G1 X103.638 Y95.232 E0.009
G1 X103.826 Y95.04 E0.009
G1 X104.239 Y94.694 E0.018
G1 X104.683 Y94.391 E0.018
G1 X105.155 Y94.133 E0.018
G1 X105.654 Y93.923 E0.018
G1 X106.168 Y93.765 E0.018
G1 X106.695 Y93.659 E0.018
G1 X107.231 Y93.605 E0.018
G1 X107.769 E0.018
G1 X108.305 Y93.659 E0.018
G1 X108.832 Y93.765 E0.017
G1 X109.346 Y93.923 E0.018
G1 X109.845 Y94.133 E0.018
G1 X110.317 Y94.391 E0.018
G1 X110.761 Y94.694 E0.018
G1 X111.175 Y95.041 E0.018
G1 X111.55 Y95.425 E0.018
G1 X111.886 Y95.847 E0.018
G1 X112.178 Y96.3 E0.018
G1 X112.423 Y96.778 E0.018
G1 X112.621 Y97.279 E0.018
G1 X112.767 Y97.799 E0.017
G1 X112.86 Y98.329 E0.018
G1 X112.9 Y98.865 E0.018
G1 X112.887 Y99.404 E0.018
G1 X112.819 Y99.94 E0.018
G1 X112.699 Y100.463 E0.018
G1 X112.528 Y100.973 E0.018
G1 X112.307 Y101.464 E0.018
G1 X112.038 Y101.93 E0.018
G1 X111.723 Y102.368 E0.018
G1 X111.366 Y102.772 E0.018
;rapid-leaky
G0 X109.346 Y105.923 F7200
;bead-skirt/brim
G1 X109.845 Y106.133 F960 E0.018
G1 X110.317 Y106.391 E0.017
G1 X110.761 Y106.694 E0.018
G1 X111.175 Y107.041 E0.018
G1 X111.55 Y107.425 E0.018
G1 X111.886 Y107.847 E0.018
G1 X112.178 Y108.3 E0.018
G1 X112.423 Y108.778 E0.018
G1 X112.621 Y109.279 E0.018
G1 X112.767 Y109.799 E0.018
G1 X112.86 Y110.329 E0.018
G1 X112.9 Y110.865 E0.018
G1 X112.887 Y111.404 E0.017
G1 X112.819 Y111.94 E0.018
G1 X112.699 Y112.463 E0.018
G1 X112.528 Y112.973 E0.018
G1 X112.307 Y113.464 E0.018
G1 X112.038 Y113.93 E0.018
G1 X111.723 Y114.368 E0.018
G1 X111.366 Y114.772 E0.018
G1 X110.972 Y115.138 E0.018
G1 X110.543 Y115.463 E0.018
G1 X110.084 Y115.744 E0.018
G1 X109.598 Y115.978 E0.017
G1 X109.093 Y116.161 E0.018
G1 X108.571 Y116.295 E0.018
G1 X108.037 Y116.375 E0.018
G1 X107.5 Y116.402 E0.018
G1 X106.963 Y116.375 E0.018
G1 X106.429 Y116.295 E0.018
G1 X105.908 Y116.161 E0.018
G1 X105.402 Y115.978 E0.018
G1 X104.916 Y115.744 E0.018
G1 X104.457 Y115.463 E0.018
G1 X104.028 Y115.138 E0.018
G1 X103.634 Y114.772 E0.017
G1 X103.277 Y114.368 E0.018
G1 X102.962 Y113.93 E0.018
G1 X102.694 Y113.465 E0.018
G1 X102.472 Y112.974 E0.018
G1 X102.299 Y112.462 E0.018
G1 X102.181 Y111.938 E0.018
G1 X102.113 Y111.404 E0.018
G1 X102.1 Y110.865 E0.018
G1 X102.14 Y110.329 E0.018
G1 X102.233 Y109.799 E0.017
G1 X102.379 Y109.279 E0.018
G1 X102.577 Y108.778 E0.018
G1 X102.822 Y108.3 E0.018
G1 X103.114 Y107.847 E0.018
G1 X103.449 Y107.426 E0.018
G1 X103.639 Y107.231 E0.009
G1 X103.826 Y107.04 E0.009
G1 X104.239 Y106.694 E0.018
G1 X104.683 Y106.391 E0.018
G1 X105.155 Y106.133 E0.018
G1 X105.654 Y105.923 E0.018
G1 X106.168 Y105.765 E0.018
G1 X106.695 Y105.659 E0.017
G1 X107.231 Y105.605 E0.018
G1 X107.769 E0.018
G1 X108.305 Y105.659 E0.018
G1 X108.832 Y105.765 E0.018
G1 X109.346 Y105.923 E0.018
;rapid-leaky
G0 X109.21 Y106.3 F7200
;bead-skirt/brim
G1 X109.671 Y106.494 F960 E0.017
G1 X110.108 Y106.733 E0.016
G1 X110.52 Y107.013 E0.017
G1 X110.902 Y107.334 E0.016
G1 X111.25 Y107.69 E0.017
G1 X111.561 Y108.081 E0.017
G1 X111.831 Y108.5 E0.016
G1 X112.058 Y108.943 E0.017
G1 X112.241 Y109.407 E0.016
G1 X112.376 Y109.888 E0.017
G1 X112.462 Y110.379 E0.016
G1 X112.5 Y110.875 E0.017
G1 X112.487 Y111.374 E0.017
G1 X112.425 Y111.87 E0.016
G1 X112.314 Y112.355 E0.017
G1 X112.155 Y112.827 E0.016
G1 X111.95 Y113.281 E0.017
G1 X111.701 Y113.713 E0.016
G1 X111.41 Y114.118 E0.017
G1 X111.08 Y114.492 E0.017
G1 X110.715 Y114.831 E0.016
G1 X110.317 Y115.132 E0.017
G1 X109.892 Y115.392 E0.016
G1 X109.443 Y115.609 E0.017
G1 X108.974 Y115.779 E0.017
G1 X108.492 Y115.902 E0.016
G1 X107.997 Y115.976 E0.017
G1 X107.5 Y116.001 E0.016
G1 X107.003 Y115.976 E0.017
G1 X106.508 Y115.902 E0.016
G1 X106.026 Y115.779 E0.017
G1 X105.557 Y115.609 E0.017
G1 X105.108 Y115.392 E0.016
G1 X104.683 Y115.132 E0.017
G1 X104.285 Y114.831 E0.016
G1 X103.92 Y114.492 E0.017
G1 X103.59 Y114.118 E0.017
G1 X103.299 Y113.713 E0.016
G1 X103.05 Y113.282 E0.017
G1 X102.844 Y112.828 E0.016
G1 X102.685 Y112.354 E0.017
G1 X102.575 Y111.869 E0.016
G1 X102.513 Y111.374 E0.017
G1 X102.5 Y110.875 E0.017
G1 X102.538 Y110.379 E0.016
G1 X102.624 Y109.888 E0.017
G1 X102.759 Y109.407 E0.016
G1 X102.942 Y108.943 E0.017
G1 X103.169 Y108.5 E0.017
G1 X103.439 Y108.081 E0.016
G1 X103.75 Y107.691 E0.017
G1 X103.925 Y107.511 E0.008
G1 X104.099 Y107.334 E0.008
G1 X104.48 Y107.013 E0.017
G1 X104.892 Y106.733 E0.016
G1 X105.329 Y106.494 E0.017
G1 X105.79 Y106.3 E0.017
G1 X106.267 Y106.154 E0.016
G1 X106.755 Y106.055 E0.017
G1 X107.251 Y106.005 E0.016
G1 X107.749 E0.017
G1 X108.245 Y106.055 E0.017
G1 X108.733 Y106.154 E0.016
G1 X109.21 Y106.3 E0.017
;rapid-leaky
G0 X109.073 Y106.676 F7200
;bead-skirt/brim
G1 X109.497 Y106.855 F960 E0.015
G1 X109.899 Y107.074 E0.015
G1 X110.278 Y107.332 E0.015
G1 X110.63 Y107.628 E0.016
G1 X110.949 Y107.955 E0.015
G1 X111.236 Y108.314 E0.015
G1 X111.484 Y108.7 E0.015
G1 X111.693 Y109.108 E0.016
G1 X111.861 Y109.534 E0.015
G1 X111.986 Y109.977 E0.015
G1 X112.065 Y110.428 E0.016
G1 X112.1 Y110.885 E0.015
G1 X112.088 Y111.344 E0.015
G1 X112.031 Y111.8 E0.015
G1 X111.928 Y112.246 E0.016
G1 X111.782 Y112.68 E0.015
G1 X111.594 Y113.099 E0.015
G1 X111.365 Y113.496 E0.015
G1 X111.097 Y113.869 E0.016
G1 X110.793 Y114.213 E0.015
G1 X110.457 Y114.524 E0.015
G1 X110.092 Y114.801 E0.015
G1 X109.701 Y115.04 E0.016
G1 X109.287 Y115.24 E0.015
G1 X108.856 Y115.396 E0.015
G1 X108.412 Y115.51 E0.015
G1 X107.958 Y115.578 E0.016
G1 X107.5 Y115.601 E0.015
G1 X107.043 Y115.578 E0.015
G1 X106.588 Y115.51 E0.015
G1 X106.144 Y115.396 E0.016
G1 X105.713 Y115.24 E0.015
G1 X105.3 Y115.04 E0.015
G1 X104.908 Y114.801 E0.015
G1 X104.543 Y114.524 E0.016
G1 X104.207 Y114.212 E0.015
G1 X103.903 Y113.869 E0.015
G1 X103.635 Y113.496 E0.015
G1 X103.407 Y113.099 E0.016
G1 X103.217 Y112.681 E0.015
G1 X103.071 Y112.245 E0.015
G1 X102.969 Y111.799 E0.015
G1 X102.912 Y111.344 E0.016
G1 X102.9 Y110.885 E0.015
G1 X102.935 Y110.428 E0.015
G1 X103.014 Y109.977 E0.015
G1 X103.139 Y109.534 E0.016
G1 X103.307 Y109.108 E0.015
G1 X103.516 Y108.7 E0.015
G1 X103.764 Y108.314 E0.015
G1 X104.05 Y107.956 E0.016
G1 X104.211 Y107.79 E0.007
G1 X104.371 Y107.627 E0.008
G1 X104.722 Y107.332 E0.015
G1 X105.101 Y107.074 E0.015
G1 X105.503 Y106.855 E0.016
G1 X105.927 Y106.676 E0.015
G1 X106.365 Y106.542 E0.015
G1 X106.814 Y106.451 E0.015
G1 X107.271 Y106.405 E0.016
G1 X107.729 E0.015
G1 X108.186 Y106.451 E0.015
G1 X108.635 Y106.542 E0.015
G1 X109.073 Y106.676 E0.016
;rapid-leaky
G0 X108.936 Y107.053 F7200
;bead-skirt/brim
G1 X109.323 Y107.216 F960 E0.014
G1 X109.69 Y107.416 E0.014
G1 X110.036 Y107.651 E0.014
G1 X110.357 Y107.921 E0.013
G1 X110.649 Y108.22 E0.014
G1 X110.911 Y108.548 E0.014
G1 X111.137 Y108.9 E0.014
G1 X111.328 Y109.273 E0.014
G1 X111.482 Y109.662 E0.014
G1 X111.595 Y110.066 E0.014
G1 X111.668 Y110.478 E0.014
G1 X111.699 Y110.895 E0.014
G1 X111.689 Y111.314 E0.014
G1 X111.636 Y111.73 E0.014
G1 X111.543 Y112.137 E0.014
G1 X111.409 Y112.534 E0.014
G1 X111.237 Y112.916 E0.014
G1 X111.028 Y113.279 E0.013
G1 X110.784 Y113.619 E0.014
G1 X110.506 Y113.933 E0.014
G1 X110.2 Y114.217 E0.014
G1 X109.866 Y114.47 E0.014
G1 X109.509 Y114.689 E0.014
G1 X109.132 Y114.871 E0.014
G1 X108.738 Y115.013 E0.014
G1 X108.333 Y115.117 E0.014
G1 X107.918 Y115.179 E0.014
G1 X107.5 Y115.2 E0.014
G1 X107.082 Y115.179 E0.014
G1 X106.667 Y115.117 E0.014
G1 X106.262 Y115.013 E0.013
G1 X105.868 Y114.871 E0.014
G1 X105.491 Y114.689 E0.014
G1 X105.134 Y114.47 E0.014
G1 X104.8 Y114.217 E0.014
G1 X104.494 Y113.933 E0.014
G1 X104.216 Y113.619 E0.014
G1 X103.972 Y113.279 E0.014
G1 X103.763 Y112.916 E0.014
G1 X103.59 Y112.534 E0.014
G1 X103.456 Y112.137 E0.014
G1 X103.364 Y111.73 E0.014
G1 X103.311 Y111.314 E0.014
G1 X103.301 Y110.895 E0.014
G1 X103.332 Y110.478 E0.013
G1 X103.405 Y110.066 E0.014
G1 X103.518 Y109.662 E0.014
G1 X103.672 Y109.273 E0.014
G1 X103.863 Y108.9 E0.014
G1 X104.089 Y108.548 E0.014
G1 X104.351 Y108.221 E0.014
G1 X104.498 Y108.069 E0.007
G1 X104.643 Y107.921 E0.007
G1 X104.964 Y107.651 E0.014
G1 X105.31 Y107.416 E0.014
G1 X105.677 Y107.216 E0.014
G1 X106.064 Y107.053 E0.014
G1 X106.464 Y106.93 E0.014
G1 X106.874 Y106.847 E0.014
G1 X107.291 Y106.805 E0.013
G1 X107.709 E0.014
G1 X108.126 Y106.847 E0.014
G1 X108.536 Y106.93 E0.014
G1 X108.936 Y107.053 E0.014
;rapid-leaky
G0 X113.518 Y105.005 F7200
;bead-skirt/brim
G1 X113 Y104.53 F960 E0.024
G1 X112.482 Y105.005 E0.023
G1 X112.809 Y105.28 E0.014
G1 X113 Y105.475 E0.009
G1 X113.193 Y105.277 E0.009
G1 X113.518 Y105.005 E0.014
;rapid-leaky
G0 X114.173 Y104.999 F7200
;bead-skirt/brim
G1 X113.74 Y104.671 F960 E0.019
G1 X113.2 Y104.17 E0.024
G1 X113 Y103.943 E0.01
G1 X112.8 Y104.17 E0.01
G1 X112.26 Y104.671 E0.025
G1 X111.827 Y104.999 E0.018
G1 X111.97 Y105.097 E0.005
G1 X112.537 Y105.573 E0.025
G1 X113 Y106.048 E0.022
G1 X113.465 Y105.571 E0.022
G1 X114.03 Y105.097 E0.025
G1 X114.173 Y104.999 E0.006
;rapid-leaky
G0 X114.898 Y104.997 F7200
;bead-skirt/brim
G1 X114.554 Y104.786 F960 E0.013
G1 X113.998 Y104.365 E0.023
G1 X113.487 Y103.89 E0.023
G1 X113 Y103.333 E0.025
G1 X112.513 Y103.891 E0.025
G1 X112.002 Y104.365 E0.023
G1 X111.446 Y104.786 E0.023
G1 X111.102 Y104.997 E0.013
G1 X111.729 Y105.416 E0.026
G1 X112.265 Y105.867 E0.023
G1 X112.751 Y106.365 E0.023
G1 X113 Y106.677 E0.013
G1 X113.248 Y106.367 E0.014
G1 X113.738 Y105.865 E0.023
G1 X114.272 Y105.416 E0.023
G1 X114.898 Y104.997 E0.025
;rapid-leaky
G0 X115.757 Y104.999 F7200
;bead-skirt/brim
G1 X115.341 Y104.799 F960 E0.015
G1 X114.78 Y104.455 E0.022
G1 X114.255 Y104.058 E0.022
G1 X113.774 Y103.611 E0.022
G1 X113.338 Y103.118 E0.022
G1 X113 Y102.647 E0.019
G1 X112.662 Y103.118 E0.019
G1 X112.226 Y103.611 E0.022
G1 X111.745 Y104.058 E0.022
G1 X111.22 Y104.455 E0.022
G1 X110.659 Y104.799 E0.022
G1 X110.243 Y104.999 E0.015
G1 X110.366 Y105.051 E0.005
G1 X110.944 Y105.366 E0.022
G1 X111.487 Y105.736 E0.022
G1 X111.992 Y106.16 E0.021
G1 X112.451 Y106.63 E0.022
G1 X112.862 Y107.146 E0.022
G1 X113 Y107.36 E0.009
G1 X113.138 Y107.146 E0.008
G1 X113.548 Y106.632 E0.022
G1 X114.01 Y106.159 E0.022
G1 X114.513 Y105.736 E0.022
G1 X115.056 Y105.366 E0.022
G1 X115.634 Y105.051 E0.022
G1 X115.757 Y104.999 E0.004
;rapid-leaky
G0 X116.945 Y104.997 F7200
;bead-skirt/brim
G1 X116.671 Y104.927 F960 E0.01
G1 X116.091 Y104.716 E0.02
G1 X115.533 Y104.447 E0.021
G1 X115.005 Y104.125 E0.02
G1 X114.513 Y103.751 E0.021
G1 X114.06 Y103.331 E0.02
G1 X113.651 Y102.868 E0.021
G1 X113.289 Y102.365 E0.02
G1 X113 Y101.863 E0.02
G1 X112.711 Y102.365 E0.019
G1 X112.349 Y102.868 E0.021
G1 X111.94 Y103.331 E0.02
G1 X111.487 Y103.751 E0.021
G1 X110.995 Y104.125 E0.02
G1 X110.467 Y104.447 E0.021
G1 X109.909 Y104.716 E0.02
G1 X109.329 Y104.927 E0.021
G1 X109.055 Y104.997 E0.009
G1 X109.62 Y105.17 E0.02
G1 X110.192 Y105.412 E0.021
G1 X110.735 Y105.708 E0.02
G1 X111.245 Y106.055 E0.021
G1 X111.72 Y106.454 E0.02
G1 X112.15 Y106.895 E0.021
G1 X112.537 Y107.38 E0.021
G1 X112.872 Y107.899 E0.02
G1 X113 Y108.149 E0.009
G1 X113.128 Y107.899 E0.01
G1 X113.463 Y107.38 E0.02
G1 X113.849 Y106.897 E0.021
G1 X114.282 Y106.452 E0.021
G1 X114.755 Y106.055 E0.02
G1 X115.265 Y105.708 E0.021
G1 X115.808 Y105.412 E0.02
G1 X116.38 Y105.17 E0.021
G1 X116.945 Y104.997 E0.019
;rapid-leaky
G0 X122.482 Y109.662 F7200
;bead-skirt/brim
G1 X122.595 Y110.066 F960 E0.014
G1 X122.668 Y110.478 E0.014
G1 X122.699 Y110.895 E0.014
G1 X122.689 Y111.314 E0.014
G1 X122.636 Y111.73 E0.014
G1 X122.543 Y112.137 E0.014
G1 X122.409 Y112.534 E0.014
G1 X122.237 Y112.916 E0.014
G1 X122.028 Y113.279 E0.014
G1 X121.784 Y113.619 E0.014
G1 X121.506 Y113.933 E0.014
G1 X121.2 Y114.217 E0.014
G1 X120.866 Y114.47 E0.014
G1 X120.509 Y114.689 E0.013
G1 X120.132 Y114.871 E0.014
G1 X119.738 Y115.013 E0.014
G1 X119.333 Y115.117 E0.014
G1 X118.918 Y115.179 E0.014
G1 X118.5 Y115.2 E0.014
G1 X118.082 Y115.179 E0.014
G1 X117.667 Y115.117 E0.014
G1 X117.262 Y115.013 E0.014
G1 X116.868 Y114.871 E0.014
G1 X116.491 Y114.689 E0.014
G1 X116.134 Y114.47 E0.014
G1 X115.8 Y114.217 E0.014
G1 X115.494 Y113.933 E0.013
G1 X115.216 Y113.619 E0.014
G1 X114.972 Y113.279 E0.014
G1 X114.763 Y112.916 E0.014
G1 X114.59 Y112.534 E0.014
G1 X114.456 Y112.137 E0.014
G1 X114.364 Y111.73 E0.014
G1 X114.311 Y111.314 E0.014
G1 X114.301 Y110.895 E0.014
G1 X114.332 Y110.478 E0.014
G1 X114.405 Y110.066 E0.014
G1 X114.518 Y109.662 E0.014
G1 X114.672 Y109.273 E0.014
G1 X114.863 Y108.9 E0.014
G1 X115.089 Y108.548 E0.013
G1 X115.351 Y108.221 E0.014
G1 X115.498 Y108.07 E0.007
G1 X115.643 Y107.921 E0.007
G1 X115.964 Y107.651 E0.014
G1 X116.31 Y107.416 E0.014
G1 X116.677 Y107.216 E0.014
G1 X117.064 Y107.053 E0.014
G1 X117.464 Y106.93 E0.014
G1 X117.874 Y106.847 E0.014
G1 X118.291 Y106.805 E0.014
G1 X118.709 E0.014
G1 X119.126 Y106.847 E0.014
G1 X119.536 Y106.93 E0.014
G1 X119.936 Y107.053 E0.014
G1 X120.323 Y107.216 E0.013
G1 X120.69 Y107.416 E0.014
G1 X121.036 Y107.651 E0.014
G1 X121.357 Y107.921 E0.014
G1 X121.649 Y108.22 E0.014
G1 X121.911 Y108.548 E0.014
G1 X122.137 Y108.9 E0.014
G1 X122.328 Y109.273 E0.014
G1 X122.482 Y109.662 E0.014
;rapid-leaky
G0 X122.861 Y109.534 F7200
;bead-skirt/brim
G1 X122.986 Y109.977 F960 E0.015
G1 X123.065 Y110.428 E0.015
G1 X123.1 Y110.885 E0.016
G1 X123.088 Y111.344 E0.015
G1 X123.031 Y111.8 E0.015
G1 X122.928 Y112.246 E0.015
G1 X122.782 Y112.68 E0.016
G1 X122.594 Y113.099 E0.015
G1 X122.365 Y113.496 E0.015
G1 X122.097 Y113.869 E0.015
G1 X121.793 Y114.213 E0.016
G1 X121.457 Y114.524 E0.015
G1 X121.092 Y114.801 E0.015
G1 X120.701 Y115.04 E0.015
G1 X120.287 Y115.24 E0.016
G1 X119.856 Y115.396 E0.015
G1 X119.412 Y115.51 E0.015
G1 X118.958 Y115.578 E0.015
G1 X118.5 Y115.601 E0.016
G1 X118.043 Y115.578 E0.015
G1 X117.588 Y115.51 E0.015
G1 X117.144 Y115.396 E0.015
G1 X116.713 Y115.24 E0.016
G1 X116.3 Y115.04 E0.015
G1 X115.908 Y114.801 E0.015
G1 X115.543 Y114.524 E0.016
G1 X115.207 Y114.212 E0.015
G1 X114.903 Y113.869 E0.015
G1 X114.635 Y113.496 E0.015
G1 X114.407 Y113.099 E0.015
G1 X114.217 Y112.681 E0.016
G1 X114.071 Y112.245 E0.015
G1 X113.969 Y111.799 E0.015
G1 X113.912 Y111.344 E0.016
G1 X113.9 Y110.885 E0.015
G1 X113.935 Y110.428 E0.015
G1 X114.014 Y109.977 E0.015
G1 X114.139 Y109.534 E0.016
G1 X114.307 Y109.108 E0.015
G1 X114.516 Y108.7 E0.015
G1 X114.764 Y108.314 E0.015
G1 X115.05 Y107.956 E0.016
G1 X115.211 Y107.79 E0.007
G1 X115.371 Y107.627 E0.008
G1 X115.722 Y107.332 E0.015
G1 X116.101 Y107.074 E0.015
G1 X116.503 Y106.855 E0.016
G1 X116.927 Y106.676 E0.015
G1 X117.365 Y106.542 E0.015
G1 X117.814 Y106.451 E0.015
G1 X118.271 Y106.405 E0.016
G1 X118.729 E0.015
G1 X119.186 Y106.451 E0.015
G1 X119.635 Y106.542 E0.015
G1 X120.073 Y106.676 E0.016
G1 X120.497 Y106.855 E0.015
G1 X120.899 Y107.074 E0.015
G1 X121.278 Y107.332 E0.015
G1 X121.63 Y107.628 E0.016
G1 X121.949 Y107.955 E0.015
G1 X122.236 Y108.314 E0.015
G1 X122.484 Y108.7 E0.015
G1 X122.693 Y109.108 E0.016
G1 X122.861 Y109.534 E0.015
;rapid-leaky
G0 X123.241 Y109.407 F7200
;bead-skirt/brim
G1 X123.376 Y109.888 F960 E0.017
G1 X123.462 Y110.379 E0.016
G1 X123.5 Y110.875 E0.017
G1 X123.487 Y111.374 E0.016
G1 X123.425 Y111.87 E0.017
G1 X123.314 Y112.355 E0.016
G1 X123.155 Y112.827 E0.017
G1 X122.95 Y113.281 E0.017
G1 X122.701 Y113.713 E0.016
G1 X122.41 Y114.118 E0.017
G1 X122.08 Y114.492 E0.016
G1 X121.715 Y114.831 E0.017
G1 X121.317 Y115.132 E0.017
G1 X120.892 Y115.392 E0.016
G1 X120.443 Y115.609 E0.017
G1 X119.974 Y115.779 E0.016
G1 X119.492 Y115.902 E0.017
G1 X118.997 Y115.976 E0.016
G1 X118.5 Y116.001 E0.017
G1 X118.003 Y115.976 E0.017
G1 X117.508 Y115.902 E0.016
G1 X117.026 Y115.779 E0.017
G1 X116.557 Y115.609 E0.016
G1 X116.108 Y115.392 E0.017
G1 X115.683 Y115.132 E0.017
G1 X115.285 Y114.831 E0.016
G1 X114.92 Y114.492 E0.017
G1 X114.59 Y114.118 E0.016
G1 X114.299 Y113.713 E0.017
G1 X114.05 Y113.282 E0.016
G1 X113.844 Y112.828 E0.017
G1 X113.685 Y112.354 E0.017
G1 X113.575 Y111.869 E0.016
G1 X113.513 Y111.374 E0.017
G1 X113.5 Y110.875 E0.016
G1 X113.538 Y110.379 E0.017
G1 X113.624 Y109.888 E0.016
G1 X113.759 Y109.407 E0.017
G1 X113.942 Y108.943 E0.017
G1 X114.169 Y108.5 E0.016
G1 X114.439 Y108.081 E0.017
G1 X114.75 Y107.691 E0.016
G1 X114.925 Y107.511 E0.009
G1 X115.099 Y107.334 E0.008
G1 X115.481 Y107.013 E0.017
G1 X115.892 Y106.733 E0.016
G1 X116.329 Y106.494 E0.017
G1 X116.79 Y106.3 E0.016
G1 X117.267 Y106.154 E0.017
G1 X117.755 Y106.055 E0.017
G1 X118.251 Y106.005 E0.016
G1 X118.749 E0.017
G1 X119.245 Y106.055 E0.016
G1 X119.733 Y106.154 E0.017
G1 X120.21 Y106.3 E0.016
G1 X120.671 Y106.494 E0.017
G1 X121.108 Y106.733 E0.017
G1 X121.52 Y107.013 E0.016
G1 X121.902 Y107.334 E0.017
G1 X122.25 Y107.69 E0.016
G1 X122.561 Y108.081 E0.017
G1 X122.831 Y108.5 E0.017
G1 X123.058 Y108.943 E0.016
G1 X123.241 Y109.407 E0.017
;rapid-leaky
G0 X123.621 Y109.279 F7200
;bead-skirt/brim
G1 X123.767 Y109.799 F960 E0.018
G1 X123.86 Y110.329 E0.018
G1 X123.9 Y110.865 E0.017
G1 X123.887 Y111.404 E0.018
G1 X123.819 Y111.94 E0.018
G1 X123.699 Y112.463 E0.018
G1 X123.528 Y112.973 E0.018
G1 X123.307 Y113.464 E0.018
G1 X123.038 Y113.93 E0.018
G1 X122.723 Y114.368 E0.018
G1 X122.366 Y114.772 E0.018
G1 X121.972 Y115.138 E0.018
G1 X121.543 Y115.463 E0.018
G1 X121.084 Y115.744 E0.017
G1 X120.598 Y115.978 E0.018
G1 X120.093 Y116.161 E0.018
G1 X119.571 Y116.295 E0.018
G1 X119.037 Y116.375 E0.018
G1 X118.5 Y116.402 E0.018
G1 X117.963 Y116.375 E0.018
G1 X117.429 Y116.295 E0.018
G1 X116.908 Y116.161 E0.018
G1 X116.402 Y115.978 E0.018
G1 X115.916 Y115.744 E0.018
G1 X115.457 Y115.463 E0.017
G1 X115.028 Y115.138 E0.018
G1 X114.634 Y114.772 E0.018
G1 X114.277 Y114.368 E0.018
G1 X113.962 Y113.93 E0.018
G1 X113.694 Y113.465 E0.018
G1 X113.472 Y112.974 E0.018
G1 X113.299 Y112.462 E0.018
G1 X113.181 Y111.938 E0.018
G1 X113.113 Y111.404 E0.018
G1 X113.1 Y110.865 E0.018
G1 X113.14 Y110.329 E0.017
G1 X113.233 Y109.799 E0.018
G1 X113.379 Y109.279 E0.018
G1 X113.577 Y108.778 E0.018
G1 X113.822 Y108.3 E0.018
G1 X114.114 Y107.847 E0.018
G1 X114.449 Y107.426 E0.018
G1 X114.639 Y107.232 E0.009
G1 X114.826 Y107.04 E0.009
G1 X115.239 Y106.694 E0.018
G1 X115.683 Y106.391 E0.018
G1 X116.155 Y106.133 E0.018
G1 X116.654 Y105.923 E0.018
G1 X117.168 Y105.765 E0.017
G1 X117.695 Y105.659 E0.018
G1 X118.231 Y105.605 E0.018
G1 X118.769 E0.018
G1 X119.305 Y105.659 E0.018
G1 X119.832 Y105.765 E0.018
G1 X120.346 Y105.923 E0.018
G1 X120.845 Y106.133 E0.018
G1 X121.317 Y106.391 E0.018
G1 X121.761 Y106.694 E0.018
G1 X122.175 Y107.041 E0.018
G1 X122.55 Y107.425 E0.017
G1 X122.886 Y107.847 E0.018
G1 X123.178 Y108.3 E0.018
G1 X123.423 Y108.778 E0.018
G1 X123.621 Y109.279 E0.018
;rapid-leaky
G0 X126.643 Y107.921 F7200
;bead-skirt/brim
G1 X126.964 Y107.651 F960 E0.014
G1 X127.31 Y107.416 E0.014
G1 X127.677 Y107.216 E0.014
G1 X128.064 Y107.053 E0.014
G1 X128.464 Y106.93 E0.014
G1 X128.874 Y106.847 E0.014
G1 X129.291 Y106.805 E0.014
G1 X129.709 E0.013
G1 X130.126 Y106.847 E0.014
G1 X130.536 Y106.93 E0.014
G1 X130.936 Y107.053 E0.014
G1 X131.323 Y107.216 E0.014
G1 X131.69 Y107.416 E0.014
G1 X132.036 Y107.651 E0.014
G1 X132.357 Y107.921 E0.014
G1 X132.649 Y108.22 E0.014
G1 X132.911 Y108.548 E0.014
G1 X133.137 Y108.9 E0.014
G1 X133.328 Y109.273 E0.014
G1 X133.482 Y109.662 E0.014
G1 X133.595 Y110.066 E0.014
G1 X133.668 Y110.478 E0.013
G1 X133.699 Y110.895 E0.014
G1 X133.689 Y111.314 E0.014
G1 X133.636 Y111.73 E0.014
G1 X133.543 Y112.137 E0.014
G1 X133.409 Y112.534 E0.014
G1 X133.237 Y112.916 E0.014
G1 X133.028 Y113.279 E0.014
G1 X132.784 Y113.619 E0.014
G1 X132.506 Y113.933 E0.014
G1 X132.2 Y114.217 E0.014
G1 X131.866 Y114.47 E0.014
G1 X131.509 Y114.689 E0.014
G1 X131.132 Y114.871 E0.013
G1 X130.738 Y115.013 E0.014
G1 X130.333 Y115.117 E0.014
G1 X129.918 Y115.179 E0.014
G1 X129.5 Y115.2 E0.014
G1 X129.082 Y115.179 E0.014
G1 X128.667 Y115.117 E0.014
G1 X128.262 Y115.013 E0.014
G1 X127.868 Y114.871 E0.014
G1 X127.491 Y114.689 E0.014
G1 X127.134 Y114.47 E0.014
G1 X126.8 Y114.217 E0.014
G1 X126.494 Y113.933 E0.014
G1 X126.216 Y113.619 E0.014
G1 X125.972 Y113.279 E0.013
G1 X125.763 Y112.916 E0.014
G1 X125.59 Y112.534 E0.014
G1 X125.456 Y112.137 E0.014
G1 X125.364 Y111.73 E0.014
G1 X125.311 Y111.314 E0.014
G1 X125.301 Y110.895 E0.014
G1 X125.332 Y110.478 E0.014
G1 X125.405 Y110.066 E0.014
G1 X125.518 Y109.662 E0.014
G1 X125.672 Y109.273 E0.014
G1 X125.863 Y108.9 E0.014
G1 X126.089 Y108.548 E0.014
G1 X126.351 Y108.221 E0.014
G1 X126.498 Y108.069 E0.007
G1 X126.643 Y107.921 E0.006
;rapid-leaky
G0 X126.371 Y107.627 F7200
;bead-skirt/brim
G1 X126.722 Y107.332 F960 E0.016
G1 X127.101 Y107.074 E0.015
G1 X127.503 Y106.855 E0.015
G1 X127.927 Y106.676 E0.015
G1 X128.365 Y106.542 E0.016
G1 X128.814 Y106.451 E0.015
G1 X129.271 Y106.405 E0.015
G1 X129.729 E0.015
G1 X130.186 Y106.451 E0.016
G1 X130.635 Y106.542 E0.015
G1 X131.073 Y106.676 E0.015
G1 X131.497 Y106.855 E0.016
G1 X131.899 Y107.074 E0.015
G1 X132.278 Y107.332 E0.015
G1 X132.63 Y107.628 E0.015
G1 X132.949 Y107.955 E0.016
G1 X133.236 Y108.314 E0.015
G1 X133.484 Y108.7 E0.015
G1 X133.693 Y109.108 E0.015
G1 X133.861 Y109.534 E0.016
G1 X133.986 Y109.977 E0.015
G1 X134.065 Y110.428 E0.015
G1 X134.1 Y110.885 E0.015
G1 X134.088 Y111.344 E0.016
G1 X134.031 Y111.8 E0.015
G1 X133.928 Y112.246 E0.015
G1 X133.782 Y112.68 E0.015
G1 X133.594 Y113.099 E0.016
G1 X133.365 Y113.496 E0.015
G1 X133.097 Y113.869 E0.015
G1 X132.793 Y114.213 E0.015
G1 X132.457 Y114.524 E0.016
G1 X132.092 Y114.801 E0.015
G1 X131.701 Y115.04 E0.015
G1 X131.287 Y115.24 E0.015
G1 X130.856 Y115.396 E0.016
G1 X130.412 Y115.51 E0.015
G1 X129.958 Y115.578 E0.015
G1 X129.5 Y115.601 E0.015
G1 X129.042 Y115.578 E0.016
G1 X128.588 Y115.51 E0.015
G1 X128.144 Y115.396 E0.015
G1 X127.713 Y115.24 E0.015
G1 X127.299 Y115.04 E0.016
G1 X126.908 Y114.801 E0.015
G1 X126.543 Y114.524 E0.015
G1 X126.207 Y114.212 E0.015
G1 X125.903 Y113.869 E0.016
G1 X125.635 Y113.496 E0.015
G1 X125.407 Y113.099 E0.015
G1 X125.217 Y112.681 E0.015
G1 X125.071 Y112.245 E0.016
G1 X124.969 Y111.799 E0.015
G1 X124.912 Y111.344 E0.015
G1 X124.9 Y110.885 E0.015
G1 X124.935 Y110.428 E0.016
G1 X125.014 Y109.977 E0.015
G1 X125.139 Y109.534 E0.015
G1 X125.307 Y109.108 E0.015
G1 X125.516 Y108.7 E0.016
G1 X125.764 Y108.314 E0.015
G1 X126.05 Y107.956 E0.015
G1 X126.211 Y107.79 E0.008
G1 X126.371 Y107.627 E0.008
;rapid-leaky
G0 X126.099 Y107.334 F7200
;bead-skirt/brim
G1 X126.48 Y107.013 F960 E0.016
G1 X126.892 Y106.733 E0.017
G1 X127.329 Y106.494 E0.016
G1 X127.79 Y106.3 E0.017
G1 X128.267 Y106.154 E0.016
G1 X128.754 Y106.055 E0.017
G1 X129.251 Y106.005 E0.017
G1 X129.749 E0.016
G1 X130.246 Y106.055 E0.017
G1 X130.733 Y106.154 E0.016
G1 X131.21 Y106.3 E0.017
G1 X131.671 Y106.494 E0.017
G1 X132.108 Y106.733 E0.016
G1 X132.519 Y107.013 E0.017
G1 X132.902 Y107.334 E0.016
G1 X133.25 Y107.69 E0.017
G1 X133.561 Y108.081 E0.016
G1 X133.831 Y108.5 E0.017
G1 X134.058 Y108.943 E0.017
G1 X134.241 Y109.407 E0.016
G1 X134.376 Y109.888 E0.017
G1 X134.462 Y110.379 E0.016
G1 X134.5 Y110.875 E0.017
G1 X134.487 Y111.374 E0.017
G1 X134.425 Y111.87 E0.016
G1 X134.314 Y112.355 E0.017
G1 X134.155 Y112.827 E0.016
G1 X133.95 Y113.281 E0.017
G1 X133.701 Y113.713 E0.016
G1 X133.41 Y114.118 E0.017
G1 X133.08 Y114.492 E0.017
G1 X132.715 Y114.831 E0.016
G1 X132.317 Y115.132 E0.017
G1 X131.892 Y115.392 E0.016
G1 X131.442 Y115.609 E0.017
G1 X130.974 Y115.779 E0.016
G1 X130.492 Y115.902 E0.017
G1 X129.997 Y115.976 E0.017
G1 X129.5 Y116.001 E0.016
G1 X129.003 Y115.976 E0.017
G1 X128.508 Y115.902 E0.016
G1 X128.026 Y115.779 E0.017
G1 X127.557 Y115.609 E0.017
G1 X127.108 Y115.392 E0.016
G1 X126.683 Y115.132 E0.017
G1 X126.285 Y114.831 E0.016
G1 X125.92 Y114.492 E0.017
G1 X125.59 Y114.118 E0.016
G1 X125.299 Y113.713 E0.017
G1 X125.05 Y113.282 E0.017
G1 X124.844 Y112.828 E0.016
G1 X124.685 Y112.354 E0.017
G1 X124.575 Y111.869 E0.016
G1 X124.513 Y111.374 E0.017
G1 X124.5 Y110.875 E0.017
G1 X124.538 Y110.379 E0.016
G1 X124.624 Y109.888 E0.017
G1 X124.759 Y109.407 E0.016
G1 X124.942 Y108.943 E0.017
G1 X125.169 Y108.5 E0.016
G1 X125.439 Y108.081 E0.017
G1 X125.75 Y107.691 E0.017
G1 X125.925 Y107.511 E0.008
G1 X126.099 Y107.334 E0.008
;rapid-leaky
G0 X125.826 Y107.04 F7200
;bead-skirt/brim
G1 X126.239 Y106.694 F960 E0.018
G1 X126.683 Y106.391 E0.018
G1 X127.155 Y106.133 E0.018
G1 X127.654 Y105.923 E0.018
G1 X128.168 Y105.765 E0.018
G1 X128.695 Y105.659 E0.018
G1 X129.231 Y105.605 E0.018
G1 X129.769 E0.017
G1 X130.305 Y105.659 E0.018
G1 X130.832 Y105.765 E0.018
G1 X131.346 Y105.923 E0.018
G1 X131.845 Y106.133 E0.018
G1 X132.317 Y106.391 E0.018
G1 X132.761 Y106.693 E0.018
G1 X133.175 Y107.041 E0.018
G1 X133.55 Y107.425 E0.018
G1 X133.886 Y107.847 E0.018
G1 X134.178 Y108.3 E0.018
G1 X134.423 Y108.778 E0.017
G1 X134.621 Y109.279 E0.018
G1 X134.767 Y109.799 E0.018
G1 X134.86 Y110.329 E0.018
G1 X134.9 Y110.865 E0.018
G1 X134.887 Y111.404 E0.018
G1 X134.819 Y111.94 E0.018
G1 X134.699 Y112.463 E0.018
G1 X134.528 Y112.973 E0.018
G1 X134.307 Y113.464 E0.018
G1 X134.038 Y113.93 E0.018
G1 X133.723 Y114.368 E0.018
G1 X133.366 Y114.772 E0.017
G1 X132.972 Y115.138 E0.018
G1 X132.543 Y115.463 E0.018
G1 X132.084 Y115.744 E0.018
G1 X131.598 Y115.978 E0.018
G1 X131.093 Y116.161 E0.018
G1 X130.571 Y116.295 E0.018
G1 X130.037 Y116.375 E0.018
G1 X129.5 Y116.402 E0.018
G1 X128.963 Y116.375 E0.018
G1 X128.429 Y116.295 E0.018
G1 X127.907 Y116.161 E0.017
G1 X127.402 Y115.978 E0.018
G1 X126.916 Y115.744 E0.018
G1 X126.457 Y115.463 E0.018
G1 X126.028 Y115.138 E0.018
G1 X125.634 Y114.772 E0.018
G1 X125.277 Y114.368 E0.018
G1 X124.962 Y113.93 E0.018
G1 X124.694 Y113.465 E0.018
G1 X124.472 Y112.974 E0.018
G1 X124.299 Y112.462 E0.018
G1 X124.181 Y111.938 E0.017
G1 X124.113 Y111.404 E0.018
G1 X124.1 Y110.865 E0.018
G1 X124.14 Y110.329 E0.018
G1 X124.233 Y109.799 E0.018
G1 X124.379 Y109.279 E0.018
G1 X124.577 Y108.778 E0.018
G1 X124.822 Y108.3 E0.018
G1 X125.114 Y107.847 E0.018
G1 X125.449 Y107.426 E0.018
G1 X125.639 Y107.231 E0.009
G1 X125.826 Y107.04 E0.009
;rapid-leaky
G0 X125.554 Y106.746 F7200
;bead-skirt/brim
G1 X125.997 Y106.374 F960 E0.019
G1 X126.474 Y106.049 E0.019
G1 X126.982 Y105.772 E0.019
G1 X127.517 Y105.547 E0.02
G1 X128.069 Y105.377 E0.019
G1 X128.635 Y105.263 E0.019
G1 X129.211 Y105.205 E0.019
G1 X129.79 E0.02
G1 X130.365 Y105.263 E0.019
G1 X130.93 Y105.377 E0.019
G1 X131.483 Y105.547 E0.019
G1 X132.018 Y105.772 E0.019
G1 X132.526 Y106.049 E0.02
G1 X133.003 Y106.374 E0.019
G1 X133.447 Y106.747 E0.019
G1 X133.85 Y107.16 E0.019
G1 X134.212 Y107.613 E0.02
G1 X134.525 Y108.099 E0.019
G1 X134.788 Y108.613 E0.019
G1 X135 Y109.151 E0.019
G1 X135.157 Y109.71 E0.02
G1 X135.257 Y110.279 E0.019
G1 X135.301 Y110.855 E0.019
G1 X135.286 Y111.435 E0.019
G1 X135.214 Y112.01 E0.02
G1 X135.085 Y112.572 E0.019
G1 X134.901 Y113.119 E0.019
G1 X134.663 Y113.646 E0.019
G1 X134.374 Y114.148 E0.019
G1 X134.036 Y114.618 E0.02
G1 X133.653 Y115.051 E0.019
G1 X133.23 Y115.444 E0.019
G1 X132.769 Y115.794 E0.019
G1 X132.275 Y116.095 E0.02
G1 X131.753 Y116.347 E0.019
G1 X131.211 Y116.544 E0.019
G1 X130.65 Y116.688 E0.019
G1 X130.077 Y116.773 E0.02
G1 X129.5 Y116.802 E0.019
G1 X128.923 Y116.773 E0.019
G1 X128.35 Y116.688 E0.019
G1 X127.789 Y116.544 E0.02
G1 X127.247 Y116.347 E0.019
G1 X126.725 Y116.095 E0.019
G1 X126.231 Y115.794 E0.019
G1 X125.77 Y115.444 E0.02
G1 X125.347 Y115.051 E0.019
G1 X124.964 Y114.618 E0.019
G1 X124.626 Y114.148 E0.019
G1 X124.338 Y113.648 E0.019
G1 X124.099 Y113.121 E0.02
G1 X124 Y112.825 E0.01
G1 X123.901 Y113.119 E0.01
G1 X123.663 Y113.646 E0.02
G1 X123.374 Y114.148 E0.019
G1 X123.036 Y114.618 E0.019
G1 X122.653 Y115.051 E0.019
G1 X122.23 Y115.444 E0.02
G1 X121.769 Y115.794 E0.019
G1 X121.276 Y116.095 E0.019
G1 X120.753 Y116.347 E0.019
G1 X120.211 Y116.544 E0.02
G1 X119.65 Y116.688 E0.019
G1 X119.077 Y116.773 E0.019
G1 X118.5 Y116.802 E0.019
G1 X117.923 Y116.773 E0.019
G1 X117.35 Y116.688 E0.02
G1 X116.789 Y116.544 E0.019
G1 X116.247 Y116.347 E0.019
G1 X115.725 Y116.095 E0.019
G1 X115.231 Y115.794 E0.02
G1 X114.77 Y115.444 E0.019
G1 X114.347 Y115.051 E0.019
G1 X113.964 Y114.618 E0.019
G1 X113.626 Y114.148 E0.02
G1 X113.338 Y113.648 E0.019
G1 X113.099 Y113.121 E0.019
G1 X113 Y112.825 E0.01
G1 X112.901 Y113.119 E0.011
G1 X112.663 Y113.646 E0.019
G1 X112.374 Y114.148 E0.019
G1 X112.036 Y114.618 E0.02
G1 X111.653 Y115.051 E0.019
G1 X111.23 Y115.444 E0.019
G1 X110.769 Y115.794 E0.019
G1 X110.276 Y116.095 E0.019
G1 X109.753 Y116.347 E0.02
G1 X109.211 Y116.544 E0.019
G1 X108.65 Y116.688 E0.019
G1 X108.077 Y116.773 E0.019
G1 X107.5 Y116.802 E0.02
G1 X106.923 Y116.773 E0.019
G1 X106.35 Y116.688 E0.019
G1 X105.789 Y116.544 E0.019
G1 X105.247 Y116.347 E0.02
G1 X104.725 Y116.095 E0.019
G1 X104.231 Y115.794 E0.019
G1 X103.77 Y115.444 E0.019
G1 X103.347 Y115.051 E0.02
G1 X102.964 Y114.618 E0.019
G1 X102.626 Y114.148 E0.019
G1 X102.338 Y113.648 E0.019
G1 X102.099 Y113.121 E0.02
G1 X101.914 Y112.57 E0.019
G1 X101.786 Y112.008 E0.019
G1 X101.714 Y111.435 E0.019
G1 X101.699 Y110.855 E0.02
G1 X101.743 Y110.279 E0.019
G1 X101.843 Y109.71 E0.019
G1 X102 Y109.151 E0.019
G1 X102.212 Y108.613 E0.019
G1 X102.475 Y108.099 E0.02
G1 X102.788 Y107.613 E0.019
G1 X103.149 Y107.161 E0.019
G1 X103.554 Y106.746 E0.019
G1 X103.997 Y106.374 E0.02
G1 X104.474 Y106.049 E0.019
G1 X104.982 Y105.772 E0.019
G1 X105.517 Y105.547 E0.019
G1 X106.07 Y105.377 E0.02
G1 X106.635 Y105.263 E0.019
G1 X107.211 Y105.205 E0.019
G1 X107.79 E0.019
G1 X108.365 Y105.263 E0.02
G1 X108.93 Y105.377 E0.019
G1 X109.483 Y105.547 E0.019
G1 X110.018 Y105.772 E0.019
G1 X110.526 Y106.049 E0.02
G1 X111.003 Y106.374 E0.019
G1 X111.447 Y106.747 E0.019
G1 X111.85 Y107.16 E0.019
G1 X112.212 Y107.613 E0.019
G1 X112.525 Y108.099 E0.02
G1 X112.788 Y108.613 E0.019
G1 X113 Y109.151 E0.019
G1 X113.212 Y108.613 E0.019
G1 X113.475 Y108.099 E0.02
G1 X113.788 Y107.613 E0.019
G1 X114.149 Y107.161 E0.019
G1 X114.352 Y106.952 E0.01
G1 X114.554 Y106.746 E0.009
G1 X114.997 Y106.374 E0.02
G1 X115.474 Y106.049 E0.019
G1 X115.982 Y105.772 E0.019
G1 X116.517 Y105.547 E0.019
G1 X117.07 Y105.377 E0.02
G1 X117.635 Y105.263 E0.019
G1 X118.211 Y105.205 E0.019
G1 X118.79 E0.019
G1 X119.365 Y105.263 E0.019
G1 X119.93 Y105.377 E0.02
G1 X120.483 Y105.547 E0.019
G1 X121.018 Y105.772 E0.019
G1 X121.526 Y106.049 E0.019
G1 X122.003 Y106.374 E0.02
G1 X122.447 Y106.747 E0.019
G1 X122.85 Y107.16 E0.019
G1 X123.212 Y107.613 E0.019
G1 X123.525 Y108.1 E0.02
G1 X123.788 Y108.613 E0.019
G1 X124 Y109.151 E0.019
G1 X124.212 Y108.613 E0.019
G1 X124.475 Y108.099 E0.019
G1 X124.788 Y107.613 E0.02
G1 X125.149 Y107.161 E0.019
G1 X125.554 Y106.746 E0.019
;rapid-leaky
G0 X124 Y104.53 F7200
;bead-skirt/brim
G1 X123.482 Y105.005 F960 E0.024
G1 X123.809 Y105.279 E0.014
G1 X124 Y105.475 E0.009
G1 X124.193 Y105.277 E0.009
G1 X124.518 Y105.005 E0.014
G1 X124 Y104.53 E0.024
;rapid-leaky
G0 Y103.943 F7200
;bead-skirt/brim
G1 X123.8 Y104.17 F960 E0.01
G1 X123.26 Y104.671 E0.024
G1 X122.827 Y104.999 E0.018
G1 X122.97 Y105.097 E0.006
G1 X123.537 Y105.573 E0.025
G1 X124 Y106.048 E0.022
G1 X124.465 Y105.571 E0.022
G1 X125.03 Y105.097 E0.024
G1 X125.173 Y104.999 E0.006
G1 X124.74 Y104.671 E0.018
G1 X124.2 Y104.17 E0.025
G1 X124 Y103.943 E0.01
;rapid-leaky
G0 Y103.333 F7200
;bead-skirt/brim
G1 X123.513 Y103.891 F960 E0.024
G1 X123.002 Y104.365 E0.023
G1 X122.446 Y104.786 E0.024
G1 X122.102 Y104.997 E0.013
G1 X122.729 Y105.416 E0.025
G1 X123.264 Y105.867 E0.023
G1 X123.751 Y106.365 E0.024
G1 X124 Y106.677 E0.013
G1 X124.248 Y106.367 E0.013
G1 X124.738 Y105.865 E0.023
G1 X125.271 Y105.416 E0.024
G1 X125.898 Y104.997 E0.025
G1 X125.554 Y104.786 E0.013
G1 X124.998 Y104.365 E0.023
G1 X124.487 Y103.89 E0.024
G1 X124 Y103.333 E0.024
;rapid-leaky
G0 Y102.647 F7200
;bead-skirt/brim
G1 X123.662 Y103.117 F960 E0.019
G1 X123.226 Y103.611 E0.022
G1 X122.745 Y104.058 E0.022
G1 X122.22 Y104.455 E0.022
G1 X121.659 Y104.799 E0.022
G1 X121.243 Y104.999 E0.015
G1 X121.366 Y105.051 E0.005
G1 X121.944 Y105.366 E0.022
G1 X122.487 Y105.736 E0.021
G1 X122.992 Y106.16 E0.022
G1 X123.451 Y106.63 E0.022
G1 X123.862 Y107.146 E0.022
G1 X124 Y107.36 E0.009
G1 X124.138 Y107.146 E0.008
G1 X124.548 Y106.632 E0.022
G1 X125.01 Y106.159 E0.022
G1 X125.513 Y105.736 E0.022
G1 X126.056 Y105.366 E0.022
G1 X126.634 Y105.051 E0.022
G1 X126.757 Y104.999 E0.004
G1 X126.341 Y104.799 E0.015
G1 X125.78 Y104.455 E0.022
G1 X125.255 Y104.058 E0.022
G1 X124.774 Y103.611 E0.022
G1 X124.338 Y103.117 E0.022
G1 X124 Y102.647 E0.019
;rapid-leaky
G0 Y101.863 F7200
;bead-skirt/brim
G1 X123.711 Y102.365 F960 E0.019
G1 X123.349 Y102.868 E0.021
G1 X122.94 Y103.331 E0.021
G1 X122.487 Y103.751 E0.02
G1 X121.995 Y104.125 E0.021
G1 X121.467 Y104.447 E0.02
G1 X120.909 Y104.716 E0.021
G1 X120.329 Y104.927 E0.02
G1 X120.055 Y104.997 E0.01
G1 X120.62 Y105.17 E0.019
G1 X121.192 Y105.412 E0.021
G1 X121.735 Y105.708 E0.021
G1 X122.245 Y106.055 E0.02
G1 X122.72 Y106.454 E0.021
G1 X123.15 Y106.895 E0.02
G1 X123.537 Y107.38 E0.021
G1 X123.872 Y107.899 E0.021
G1 X124 Y108.149 E0.009
G1 X124.128 Y107.899 E0.009
G1 X124.463 Y107.379 E0.021
G1 X124.849 Y106.897 E0.02
G1 X125.282 Y106.452 E0.021
G1 X125.755 Y106.055 E0.02
G1 X126.265 Y105.708 E0.021
G1 X126.808 Y105.412 E0.021
G1 X127.38 Y105.17 E0.02
G1 X127.945 Y104.997 E0.02
G1 X127.671 Y104.927 E0.009
G1 X127.091 Y104.716 E0.021
G1 X126.533 Y104.447 E0.02
G1 X126.005 Y104.125 E0.021
G1 X125.513 Y103.751 E0.021
G1 X125.06 Y103.331 E0.02
G1 X124.651 Y102.868 E0.021
G1 X124.289 Y102.365 E0.02
G1 X124 Y101.863 E0.02
;rapid-leaky
G0 X124.379 Y97.279 F7200
;bead-skirt/brim
G1 X124.577 Y96.778 F960 E0.017
G1 X124.822 Y96.3 E0.018
G1 X125.114 Y95.847 E0.018
G1 X125.449 Y95.426 E0.018
G1 X125.639 Y95.231 E0.009
G1 X125.826 Y95.04 E0.009
G1 X126.239 Y94.694 E0.018
G1 X126.683 Y94.391 E0.018
G1 X127.155 Y94.133 E0.018
G1 X127.654 Y93.923 E0.018
G1 X128.168 Y93.765 E0.018
G1 X128.695 Y93.659 E0.018
G1 X129.231 Y93.605 E0.017
G1 X129.769 E0.018
G1 X130.305 Y93.659 E0.018
G1 X130.832 Y93.765 E0.018
G1 X131.346 Y93.923 E0.018
G1 X131.845 Y94.133 E0.018
G1 X132.317 Y94.391 E0.018
G1 X132.761 Y94.694 E0.018
G1 X133.175 Y95.041 E0.018
G1 X133.55 Y95.425 E0.018
G1 X133.886 Y95.847 E0.018
G1 X134.178 Y96.3 E0.017
G1 X134.423 Y96.778 E0.018
G1 X134.621 Y97.279 E0.018
G1 X134.767 Y97.799 E0.018
G1 X134.86 Y98.329 E0.018
G1 X134.9 Y98.865 E0.018
G1 X134.887 Y99.404 E0.018
G1 X134.819 Y99.94 E0.018
G1 X134.699 Y100.463 E0.018
G1 X134.528 Y100.973 E0.018
G1 X134.307 Y101.464 E0.018
G1 X134.038 Y101.93 E0.017
G1 X133.723 Y102.368 E0.018
G1 X133.366 Y102.772 E0.018
G1 X132.972 Y103.138 E0.018
G1 X132.543 Y103.463 E0.018
G1 X132.084 Y103.744 E0.018
G1 X131.598 Y103.978 E0.018
G1 X131.093 Y104.161 E0.018
G1 X130.571 Y104.295 E0.018
G1 X130.037 Y104.375 E0.018
G1 X129.5 Y104.402 E0.018
G1 X128.963 Y104.375 E0.017
G1 X128.429 Y104.295 E0.018
G1 X127.907 Y104.161 E0.018
G1 X127.402 Y103.978 E0.018
G1 X126.916 Y103.744 E0.018
G1 X126.457 Y103.463 E0.018
G1 X126.028 Y103.138 E0.018
G1 X125.634 Y102.772 E0.018
G1 X125.277 Y102.368 E0.018
G1 X124.962 Y101.93 E0.018
G1 X124.694 Y101.465 E0.018
G1 X124.472 Y100.974 E0.018
G1 X124.299 Y100.462 E0.017
G1 X124.181 Y99.938 E0.018
G1 X124.113 Y99.404 E0.018
G1 X124.1 Y98.865 E0.018
G1 X124.14 Y98.329 E0.018
G1 X124.233 Y97.799 E0.018
G1 X124.379 Y97.279 E0.018
;rapid-leaky
G0 X124.759 Y97.407 F7200
;bead-skirt/brim
G1 X124.942 Y96.943 F960 E0.017
G1 X125.169 Y96.5 E0.016
G1 X125.439 Y96.081 E0.017
G1 X125.75 Y95.691 E0.016
G1 X125.925 Y95.511 E0.009
G1 X126.099 Y95.334 E0.008
G1 X126.48 Y95.013 E0.016
G1 X126.892 Y94.733 E0.017
G1 X127.329 Y94.494 E0.017
G1 X127.79 Y94.3 E0.016
G1 X128.267 Y94.154 E0.017
G1 X128.754 Y94.055 E0.016
G1 X129.251 Y94.005 E0.017
G1 X129.749 E0.016
G1 X130.246 Y94.055 E0.017
G1 X130.733 Y94.154 E0.017
G1 X131.21 Y94.3 E0.016
G1 X131.671 Y94.494 E0.017
G1 X132.108 Y94.733 E0.016
G1 X132.52 Y95.013 E0.017
G1 X132.902 Y95.334 E0.017
G1 X133.25 Y95.69 E0.016
G1 X133.561 Y96.081 E0.017
G1 X133.831 Y96.5 E0.016
G1 X134.058 Y96.943 E0.017
G1 X134.241 Y97.407 E0.016
G1 X134.376 Y97.888 E0.017
G1 X134.462 Y98.379 E0.017
G1 X134.5 Y98.875 E0.016
G1 X134.487 Y99.374 E0.017
G1 X134.425 Y99.87 E0.016
G1 X134.314 Y100.355 E0.017
G1 X134.155 Y100.827 E0.017
G1 X133.95 Y101.281 E0.016
G1 X133.701 Y101.713 E0.017
G1 X133.41 Y102.118 E0.016
G1 X133.08 Y102.492 E0.017
G1 X132.715 Y102.831 E0.016
G1 X132.317 Y103.132 E0.017
G1 X131.892 Y103.392 E0.017
G1 X131.442 Y103.609 E0.016
G1 X130.974 Y103.779 E0.017
G1 X130.492 Y103.902 E0.016
G1 X129.997 Y103.976 E0.017
G1 X129.5 Y104.001 E0.017
G1 X129.003 Y103.976 E0.016
G1 X128.508 Y103.902 E0.017
G1 X128.026 Y103.779 E0.016
G1 X127.557 Y103.609 E0.017
G1 X127.108 Y103.392 E0.016
G1 X126.683 Y103.132 E0.017
G1 X126.285 Y102.831 E0.017
G1 X125.92 Y102.492 E0.016
G1 X125.59 Y102.118 E0.017
G1 X125.299 Y101.713 E0.016
G1 X125.05 Y101.282 E0.017
G1 X124.844 Y100.828 E0.017
G1 X124.685 Y100.354 E0.016
G1 X124.575 Y99.869 E0.017
G1 X124.513 Y99.374 E0.016
G1 X124.5 Y98.875 E0.017
G1 X124.538 Y98.379 E0.016
G1 X124.624 Y97.888 E0.017
G1 X124.759 Y97.407 E0.017
;rapid-leaky
G0 X125.139 Y97.534 F7200
;bead-skirt/brim
G1 X125.307 Y97.108 F960 E0.015
G1 X125.516 Y96.7 E0.015
G1 X125.764 Y96.314 E0.015
G1 X126.05 Y95.956 E0.016
G1 X126.211 Y95.79 E0.007
G1 X126.371 Y95.627 E0.008
G1 X126.722 Y95.332 E0.015
G1 X127.101 Y95.074 E0.015
G1 X127.503 Y94.855 E0.016
G1 X127.927 Y94.676 E0.015
G1 X128.365 Y94.542 E0.015
G1 X128.814 Y94.451 E0.015
G1 X129.271 Y94.405 E0.016
G1 X129.729 E0.015
G1 X130.186 Y94.451 E0.015
G1 X130.635 Y94.542 E0.015
G1 X131.073 Y94.676 E0.016
G1 X131.497 Y94.855 E0.015
G1 X131.899 Y95.074 E0.015
G1 X132.278 Y95.332 E0.015
G1 X132.63 Y95.628 E0.016
G1 X132.949 Y95.955 E0.015
G1 X133.236 Y96.314 E0.015
G1 X133.484 Y96.7 E0.016
G1 X133.693 Y97.108 E0.015
G1 X133.861 Y97.534 E0.015
G1 X133.986 Y97.977 E0.015
G1 X134.065 Y98.428 E0.016
G1 X134.1 Y98.885 E0.015
G1 X134.088 Y99.344 E0.015
G1 X134.031 Y99.8 E0.015
G1 X133.928 Y100.246 E0.016
G1 X133.782 Y100.68 E0.015
G1 X133.594 Y101.099 E0.015
G1 X133.365 Y101.496 E0.015
G1 X133.097 Y101.869 E0.016
G1 X132.793 Y102.213 E0.015
G1 X132.457 Y102.524 E0.015
G1 X132.092 Y102.801 E0.015
G1 X131.701 Y103.041 E0.016
G1 X131.287 Y103.24 E0.015
G1 X130.856 Y103.396 E0.015
G1 X130.412 Y103.51 E0.015
G1 X129.958 Y103.578 E0.016
G1 X129.5 Y103.601 E0.015
G1 X129.042 Y103.578 E0.015
G1 X128.588 Y103.51 E0.015
G1 X128.144 Y103.396 E0.016
G1 X127.713 Y103.24 E0.015
G1 X127.299 Y103.041 E0.015
G1 X126.908 Y102.801 E0.015
G1 X126.543 Y102.524 E0.016
G1 X126.207 Y102.213 E0.015
G1 X125.903 Y101.869 E0.015
G1 X125.635 Y101.496 E0.015
G1 X125.407 Y101.099 E0.016
G1 X125.217 Y100.681 E0.015
G1 X125.071 Y100.245 E0.015
G1 X124.969 Y99.799 E0.015
G1 X124.912 Y99.344 E0.016
G1 X124.9 Y98.885 E0.015
G1 X124.935 Y98.428 E0.015
G1 X125.014 Y97.977 E0.015
G1 X125.139 Y97.534 E0.016
;rapid-leaky
G0 X125.518 Y97.662 F7200
;bead-skirt/brim
G1 X125.672 Y97.273 F960 E0.014
G1 X125.863 Y96.9 E0.014
G1 X126.089 Y96.548 E0.013
G1 X126.351 Y96.221 E0.014
G1 X126.498 Y96.069 E0.007
G1 X126.643 Y95.921 E0.007
G1 X126.964 Y95.651 E0.014
G1 X127.31 Y95.416 E0.014
G1 X127.677 Y95.216 E0.014
G1 X128.064 Y95.053 E0.014
G1 X128.464 Y94.93 E0.014
G1 X128.874 Y94.847 E0.014
G1 X129.291 Y94.805 E0.014
G1 X129.709 E0.014
G1 X130.126 Y94.847 E0.014
G1 X130.536 Y94.93 E0.014
G1 X130.936 Y95.053 E0.014
G1 X131.323 Y95.216 E0.013
G1 X131.69 Y95.416 E0.014
G1 X132.036 Y95.651 E0.014
G1 X132.357 Y95.921 E0.014
G1 X132.649 Y96.22 E0.014
G1 X132.911 Y96.548 E0.014
G1 X133.137 Y96.9 E0.014
G1 X133.328 Y97.273 E0.014
G1 X133.482 Y97.662 E0.014
G1 X133.595 Y98.066 E0.014
G1 X133.668 Y98.478 E0.014
G1 X133.699 Y98.895 E0.014
G1 X133.689 Y99.314 E0.014
G1 X133.636 Y99.73 E0.014
G1 X133.543 Y100.137 E0.013
G1 X133.409 Y100.534 E0.014
G1 X133.237 Y100.916 E0.014
G1 X133.028 Y101.279 E0.014
G1 X132.784 Y101.619 E0.014
G1 X132.506 Y101.933 E0.014
G1 X132.2 Y102.217 E0.014
G1 X131.866 Y102.47 E0.014
G1 X131.509 Y102.689 E0.014
G1 X131.132 Y102.871 E0.014
G1 X130.738 Y103.013 E0.014
G1 X130.333 Y103.117 E0.014
G1 X129.918 Y103.179 E0.014
G1 X129.5 Y103.2 E0.013
G1 X129.082 Y103.179 E0.014
G1 X128.667 Y103.117 E0.014
G1 X128.262 Y103.013 E0.014
G1 X127.868 Y102.871 E0.014
G1 X127.491 Y102.689 E0.014
G1 X127.134 Y102.47 E0.014
G1 X126.8 Y102.217 E0.014
G1 X126.494 Y101.933 E0.014
G1 X126.216 Y101.619 E0.014
G1 X125.972 Y101.279 E0.014
G1 X125.763 Y100.916 E0.014
G1 X125.59 Y100.534 E0.014
G1 X125.456 Y100.137 E0.014
G1 X125.364 Y99.73 E0.013
G1 X125.311 Y99.314 E0.014
G1 X125.301 Y98.895 E0.014
G1 X125.332 Y98.478 E0.014
G1 X125.405 Y98.066 E0.014
G1 X125.518 Y97.662 E0.014
;rapid-leaky
G0 X132.243 Y104.999 F7200
;bead-skirt/brim
G1 X132.366 Y105.051 F960 E0.005
G1 X132.944 Y105.366 E0.021
G1 X133.487 Y105.736 E0.022
G1 X133.992 Y106.16 E0.022
G1 X134.451 Y106.63 E0.022
G1 X134.862 Y107.146 E0.022
G1 X135.219 Y107.699 E0.022
G1 X135.518 Y108.283 E0.022
G1 X135.759 Y108.896 E0.022
G1 X135.938 Y109.532 E0.022
G1 X136 Y109.883 E0.011
G1 X136.062 Y109.532 E0.012
G1 X136.241 Y108.896 E0.022
G1 X136.482 Y108.283 E0.022
G1 X136.781 Y107.699 E0.022
G1 X137.138 Y107.146 E0.022
G1 X137.548 Y106.632 E0.022
G1 X137.78 Y106.393 E0.011
G1 X138.01 Y106.159 E0.011
G1 X138.513 Y105.736 E0.022
G1 X139.056 Y105.366 E0.022
G1 X139.634 Y105.051 E0.021
G1 X139.757 Y104.999 E0.005
G1 X139.341 Y104.799 E0.015
G1 X138.78 Y104.455 E0.022
G1 X138.255 Y104.058 E0.022
G1 X137.774 Y103.611 E0.022
G1 X137.338 Y103.117 E0.022
G1 X136.955 Y102.584 E0.022
G1 X136.624 Y102.014 E0.021
G1 X136.351 Y101.409 E0.023
G1 X136.144 Y100.786 E0.021
G1 X136 Y100.159 E0.022
G1 X135.855 Y100.789 E0.021
G1 X135.647 Y101.411 E0.022
G1 X135.376 Y102.012 E0.022
G1 X135.047 Y102.582 E0.022
G1 X134.662 Y103.117 E0.022
G1 X134.226 Y103.611 E0.022
G1 X133.745 Y104.058 E0.022
G1 X133.22 Y104.455 E0.021
G1 X132.659 Y104.799 E0.022
G1 X132.243 Y104.999 E0.016
;rapid-leaky
G0 X133.102 Y104.997 F7200
;bead-skirt/brim
G1 X133.728 Y105.416 F960 E0.025
G1 X134.264 Y105.867 E0.023
G1 X134.751 Y106.365 E0.023
G1 X135.187 Y106.912 E0.024
G1 X135.566 Y107.499 E0.023
G1 X135.883 Y108.118 E0.023
G1 X136 Y108.415 E0.01
G1 X136.117 Y108.118 E0.011
G1 X136.434 Y107.499 E0.023
G1 X136.813 Y106.912 E0.023
G1 X137.248 Y106.367 E0.024
G1 X137.737 Y105.865 E0.023
G1 X138.271 Y105.416 E0.023
G1 X138.898 Y104.997 E0.025
G1 X138.554 Y104.786 E0.014
G1 X137.998 Y104.365 E0.023
G1 X137.487 Y103.891 E0.023
G1 X137.025 Y103.367 E0.023
G1 X136.618 Y102.802 E0.023
G1 X136.268 Y102.197 E0.024
G1 X135.999 Y101.602 E0.021
G1 X135.733 Y102.194 E0.022
G1 X135.383 Y102.799 E0.023
G1 X134.975 Y103.367 E0.024
G1 X134.513 Y103.89 E0.023
G1 X134.002 Y104.365 E0.023
G1 X133.446 Y104.786 E0.023
G1 X133.102 Y104.997 E0.014
;rapid-leaky
G0 X133.827 Y104.999 F7200
;bead-skirt/brim
G1 X133.97 Y105.097 F960 E0.005
G1 X134.537 Y105.573 E0.025
G1 X135.051 Y106.1 E0.024
G1 X135.513 Y106.678 E0.025
G1 X135.913 Y107.299 E0.025
G1 X136 Y107.469 E0.006
G1 X136.087 Y107.299 E0.006
G1 X136.488 Y106.678 E0.025
G1 X136.947 Y106.102 E0.024
G1 X137.465 Y105.571 E0.025
G1 X138.03 Y105.097 E0.025
G1 X138.173 Y104.999 E0.005
G1 X137.74 Y104.671 E0.018
G1 X137.2 Y104.17 E0.025
G1 X136.712 Y103.617 E0.024
G1 X136.282 Y103.02 E0.025
G1 X136 Y102.532 E0.019
G1 X135.72 Y103.017 E0.018
G1 X135.288 Y103.617 E0.025
G1 X134.8 Y104.17 E0.024
G1 X134.26 Y104.671 E0.025
G1 X133.827 Y104.999 E0.018
;rapid-leaky
G0 X134.482 Y105.005 F7200
;bead-skirt/brim
G1 X134.809 Y105.279 F960 E0.014
G1 X135.351 Y105.835 E0.026
G1 X135.838 Y106.445 E0.026
G1 X136 Y106.696 E0.01
G1 X136.162 Y106.445 E0.01
G1 X136.647 Y105.837 E0.026
G1 X137.193 Y105.277 E0.026
G1 X137.518 Y105.005 E0.014
G1 X136.914 Y104.45 E0.027
G1 X136.399 Y103.867 E0.026
G1 X136 Y103.312 E0.023
G1 X135.601 Y103.867 E0.022
G1 X135.086 Y104.45 E0.026
G1 X134.482 Y105.005 E0.028
;rapid-leaky
G0 X137.463 Y107.379 F7200
;bead-skirt/brim
G1 X137.849 Y106.897 F960 E0.02
G1 X138.282 Y106.452 E0.021
G1 X138.755 Y106.055 E0.02
G1 X139.265 Y105.708 E0.021
G1 X139.808 Y105.412 E0.02
G1 X140.38 Y105.17 E0.021
G1 X140.945 Y104.997 E0.02
G1 X140.671 Y104.927 E0.009
G1 X140.091 Y104.716 E0.021
G1 X139.533 Y104.447 E0.02
G1 X139.006 Y104.125 E0.021
G1 X138.513 Y103.751 E0.02
G1 X138.06 Y103.331 E0.021
G1 X137.651 Y102.868 E0.021
G1 X137.291 Y102.367 E0.02
G1 X136.98 Y101.831 E0.021
G1 X136.724 Y101.263 E0.02
G1 X136.529 Y100.678 E0.021
G1 X136.392 Y100.08 E0.02
G1 X136.314 Y99.465 E0.021
G1 X136.299 Y98.844 E0.021
G1 X136.345 Y98.229 E0.02
G1 X136.452 Y97.621 E0.021
G1 X136.62 Y97.024 E0.02
G1 X136.847 Y96.448 E0.021
G1 X137.128 Y95.899 E0.02
G1 X137.463 Y95.38 E0.021
G1 X137.849 Y94.897 E0.02
G1 X138.282 Y94.452 E0.021
G1 X138.755 Y94.055 E0.021
G1 X139.265 Y93.708 E0.02
G1 X139.808 Y93.412 E0.021
G1 X140.38 Y93.17 E0.02
G1 X140.971 Y92.989 E0.021
G1 X141.575 Y92.867 E0.02
G1 X142.19 Y92.805 E0.021
G1 X142.81 E0.021
G1 X143.425 Y92.867 E0.02
G1 X144.029 Y92.989 E0.021
G1 X144.62 Y93.17 E0.02
G1 X145.192 Y93.412 E0.021
G1 X145.735 Y93.708 E0.02
G1 X146.245 Y94.055 E0.021
G1 X146.72 Y94.454 E0.021
G1 X147.15 Y94.895 E0.02
G1 X147.537 Y95.38 E0.021
G1 X147.872 Y95.899 E0.02
G1 X148.153 Y96.448 E0.021
G1 X148.38 Y97.024 E0.02
G1 X148.548 Y97.621 E0.021
G1 X148.655 Y98.229 E0.021
G1 X148.701 Y98.845 E0.02
G1 X148.686 Y99.465 E0.021
G1 X148.608 Y100.08 E0.02
G1 X148.47 Y100.681 E0.021
G1 X148.274 Y101.265 E0.02
G1 X148.02 Y101.829 E0.021
G1 X147.711 Y102.365 E0.02
G1 X147.349 Y102.868 E0.021
G1 X146.94 Y103.331 E0.021
G1 X146.487 Y103.751 E0.02
G1 X145.995 Y104.125 E0.021
G1 X145.467 Y104.447 E0.02
G1 X144.909 Y104.716 E0.021
G1 X144.329 Y104.927 E0.02
G1 X144.055 Y104.997 E0.01
G1 X144.62 Y105.17 E0.02
G1 X145.192 Y105.412 E0.02
G1 X145.735 Y105.708 E0.021
G1 X146.245 Y106.055 E0.02
G1 X146.72 Y106.454 E0.021
G1 X147.15 Y106.895 E0.02
G1 X147.537 Y107.38 E0.021
G1 X147.872 Y107.899 E0.021
G1 X148.153 Y108.448 E0.02
G1 X148.38 Y109.024 E0.021
G1 X148.548 Y109.621 E0.02
G1 X148.655 Y110.229 E0.021
G1 X148.701 Y110.845 E0.02
G1 X148.686 Y111.465 E0.021
G1 X148.608 Y112.08 E0.021
G1 X148.47 Y112.681 E0.02
G1 X148.274 Y113.265 E0.021
G1 X148.02 Y113.829 E0.02
G1 X147.711 Y114.365 E0.021
G1 X147.349 Y114.868 E0.02
G1 X146.94 Y115.331 E0.021
G1 X146.487 Y115.751 E0.02
G1 X145.995 Y116.125 E0.021
G1 X145.467 Y116.447 E0.021
G1 X144.909 Y116.716 E0.02
G1 X144.329 Y116.927 E0.021
G1 X143.73 Y117.08 E0.02
G1 X143.116 Y117.172 E0.021
G1 X142.5 Y117.203 E0.02
G1 X141.884 Y117.172 E0.021
G1 X141.27 Y117.08 E0.021
G1 X140.671 Y116.927 E0.02
G1 X140.091 Y116.716 E0.021
G1 X139.533 Y116.447 E0.02
G1 X139.005 Y116.125 E0.021
G1 X138.513 Y115.751 E0.02
G1 X138.06 Y115.331 E0.021
G1 X137.651 Y114.868 E0.021
G1 X137.291 Y114.367 E0.02
G1 X136.98 Y113.831 E0.021
G1 X136.724 Y113.263 E0.02
G1 X136.529 Y112.678 E0.021
G1 X136.392 Y112.08 E0.02
G1 X136.314 Y111.465 E0.021
G1 X136.299 Y110.844 E0.021
G1 X136.345 Y110.229 E0.02
G1 X136.452 Y109.621 E0.021
G1 X136.62 Y109.024 E0.02
G1 X136.847 Y108.448 E0.021
G1 X137.128 Y107.899 E0.02
G1 X137.463 Y107.379 E0.021
;rapid-leaky
G0 X137.788 Y107.613 F7200
;bead-skirt/brim
G1 X138.149 Y107.161 F960 E0.019
G1 X138.353 Y106.952 E0.01
G1 X138.554 Y106.746 E0.009
G1 X138.997 Y106.374 E0.02
G1 X139.474 Y106.049 E0.019
G1 X139.982 Y105.772 E0.019
G1 X140.517 Y105.547 E0.019
G1 X141.07 Y105.377 E0.02
G1 X141.635 Y105.263 E0.019
G1 X142.211 Y105.205 E0.019
G1 X142.79 E0.019
G1 X143.365 Y105.263 E0.02
G1 X143.93 Y105.377 E0.019
G1 X144.483 Y105.547 E0.019
G1 X145.018 Y105.772 E0.019
G1 X145.526 Y106.049 E0.02
G1 X146.003 Y106.374 E0.019
G1 X146.447 Y106.747 E0.019
G1 X146.85 Y107.16 E0.019
G1 X147.212 Y107.613 E0.019
G1 X147.525 Y108.099 E0.02
G1 X147.788 Y108.613 E0.019
G1 X148 Y109.151 E0.019
G1 X148.157 Y109.71 E0.019
G1 X148.257 Y110.279 E0.02
G1 X148.301 Y110.855 E0.019
G1 X148.286 Y111.435 E0.019
G1 X148.214 Y112.01 E0.019
G1 X148.085 Y112.572 E0.02
G1 X147.901 Y113.119 E0.019
G1 X147.663 Y113.646 E0.019
G1 X147.374 Y114.148 E0.019
G1 X147.036 Y114.618 E0.02
G1 X146.653 Y115.051 E0.019
G1 X146.23 Y115.444 E0.019
G1 X145.769 Y115.794 E0.019
G1 X145.275 Y116.095 E0.02
G1 X144.753 Y116.347 E0.019
G1 X144.211 Y116.544 E0.019
G1 X143.65 Y116.688 E0.019
G1 X143.077 Y116.773 E0.02
G1 X142.5 Y116.802 E0.019
G1 X141.923 Y116.773 E0.019
G1 X141.35 Y116.688 E0.019
G1 X140.789 Y116.544 E0.019
G1 X140.247 Y116.347 E0.02
G1 X139.724 Y116.095 E0.019
G1 X139.231 Y115.794 E0.019
G1 X138.77 Y115.444 E0.019
G1 X138.347 Y115.051 E0.02
G1 X137.964 Y114.618 E0.019
G1 X137.627 Y114.149 E0.019
G1 X137.337 Y113.648 E0.019
G1 X137.097 Y113.117 E0.02
G1 X136.915 Y112.57 E0.019
G1 X136.786 Y112.01 E0.019
G1 X136.714 Y111.435 E0.019
G1 X136.699 Y110.855 E0.02
G1 X136.743 Y110.279 E0.019
G1 X136.843 Y109.71 E0.019
G1 X137 Y109.151 E0.019
G1 X137.212 Y108.613 E0.02
G1 X137.475 Y108.099 E0.019
G1 X137.788 Y107.613 E0.019
;rapid-leaky
G0 X138.114 Y107.847 F7200
;bead-skirt/brim
G1 X138.449 Y107.426 F960 E0.018
G1 X138.639 Y107.231 E0.009
G1 X138.826 Y107.04 E0.009
G1 X139.239 Y106.694 E0.018
G1 X139.683 Y106.391 E0.018
G1 X140.155 Y106.133 E0.017
G1 X140.654 Y105.923 E0.018
G1 X141.168 Y105.765 E0.018
G1 X141.695 Y105.659 E0.018
G1 X142.231 Y105.605 E0.018
G1 X142.769 E0.018
G1 X143.305 Y105.659 E0.018
G1 X143.832 Y105.765 E0.018
G1 X144.346 Y105.923 E0.018
G1 X144.845 Y106.133 E0.018
G1 X145.317 Y106.391 E0.018
G1 X145.761 Y106.694 E0.018
G1 X146.175 Y107.041 E0.017
G1 X146.55 Y107.425 E0.018
G1 X146.886 Y107.847 E0.018
G1 X147.178 Y108.3 E0.018
G1 X147.423 Y108.778 E0.018
G1 X147.621 Y109.279 E0.018
G1 X147.767 Y109.799 E0.018
G1 X147.86 Y110.329 E0.018
G1 X147.9 Y110.865 E0.018
G1 X147.887 Y111.404 E0.018
G1 X147.819 Y111.94 E0.018
G1 X147.699 Y112.463 E0.017
G1 X147.528 Y112.973 E0.018
G1 X147.307 Y113.464 E0.018
G1 X147.038 Y113.93 E0.018
G1 X146.723 Y114.368 E0.018
G1 X146.366 Y114.772 E0.018
G1 X145.972 Y115.138 E0.018
G1 X145.543 Y115.463 E0.018
G1 X145.084 Y115.744 E0.018
G1 X144.598 Y115.978 E0.018
G1 X144.093 Y116.161 E0.018
G1 X143.571 Y116.295 E0.017
G1 X143.037 Y116.375 E0.018
G1 X142.5 Y116.402 E0.018
G1 X141.963 Y116.375 E0.018
G1 X141.429 Y116.295 E0.018
G1 X140.907 Y116.161 E0.018
G1 X140.402 Y115.978 E0.018
G1 X139.916 Y115.744 E0.018
G1 X139.457 Y115.463 E0.018
G1 X139.028 Y115.138 E0.018
G1 X138.634 Y114.772 E0.018
G1 X138.277 Y114.368 E0.017
G1 X137.963 Y113.932 E0.018
G1 X137.693 Y113.465 E0.018
G1 X137.47 Y112.971 E0.018
G1 X137.301 Y112.462 E0.018
G1 X137.181 Y111.94 E0.018
G1 X137.113 Y111.404 E0.018
G1 X137.1 Y110.865 E0.018
G1 X137.14 Y110.329 E0.018
G1 X137.233 Y109.799 E0.018
G1 X137.379 Y109.279 E0.018
G1 X137.577 Y108.778 E0.018
G1 X137.822 Y108.3 E0.017
G1 X138.114 Y107.847 E0.018
;rapid-leaky
G0 X138.439 Y108.081 F7200
;bead-skirt/brim
G1 X138.75 Y107.691 F960 E0.017
G1 X138.925 Y107.511 E0.008
G1 X139.098 Y107.334 E0.009
G1 X139.48 Y107.013 E0.016
G1 X139.892 Y106.733 E0.017
G1 X140.329 Y106.494 E0.016
G1 X140.79 Y106.3 E0.017
G1 X141.267 Y106.154 E0.016
G1 X141.755 Y106.055 E0.017
G1 X142.251 Y106.005 E0.017
G1 X142.749 E0.016
G1 X143.245 Y106.055 E0.017
G1 X143.733 Y106.154 E0.016
G1 X144.21 Y106.3 E0.017
G1 X144.671 Y106.494 E0.017
G1 X145.108 Y106.733 E0.016
G1 X145.52 Y107.013 E0.017
G1 X145.902 Y107.334 E0.016
