;role deget mare
;Printer name: Prusa i3 MK3
;TIME:355
;Print time: 5m:55s
;Extruder 1 material used: 186mm
;Extruder 1 material name: 
;Extruder 1 filament diameter: 1.75mm
;Extruder 1 nozzle diameter: 0.4mm
;Extruder 1 offset x: 0mm
;Extruder 1 offset y: 0mm
;Extruder 1 offset z: 0mm
;Extruder 1 max temp: 200
;Bed temp: 70
;Layer count: 31
;Width: 250mm
;Depth: 210mm
;Height: 210mm
;Center x: 125mm
;Center y: 105mm
;Center z: 0mm
;Count of bodies: 2
;Fusion version: 2.0.19440
G21
M115 U3.0.10 ;tell printer latest fw version
G28 W ;home all without mesh bed level
;--------------------------------
;Selected Profile: PLA Direct Drive
;--------------------------------
;Selected Printer: Prusa, i3 MK3
;--------------------------------
T0
M140 S70
M104 S200 T0
M190 S70
M109 S200 T0
G80 ;mesh bed leveling
G92 E0
G90
M83
G0 X10 Y10 Z10 F7200
G92 E0
;--------------------------------
;Part 1
;LAYER_COUNT:31
;LAYER:1
M107
;rapid-leaky
G0 X20 Y20.5 Z0.2 F7200
;bead-prime
G1 X120 F720 E8.315
G1 F2100 E-0.5
;rapid-dry
G0 X124.803 Y90.198 F7200
G1 F2100 E0.5
;bead-skirt/brim
G1 X125.582 Y90.216 F960 E0.026
G1 X126.357 Y90.307 E0.026
G1 X127.119 Y90.471 E0.026
G1 X127.859 Y90.703 E0.026
G1 X128.581 Y91.007 E0.026
G1 X129.266 Y91.376 E0.026
G1 X129.912 Y91.804 E0.025
G1 X130.517 Y92.294 E0.026
G1 X131.075 Y92.839 E0.026
G1 X131.578 Y93.432 E0.026
G1 X132.024 Y94.07 E0.026
G1 X132.407 Y94.747 E0.026
G1 X132.727 Y95.457 E0.026
G1 X132.978 Y96.195 E0.026
G1 X133.159 Y96.952 E0.025
G1 X133.267 Y97.723 E0.026
G1 X133.304 Y98.5 E0.026
G1 X133.267 Y99.277 E0.026
G1 X133.159 Y100.048 E0.026
G1 X132.978 Y100.805 E0.026
G1 X132.727 Y101.542 E0.026
G1 X132.407 Y102.253 E0.026
G1 X132.024 Y102.93 E0.026
G1 X131.578 Y103.568 E0.025
G1 X131.075 Y104.162 E0.026
G1 X130.517 Y104.706 E0.026
G1 X130.154 Y105 E0.016
G1 X130.517 Y105.294 E0.015
G1 X131.075 Y105.838 E0.026
G1 X131.575 Y106.428 E0.026
G1 X132.025 Y107.073 E0.026
G1 X132.407 Y107.747 E0.026
G1 X132.727 Y108.457 E0.026
G1 X132.978 Y109.195 E0.026
G1 X133.159 Y109.952 E0.026
G1 X133.267 Y110.723 E0.026
G1 X133.304 Y111.5 E0.025
G1 X133.267 Y112.277 E0.026
G1 X133.159 Y113.048 E0.026
G1 X132.978 Y113.804 E0.026
G1 X132.727 Y114.542 E0.026
G1 X132.407 Y115.253 E0.026
G1 X132.024 Y115.93 E0.026
G1 X131.578 Y116.568 E0.026
G1 X131.075 Y117.162 E0.026
G1 X130.517 Y117.706 E0.026
G1 X129.912 Y118.196 E0.025
G1 X129.266 Y118.624 E0.026
G1 X128.581 Y118.993 E0.026
G1 X127.859 Y119.297 E0.026
G1 X127.119 Y119.529 E0.026
G1 X126.357 Y119.693 E0.026
G1 X125.582 Y119.784 E0.026
G1 X124.803 Y119.802 E0.026
G1 X124.027 Y119.747 E0.026
G1 X123.263 Y119.62 E0.025
G1 X122.508 Y119.422 E0.026
G1 X121.778 Y119.153 E0.026
G1 X121.077 Y118.82 E0.026
G1 X120.407 Y118.418 E0.026
G1 X120.133 Y118.218 E0.011
G1 X119.776 Y117.955 E0.015
G1 X119.198 Y117.441 E0.026
G1 X118.668 Y116.872 E0.026
G1 X118.192 Y116.256 E0.025
G1 X117.774 Y115.593 E0.027
G1 X117.425 Y114.902 E0.025
G1 X117.139 Y114.179 E0.026
G1 X116.923 Y113.429 E0.026
G1 X116.777 Y112.664 E0.026
G1 X116.705 Y111.887 E0.026
G1 Y111.113 E0.026
G1 X116.777 Y110.336 E0.026
G1 X116.923 Y109.571 E0.026
G1 X117.139 Y108.821 E0.026
G1 X117.425 Y108.098 E0.025
G1 X117.774 Y107.407 E0.026
G1 X118.192 Y106.744 E0.026
G1 X118.668 Y106.128 E0.026
G1 X119.198 Y105.559 E0.026
G1 X119.838 Y105 E0.028
G1 X119.198 Y104.44 E0.028
G1 X118.668 Y103.872 E0.026
G1 X118.192 Y103.255 E0.026
G1 X117.774 Y102.593 E0.026
G1 X117.425 Y101.902 E0.026
G1 X117.139 Y101.179 E0.026
G1 X116.923 Y100.429 E0.026
G1 X116.777 Y99.664 E0.026
G1 X116.705 Y98.887 E0.026
G1 Y98.113 E0.025
G1 X116.777 Y97.336 E0.026
G1 X116.923 Y96.571 E0.026
G1 X117.139 Y95.821 E0.026
G1 X117.425 Y95.098 E0.026
G1 X117.774 Y94.407 E0.026
G1 X118.192 Y93.744 E0.026
G1 X118.668 Y93.128 E0.026
G1 X119.198 Y92.56 E0.026
G1 X119.778 Y92.044 E0.025
G1 X120.404 Y91.584 E0.026
G1 X121.077 Y91.18 E0.026
G1 X121.778 Y90.847 E0.026
G1 X122.508 Y90.578 E0.026
G1 X123.264 Y90.38 E0.026
G1 X124.027 Y90.253 E0.026
G1 X124.803 Y90.198 E0.026
;rapid-leaky
G0 X124.813 Y90.598 F7200
;bead-skirt/brim
G1 X125.554 Y90.616 F960 E0.024
G1 X126.292 Y90.702 E0.025
G1 X127.016 Y90.858 E0.025
G1 X127.722 Y91.079 E0.024
G1 X128.408 Y91.368 E0.025
G1 X129.06 Y91.719 E0.025
G1 X129.675 Y92.127 E0.024
G1 X130.251 Y92.593 E0.025
G1 X130.782 Y93.112 E0.025
G1 X131.261 Y93.677 E0.024
G1 X131.685 Y94.283 E0.025
G1 X132.05 Y94.928 E0.024
G1 X132.354 Y95.604 E0.025
G1 X132.593 Y96.307 E0.025
G1 X132.765 Y97.027 E0.024
G1 X132.869 Y97.76 E0.025
G1 X132.904 Y98.5 E0.025
G1 X132.869 Y99.24 E0.024
G1 X132.765 Y99.973 E0.025
G1 X132.593 Y100.693 E0.025
G1 X132.354 Y101.396 E0.024
G1 X132.05 Y102.072 E0.025
G1 X131.685 Y102.717 E0.025
G1 X131.261 Y103.323 E0.024
G1 X130.782 Y103.889 E0.025
G1 X130.251 Y104.407 E0.025
G1 X129.675 Y104.873 E0.024
G1 X129.483 Y105 E0.008
G1 X129.675 Y105.127 E0.007
G1 X130.251 Y105.593 E0.025
G1 X130.782 Y106.111 E0.025
G1 X131.258 Y106.673 E0.024
G1 X131.687 Y107.286 E0.025
G1 X132.05 Y107.928 E0.025
G1 X132.354 Y108.604 E0.024
G1 X132.593 Y109.307 E0.025
G1 X132.765 Y110.027 E0.025
G1 X132.869 Y110.76 E0.024
G1 X132.904 Y111.5 E0.025
G1 X132.869 Y112.24 E0.025
G1 X132.765 Y112.973 E0.024
G1 X132.593 Y113.693 E0.025
G1 X132.354 Y114.396 E0.025
G1 X132.05 Y115.072 E0.024
G1 X131.685 Y115.717 E0.025
G1 X131.261 Y116.323 E0.024
G1 X130.782 Y116.889 E0.025
G1 X130.251 Y117.407 E0.025
G1 X129.675 Y117.873 E0.024
G1 X129.06 Y118.281 E0.025
G1 X128.408 Y118.632 E0.025
G1 X127.722 Y118.921 E0.024
G1 X127.016 Y119.142 E0.025
G1 X126.292 Y119.298 E0.025
G1 X125.554 Y119.384 E0.024
G1 X124.813 Y119.402 E0.025
G1 X124.074 Y119.349 E0.025
G1 X123.347 Y119.229 E0.024
G1 X122.628 Y119.04 E0.025
G1 X121.934 Y118.784 E0.024
G1 X121.266 Y118.467 E0.025
G1 X120.629 Y118.085 E0.025
G1 X120.37 Y117.895 E0.01
G1 X120.028 Y117.644 E0.015
G1 X119.478 Y117.154 E0.024
G1 X118.974 Y116.613 E0.025
G1 X118.52 Y116.026 E0.024
G1 X118.123 Y115.396 E0.025
G1 X117.79 Y114.738 E0.025
G1 X117.518 Y114.049 E0.024
G1 X117.313 Y113.336 E0.025
G1 X117.174 Y112.608 E0.025
G1 X117.105 Y111.869 E0.024
G1 Y111.131 E0.025
G1 X117.174 Y110.392 E0.024
G1 X117.313 Y109.664 E0.025
G1 X117.518 Y108.951 E0.025
G1 X117.79 Y108.262 E0.024
G1 X118.123 Y107.604 E0.025
G1 X118.52 Y106.974 E0.025
G1 X118.974 Y106.387 E0.024
G1 X119.478 Y105.846 E0.025
G1 X120.03 Y105.355 E0.025
G1 X120.513 Y105 E0.019
G1 X120.03 Y104.645 E0.02
G1 X119.478 Y104.154 E0.025
G1 X118.974 Y103.613 E0.025
G1 X118.52 Y103.026 E0.024
G1 X118.123 Y102.396 E0.025
G1 X117.79 Y101.738 E0.025
G1 X117.518 Y101.049 E0.024
G1 X117.313 Y100.336 E0.025
G1 X117.174 Y99.608 E0.025
G1 X117.105 Y98.869 E0.024
G1 Y98.131 E0.025
G1 X117.174 Y97.392 E0.024
G1 X117.313 Y96.664 E0.025
G1 X117.518 Y95.951 E0.025
G1 X117.79 Y95.262 E0.024
G1 X118.123 Y94.604 E0.025
G1 X118.52 Y93.974 E0.025
G1 X118.974 Y93.387 E0.024
G1 X119.478 Y92.846 E0.025
G1 X120.03 Y92.355 E0.025
G1 X120.626 Y91.917 E0.024
G1 X121.266 Y91.533 E0.025
G1 X121.934 Y91.216 E0.025
G1 X122.628 Y90.96 E0.024
G1 X123.347 Y90.771 E0.025
G1 X124.074 Y90.651 E0.024
G1 X124.813 Y90.598 E0.025
;rapid-leaky
G0 X124.823 Y90.998 F7200
;bead-skirt/brim
G1 X125.526 Y91.015 F960 E0.023
G1 X126.226 Y91.097 E0.024
G1 X126.914 Y91.245 E0.023
G1 X127.584 Y91.455 E0.024
G1 X128.235 Y91.73 E0.023
G1 X128.854 Y92.063 E0.024
G1 X129.438 Y92.45 E0.023
G1 X129.985 Y92.892 E0.023
G1 X130.489 Y93.385 E0.024
G1 X130.944 Y93.921 E0.023
G1 X131.346 Y94.497 E0.023
G1 X131.693 Y95.109 E0.024
G1 X131.982 Y95.751 E0.023
G1 X132.208 Y96.418 E0.024
G1 X132.372 Y97.101 E0.023
G1 X132.47 Y97.798 E0.023
G1 X132.503 Y98.5 E0.024
G1 X132.47 Y99.202 E0.023
G1 X132.372 Y99.899 E0.024
G1 X132.208 Y100.582 E0.023
G1 X131.982 Y101.249 E0.023
G1 X131.693 Y101.891 E0.024
G1 X131.346 Y102.503 E0.023
G1 X130.944 Y103.079 E0.024
G1 X130.489 Y103.616 E0.023
G1 X129.985 Y104.108 E0.023
G1 X129.438 Y104.55 E0.024
G1 X128.854 Y104.937 E0.023
G1 X128.738 Y105 E0.005
G1 X128.854 Y105.063 E0.004
G1 X129.438 Y105.45 E0.023
G1 X129.985 Y105.892 E0.024
G1 X130.489 Y106.384 E0.023
G1 X130.941 Y106.917 E0.023
G1 X131.348 Y107.499 E0.024
G1 X131.693 Y108.109 E0.023
G1 X131.982 Y108.751 E0.024
G1 X132.208 Y109.418 E0.023
G1 X132.372 Y110.102 E0.023
G1 X132.47 Y110.798 E0.024
G1 X132.503 Y111.5 E0.023
G1 X132.47 Y112.202 E0.024
G1 X132.372 Y112.899 E0.023
G1 X132.208 Y113.582 E0.023
G1 X131.982 Y114.249 E0.024
G1 X131.693 Y114.891 E0.023
G1 X131.346 Y115.503 E0.024
G1 X130.944 Y116.079 E0.023
G1 X130.489 Y116.616 E0.023
G1 X129.985 Y117.108 E0.024
G1 X129.438 Y117.55 E0.023
G1 X128.854 Y117.937 E0.023
G1 X128.235 Y118.27 E0.024
G1 X127.584 Y118.545 E0.023
G1 X126.914 Y118.755 E0.024
G1 X126.226 Y118.903 E0.023
G1 X125.526 Y118.985 E0.024
G1 X124.822 Y119.002 E0.023
G1 X124.121 Y118.951 E0.023
G1 X123.431 Y118.837 E0.024
G1 X122.748 Y118.658 E0.023
G1 X122.089 Y118.415 E0.023
G1 X121.455 Y118.114 E0.024
G1 X120.85 Y117.751 E0.023
G1 X120.281 Y117.332 E0.024
G1 X119.758 Y116.868 E0.023
G1 X119.279 Y116.354 E0.023
G1 X118.848 Y115.797 E0.024
G1 X118.471 Y115.199 E0.023
G1 X118.156 Y114.574 E0.024
G1 X117.897 Y113.92 E0.023
G1 X117.702 Y113.243 E0.023
G1 X117.57 Y112.552 E0.024
G1 X117.505 Y111.85 E0.023
G1 Y111.15 E0.024
G1 X117.57 Y110.448 E0.023
G1 X117.702 Y109.757 E0.023
G1 X117.897 Y109.08 E0.024
G1 X118.156 Y108.426 E0.023
G1 X118.471 Y107.801 E0.023
G1 X118.848 Y107.203 E0.024
G1 X119.279 Y106.646 E0.023
G1 X119.758 Y106.132 E0.024
G1 X120.282 Y105.666 E0.023
G1 X120.847 Y105.25 E0.023
G1 X121.265 Y105 E0.017
G1 X120.848 Y104.75 E0.016
G1 X120.282 Y104.334 E0.023
G1 X119.758 Y103.868 E0.024
G1 X119.279 Y103.354 E0.023
G1 X118.848 Y102.797 E0.023
G1 X118.471 Y102.199 E0.024
G1 X118.156 Y101.574 E0.023
G1 X117.897 Y100.92 E0.024
G1 X117.702 Y100.243 E0.023
G1 X117.57 Y99.552 E0.023
G1 X117.505 Y98.85 E0.024
G1 Y98.15 E0.023
G1 X117.57 Y97.448 E0.024
G1 X117.702 Y96.757 E0.023
G1 X117.897 Y96.08 E0.023
G1 X118.156 Y95.426 E0.024
G1 X118.471 Y94.801 E0.023
G1 X118.848 Y94.203 E0.024
G1 X119.279 Y93.646 E0.023
G1 X119.758 Y93.132 E0.023
G1 X120.282 Y92.666 E0.024
G1 X120.847 Y92.251 E0.023
G1 X121.455 Y91.886 E0.024
G1 X122.089 Y91.585 E0.023
G1 X122.749 Y91.342 E0.023
G1 X123.431 Y91.163 E0.024
G1 X124.121 Y91.049 E0.023
G1 X124.823 Y90.998 E0.023
;rapid-leaky
G0 X124.832 Y91.399 F7200
;bead-skirt/brim
G1 X125.498 Y91.415 F960 E0.023
G1 X126.161 Y91.492 E0.022
G1 X126.812 Y91.632 E0.022
G1 X127.446 Y91.831 E0.022
G1 X128.062 Y92.091 E0.022
G1 X128.648 Y92.406 E0.022
G1 X129.201 Y92.773 E0.022
G1 X129.719 Y93.192 E0.023
G1 X130.196 Y93.658 E0.022
G1 X130.627 Y94.165 E0.022
G1 X131.008 Y94.71 E0.022
G1 X131.336 Y95.29 E0.022
G1 X131.609 Y95.897 E0.022
G1 X131.824 Y96.529 E0.023
G1 X131.978 Y97.176 E0.022
G1 X132.071 Y97.835 E0.022
G1 X132.103 Y98.5 E0.022
G1 X132.071 Y99.165 E0.022
G1 X131.978 Y99.824 E0.022
G1 X131.824 Y100.471 E0.022
G1 X131.609 Y101.102 E0.023
G1 X131.336 Y101.71 E0.022
G1 X131.008 Y102.29 E0.022
G1 X130.627 Y102.835 E0.022
G1 X130.196 Y103.343 E0.022
G1 X129.719 Y103.809 E0.022
G1 X129.201 Y104.227 E0.022
G1 X128.648 Y104.594 E0.022
G1 X128.062 Y104.909 E0.023
G1 X127.847 Y105 E0.007
G1 X128.062 Y105.091 E0.008
G1 X128.648 Y105.406 E0.022
G1 X129.201 Y105.773 E0.022
G1 X129.719 Y106.192 E0.023
G1 X130.196 Y106.657 E0.022
G1 X130.624 Y107.162 E0.022
G1 X131.009 Y107.713 E0.022
G1 X131.336 Y108.29 E0.022
G1 X131.609 Y108.898 E0.022
G1 X131.824 Y109.529 E0.022
G1 X131.978 Y110.176 E0.023
G1 X132.071 Y110.835 E0.022
G1 X132.103 Y111.5 E0.022
G1 X132.071 Y112.165 E0.022
G1 X131.978 Y112.824 E0.022
G1 X131.824 Y113.471 E0.022
G1 X131.609 Y114.102 E0.022
G1 X131.336 Y114.71 E0.023
G1 X131.008 Y115.29 E0.022
G1 X130.627 Y115.835 E0.022
G1 X130.196 Y116.343 E0.022
G1 X129.719 Y116.808 E0.022
G1 X129.201 Y117.227 E0.022
G1 X128.648 Y117.594 E0.022
G1 X128.062 Y117.909 E0.023
G1 X127.446 Y118.169 E0.022
G1 X126.812 Y118.368 E0.022
G1 X126.161 Y118.508 E0.022
G1 X125.498 Y118.585 E0.022
G1 X124.832 Y118.601 E0.022
G1 X124.168 Y118.554 E0.023
G1 X123.514 Y118.445 E0.022
G1 X122.869 Y118.276 E0.022
G1 X122.244 Y118.046 E0.022
G1 X121.644 Y117.761 E0.022
G1 X121.071 Y117.417 E0.022
G1 X120.533 Y117.021 E0.022
G1 X120.037 Y116.581 E0.023
G1 X119.584 Y116.095 E0.022
G1 X119.177 Y115.567 E0.022
G1 X118.82 Y115.001 E0.022
G1 X118.521 Y114.41 E0.022
G1 X118.276 Y113.791 E0.022
G1 X118.092 Y113.15 E0.022
G1 X117.967 Y112.496 E0.023
G1 X117.905 Y111.831 E0.022
G1 Y111.168 E0.022
G1 X117.967 Y110.504 E0.022
G1 X118.092 Y109.85 E0.022
G1 X118.276 Y109.209 E0.022
G1 X118.521 Y108.59 E0.022
G1 X118.82 Y107.999 E0.023
G1 X119.177 Y107.433 E0.022
G1 X119.584 Y106.905 E0.022
G1 X120.037 Y106.419 E0.022
G1 X120.534 Y105.978 E0.022
G1 X121.069 Y105.584 E0.022
G1 X121.644 Y105.239 E0.023
G1 X122.148 Y105 E0.018
G1 X121.644 Y104.761 E0.019
G1 X121.069 Y104.416 E0.022
G1 X120.534 Y104.022 E0.022
G1 X120.037 Y103.581 E0.022
G1 X119.584 Y103.095 E0.022
G1 X119.177 Y102.567 E0.022
G1 X118.82 Y102.001 E0.023
G1 X118.521 Y101.41 E0.022
G1 X118.276 Y100.791 E0.022
G1 X118.092 Y100.15 E0.022
G1 X117.967 Y99.496 E0.022
G1 X117.905 Y98.831 E0.022
G1 Y98.168 E0.022
G1 X117.967 Y97.504 E0.023
G1 X118.092 Y96.85 E0.022
G1 X118.276 Y96.209 E0.022
G1 X118.521 Y95.59 E0.022
G1 X118.82 Y94.999 E0.022
G1 X119.177 Y94.433 E0.022
G1 X119.584 Y93.905 E0.023
G1 X120.037 Y93.419 E0.022
G1 X120.534 Y92.978 E0.022
G1 X121.069 Y92.584 E0.022
G1 X121.644 Y92.239 E0.022
G1 X122.244 Y91.954 E0.022
G1 X122.869 Y91.724 E0.022
G1 X123.514 Y91.555 E0.023
G1 X124.168 Y91.446 E0.022
G1 X124.832 Y91.399 E0.022
;rapid-leaky
G0 X124.842 Y91.799 F7200
;bead-skirt/brim
G1 X125.47 Y91.814 F960 E0.021
G1 X126.095 Y91.887 E0.021
G1 X126.71 Y92.02 E0.02
G1 X127.308 Y92.207 E0.021
G1 X127.889 Y92.452 E0.021
G1 X128.443 Y92.75 E0.021
G1 X128.964 Y93.096 E0.021
G1 X129.453 Y93.491 E0.021
G1 X129.903 Y93.931 E0.021
G1 X130.31 Y94.41 E0.021
G1 X130.669 Y94.924 E0.021
G1 X130.979 Y95.471 E0.021
G1 X131.236 Y96.044 E0.02
G1 X131.439 Y96.64 E0.021
G1 X131.585 Y97.251 E0.021
G1 X131.673 Y97.873 E0.021
G1 X131.702 Y98.5 E0.021
G1 X131.673 Y99.127 E0.021
G1 X131.585 Y99.749 E0.021
G1 X131.439 Y100.36 E0.021
G1 X131.236 Y100.956 E0.021
G1 X130.979 Y101.529 E0.021
G1 X130.669 Y102.076 E0.02
G1 X130.31 Y102.59 E0.021
G1 X129.903 Y103.07 E0.021
G1 X129.453 Y103.509 E0.021
G1 X128.964 Y103.904 E0.021
G1 X128.443 Y104.25 E0.021
G1 X127.889 Y104.548 E0.021
G1 X127.308 Y104.793 E0.021
G1 X126.619 Y105 E0.024
G1 X127.308 Y105.207 E0.024
G1 X127.889 Y105.452 E0.021
G1 X128.443 Y105.75 E0.02
G1 X128.965 Y106.096 E0.021
G1 X129.453 Y106.491 E0.021
G1 X129.903 Y106.93 E0.021
G1 X130.307 Y107.407 E0.021
G1 X130.67 Y107.926 E0.021
G1 X130.979 Y108.471 E0.021
G1 X131.236 Y109.044 E0.021
G1 X131.439 Y109.64 E0.021
G1 X131.585 Y110.251 E0.021
G1 X131.673 Y110.873 E0.02
G1 X131.702 Y111.5 E0.021
G1 X131.673 Y112.127 E0.021
G1 X131.585 Y112.749 E0.021
G1 X131.439 Y113.36 E0.021
G1 X131.236 Y113.956 E0.021
G1 X130.979 Y114.529 E0.021
G1 X130.669 Y115.076 E0.021
G1 X130.31 Y115.59 E0.021
G1 X129.903 Y116.07 E0.02
G1 X129.453 Y116.509 E0.021
G1 X128.964 Y116.904 E0.021
G1 X128.443 Y117.25 E0.021
G1 X127.889 Y117.548 E0.021
G1 X127.308 Y117.793 E0.021
G1 X126.71 Y117.98 E0.021
G1 X126.095 Y118.113 E0.021
G1 X125.47 Y118.186 E0.021
G1 X124.841 Y118.201 E0.021
G1 X124.215 Y118.156 E0.02
G1 X123.598 Y118.054 E0.021
G1 X122.989 Y117.894 E0.021
G1 X122.4 Y117.677 E0.021
G1 X121.833 Y117.408 E0.021
G1 X121.293 Y117.084 E0.021
G1 X120.785 Y116.71 E0.021
G1 X120.317 Y116.295 E0.021
G1 X119.889 Y115.835 E0.021
G1 X119.505 Y115.338 E0.021
G1 X119.168 Y114.804 E0.021
G1 X118.886 Y114.245 E0.02
G1 X118.655 Y113.662 E0.021
G1 X118.481 Y113.057 E0.021
G1 X118.363 Y112.44 E0.021
G1 X118.305 Y111.813 E0.021
G1 Y111.187 E0.021
G1 X118.363 Y110.56 E0.021
G1 X118.481 Y109.943 E0.021
G1 X118.655 Y109.338 E0.021
G1 X118.886 Y108.755 E0.02
G1 X119.168 Y108.196 E0.021
G1 X119.505 Y107.662 E0.021
G1 X119.889 Y107.164 E0.021
G1 X120.317 Y106.705 E0.021
G1 X120.786 Y106.289 E0.021
G1 X121.291 Y105.917 E0.021
G1 X121.833 Y105.592 E0.021
G1 X122.4 Y105.323 E0.021
G1 X122.989 Y105.106 E0.021
G1 X123.393 Y105 E0.013
G1 X122.989 Y104.894 E0.014
G1 X122.4 Y104.677 E0.021
G1 X121.833 Y104.408 E0.021
G1 X121.291 Y104.083 E0.021
G1 X120.786 Y103.711 E0.021
G1 X120.317 Y103.295 E0.021
G1 X119.889 Y102.836 E0.021
G1 X119.505 Y102.338 E0.021
G1 X119.168 Y101.804 E0.021
G1 X118.886 Y101.245 E0.02
G1 X118.655 Y100.662 E0.021
G1 X118.481 Y100.057 E0.021
G1 X118.363 Y99.44 E0.021
G1 X118.305 Y98.813 E0.021
G1 Y98.187 E0.021
G1 X118.363 Y97.56 E0.021
G1 X118.481 Y96.943 E0.021
G1 X118.655 Y96.338 E0.021
G1 X118.886 Y95.755 E0.02
G1 X119.168 Y95.196 E0.021
G1 X119.505 Y94.662 E0.021
G1 X119.889 Y94.164 E0.021
G1 X120.317 Y93.705 E0.021
G1 X120.786 Y93.289 E0.021
G1 X121.291 Y92.917 E0.021
G1 X121.833 Y92.592 E0.021
G1 X122.4 Y92.323 E0.021
G1 X122.989 Y92.106 E0.021
G1 X123.598 Y91.946 E0.021
G1 X124.215 Y91.844 E0.02
G1 X124.842 Y91.799 E0.021
;rapid-leaky
G0 X124.851 Y92.199 F7200
;bead-skirt/brim
G1 X125.442 Y92.213 F960 E0.02
G1 X126.03 Y92.282 E0.02
G1 X126.608 Y92.407 E0.019
G1 X127.17 Y92.583 E0.02
G1 X127.717 Y92.813 E0.02
G1 X128.237 Y93.093 E0.019
G1 X128.728 Y93.419 E0.02
G1 X129.187 Y93.79 E0.019
G1 X129.61 Y94.204 E0.02
G1 X129.992 Y94.654 E0.02
G1 X130.33 Y95.138 E0.019
G1 X130.621 Y95.652 E0.02
G1 X130.864 Y96.191 E0.02
G1 X131.054 Y96.751 E0.019
G1 X131.191 Y97.325 E0.02
G1 X131.274 Y97.91 E0.02
G1 X131.302 Y98.5 E0.019
G1 X131.274 Y99.09 E0.02
G1 X131.191 Y99.675 E0.02
G1 X131.054 Y100.249 E0.019
G1 X130.864 Y100.809 E0.02
G1 X130.621 Y101.348 E0.02
G1 X130.33 Y101.862 E0.019
G1 X129.992 Y102.346 E0.02
G1 X129.61 Y102.797 E0.019
G1 X129.187 Y103.21 E0.02
G1 X128.728 Y103.581 E0.02
G1 X128.237 Y103.907 E0.019
G1 X127.717 Y104.187 E0.02
G1 X127.17 Y104.417 E0.02
G1 X126.608 Y104.593 E0.019
G1 X126.03 Y104.718 E0.02
G1 X125.442 Y104.787 E0.02
G1 X124.851 Y104.801 E0.019
G1 X124.262 Y104.758 E0.02
G1 X123.682 Y104.662 E0.02
G1 X123.109 Y104.512 E0.019
G1 X122.555 Y104.308 E0.02
G1 X122.022 Y104.055 E0.02
G1 X121.513 Y103.749 E0.019
G1 X121.037 Y103.4 E0.02
G1 X120.597 Y103.008 E0.019
G1 X120.194 Y102.576 E0.02
G1 X119.833 Y102.108 E0.02
G1 X119.517 Y101.607 E0.02
G1 X119.251 Y101.081 E0.019
G1 X119.034 Y100.533 E0.02
G1 X118.87 Y99.964 E0.019
G1 X118.76 Y99.383 E0.02
G1 X118.705 Y98.794 E0.02
G1 Y98.206 E0.019
G1 X118.76 Y97.616 E0.02
G1 X118.87 Y97.036 E0.02
G1 X119.034 Y96.467 E0.019
G1 X119.251 Y95.919 E0.02
G1 X119.517 Y95.393 E0.02
G1 X119.833 Y94.892 E0.019
G1 X120.194 Y94.424 E0.02
G1 X120.597 Y93.992 E0.02
G1 X121.037 Y93.6 E0.019
G1 X121.513 Y93.251 E0.02
G1 X122.022 Y92.945 E0.02
G1 X122.555 Y92.692 E0.019
G1 X123.109 Y92.488 E0.02
G1 X123.682 Y92.338 E0.019
G1 X124.262 Y92.242 E0.02
G1 X124.851 Y92.199 E0.02
;rapid-leaky
G0 X124.861 Y92.6 F7200
;bead-skirt/brim
G1 X125.414 Y92.613 F960 E0.018
G1 X125.964 Y92.677 E0.019
G1 X126.506 Y92.794 E0.018
G1 X127.032 Y92.959 E0.018
G1 X127.544 Y93.175 E0.019
G1 X128.031 Y93.437 E0.018
G1 X128.491 Y93.742 E0.019
G1 X128.921 Y94.089 E0.018
G1 X129.317 Y94.477 E0.018
G1 X129.675 Y94.899 E0.019
G1 X129.991 Y95.351 E0.018
G1 X130.264 Y95.833 E0.019
G1 X130.491 Y96.338 E0.018
G1 X130.67 Y96.862 E0.018
G1 X130.798 Y97.4 E0.019
G1 X130.875 Y97.948 E0.018
G1 X130.902 Y98.5 E0.019
G1 X130.875 Y99.052 E0.018
G1 X130.798 Y99.6 E0.018
G1 X130.669 Y100.138 E0.019
G1 X130.491 Y100.662 E0.018
G1 X130.264 Y101.167 E0.019
G1 X129.991 Y101.649 E0.018
G1 X129.675 Y102.101 E0.018
G1 X129.317 Y102.524 E0.019
G1 X128.921 Y102.911 E0.018
G1 X128.491 Y103.258 E0.019
G1 X128.031 Y103.563 E0.018
G1 X127.544 Y103.825 E0.018
G1 X127.032 Y104.041 E0.019
G1 X126.506 Y104.206 E0.018
G1 X125.964 Y104.323 E0.019
G1 X125.414 Y104.387 E0.018
G1 X124.861 Y104.4 E0.018
G1 X124.309 Y104.361 E0.019
G1 X123.765 Y104.271 E0.018
G1 X123.229 Y104.13 E0.019
G1 X122.71 Y103.939 E0.018
G1 X122.211 Y103.702 E0.018
G1 X121.735 Y103.416 E0.019
G1 X121.289 Y103.088 E0.018
G1 X120.877 Y102.722 E0.019
G1 X120.5 Y102.317 E0.018
G1 X120.161 Y101.879 E0.018
G1 X119.865 Y101.409 E0.019
G1 X119.617 Y100.917 E0.018
G1 X119.413 Y100.403 E0.019
G1 X119.26 Y99.871 E0.018
G1 X119.156 Y99.327 E0.018
G1 X119.105 Y98.776 E0.019
G1 Y98.224 E0.018
G1 X119.156 Y97.673 E0.019
G1 X119.26 Y97.129 E0.018
G1 X119.413 Y96.597 E0.018
G1 X119.617 Y96.083 E0.019
G1 X119.865 Y95.591 E0.018
G1 X120.161 Y95.121 E0.019
G1 X120.5 Y94.683 E0.018
G1 X120.877 Y94.278 E0.018
G1 X121.289 Y93.912 E0.019
G1 X121.735 Y93.584 E0.018
G1 X122.211 Y93.298 E0.019
G1 X122.71 Y93.061 E0.018
G1 X123.229 Y92.87 E0.018
G1 X123.765 Y92.729 E0.019
G1 X124.309 Y92.639 E0.018
G1 X124.861 Y92.6 E0.019
;rapid-leaky
G0 X124.87 Y93 F7200
;bead-skirt/brim
G1 X125.386 Y93.012 F960 E0.017
G1 X125.899 Y93.072 E0.017
G1 X126.403 Y93.181 E0.017
G1 X126.895 Y93.335 E0.017
G1 X127.371 Y93.536 E0.017
G1 X127.825 Y93.78 E0.018
G1 X128.254 Y94.065 E0.017
G1 X128.655 Y94.389 E0.017
G1 X129.024 Y94.75 E0.017
G1 X129.358 Y95.143 E0.017
G1 X129.653 Y95.565 E0.017
G1 X129.907 Y96.014 E0.017
G1 X130.119 Y96.484 E0.018
G1 X130.285 Y96.973 E0.017
G1 X130.405 Y97.474 E0.017
G1 X130.477 Y97.985 E0.017
G1 X130.501 Y98.5 E0.017
G1 X130.477 Y99.015 E0.017
G1 X130.405 Y99.526 E0.017
G1 X130.285 Y100.027 E0.018
G1 X130.119 Y100.516 E0.017
G1 X129.907 Y100.986 E0.017
G1 X129.653 Y101.435 E0.017
G1 X129.358 Y101.857 E0.017
G1 X129.024 Y102.251 E0.017
G1 X128.655 Y102.611 E0.018
G1 X128.254 Y102.935 E0.017
G1 X127.825 Y103.22 E0.017
G1 X127.371 Y103.464 E0.017
G1 X126.895 Y103.665 E0.017
G1 X126.403 Y103.819 E0.017
G1 X125.899 Y103.928 E0.017
G1 X125.386 Y103.988 E0.018
G1 X124.87 Y104 E0.017
G1 X124.356 Y103.963 E0.017
G1 X123.849 Y103.879 E0.017
G1 X123.35 Y103.748 E0.017
G1 X122.866 Y103.57 E0.017
G1 X122.4 Y103.349 E0.017
G1 X121.957 Y103.083 E0.018
G1 X121.541 Y102.777 E0.017
G1 X121.157 Y102.435 E0.017
G1 X120.805 Y102.058 E0.017
G1 X120.489 Y101.65 E0.017
G1 X120.214 Y101.212 E0.017
G1 X119.982 Y100.753 E0.018
G1 X119.792 Y100.274 E0.017
G1 X119.649 Y99.778 E0.017
G1 X119.553 Y99.271 E0.017
G1 X119.505 Y98.757 E0.017
G1 Y98.243 E0.017
G1 X119.553 Y97.729 E0.017
G1 X119.649 Y97.222 E0.018
G1 X119.792 Y96.726 E0.017
G1 X119.982 Y96.247 E0.017
G1 X120.214 Y95.788 E0.017
G1 X120.489 Y95.35 E0.017
G1 X120.805 Y94.942 E0.017
G1 X121.157 Y94.565 E0.018
G1 X121.541 Y94.223 E0.017
G1 X121.956 Y93.918 E0.017
G1 X122.4 Y93.651 E0.017
G1 X122.866 Y93.43 E0.017
G1 X123.35 Y93.252 E0.017
G1 X123.849 Y93.121 E0.017
G1 X124.356 Y93.037 E0.018
G1 X124.87 Y93 E0.017
;rapid-leaky
G0 X124.88 Y93.4 F7200
;bead-skirt/brim
G1 X125.358 Y93.412 F960 E0.016
G1 X125.833 Y93.467 E0.016
G1 X126.301 Y93.568 E0.015
G1 X126.757 Y93.711 E0.016
G1 X127.198 Y93.897 E0.016
G1 X127.62 Y94.124 E0.016
G1 X128.017 Y94.388 E0.016
G1 X128.389 Y94.688 E0.016
G1 X128.731 Y95.023 E0.016
G1 X129.041 Y95.387 E0.016
G1 X129.314 Y95.779 E0.016
G1 X129.55 Y96.195 E0.016
G1 X129.746 Y96.631 E0.016
G1 X129.9 Y97.084 E0.015
G1 X130.011 Y97.549 E0.016
G1 X130.078 Y98.023 E0.016
G1 X130.101 Y98.5 E0.016
G1 X130.078 Y98.977 E0.016
G1 X130.011 Y99.451 E0.016
G1 X129.9 Y99.916 E0.016
G1 X129.746 Y100.369 E0.016
G1 X129.55 Y100.805 E0.016
G1 X129.314 Y101.221 E0.016
G1 X129.041 Y101.613 E0.015
G1 X128.731 Y101.978 E0.016
G1 X128.389 Y102.312 E0.016
G1 X128.017 Y102.612 E0.016
G1 X127.62 Y102.876 E0.016
G1 X127.198 Y103.103 E0.016
G1 X126.757 Y103.289 E0.016
G1 X126.301 Y103.432 E0.016
G1 X125.833 Y103.533 E0.016
G1 X125.358 Y103.588 E0.016
G1 X124.88 Y103.6 E0.016
G1 X124.403 Y103.565 E0.015
G1 X123.933 Y103.487 E0.016
G1 X123.47 Y103.366 E0.016
G1 X123.021 Y103.201 E0.016
G1 X122.589 Y102.996 E0.016
G1 X122.178 Y102.749 E0.016
G1 X121.793 Y102.466 E0.016
G1 X121.436 Y102.149 E0.016
G1 X121.11 Y101.799 E0.016
G1 X120.818 Y101.42 E0.016
G1 X120.562 Y101.015 E0.015
G1 X120.347 Y100.589 E0.016
G1 X120.171 Y100.145 E0.016
G1 X120.039 Y99.685 E0.016
G1 X119.949 Y99.215 E0.016
G1 X119.905 Y98.739 E0.016
G1 Y98.261 E0.016
G1 X119.949 Y97.785 E0.016
G1 X120.039 Y97.315 E0.016
G1 X120.171 Y96.855 E0.016
G1 X120.347 Y96.411 E0.015
G1 X120.562 Y95.985 E0.016
G1 X120.818 Y95.58 E0.016
G1 X121.11 Y95.201 E0.016
G1 X121.436 Y94.851 E0.016
G1 X121.793 Y94.534 E0.016
G1 X122.178 Y94.251 E0.016
G1 X122.589 Y94.004 E0.016
G1 X123.021 Y93.799 E0.016
G1 X123.47 Y93.634 E0.016
G1 X123.933 Y93.513 E0.016
G1 X124.403 Y93.435 E0.015
G1 X124.88 Y93.4 E0.016
;rapid-leaky
G0 X124.889 Y93.801 F7200
;bead-skirt/brim
G1 X125.33 Y93.811 F960 E0.015
G1 X125.768 Y93.862 E0.015
G1 X126.199 Y93.955 E0.014
G1 X126.619 Y94.087 E0.015
G1 X127.025 Y94.258 E0.015
G1 X127.414 Y94.467 E0.014
G1 X127.78 Y94.711 E0.015
G1 X128.123 Y94.987 E0.015
G1 X128.438 Y95.296 E0.014
G1 X128.724 Y95.632 E0.015
G1 X128.975 Y95.992 E0.014
G1 X129.193 Y96.376 E0.015
G1 X129.373 Y96.778 E0.015
G1 X129.515 Y97.195 E0.014
G1 X129.618 Y97.624 E0.015
G1 X129.679 Y98.06 E0.015
G1 X129.7 Y98.5 E0.014
G1 X129.679 Y98.94 E0.015
G1 X129.618 Y99.376 E0.015
G1 X129.515 Y99.805 E0.014
G1 X129.373 Y100.222 E0.015
G1 X129.193 Y100.624 E0.015
G1 X128.975 Y101.008 E0.014
G1 X128.724 Y101.368 E0.015
G1 X128.438 Y101.705 E0.015
G1 X128.123 Y102.013 E0.014
G1 X127.78 Y102.289 E0.015
G1 X127.414 Y102.533 E0.015
G1 X127.025 Y102.742 E0.014
G1 X126.619 Y102.913 E0.015
G1 X126.199 Y103.045 E0.015
G1 X125.768 Y103.138 E0.014
G1 X125.33 Y103.189 E0.015
G1 X124.889 Y103.199 E0.015
G1 X124.451 Y103.168 E0.014
G1 X124.016 Y103.096 E0.015
G1 X123.59 Y102.984 E0.015
G1 X123.176 Y102.832 E0.014
G1 X122.778 Y102.643 E0.015
G1 X122.4 Y102.416 E0.015
G1 X122.045 Y102.155 E0.014
G1 X121.716 Y101.862 E0.015
G1 X121.415 Y101.54 E0.014
G1 X121.146 Y101.191 E0.015
G1 X120.911 Y100.818 E0.015
G1 X120.712 Y100.425 E0.014
G1 X120.55 Y100.016 E0.015
G1 X120.428 Y99.592 E0.015
G1 X120.346 Y99.159 E0.014
G1 X120.305 Y98.72 E0.015
G1 Y98.28 E0.015
G1 X120.346 Y97.841 E0.014
G1 X120.428 Y97.408 E0.015
G1 X120.55 Y96.984 E0.015
G1 X120.712 Y96.575 E0.014
G1 X120.911 Y96.182 E0.015
G1 X121.146 Y95.809 E0.015
G1 X121.415 Y95.46 E0.014
G1 X121.716 Y95.138 E0.015
G1 X122.045 Y94.845 E0.015
G1 X122.4 Y94.584 E0.014
G1 X122.778 Y94.357 E0.015
G1 X123.176 Y94.168 E0.015
G1 X123.59 Y94.016 E0.014
G1 X124.016 Y93.904 E0.015
G1 X124.45 Y93.832 E0.015
G1 X124.889 Y93.801 E0.014
;rapid-leaky
G0 X124.851 Y105.199 F7200
;bead-skirt/brim
G1 X125.442 Y105.213 F960 E0.02
G1 X126.03 Y105.282 E0.02
G1 X126.608 Y105.407 E0.019
G1 X127.17 Y105.583 E0.02
G1 X127.717 Y105.813 E0.02
G1 X128.237 Y106.093 E0.019
G1 X128.728 Y106.419 E0.02
G1 X129.187 Y106.79 E0.019
G1 X129.61 Y107.203 E0.02
G1 X129.991 Y107.652 E0.02
G1 X130.13 Y107.85 E0.008
G1 X130.331 Y108.139 E0.011
G1 X130.621 Y108.652 E0.02
G1 X130.864 Y109.191 E0.02
G1 X131.054 Y109.751 E0.019
G1 X131.191 Y110.325 E0.02
G1 X131.274 Y110.91 E0.02
G1 X131.302 Y111.5 E0.019
G1 X131.274 Y112.09 E0.02
G1 X131.191 Y112.675 E0.02
G1 X131.054 Y113.249 E0.019
G1 X130.864 Y113.809 E0.02
G1 X130.621 Y114.348 E0.02
G1 X130.33 Y114.862 E0.019
G1 X129.992 Y115.346 E0.02
G1 X129.61 Y115.797 E0.019
G1 X129.187 Y116.21 E0.02
G1 X128.728 Y116.581 E0.02
G1 X128.237 Y116.907 E0.019
G1 X127.717 Y117.187 E0.02
G1 X127.17 Y117.417 E0.02
G1 X126.608 Y117.593 E0.019
G1 X126.03 Y117.718 E0.02
G1 X125.442 Y117.787 E0.02
G1 X124.851 Y117.801 E0.019
G1 X124.262 Y117.758 E0.02
G1 X123.682 Y117.662 E0.02
G1 X123.109 Y117.512 E0.019
G1 X122.555 Y117.308 E0.02
G1 X122.022 Y117.055 E0.019
G1 X121.514 Y116.75 E0.02
G1 X121.318 Y116.606 E0.008
G1 X121.037 Y116.399 E0.012
G1 X120.597 Y116.008 E0.019
G1 X120.194 Y115.576 E0.02
G1 X119.833 Y115.108 E0.02
G1 X119.517 Y114.607 E0.019
G1 X119.251 Y114.081 E0.02
G1 X119.034 Y113.532 E0.02
G1 X118.87 Y112.964 E0.019
G1 X118.76 Y112.383 E0.02
G1 X118.705 Y111.794 E0.02
G1 Y111.206 E0.019
G1 X118.76 Y110.616 E0.02
G1 X118.87 Y110.036 E0.02
G1 X119.034 Y109.467 E0.019
G1 X119.251 Y108.919 E0.02
G1 X119.517 Y108.393 E0.02
G1 X119.833 Y107.892 E0.019
G1 X120.194 Y107.424 E0.02
G1 X120.597 Y106.992 E0.02
G1 X121.038 Y106.6 E0.019
G1 X121.513 Y106.251 E0.02
G1 X122.022 Y105.945 E0.02
G1 X122.555 Y105.692 E0.019
G1 X123.109 Y105.488 E0.02
G1 X123.682 Y105.338 E0.019
G1 X124.262 Y105.242 E0.02
G1 X124.851 Y105.199 E0.02
;rapid-leaky
G0 X124.861 Y105.6 F7200
;bead-skirt/brim
G1 X125.414 Y105.613 F960 E0.018
G1 X125.964 Y105.677 E0.019
G1 X126.506 Y105.794 E0.018
G1 X127.032 Y105.959 E0.018
G1 X127.544 Y106.175 E0.019
G1 X128.031 Y106.437 E0.018
G1 X128.491 Y106.742 E0.018
G1 X128.921 Y107.089 E0.019
G1 X129.317 Y107.476 E0.018
G1 X129.674 Y107.897 E0.019
G1 X129.802 Y108.08 E0.007
G1 X129.992 Y108.352 E0.011
G1 X130.264 Y108.833 E0.018
G1 X130.491 Y109.338 E0.019
G1 X130.67 Y109.862 E0.018
G1 X130.798 Y110.4 E0.019
G1 X130.875 Y110.948 E0.018
G1 X130.902 Y111.5 E0.019
G1 X130.875 Y112.052 E0.018
G1 X130.798 Y112.6 E0.018
G1 X130.669 Y113.138 E0.019
G1 X130.491 Y113.662 E0.018
G1 X130.264 Y114.167 E0.019
G1 X129.991 Y114.649 E0.018
G1 X129.675 Y115.101 E0.018
G1 X129.317 Y115.524 E0.019
G1 X128.921 Y115.911 E0.018
G1 X128.491 Y116.258 E0.019
G1 X128.031 Y116.563 E0.018
G1 X127.544 Y116.825 E0.018
G1 X127.032 Y117.041 E0.019
G1 X126.506 Y117.206 E0.018
G1 X125.964 Y117.323 E0.019
G1 X125.414 Y117.387 E0.018
G1 X124.861 Y117.4 E0.018
G1 X124.309 Y117.361 E0.019
G1 X123.765 Y117.271 E0.018
G1 X123.229 Y117.13 E0.019
G1 X122.71 Y116.939 E0.018
G1 X122.211 Y116.702 E0.018
G1 X121.736 Y116.417 E0.019
G1 X121.555 Y116.284 E0.007
G1 X121.289 Y116.088 E0.011
G1 X120.877 Y115.722 E0.019
G1 X120.5 Y115.317 E0.018
G1 X120.161 Y114.879 E0.018
G1 X119.865 Y114.409 E0.019
G1 X119.617 Y113.917 E0.018
G1 X119.413 Y113.403 E0.019
G1 X119.26 Y112.871 E0.018
G1 X119.156 Y112.327 E0.018
G1 X119.105 Y111.776 E0.019
G1 Y111.224 E0.018
G1 X119.156 Y110.673 E0.019
G1 X119.26 Y110.129 E0.018
G1 X119.413 Y109.597 E0.018
G1 X119.617 Y109.083 E0.019
G1 X119.865 Y108.591 E0.018
G1 X120.161 Y108.121 E0.019
G1 X120.5 Y107.683 E0.018
G1 X120.877 Y107.278 E0.018
G1 X121.289 Y106.912 E0.019
G1 X121.735 Y106.584 E0.018
G1 X122.211 Y106.298 E0.019
G1 X122.71 Y106.061 E0.018
G1 X123.229 Y105.87 E0.018
G1 X123.765 Y105.729 E0.019
G1 X124.309 Y105.639 E0.018
G1 X124.861 Y105.6 E0.019
;rapid-leaky
G0 X124.87 Y106 F7200
;bead-skirt/brim
G1 X125.386 Y106.012 F960 E0.017
G1 X125.899 Y106.072 E0.017
G1 X126.403 Y106.181 E0.017
G1 X126.895 Y106.335 E0.017
G1 X127.371 Y106.536 E0.017
G1 X127.825 Y106.78 E0.017
G1 X128.254 Y107.065 E0.018
G1 X128.655 Y107.389 E0.017
G1 X129.024 Y107.749 E0.017
G1 X129.357 Y108.142 E0.017
G1 X129.474 Y108.309 E0.007
G1 X129.653 Y108.566 E0.01
G1 X129.907 Y109.014 E0.017
G1 X130.119 Y109.484 E0.018
G1 X130.285 Y109.973 E0.017
G1 X130.405 Y110.475 E0.017
G1 X130.477 Y110.985 E0.017
G1 X130.501 Y111.5 E0.017
G1 X130.477 Y112.015 E0.017
G1 X130.405 Y112.525 E0.017
G1 X130.285 Y113.027 E0.018
G1 X130.119 Y113.516 E0.017
G1 X129.907 Y113.986 E0.017
G1 X129.653 Y114.435 E0.017
G1 X129.358 Y114.857 E0.017
G1 X129.024 Y115.251 E0.017
G1 X128.655 Y115.611 E0.018
G1 X128.254 Y115.935 E0.017
G1 X127.825 Y116.22 E0.017
G1 X127.371 Y116.464 E0.017
G1 X126.895 Y116.665 E0.017
G1 X126.403 Y116.819 E0.017
G1 X125.899 Y116.928 E0.017
G1 X125.386 Y116.988 E0.018
G1 X124.87 Y117 E0.017
G1 X124.356 Y116.963 E0.017
G1 X123.849 Y116.879 E0.017
G1 X123.35 Y116.748 E0.017
G1 X122.866 Y116.57 E0.017
G1 X122.4 Y116.349 E0.017
G1 X121.957 Y116.083 E0.018
G1 X121.791 Y115.961 E0.006
G1 X121.541 Y115.777 E0.011
G1 X121.157 Y115.435 E0.017
G1 X120.805 Y115.058 E0.017
G1 X120.489 Y114.65 E0.017
G1 X120.214 Y114.212 E0.017
G1 X119.982 Y113.753 E0.018
G1 X119.792 Y113.274 E0.017
G1 X119.649 Y112.778 E0.017
G1 X119.553 Y112.271 E0.017
G1 X119.505 Y111.757 E0.017
G1 Y111.243 E0.017
G1 X119.553 Y110.729 E0.017
G1 X119.649 Y110.222 E0.018
G1 X119.792 Y109.726 E0.017
G1 X119.982 Y109.247 E0.017
G1 X120.214 Y108.788 E0.017
G1 X120.489 Y108.35 E0.017
G1 X120.805 Y107.942 E0.017
G1 X121.157 Y107.565 E0.018
G1 X121.541 Y107.223 E0.017
G1 X121.956 Y106.917 E0.017
G1 X122.4 Y106.651 E0.017
G1 X122.866 Y106.43 E0.017
G1 X123.35 Y106.252 E0.017
G1 X123.849 Y106.121 E0.017
G1 X124.356 Y106.037 E0.018
G1 X124.87 Y106 E0.017
;rapid-leaky
G0 X124.88 Y106.4 F7200
;bead-skirt/brim
G1 X125.358 Y106.412 F960 E0.016
G1 X125.833 Y106.467 E0.016
G1 X126.301 Y106.568 E0.015
G1 X126.757 Y106.711 E0.016
G1 X127.198 Y106.897 E0.016
G1 X127.62 Y107.124 E0.016
G1 X128.017 Y107.388 E0.016
G1 X128.389 Y107.688 E0.016
G1 X128.731 Y108.022 E0.016
G1 X129.04 Y108.387 E0.016
G1 X129.147 Y108.538 E0.006
G1 X129.314 Y108.779 E0.01
G1 X129.55 Y109.195 E0.016
G1 X129.746 Y109.631 E0.015
G1 X129.9 Y110.084 E0.016
G1 X130.011 Y110.549 E0.016
G1 X130.078 Y111.023 E0.016
G1 X130.101 Y111.5 E0.016
G1 X130.078 Y111.977 E0.016
G1 X130.011 Y112.451 E0.016
G1 X129.9 Y112.916 E0.016
G1 X129.746 Y113.369 E0.016
G1 X129.55 Y113.805 E0.016
G1 X129.314 Y114.221 E0.016
G1 X129.041 Y114.613 E0.015
G1 X128.731 Y114.978 E0.016
G1 X128.389 Y115.312 E0.016
G1 X128.017 Y115.612 E0.016
G1 X127.62 Y115.876 E0.016
G1 X127.198 Y116.103 E0.016
G1 X126.757 Y116.289 E0.016
G1 X126.301 Y116.432 E0.016
G1 X125.833 Y116.533 E0.016
G1 X125.358 Y116.588 E0.016
G1 X124.88 Y116.6 E0.015
G1 X124.403 Y116.565 E0.016
G1 X123.933 Y116.487 E0.016
G1 X123.47 Y116.366 E0.016
G1 X123.021 Y116.201 E0.016
G1 X122.589 Y115.996 E0.016
G1 X122.179 Y115.749 E0.016
G1 X122.028 Y115.639 E0.006
G1 X121.793 Y115.466 E0.01
G1 X121.436 Y115.149 E0.016
G1 X121.11 Y114.799 E0.016
G1 X120.818 Y114.42 E0.015
G1 X120.562 Y114.015 E0.016
G1 X120.347 Y113.589 E0.016
G1 X120.171 Y113.145 E0.016
G1 X120.039 Y112.685 E0.016
G1 X119.949 Y112.215 E0.016
G1 X119.905 Y111.739 E0.016
G1 Y111.261 E0.016
G1 X119.949 Y110.785 E0.016
G1 X120.039 Y110.315 E0.016
G1 X120.171 Y109.855 E0.016
G1 X120.347 Y109.411 E0.015
G1 X120.562 Y108.985 E0.016
G1 X120.818 Y108.58 E0.016
G1 X121.11 Y108.201 E0.016
G1 X121.436 Y107.851 E0.016
G1 X121.793 Y107.534 E0.016
G1 X122.178 Y107.251 E0.016
G1 X122.589 Y107.004 E0.016
G1 X123.021 Y106.799 E0.016
G1 X123.47 Y106.634 E0.016
G1 X123.933 Y106.513 E0.015
G1 X124.403 Y106.435 E0.016
G1 X124.88 Y106.4 E0.016
;rapid-leaky
G0 X124.889 Y106.801 F7200
;bead-skirt/brim
G1 X125.33 Y106.811 F960 E0.015
G1 X125.768 Y106.862 E0.015
G1 X126.199 Y106.955 E0.014
G1 X126.619 Y107.087 E0.015
G1 X127.025 Y107.258 E0.015
G1 X127.414 Y107.467 E0.014
G1 X127.78 Y107.711 E0.015
G1 X128.123 Y107.987 E0.015
G1 X128.438 Y108.296 E0.014
G1 X128.723 Y108.632 E0.015
G1 X128.819 Y108.767 E0.005
G1 X128.975 Y108.992 E0.009
G1 X129.193 Y109.376 E0.015
G1 X129.373 Y109.778 E0.015
G1 X129.515 Y110.195 E0.014
G1 X129.618 Y110.624 E0.015
G1 X129.679 Y111.06 E0.015
G1 X129.7 Y111.5 E0.014
G1 X129.679 Y111.94 E0.015
G1 X129.618 Y112.376 E0.015
G1 X129.515 Y112.805 E0.014
G1 X129.373 Y113.222 E0.015
G1 X129.193 Y113.624 E0.015
G1 X128.975 Y114.008 E0.014
G1 X128.724 Y114.368 E0.015
G1 X128.438 Y114.705 E0.015
G1 X128.123 Y115.013 E0.014
G1 X127.78 Y115.289 E0.015
G1 X127.414 Y115.533 E0.015
G1 X127.025 Y115.742 E0.014
G1 X126.619 Y115.913 E0.015
G1 X126.199 Y116.045 E0.015
G1 X125.768 Y116.138 E0.014
G1 X125.33 Y116.189 E0.015
G1 X124.889 Y116.199 E0.015
G1 X124.45 Y116.168 E0.014
G1 X124.016 Y116.096 E0.015
G1 X123.59 Y115.984 E0.014
G1 X123.176 Y115.832 E0.015
G1 X122.778 Y115.643 E0.015
G1 X122.4 Y115.416 E0.014
G1 X122.265 Y115.317 E0.006
G1 X122.045 Y115.155 E0.009
G1 X121.716 Y114.862 E0.015
G1 X121.415 Y114.54 E0.014
G1 X121.146 Y114.191 E0.015
G1 X120.911 Y113.818 E0.015
G1 X120.712 Y113.425 E0.014
G1 X120.55 Y113.016 E0.015
G1 X120.428 Y112.592 E0.015
G1 X120.346 Y112.159 E0.014
G1 X120.305 Y111.72 E0.015
G1 Y111.28 E0.015
G1 X120.346 Y110.841 E0.014
G1 X120.428 Y110.408 E0.015
G1 X120.55 Y109.984 E0.015
G1 X120.712 Y109.575 E0.014
G1 X120.911 Y109.182 E0.015
G1 X121.146 Y108.809 E0.015
G1 X121.415 Y108.46 E0.014
G1 X121.716 Y108.138 E0.015
G1 X122.045 Y107.845 E0.015
G1 X122.4 Y107.584 E0.014
G1 X122.778 Y107.357 E0.015
G1 X123.176 Y107.168 E0.015
G1 X123.59 Y107.016 E0.014
G1 X124.016 Y106.904 E0.015
G1 X124.45 Y106.832 E0.015
G1 X124.889 Y106.801 E0.014
G1 F2100 E-0.5
;rapid-dry
G0 X125.702 Y107.258 F7200
G1 F2100 E0.5
;bead-perimeter_outer
G1 X126.097 Y107.343 F720 E0.014
G1 X126.481 Y107.463 E0.013
G1 X126.853 Y107.62 E0.013
G1 X127.208 Y107.811 E0.014
G1 X127.544 Y108.033 E0.013
G1 X127.857 Y108.287 E0.014
G1 X128.146 Y108.569 E0.013
G1 X128.491 Y108.997 E0.018
G1 X128.637 Y109.206 E0.009
G1 X128.835 Y109.556 E0.013
G1 X129.001 Y109.924 E0.014
G1 X129.131 Y110.307 E0.013
G1 X129.224 Y110.698 E0.013
G1 X129.281 Y111.098 E0.014
G1 X129.3 Y111.5 E0.013
G1 X129.281 Y111.902 E0.014
G1 X129.224 Y112.302 E0.013
G1 X129.131 Y112.693 E0.013
G1 X129.001 Y113.076 E0.014
G1 X128.835 Y113.444 E0.013
G1 X128.637 Y113.794 E0.014
G1 X128.406 Y114.124 E0.013
G1 X128.146 Y114.432 E0.013
G1 X127.857 Y114.713 E0.014
G1 X127.544 Y114.967 E0.013
G1 X127.208 Y115.189 E0.014
G1 X126.853 Y115.38 E0.013
G1 X126.481 Y115.537 E0.014
G1 X126.097 Y115.657 E0.013
G1 X125.702 Y115.742 E0.013
G1 X125.302 Y115.789 E0.014
G1 X124.899 Y115.799 E0.013
G1 X124.498 Y115.77 E0.014
G1 X124.1 Y115.704 E0.013
G1 X123.71 Y115.602 E0.013
G1 X123.332 Y115.462 E0.014
G1 X122.968 Y115.289 E0.013
G1 X122.503 Y114.995 E0.018
G1 X122.297 Y114.843 E0.009
G1 X121.996 Y114.576 E0.013
G1 X121.721 Y114.28 E0.014
G1 X121.474 Y113.961 E0.013
G1 X121.259 Y113.62 E0.014
G1 X121.078 Y113.261 E0.013
G1 X120.93 Y112.886 E0.013
G1 X120.818 Y112.498 E0.014
G1 X120.742 Y112.103 E0.013
G1 X120.705 Y111.702 E0.014
G1 Y111.298 E0.013
G1 X120.742 Y110.897 E0.013
G1 X120.818 Y110.502 E0.014
G1 X120.93 Y110.114 E0.013
G1 X121.078 Y109.739 E0.014
G1 X121.259 Y109.38 E0.013
G1 X121.474 Y109.039 E0.013
G1 X121.721 Y108.72 E0.014
G1 X121.996 Y108.424 E0.013
G1 X122.297 Y108.157 E0.014
G1 X122.622 Y107.918 E0.013
G1 X122.968 Y107.711 E0.014
G1 X123.332 Y107.538 E0.013
G1 X123.71 Y107.398 E0.013
G1 X124.1 Y107.296 E0.014
G1 X124.498 Y107.23 E0.013
G1 X124.899 Y107.201 E0.014
G1 X125.302 Y107.211 E0.013
G1 X125.702 Y107.258 E0.013
;rapid-leaky
G0 X125.643 Y107.613 F7200
;bead-perimeter_inner
G1 X126.005 Y107.691 F960 E0.013
G1 X126.357 Y107.801 E0.012
G1 X126.697 Y107.945 E0.012
G1 X127.023 Y108.12 E0.012
G1 X127.33 Y108.324 E0.013
G1 X127.618 Y108.556 E0.012
G1 X127.882 Y108.814 E0.012
G1 X128.196 Y109.203 E0.017
G1 X128.332 Y109.398 E0.008
G1 X128.514 Y109.719 E0.012
G1 X128.665 Y110.056 E0.012
G1 X128.784 Y110.407 E0.013
G1 X128.87 Y110.765 E0.012
G1 X128.922 Y111.132 E0.012
G1 X128.939 Y111.5 E0.013
G1 X128.922 Y111.868 E0.012
G1 X128.87 Y112.235 E0.012
G1 X128.784 Y112.593 E0.012
G1 X128.665 Y112.944 E0.013
G1 X128.514 Y113.281 E0.012
G1 X128.332 Y113.602 E0.012
G1 X128.121 Y113.904 E0.013
G1 X127.882 Y114.186 E0.012
G1 X127.618 Y114.444 E0.012
G1 X127.33 Y114.676 E0.012
G1 X127.023 Y114.88 E0.013
G1 X126.697 Y115.055 E0.012
G1 X126.357 Y115.199 E0.012
G1 X126.005 Y115.309 E0.013
G1 X125.643 Y115.387 E0.012
G1 X125.277 Y115.43 E0.012
G1 X124.907 Y115.439 E0.012
G1 X124.54 Y115.412 E0.013
G1 X124.175 Y115.352 E0.012
G1 X123.818 Y115.258 E0.012
G1 X123.471 Y115.13 E0.013
G1 X123.138 Y114.972 E0.012
G1 X122.716 Y114.705 E0.016
G1 X122.524 Y114.563 E0.008
G1 X122.248 Y114.318 E0.013
G1 X121.995 Y114.047 E0.012
G1 X121.77 Y113.755 E0.012
G1 X121.573 Y113.443 E0.012
G1 X121.406 Y113.113 E0.013
G1 X121.271 Y112.77 E0.012
G1 X121.168 Y112.415 E0.012
G1 X121.099 Y112.052 E0.013
G1 X121.065 Y111.685 E0.012
G1 Y111.315 E0.012
G1 X121.099 Y110.948 E0.012
G1 X121.168 Y110.585 E0.013
G1 X121.271 Y110.23 E0.012
G1 X121.406 Y109.887 E0.012
G1 X121.573 Y109.557 E0.013
G1 X121.77 Y109.245 E0.012
G1 X121.995 Y108.953 E0.012
G1 X122.248 Y108.682 E0.012
G1 X122.524 Y108.437 E0.013
G1 X122.822 Y108.218 E0.012
G1 X123.138 Y108.028 E0.012
G1 X123.471 Y107.87 E0.013
G1 X123.818 Y107.742 E0.012
G1 X124.175 Y107.648 E0.012
G1 X124.54 Y107.588 E0.012
G1 X124.907 Y107.561 E0.013
G1 X125.277 Y107.57 E0.012
G1 X125.643 Y107.613 E0.012
G1 F2100 E-0.5
;rapid-dry
G0 X125.468 Y109.248 F7200
G1 F2100 E0.5
;bead-perimeter_outer
G1 X125.156 Y109.205 F720 E0.011
G1 X124.828 Y109.207 E0.011
G1 X124.532 Y109.248 E0.01
G1 X124.23 Y109.332 E0.01
G1 X123.942 Y109.457 E0.01
G1 X123.673 Y109.62 E0.011
G1 X123.43 Y109.819 E0.01
G1 X123.215 Y110.049 E0.011
G1 X123.035 Y110.305 E0.01
G1 X122.89 Y110.583 E0.011
G1 X122.785 Y110.879 E0.01
G1 X122.721 Y111.187 E0.011
G1 X122.7 Y111.5 E0.01
G1 X122.721 Y111.813 E0.01
G1 X122.785 Y112.122 E0.011
G1 X122.898 Y112.432 E0.011
G1 X123.035 Y112.695 E0.01
G1 X123.216 Y112.952 E0.01
G1 X123.443 Y113.192 E0.011
G1 X123.673 Y113.38 E0.01
G1 X123.942 Y113.543 E0.011
G1 X124.23 Y113.668 E0.01
G1 X124.532 Y113.752 E0.01
G1 X124.844 Y113.795 E0.011
G1 X125.172 Y113.793 E0.011
G1 X125.468 Y113.752 E0.01
G1 X125.77 Y113.668 E0.01
G1 X126.058 Y113.543 E0.011
G1 X126.327 Y113.38 E0.01
G1 X126.57 Y113.181 E0.011
G1 X126.785 Y112.951 E0.01
G1 X126.965 Y112.695 E0.01
G1 X127.11 Y112.417 E0.011
G1 X127.215 Y112.121 E0.01
G1 X127.279 Y111.813 E0.011
G1 X127.3 Y111.5 E0.01
G1 X127.279 Y111.187 E0.011
G1 X127.215 Y110.878 E0.01
G1 X127.103 Y110.568 E0.011
G1 X126.965 Y110.305 E0.01
G1 X126.784 Y110.048 E0.01
G1 X126.557 Y109.808 E0.011
G1 X126.327 Y109.62 E0.01
G1 X126.058 Y109.457 E0.011
G1 X125.77 Y109.332 E0.01
G1 X125.468 Y109.248 E0.011
;rapid-leaky
G0 X125.541 Y108.894 F7200
;bead-perimeter_inner
G1 X125.179 Y108.845 F960 E0.012
G1 X124.802 Y108.847 E0.012
G1 X124.459 Y108.894 E0.012
G1 X124.11 Y108.992 E0.012
G1 X123.776 Y109.137 E0.012
G1 X123.465 Y109.326 E0.012
G1 X123.184 Y109.555 E0.012
G1 X122.935 Y109.821 E0.012
G1 X122.727 Y110.117 E0.012
G1 X122.559 Y110.439 E0.012
G1 X122.437 Y110.782 E0.012
G1 X122.364 Y111.138 E0.013
G1 X122.339 Y111.5 E0.012
G1 X122.364 Y111.862 E0.012
G1 X122.438 Y112.22 E0.012
G1 X122.567 Y112.577 E0.012
G1 X122.727 Y112.883 E0.012
G1 X122.936 Y113.181 E0.012
G1 X123.197 Y113.456 E0.013
G1 X123.465 Y113.674 E0.011
G1 X123.776 Y113.863 E0.012
G1 X124.11 Y114.008 E0.012
G1 X124.459 Y114.106 E0.012
G1 X124.821 Y114.155 E0.013
G1 X125.198 Y114.153 E0.012
G1 X125.541 Y114.106 E0.012
G1 X125.89 Y114.008 E0.012
G1 X126.224 Y113.863 E0.012
G1 X126.535 Y113.674 E0.012
G1 X126.816 Y113.445 E0.012
G1 X127.065 Y113.179 E0.012
G1 X127.273 Y112.883 E0.012
G1 X127.441 Y112.561 E0.012
G1 X127.563 Y112.218 E0.012
G1 X127.636 Y111.862 E0.012
G1 X127.661 Y111.5 E0.012
G1 X127.636 Y111.138 E0.013
G1 X127.562 Y110.78 E0.012
G1 X127.433 Y110.423 E0.012
G1 X127.273 Y110.117 E0.012
G1 X127.064 Y109.819 E0.012
G1 X126.803 Y109.544 E0.013
G1 X126.535 Y109.326 E0.011
G1 X126.224 Y109.137 E0.012
G1 X125.89 Y108.992 E0.012
G1 X125.541 Y108.894 E0.012
G1 F2100 E-0.5
;rapid-dry
G0 X126.965 Y97.305 F7200
G1 F2100 E0.5
;bead-perimeter_outer
G1 X126.784 Y97.048 F720 E0.011
G1 X126.563 Y96.812 E0.011
G1 X126.327 Y96.62 E0.01
G1 X126.058 Y96.457 E0.01
G1 X125.77 Y96.332 E0.011
G1 X125.468 Y96.248 E0.01
G1 X125.157 Y96.205 E0.01
G1 X124.843 E0.011
G1 X124.523 Y96.25 E0.011
G1 X124.23 Y96.332 E0.01
G1 X123.942 Y96.457 E0.01
G1 X123.673 Y96.62 E0.011
G1 X123.43 Y96.819 E0.01
G1 X123.215 Y97.049 E0.011
G1 X123.035 Y97.305 E0.01
G1 X122.887 Y97.591 E0.011
G1 X122.785 Y97.879 E0.01
G1 X122.721 Y98.187 E0.01
G1 X122.7 Y98.5 E0.011
G1 X122.721 Y98.813 E0.01
G1 X122.785 Y99.121 E0.011
G1 X122.894 Y99.425 E0.01
G1 X123.035 Y99.695 E0.01
G1 X123.216 Y99.952 E0.011
G1 X123.437 Y100.188 E0.011
G1 X123.673 Y100.38 E0.01
G1 X123.942 Y100.543 E0.01
G1 X124.23 Y100.668 E0.011
G1 X124.532 Y100.752 E0.01
G1 X124.843 Y100.795 E0.011
G1 X125.157 E0.01
G1 X125.477 Y100.75 E0.011
G1 X125.77 Y100.668 E0.01
G1 X126.058 Y100.543 E0.01
G1 X126.327 Y100.38 E0.011
G1 X126.57 Y100.181 E0.01
G1 X126.785 Y99.951 E0.011
G1 X126.965 Y99.695 E0.01
G1 X127.113 Y99.409 E0.011
G1 X127.215 Y99.121 E0.01
G1 X127.279 Y98.813 E0.01
G1 X127.3 Y98.5 E0.011
G1 X127.279 Y98.187 E0.01
G1 X127.215 Y97.879 E0.011
G1 X127.106 Y97.575 E0.011
G1 X126.965 Y97.305 E0.01
;rapid-leaky
G0 X127.273 Y97.117 F7200
;bead-perimeter_inner
G1 X127.064 Y96.82 F960 E0.012
G1 X126.808 Y96.548 E0.012
G1 X126.535 Y96.325 E0.012
G1 X126.224 Y96.137 E0.012
G1 X125.89 Y95.992 E0.012
G1 X125.541 Y95.894 E0.012
G1 X125.181 Y95.845 E0.012
G1 X124.818 E0.012
G1 X124.449 Y95.897 E0.013
G1 X124.109 Y95.992 E0.011
G1 X123.776 Y96.137 E0.013
G1 X123.465 Y96.326 E0.012
G1 X123.184 Y96.555 E0.012
G1 X122.935 Y96.821 E0.012
G1 X122.726 Y97.118 E0.012
G1 X122.556 Y97.448 E0.012
G1 X122.437 Y97.782 E0.012
G1 X122.364 Y98.138 E0.012
G1 X122.339 Y98.5 E0.012
G1 X122.364 Y98.862 E0.012
G1 X122.438 Y99.219 E0.012
G1 X122.564 Y99.57 E0.013
G1 X122.727 Y99.883 E0.012
G1 X122.936 Y100.18 E0.012
G1 X123.192 Y100.452 E0.012
G1 X123.465 Y100.675 E0.012
G1 X123.776 Y100.863 E0.012
G1 X124.11 Y101.008 E0.012
G1 X124.459 Y101.106 E0.012
G1 X124.819 Y101.155 E0.012
G1 X125.182 E0.012
G1 X125.551 Y101.103 E0.013
G1 X125.891 Y101.008 E0.011
G1 X126.224 Y100.863 E0.012
G1 X126.535 Y100.674 E0.012
G1 X126.816 Y100.445 E0.013
G1 X127.065 Y100.179 E0.012
G1 X127.274 Y99.882 E0.012
G1 X127.444 Y99.552 E0.012
G1 X127.563 Y99.218 E0.012
G1 X127.636 Y98.862 E0.012
G1 X127.661 Y98.5 E0.012
G1 X127.636 Y98.138 E0.012
G1 X127.562 Y97.781 E0.012
G1 X127.436 Y97.43 E0.013
G1 X127.273 Y97.117 E0.011
G1 F2100 E-0.5
;rapid-dry
G0 X128.637 Y96.206 F7200
G1 F2100 E0.5
;bead-perimeter_outer
G1 X128.835 Y96.556 F720 E0.014
G1 X129.001 Y96.924 E0.013
G1 X129.131 Y97.307 E0.014
G1 X129.224 Y97.698 E0.013
G1 X129.281 Y98.097 E0.013
G1 X129.3 Y98.5 E0.014
G1 X129.281 Y98.902 E0.013
G1 X129.224 Y99.302 E0.014
G1 X129.131 Y99.693 E0.013
G1 X129.001 Y100.076 E0.013
G1 X128.835 Y100.444 E0.014
G1 X128.637 Y100.794 E0.013
G1 X128.406 Y101.124 E0.014
G1 X128.146 Y101.432 E0.013
G1 X127.857 Y101.713 E0.013
G1 X127.544 Y101.967 E0.014
G1 X127.208 Y102.189 E0.013
G1 X126.853 Y102.38 E0.014
G1 X126.481 Y102.537 E0.013
G1 X126.097 Y102.657 E0.013
G1 X125.702 Y102.742 E0.014
G1 X125.302 Y102.789 E0.013
G1 X124.899 Y102.799 E0.014
G1 X124.498 Y102.77 E0.013
G1 X124.1 Y102.704 E0.014
G1 X123.71 Y102.602 E0.013
G1 X123.332 Y102.462 E0.013
G1 X122.968 Y102.289 E0.014
G1 X122.622 Y102.082 E0.013
G1 X122.297 Y101.843 E0.014
G1 X121.996 Y101.576 E0.013
G1 X121.721 Y101.28 E0.013
G1 X121.474 Y100.961 E0.014
G1 X121.259 Y100.62 E0.013
G1 X121.078 Y100.261 E0.014
G1 X120.93 Y99.886 E0.013
G1 X120.818 Y99.498 E0.013
G1 X120.742 Y99.103 E0.014
G1 X120.705 Y98.702 E0.013
G1 Y98.298 E0.014
G1 X120.742 Y97.897 E0.013
G1 X120.818 Y97.502 E0.013
G1 X120.93 Y97.114 E0.014
G1 X121.078 Y96.739 E0.013
G1 X121.259 Y96.38 E0.014
G1 X121.474 Y96.039 E0.013
G1 X121.721 Y95.719 E0.013
G1 X121.996 Y95.424 E0.014
G1 X122.297 Y95.157 E0.013
G1 X122.622 Y94.918 E0.014
G1 X122.968 Y94.711 E0.013
G1 X123.332 Y94.538 E0.014
G1 X123.71 Y94.398 E0.013
G1 X124.1 Y94.296 E0.013
G1 X124.498 Y94.23 E0.014
G1 X124.899 Y94.201 E0.013
G1 X125.302 Y94.211 E0.014
G1 X125.702 Y94.258 E0.013
G1 X126.097 Y94.343 E0.013
G1 X126.481 Y94.463 E0.014
G1 X126.853 Y94.62 E0.013
G1 X127.208 Y94.811 E0.014
G1 X127.544 Y95.033 E0.013
G1 X127.857 Y95.287 E0.013
G1 X128.146 Y95.569 E0.014
G1 X128.406 Y95.876 E0.013
G1 X128.637 Y96.206 E0.014
;rapid-leaky
G0 X128.332 Y96.398 F7200
;bead-perimeter_inner
G1 X128.514 Y96.719 F960 E0.012
G1 X128.665 Y97.056 E0.012
G1 X128.784 Y97.407 E0.012
G1 X128.87 Y97.765 E0.013
G1 X128.922 Y98.13 E0.012
G1 X128.939 Y98.5 E0.012
G1 X128.922 Y98.868 E0.013
G1 X128.87 Y99.235 E0.012
G1 X128.784 Y99.593 E0.012
G1 X128.665 Y99.944 E0.012
G1 X128.514 Y100.281 E0.013
G1 X128.332 Y100.602 E0.012
G1 X128.121 Y100.904 E0.012
G1 X127.882 Y101.186 E0.013
G1 X127.618 Y101.444 E0.012
G1 X127.33 Y101.676 E0.012
G1 X127.023 Y101.88 E0.012
G1 X126.697 Y102.055 E0.013
G1 X126.357 Y102.199 E0.012
G1 X126.005 Y102.309 E0.012
G1 X125.643 Y102.387 E0.013
G1 X125.277 Y102.43 E0.012
G1 X124.907 Y102.439 E0.012
G1 X124.54 Y102.412 E0.012
G1 X124.175 Y102.352 E0.013
G1 X123.818 Y102.258 E0.012
G1 X123.471 Y102.13 E0.012
G1 X123.138 Y101.972 E0.013
G1 X122.822 Y101.782 E0.012
G1 X122.524 Y101.563 E0.012
G1 X122.248 Y101.318 E0.012
G1 X121.995 Y101.047 E0.013
G1 X121.77 Y100.755 E0.012
G1 X121.573 Y100.443 E0.012
G1 X121.406 Y100.113 E0.013
G1 X121.271 Y99.77 E0.012
G1 X121.168 Y99.415 E0.012
G1 X121.099 Y99.052 E0.012
G1 X121.065 Y98.685 E0.013
G1 Y98.315 E0.012
G1 X121.099 Y97.948 E0.012
G1 X121.168 Y97.585 E0.012
G1 X121.271 Y97.23 E0.013
G1 X121.406 Y96.887 E0.012
G1 X121.573 Y96.557 E0.012
G1 X121.77 Y96.245 E0.013
G1 X121.996 Y95.952 E0.012
G1 X122.248 Y95.682 E0.012
G1 X122.524 Y95.437 E0.012
G1 X122.822 Y95.218 E0.013
G1 X123.138 Y95.028 E0.012
G1 X123.471 Y94.87 E0.012
G1 X123.818 Y94.742 E0.013
G1 X124.175 Y94.648 E0.012
G1 X124.54 Y94.588 E0.012
G1 X124.907 Y94.561 E0.012
G1 X125.277 Y94.57 E0.013
G1 X125.643 Y94.613 E0.012
G1 X126.005 Y94.691 E0.012
G1 X126.357 Y94.801 E0.013
G1 X126.697 Y94.945 E0.012
G1 X127.023 Y95.12 E0.012
G1 X127.33 Y95.324 E0.012
G1 X127.618 Y95.556 E0.013
G1 X127.882 Y95.814 E0.012
G1 X128.121 Y96.096 E0.012
G1 X128.332 Y96.398 E0.013
G1 F2100 E-0.5
;rapid-dry
G0 X128.338 Y99.892 F7200
G1 F2100 E0.5
;bead-solid_infill
G1 X126.394 Y101.836 F720 E0.091
G1 F2100 E-0.5
;rapid-dry
G0 X128.329 Y112.912 F7200
G1 F2100 E0.5
;bead-solid_infill
G1 X126.413 Y114.828 F720 E0.09
G1 F2100 E-0.5
;rapid-dry
G0 X121.793 Y109.831 F7200
G1 F2100 E0.5
;bead-solid_infill
G1 X123.335 Y108.289 F720 E0.073
G1 X123.596 Y108.165 E0.009
G1 X123.914 Y108.047 E0.012
G1 X124.11 Y107.996 E0.006
G1 X124.223 Y107.966 E0.004
G1 X121.468 Y110.722 E0.13
G1 X121.416 Y110.992 E0.009
G1 X121.385 Y111.33 E0.011
G1 Y111.37 E0.002
G1 X122.166 Y110.589 E0.036
G1 X122.128 Y110.696 E0.004
G1 X122.046 Y111.094 E0.014
G1 X122.033 Y111.288 E0.006
G1 X121.408 Y111.913 E0.029
G1 X121.416 Y112.008 E0.004
G1 X121.472 Y112.301 E0.01
G1 X121.48 Y112.34 E0.001
G1 X121.495 Y112.392 E0.002
G1 X122.042 Y111.845 E0.025
G1 X122.046 Y111.906 E0.002
G1 X122.129 Y112.307 E0.014
G1 X122.133 Y112.319
G1 X121.634 Y112.818 E0.024
G1 X121.699 Y112.982 E0.006
G1 X121.812 Y113.206 E0.008
G1 X122.287 Y112.731 E0.022
G1 X122.453 Y113.05 E0.012
G1 X122.486 Y113.097 E0.002
G1 X122.025 Y113.559 E0.022
G1 X122.032 Y113.571 E0.001
G1 X122.24 Y113.84 E0.011
G1 X122.273 Y113.876 E0.002
G1 X122.726 Y113.424 E0.021
G1 X122.979 Y113.691 E0.012
G1 X123.004 Y113.711 E0.001
G1 X122.554 Y114.162 E0.021
G1 X122.726 Y114.314 E0.008
G1 X122.864 Y114.417 E0.006
G1 X123.32 Y113.961 E0.021
G1 X123.628 Y114.148 E0.012
G1 X123.677 Y114.169 E0.002
G1 X123.209 Y114.638 E0.022
G1 X123.292 Y114.691 E0.003
G1 X123.385 Y114.735 E0.004
G1 X123.583 Y114.829 E0.007
G1 X124.08 Y114.332 E0.023
G1 X124.394 Y114.42 E0.011
G1 X124.538 Y114.44 E0.005
G1 X124.002 Y114.976 E0.025
G1 X124.242 Y115.038 E0.008
G1 X124.468 Y115.076 E0.008
G1 X125.07 Y114.474 E0.028
G1 X125.221 Y114.473 E0.005
G1 X125.606 Y114.42 E0.013
G1 X125.699 Y114.394 E0.004
G1 X125.722 Y114.387
G1 X124.993 Y115.116 E0.035
G1 X125.254 Y115.11 E0.008
G1 X125.591 Y115.071 E0.012
G1 X125.608 Y115.067
G1 X126.82 Y113.855 E0.057
G1 X127.035 Y113.679 E0.009
G1 X127.313 Y113.381 E0.014
G1 X127.361 Y113.314 E0.003
G1 X128.565 Y112.11 E0.056
G1 X128.603 Y111.838 E0.009
G1 X128.619 Y111.5 E0.012
G1 Y111.491
G1 X127.889 Y112.22 E0.034
G1 X127.954 Y111.906 E0.011
G1 X127.978 Y111.566 E0.011
G1 X128.576 Y110.968 E0.029
G1 X128.555 Y110.825 E0.004
G1 X128.478 Y110.5 E0.011
G1 X127.942 Y111.036 E0.026
G1 X127.871 Y110.693 E0.011
G1 X127.831 Y110.582 E0.004
G1 X128.327 Y110.085 E0.024
G1 X128.228 Y109.864 E0.008
G1 X128.139 Y109.707 E0.006
G1 X127.667 Y110.18 E0.022
G1 X127.547 Y109.95 E0.008
G1 X127.489 Y109.868 E0.004
G1 X127.458 Y109.823 E0.002
G1 X127.916 Y109.365 E0.021
G1 X127.663 Y109.052 E0.014
G1 X127.208 Y109.507 E0.021
G1 X127.021 Y109.309 E0.009
G1 X126.922 Y109.228 E0.004
G1 X127.377 Y108.773 E0.022
G1 X127.141 Y108.582 E0.01
G1 X127.057 Y108.527 E0.003
G1 X126.596 Y108.988 E0.022
G1 X126.585 Y108.982
G1 X126.372 Y108.852 E0.009
G1 X126.228 Y108.79 E0.005
G1 X126.706 Y108.313 E0.022
G1 X126.559 Y108.234 E0.006
G1 X126.32 Y108.133 E0.008
G1 X125.814 Y108.638 E0.024
G1 X125.606 Y108.58 E0.007
G1 X125.343 Y108.544 E0.009
G1 X125.893 Y107.994 E0.026
G1 X125.591 Y107.929 E0.01
G1 X125.413 Y107.908 E0.006
G1 X124.794 Y108.527 E0.029
G1 X124.779 E0.001
G1 X124.394 Y108.58 E0.013
G1 X124.09 Y108.665 E0.01
G1 X124.87 Y107.885 E0.037
G1 F2100 E-0.5
;rapid-dry
G0 X121.804 Y96.809 F7200
G1 F2100 E0.5
;bead-solid_infill
G1 X123.315 Y95.298 F720 E0.071
G1 X123.596 Y95.165 E0.01
G1 X123.914 Y95.047 E0.012
G1 X124.209 Y94.97 E0.01
G1 X121.471 Y97.708 E0.129
G1 X121.416 Y97.992 E0.009
G1 X121.385 Y98.33 E0.011
G1 Y98.36 E0.001
G1 X122.172 Y97.572 E0.037
G1 X122.128 Y97.696 E0.005
G1 X122.063 Y98.011 E0.011
G1 X122.046 Y98.094 E0.002
G1 X122.033 Y98.277 E0.006
G1 X121.407 Y98.904 E0.03
G1 X121.416 Y99.008 E0.003
G1 X121.472 Y99.302 E0.01
G1 X121.48 Y99.34 E0.002
G1 X121.492 Y99.384 E0.001
G1 X122.041 Y98.835 E0.026
G1 X122.046 Y98.906 E0.002
G1 X122.118 Y99.253 E0.012
G1 X122.129 Y99.306 E0.002
G1 X122.131 Y99.311
G1 X121.631 Y99.811 E0.024
G1 X121.699 Y99.982 E0.006
G1 X121.806 Y100.194 E0.008
G1 X121.808 Y100.199
G1 X122.283 Y99.724 E0.022
G1 X122.453 Y100.05 E0.012
G1 X122.482 Y100.091 E0.002
G1 X122.02 Y100.553 E0.022
G1 X122.032 Y100.571 E0.001
G1 X122.129 Y100.697 E0.005
G1 X122.24 Y100.84 E0.006
G1 X122.268 Y100.871 E0.001
G1 X122.721 Y100.418 E0.021
G1 X122.973 Y100.686 E0.013
G1 X122.998 Y100.707 E0.001
G1 X122.548 Y101.157 E0.021
G1 X122.602 Y101.205 E0.002
G1 X122.725 Y101.314 E0.006
G1 X122.858 Y101.412 E0.005
G1 X123.313 Y100.957 E0.022
G1 X123.628 Y101.148 E0.012
G1 X123.67 Y101.166 E0.002
G1 X123.2 Y101.636 E0.022
G1 X123.289 Y101.689 E0.003
G1 X123.576 Y101.826 E0.011
G1 X124.072 Y101.33 E0.023
G1 X124.308 Y101.396 E0.008
G1 X124.394 Y101.42 E0.003
G1 X124.529 Y101.438 E0.005
G1 X123.994 Y101.973 E0.025
G1 X124.242 Y102.038 E0.008
G1 X124.458 Y102.074 E0.008
G1 X125.058 Y101.475 E0.028
G1 X125.204 E0.005
G1 X125.617 Y101.417 E0.014
G1 X125.706 Y101.392 E0.003
G1 X124.982 Y102.117 E0.034
G1 X125.254 Y102.11 E0.009
G1 X125.563 Y102.074 E0.01
G1 X125.591 Y102.071 E0.001
G1 X125.594 Y102.07
G1 X126.762 Y100.902 E0.055
G1 X127.035 Y100.679 E0.012
G1 X127.313 Y100.381 E0.013
G1 X127.387 Y100.277 E0.005
G1 X128.566 Y99.098 E0.055
G1 X128.603 Y98.838 E0.009
G1 X128.619 Y98.5 E0.011
G1 X128.618 Y98.48 E0.001
G1 X127.892 Y99.207 E0.034
G1 X127.954 Y98.906 E0.01
G1 X127.978 Y98.554 E0.012
G1 X128.574 Y97.959 E0.028
G1 X128.555 Y97.825 E0.004
G1 X128.477 Y97.495 E0.012
G1 X128.475 Y97.492
G1 X127.94 Y98.027 E0.025
G1 X127.871 Y97.694 E0.011
G1 X127.828 Y97.574 E0.005
G1 X128.324 Y97.077 E0.023
G1 X128.228 Y96.864 E0.008
G1 X128.135 Y96.7 E0.006
G1 X127.663 Y97.173 E0.022
G1 X127.547 Y96.95 E0.008
G1 X127.453 Y96.817 E0.006
G1 X127.913 Y96.357 E0.021
G1 X127.867 Y96.292 E0.003
G1 X127.659 Y96.046 E0.011
G1 X127.203 Y96.501 E0.021
G1 X127.027 Y96.314 E0.009
G1 X126.916 Y96.223 E0.005
G1 X127.371 Y95.768 E0.021
G1 X127.141 Y95.582 E0.01
G1 X127.051 Y95.522 E0.003
G1 X126.589 Y95.984 E0.022
G1 X126.371 Y95.852 E0.009
G1 X126.221 Y95.786 E0.005
G1 X126.698 Y95.309 E0.023
G1 X126.559 Y95.234 E0.005
G1 X126.429 Y95.179 E0.005
G1 X126.312 Y95.13 E0.004
G1 X125.806 Y95.636 E0.024
G1 X125.606 Y95.58 E0.006
G1 X125.333 Y95.543 E0.01
G1 X125.884 Y94.992 E0.026
G1 X125.591 Y94.929 E0.009
G1 X125.403 Y94.907 E0.007
G1 X124.784 Y95.527 E0.029
G1 X124.383 Y95.583 E0.013
G1 X124.182 Y95.639 E0.007
G1 X124.075 Y95.669 E0.004
G1 X124.859 Y94.886 E0.037
G1 F2100 E-0.5
;LAYER:2
M107
;rapid-dry
G0 X127.279 Y98.813 Z0.35 F7200
G1 F2100 E0.5
;bead-perimeter_outer
G1 X127.3 Y98.5 F1484 E0.008
G1 X127.279 Y98.187 E0.007
G1 X127.215 Y97.878 E0.008
G1 X127.101 Y97.566 E0.009
G1 X126.965 Y97.305 E0.007
G1 X126.785 Y97.049 E0.008
G1 X126.57 Y96.819 E0.008
G1 X126.327 Y96.62 E0.007
G1 X126.058 Y96.457 E0.008
G1 X125.752 Y96.327 E0.009
G1 X125.468 Y96.248 E0.007
G1 X125.156 Y96.205 E0.008
G1 X124.825 Y96.207 E0.008
G1 X124.532 Y96.248 E0.007
G1 X124.229 Y96.332 E0.008
G1 X123.926 Y96.466 E0.009
G1 X123.673 Y96.62 E0.007
G1 X123.43 Y96.819 E0.008
G1 X123.215 Y97.049 E0.008
G1 X123.035 Y97.305 E0.007
G1 X122.89 Y97.584 E0.008
G1 X122.781 Y97.898 E0.009
G1 X122.721 Y98.187 E0.007
G1 X122.7 Y98.5 E0.008
G1 X122.721 Y98.813 E0.008
G1 X122.785 Y99.122 E0.007
G1 X122.899 Y99.434 E0.009
G1 X123.035 Y99.695 E0.007
G1 X123.215 Y99.951 E0.008
G1 X123.43 Y100.181 E0.008
G1 X123.673 Y100.38 E0.008
G1 X123.942 Y100.543 E0.007
G1 X124.248 Y100.673 E0.009
G1 X124.532 Y100.752 E0.007
G1 X124.844 Y100.795 E0.008
G1 X125.175 Y100.793 E0.008
G1 X125.468 Y100.752 E0.008
G1 X125.771 Y100.668 E0.007
G1 X126.074 Y100.534 E0.009
G1 X126.327 Y100.38 E0.007
G1 X126.57 Y100.181 E0.008
G1 X126.785 Y99.951 E0.008
G1 X126.965 Y99.695 E0.008
G1 X127.11 Y99.416 E0.007
G1 X127.219 Y99.102 E0.009
G1 X127.279 Y98.813 E0.007
;rapid-leaky
G0 X127.636 Y98.862 F7200
;bead-perimeter_inner
G1 X127.661 Y98.5 F1978 E0.009
G1 X127.636 Y98.138 E0.009
G1 X127.562 Y97.78 E0.009
G1 X127.432 Y97.421 E0.01
G1 X127.273 Y97.117 E0.008
G1 X127.065 Y96.821 E0.009
G1 X126.816 Y96.555 E0.009
G1 X126.535 Y96.326 E0.01
G1 X126.222 Y96.135 E0.009
G1 X125.871 Y95.986 E0.009
G1 X125.541 Y95.894 E0.009
G1 X125.179 Y95.845 E0.009
G1 X124.798 Y95.847 E0.009
G1 X124.459 Y95.895 E0.009
G1 X124.107 Y95.992 E0.009
G1 X123.759 Y96.147 E0.01
G1 X123.465 Y96.326 E0.008
G1 X123.184 Y96.555 E0.009
G1 X122.935 Y96.821 E0.009
G1 X122.727 Y97.117 E0.009
G1 X122.558 Y97.441 E0.009
G1 X122.433 Y97.802 E0.01
G1 X122.364 Y98.138 E0.008
G1 X122.339 Y98.5 E0.01
G1 X122.364 Y98.862 E0.009
G1 X122.438 Y99.22 E0.009
G1 X122.568 Y99.579 E0.009
G1 X122.727 Y99.883 E0.009
G1 X122.935 Y100.179 E0.009
G1 X123.184 Y100.445 E0.009
G1 X123.465 Y100.674 E0.009
G1 X123.778 Y100.865 E0.009
G1 X124.129 Y101.014 E0.01
G1 X124.459 Y101.106 E0.008
G1 X124.821 Y101.155 E0.009
G1 X125.202 Y101.153 E0.01
G1 X125.541 Y101.105 E0.008
G1 X125.893 Y101.007 E0.009
G1 X126.241 Y100.853 E0.01
G1 X126.535 Y100.674 E0.008
G1 X126.816 Y100.445 E0.01
G1 X127.065 Y100.179 E0.009
G1 X127.273 Y99.883 E0.009
G1 X127.442 Y99.559 E0.009
G1 X127.567 Y99.198 E0.009
G1 X127.636 Y98.862 E0.009
G1 F2100 E-0.5
;rapid-dry
G0 X129.281 Y98.902 F7200
G1 F2100 E0.5
;bead-perimeter_outer
G1 X129.224 Y99.302 F1484 E0.01
G1 X129.131 Y99.693 E0.01
G1 X129.001 Y100.076 E0.01
G1 X128.835 Y100.444 E0.01
G1 X128.637 Y100.794 E0.01
G1 X128.406 Y101.124 E0.01
G1 X128.146 Y101.432 E0.01
G1 X127.857 Y101.713 E0.01
G1 X127.544 Y101.967 E0.01
G1 X127.208 Y102.189 E0.01
G1 X126.853 Y102.38 E0.01
G1 X126.481 Y102.537 E0.011
G1 X126.097 Y102.657 E0.01
G1 X125.702 Y102.742 E0.01
G1 X125.302 Y102.789 E0.01
G1 X124.899 Y102.799 E0.01
G1 X124.498 Y102.77 E0.01
G1 X124.1 Y102.704 E0.01
G1 X123.71 Y102.602 E0.01
G1 X123.332 Y102.462 E0.01
G1 X122.968 Y102.289 E0.01
G1 X122.622 Y102.082 E0.01
G1 X122.297 Y101.843 E0.01
G1 X121.996 Y101.576 E0.01
G1 X121.721 Y101.28 E0.01
G1 X121.474 Y100.961 E0.01
G1 X121.259 Y100.62 E0.01
G1 X121.078 Y100.261 E0.01
G1 X120.93 Y99.886 E0.01
G1 X120.818 Y99.498 E0.01
G1 X120.742 Y99.103 E0.011
G1 X120.705 Y98.702 E0.01
G1 Y98.298 E0.01
G1 X120.742 Y97.897 E0.01
G1 X120.818 Y97.502 E0.01
G1 X120.93 Y97.114 E0.01
G1 X121.078 Y96.739 E0.01
G1 X121.259 Y96.38 E0.01
G1 X121.474 Y96.039 E0.01
G1 X121.721 Y95.719 E0.01
G1 X121.996 Y95.424 E0.01
G1 X122.297 Y95.157 E0.01
G1 X122.622 Y94.918 E0.01
G1 X122.968 Y94.711 E0.01
G1 X123.332 Y94.538 E0.01
G1 X123.71 Y94.398 E0.01
G1 X124.1 Y94.296 E0.01
G1 X124.498 Y94.23 E0.01
G1 X124.899 Y94.201 E0.011
G1 X125.302 Y94.211 E0.01
G1 X125.702 Y94.258 E0.01
G1 X126.097 Y94.343 E0.01
G1 X126.481 Y94.463 E0.01
G1 X126.853 Y94.62 E0.01
G1 X127.208 Y94.811 E0.01
G1 X127.544 Y95.033 E0.01
G1 X127.857 Y95.287 E0.01
G1 X128.146 Y95.569 E0.01
G1 X128.406 Y95.876 E0.01
G1 X128.637 Y96.206 E0.01
G1 X128.835 Y96.556 E0.01
G1 X129.001 Y96.924 E0.01
G1 X129.131 Y97.307 E0.01
G1 X129.224 Y97.698 E0.01
G1 X129.281 Y98.098 E0.01
G1 X129.3 Y98.5 E0.01
G1 X129.281 Y98.902 E0.011
;rapid-leaky
G0 X128.922 Y98.868 F7200
;bead-perimeter_inner
G1 X128.87 Y99.235 F1978 E0.009
G1 X128.784 Y99.593 E0.009
G1 X128.665 Y99.944 E0.009
G1 X128.514 Y100.281 E0.009
G1 X128.332 Y100.602 E0.01
G1 X128.121 Y100.904 E0.009
G1 X127.882 Y101.186 E0.009
G1 X127.618 Y101.444 E0.009
G1 X127.33 Y101.676 E0.009
G1 X127.023 Y101.88 E0.01
G1 X126.697 Y102.055 E0.009
G1 X126.357 Y102.199 E0.009
G1 X126.005 Y102.309 E0.009
G1 X125.643 Y102.387 E0.009
G1 X125.277 Y102.43 E0.01
G1 X124.907 Y102.439 E0.009
G1 X124.54 Y102.412 E0.009
G1 X124.175 Y102.352 E0.009
G1 X123.818 Y102.258 E0.01
G1 X123.471 Y102.13 E0.009
G1 X123.138 Y101.972 E0.009
G1 X122.822 Y101.782 E0.009
G1 X122.523 Y101.563 E0.009
G1 X122.248 Y101.318 E0.01
G1 X121.995 Y101.047 E0.009
G1 X121.77 Y100.755 E0.009
G1 X121.573 Y100.443 E0.009
G1 X121.406 Y100.113 E0.009
G1 X121.271 Y99.77 E0.01
G1 X121.168 Y99.415 E0.009
G1 X121.099 Y99.052 E0.009
G1 X121.065 Y98.685 E0.009
G1 Y98.315 E0.01
G1 X121.099 Y97.948 E0.009
G1 X121.168 Y97.585 E0.009
G1 X121.271 Y97.23 E0.009
G1 X121.406 Y96.887 E0.009
G1 X121.573 Y96.557 E0.01
G1 X121.77 Y96.245 E0.009
G1 X121.996 Y95.952 E0.009
G1 X122.247 Y95.682 E0.009
G1 X122.524 Y95.437 E0.009
G1 X122.822 Y95.218 E0.01
G1 X123.138 Y95.028 E0.009
G1 X123.471 Y94.87 E0.009
G1 X123.818 Y94.742 E0.009
G1 X124.175 Y94.648 E0.009
G1 X124.54 Y94.588 E0.01
G1 X124.907 Y94.561 E0.009
G1 X125.277 Y94.57 E0.009
G1 X125.643 Y94.613 E0.009
G1 X126.005 Y94.691 E0.01
G1 X126.357 Y94.801 E0.009
G1 X126.697 Y94.945 E0.009
G1 X127.023 Y95.12 E0.009
G1 X127.33 Y95.324 E0.009
G1 X127.618 Y95.556 E0.01
G1 X127.882 Y95.814 E0.009
G1 X128.121 Y96.096 E0.009
G1 X128.332 Y96.398 E0.009
G1 X128.514 Y96.719 E0.009
G1 X128.665 Y97.056 E0.01
G1 X128.784 Y97.407 E0.009
G1 X128.87 Y97.765 E0.009
G1 X128.922 Y98.131 E0.009
G1 X128.939 Y98.5 E0.01
G1 X128.922 Y98.868 E0.009
G1 F2100 E-0.5
;rapid-dry
G0 X125.702 Y107.258 F7200
G1 F2100 E0.5
;bead-perimeter_outer
G1 X126.097 Y107.343 F1484 E0.01
G1 X126.481 Y107.463 E0.01
G1 X126.853 Y107.62 E0.01
G1 X127.208 Y107.811 E0.01
G1 X127.543 Y108.033 E0.01
G1 X127.857 Y108.287 E0.01
G1 X128.146 Y108.569 E0.01
G1 X128.406 Y108.876 E0.01
G1 X128.637 Y109.206 E0.01
G1 X128.835 Y109.556 E0.01
G1 X129.001 Y109.924 E0.01
G1 X129.131 Y110.307 E0.01
G1 X129.224 Y110.698 E0.01
G1 X129.281 Y111.098 E0.011
G1 X129.3 Y111.5 E0.01
G1 X129.281 Y111.902 E0.01
G1 X129.224 Y112.302 E0.01
G1 X129.131 Y112.693 E0.01
G1 X129.001 Y113.076 E0.01
G1 X128.835 Y113.444 E0.01
G1 X128.637 Y113.794 E0.01
G1 X128.406 Y114.124 E0.01
G1 X128.146 Y114.432 E0.01
G1 X127.857 Y114.713 E0.01
G1 X127.544 Y114.967 E0.01
G1 X127.208 Y115.189 E0.01
G1 X126.853 Y115.38 E0.01
G1 X126.481 Y115.537 E0.01
G1 X126.097 Y115.657 E0.01
G1 X125.702 Y115.742 E0.01
G1 X125.302 Y115.789 E0.01
G1 X124.899 Y115.799 E0.01
G1 X124.498 Y115.77 E0.011
G1 X124.1 Y115.704 E0.01
G1 X123.71 Y115.602 E0.01
G1 X123.332 Y115.462 E0.01
G1 X122.967 Y115.289 E0.01
G1 X122.622 Y115.083 E0.01
G1 X122.297 Y114.843 E0.01
G1 X121.996 Y114.576 E0.01
G1 X121.721 Y114.28 E0.01
G1 X121.474 Y113.961 E0.01
G1 X121.259 Y113.62 E0.01
G1 X121.078 Y113.261 E0.01
G1 X120.93 Y112.886 E0.01
G1 X120.818 Y112.498 E0.01
G1 X120.742 Y112.103 E0.01
G1 X120.705 Y111.702 E0.01
G1 Y111.298 E0.01
G1 X120.742 Y110.897 E0.01
G1 X120.818 Y110.502 E0.011
G1 X120.93 Y110.114 E0.01
G1 X121.078 Y109.739 E0.01
G1 X121.259 Y109.38 E0.01
G1 X121.474 Y109.039 E0.01
G1 X121.721 Y108.72 E0.01
G1 X121.996 Y108.424 E0.01
G1 X122.297 Y108.157 E0.01
G1 X122.544 Y107.975 E0.008
G1 X122.968 Y107.711 E0.012
G1 X123.332 Y107.538 E0.01
G1 X123.71 Y107.398 E0.01
G1 X124.1 Y107.296 E0.01
G1 X124.498 Y107.23 E0.01
G1 X124.899 Y107.201 E0.01
G1 X125.302 Y107.211 E0.01
G1 X125.702 Y107.258 E0.01
;rapid-leaky
G0 X125.643 Y107.613 F7200
;bead-perimeter_inner
G1 X126.005 Y107.691 F1978 E0.01
G1 X126.357 Y107.801 E0.009
G1 X126.697 Y107.945 E0.009
G1 X127.023 Y108.12 E0.009
G1 X127.329 Y108.323 E0.009
G1 X127.618 Y108.556 E0.01
G1 X127.882 Y108.814 E0.009
G1 X128.121 Y109.096 E0.009
G1 X128.332 Y109.398 E0.009
G1 X128.514 Y109.719 E0.01
G1 X128.665 Y110.056 E0.009
G1 X128.784 Y110.407 E0.009
G1 X128.87 Y110.765 E0.009
G1 X128.922 Y111.132 E0.009
G1 X128.939 Y111.5 E0.01
G1 X128.922 Y111.868 E0.009
G1 X128.87 Y112.235 E0.009
G1 X128.784 Y112.593 E0.009
G1 X128.665 Y112.944 E0.009
G1 X128.514 Y113.281 E0.01
G1 X128.332 Y113.602 E0.009
G1 X128.121 Y113.904 E0.009
G1 X127.882 Y114.186 E0.009
G1 X127.618 Y114.444 E0.009
G1 X127.33 Y114.676 E0.01
G1 X127.023 Y114.88 E0.009
G1 X126.697 Y115.055 E0.009
G1 X126.357 Y115.199 E0.009
G1 X126.005 Y115.309 E0.01
G1 X125.643 Y115.387 E0.009
G1 X125.277 Y115.43 E0.009
G1 X124.907 Y115.439 E0.009
G1 X124.54 Y115.412 E0.009
G1 X124.175 Y115.352 E0.01
G1 X123.818 Y115.258 E0.009
G1 X123.471 Y115.13 E0.009
G1 X123.137 Y114.972 E0.009
G1 X122.822 Y114.783 E0.009
G1 X122.524 Y114.563 E0.01
G1 X122.248 Y114.318 E0.009
G1 X121.995 Y114.047 E0.009
G1 X121.77 Y113.755 E0.009
G1 X121.573 Y113.443 E0.01
G1 X121.406 Y113.113 E0.009
G1 X121.271 Y112.77 E0.009
G1 X121.168 Y112.415 E0.009
G1 X121.099 Y112.052 E0.009
G1 X121.065 Y111.685 E0.01
G1 Y111.315 E0.009
G1 X121.099 Y110.948 E0.009
G1 X121.168 Y110.585 E0.009
G1 X121.271 Y110.23 E0.009
G1 X121.406 Y109.887 E0.01
G1 X121.573 Y109.557 E0.009
G1 X121.77 Y109.245 E0.009
G1 X121.995 Y108.953 E0.009
G1 X122.248 Y108.682 E0.009
G1 X122.524 Y108.437 E0.01
G1 X122.757 Y108.265 E0.007
G1 X123.138 Y108.028 E0.011
G1 X123.471 Y107.87 E0.009
G1 X123.818 Y107.742 E0.01
G1 X124.175 Y107.648 E0.009
G1 X124.54 Y107.588 E0.009
G1 X124.907 Y107.561 E0.009
G1 X125.277 Y107.57 E0.009
G1 X125.643 Y107.613 E0.01
G1 F2100 E-0.5
;rapid-dry
G0 X125.468 Y109.248 F7200
G1 F2100 E0.5
;bead-perimeter_outer
G1 X125.157 Y109.205 F1484 E0.007
G1 X124.842 E0.008
G1 X124.501 Y109.256 E0.009
G1 X124.23 Y109.332 E0.007
G1 X123.942 Y109.457 E0.008
G1 X123.673 Y109.62 E0.008
G1 X123.43 Y109.819 E0.007
G1 X123.215 Y110.049 E0.008
G1 X123.035 Y110.305 E0.008
G1 X122.89 Y110.583 E0.008
G1 X122.785 Y110.879 E0.008
G1 X122.721 Y111.188 E0.008
G1 X122.702 Y111.532 E0.008
G1 X122.721 Y111.813 E0.007
G1 X122.785 Y112.122 E0.008
G1 X122.905 Y112.446 E0.009
G1 X123.035 Y112.695 E0.007
G1 X123.216 Y112.952 E0.008
G1 X123.455 Y113.202 E0.008
G1 X123.673 Y113.38 E0.007
G1 X123.942 Y113.543 E0.008
G1 X124.23 Y113.668 E0.008
G1 X124.532 Y113.752 E0.008
G1 X124.843 Y113.795 E0.008
G1 X125.158 E0.007
G1 X125.499 Y113.744 E0.009
G1 X125.77 Y113.668 E0.007
G1 X126.058 Y113.543 E0.008
G1 X126.327 Y113.38 E0.008
G1 X126.57 Y113.181 E0.008
G1 X126.785 Y112.951 E0.007
G1 X126.965 Y112.695 E0.008
G1 X127.11 Y112.417 E0.008
G1 X127.215 Y112.121 E0.008
G1 X127.279 Y111.812 E0.008
G1 X127.298 Y111.468 E0.008
G1 X127.279 Y111.187 E0.007
G1 X127.215 Y110.878 E0.008
G1 X127.095 Y110.554 E0.009
G1 X126.965 Y110.305 E0.007
G1 X126.784 Y110.048 E0.008
G1 X126.545 Y109.798 E0.008
G1 X126.327 Y109.62 E0.007
G1 X126.058 Y109.457 E0.008
G1 X125.77 Y109.332 E0.008
G1 X125.468 Y109.248 E0.008
;rapid-leaky
G0 X125.541 Y108.894 F7200
;bead-perimeter_inner
G1 X125.181 Y108.845 F1978 E0.009
G1 X124.815 E0.009
G1 X124.425 Y108.903 E0.01
G1 X124.109 Y108.992 E0.008
G1 X123.776 Y109.137 E0.009
G1 X123.465 Y109.326 E0.009
G1 X123.184 Y109.555 E0.009
G1 X122.935 Y109.821 E0.009
G1 X122.727 Y110.117 E0.009
G1 X122.559 Y110.439 E0.009
G1 X122.437 Y110.782 E0.009
G1 X122.363 Y111.141 E0.01
G1 X122.341 Y111.535 E0.009
G1 X122.364 Y111.863 E0.009
G1 X122.438 Y112.221 E0.009
G1 X122.575 Y112.592 E0.01
G1 X122.727 Y112.883 E0.008
G1 X122.937 Y113.182 E0.009
G1 X123.211 Y113.467 E0.01
G1 X123.465 Y113.675 E0.008
G1 X123.776 Y113.863 E0.009
G1 X124.11 Y114.008 E0.009
G1 X124.459 Y114.106 E0.009
G1 X124.819 Y114.155 E0.009
G1 X125.185 E0.009
G1 X125.575 Y114.097 E0.01
G1 X125.891 Y114.008 E0.008
G1 X126.224 Y113.864 E0.009
G1 X126.535 Y113.674 E0.01
G1 X126.816 Y113.445 E0.009
G1 X127.065 Y113.179 E0.009
G1 X127.273 Y112.883 E0.009
G1 X127.441 Y112.561 E0.009
G1 X127.563 Y112.218 E0.009
G1 X127.637 Y111.859 E0.009
G1 X127.659 Y111.465 E0.01
G1 X127.636 Y111.137 E0.008
G1 X127.562 Y110.779 E0.009
G1 X127.425 Y110.408 E0.01
G1 X127.273 Y110.117 E0.008
G1 X127.063 Y109.818 E0.009
G1 X126.789 Y109.533 E0.01
G1 X126.535 Y109.325 E0.008
G1 X126.224 Y109.137 E0.009
G1 X125.89 Y108.992 E0.01
G1 X125.541 Y108.894 E0.009
G1 F2100 E-0.5
;rapid-dry
G0 X121.804 Y113.191 F7200
G1 F2100 E0.5
;bead-solid_infill
G1 X123.315 Y114.702 F1484 E0.053
G1 X123.596 Y114.835 E0.008
G1 X123.914 Y114.953 E0.008
G1 X124.209 Y115.03 E0.008
G1 X121.471 Y112.292 E0.096
G1 X121.416 Y112.008 E0.007
G1 X121.387 Y111.689 E0.008
G1 X121.385 Y111.67 E0.001
G1 Y111.64 E0.001
G1 X122.174 Y112.429 E0.028
G1 X122.13 Y112.31 E0.003
G1 X122.062 Y111.98 E0.008
G1 X122.046 Y111.906 E0.002
G1 X122.033 Y111.723 E0.005
G1 X121.407 Y111.096 E0.022
G1 X121.416 Y110.992 E0.002
G1 X121.469 Y110.718 E0.007
G1 X121.48 Y110.66 E0.002
G1 X121.492 Y110.616 E0.001
G1 X122.041 Y111.165 E0.019
G1 X122.045 Y111.1 E0.002
G1 X122.087 Y110.897 E0.005
G1 X122.128 Y110.696 E0.005
G1 X122.131 Y110.689
G1 X121.631 Y110.189 E0.018
G1 X121.699 Y110.018 E0.005
G1 X121.776 Y109.864 E0.004
G1 X121.808 Y109.801 E0.002
G1 X122.283 Y110.276 E0.016
G1 X122.453 Y109.95 E0.01
G1 X122.482 Y109.909 E0.001
G1 X122.02 Y109.447 E0.016
G1 X122.032 Y109.429 E0.001
G1 X122.217 Y109.19 E0.007
G1 X122.239 Y109.16 E0.001
G1 X122.243 Y109.156
G1 X122.268 Y109.129 E0.001
G1 X122.721 Y109.582 E0.016
G1 X122.965 Y109.321 E0.009
G1 X122.998 Y109.294 E0.001
G1 X122.548 Y108.843 E0.016
G1 X122.725 Y108.686 E0.006
G1 X122.858 Y108.588 E0.004
G1 X123.313 Y109.043 E0.016
G1 X123.628 Y108.852 E0.009
G1 X123.67 Y108.834 E0.001
G1 X123.201 Y108.366 E0.017
G1 X123.291 Y108.309 E0.003
G1 X123.576 Y108.174 E0.007
G1 X124.072 Y108.67 E0.018
G1 X124.108 Y108.66 E0.001
G1 X124.358 Y108.59 E0.006
G1 X124.531 Y108.564 E0.005
G1 X123.994 Y108.027 E0.019
G1 X124.11 Y107.996 E0.003
G1 X124.242 Y107.962 E0.003
G1 X124.458 Y107.926 E0.005
G1 X125.058 Y108.525 E0.022
G1 X125.203 E0.003
G1 X125.606 Y108.58 E0.01
G1 X125.707 Y108.609 E0.003
G1 X124.982 Y107.883 E0.026
G1 X125.254 Y107.89 E0.006
G1 X125.591 Y107.929 E0.009
G1 X125.594 Y107.93
G1 X126.762 Y109.098 E0.041
G1 X127.007 Y109.297 E0.008
G1 X127.31 Y109.614 E0.011
G1 X127.387 Y109.723 E0.003
G1 X128.566 Y110.902 E0.042
G1 X128.603 Y111.162 E0.006
G1 X128.619 Y111.5 E0.009
G1 X128.618 Y111.52
G1 X127.892 Y110.793 E0.026
G1 X127.954 Y111.094 E0.008
G1 X127.977 Y111.425 E0.008
G1 X127.979 Y111.446
G1 X128.574 Y112.041 E0.021
G1 X128.555 Y112.175 E0.004
G1 X128.477 Y112.505 E0.008
G1 X128.475 Y112.508
G1 X127.94 Y111.973 E0.019
G1 X127.871 Y112.304 E0.009
G1 X127.828 Y112.427 E0.003
G1 X128.324 Y112.923 E0.017
G1 X128.228 Y113.136 E0.006
G1 X128.135 Y113.3 E0.005
G1 X127.663 Y112.827 E0.017
G1 X127.547 Y113.05 E0.006
G1 X127.453 Y113.183 E0.004
G1 X127.913 Y113.643 E0.016
G1 X127.867 Y113.708 E0.002
G1 X127.659 Y113.954 E0.008
G1 X127.204 Y113.499 E0.016
G1 X127.035 Y113.679 E0.006
G1 X126.916 Y113.777 E0.004
G1 X127.371 Y114.232 E0.016
G1 X127.288 Y114.299 E0.003
G1 X127.141 Y114.418 E0.005
G1 X127.051 Y114.478 E0.002
G1 X126.589 Y114.016 E0.017
G1 X126.576 Y114.024
G1 X126.372 Y114.148 E0.006
G1 X126.221 Y114.214 E0.004
G1 X126.698 Y114.691 E0.017
G1 X126.559 Y114.766 E0.004
G1 X126.312 Y114.87 E0.007
G1 X125.806 Y114.364 E0.017
G1 X125.642 Y114.41 E0.005
G1 X125.332 Y114.456 E0.008
G1 X125.884 Y115.008 E0.019
G1 X125.591 Y115.071 E0.007
G1 X125.403 Y115.093 E0.005
G1 X124.783 Y114.473 E0.022
G1 X124.394 Y114.42 E0.01
G1 X124.246 Y114.378 E0.004
G1 X124.075 Y114.331 E0.004
G1 X124.859 Y115.114 E0.028
G1 F2100 E-0.5
;rapid-dry
G0 X128.338 Y110.108 F7200
G1 F2100 E0.5
;bead-solid_infill
G1 X126.394 Y108.164 F1484 E0.068
G1 F2100 E-0.5
;rapid-dry
G0 X124.87 Y102.115 F7200
G1 F2100 E0.5
;bead-solid_infill
G1 X124.091 Y101.335 F1484 E0.028
G1 X124.395 Y101.42 E0.008
G1 X124.796 Y101.475 E0.01
G1 X125.413 Y102.092 E0.022
G1 X125.563 Y102.074 E0.003
G1 X125.591 Y102.071 E0.001
G1 X125.65 Y102.058 E0.002
G1 X125.893 Y102.006 E0.006
G1 X125.343 Y101.456 E0.019
G1 X125.607 Y101.42 E0.007
G1 X125.814 Y101.362 E0.005
G1 X126.32 Y101.867 E0.018
G1 X126.559 Y101.766 E0.006
G1 X126.706 Y101.687 E0.005
G1 X126.227 Y101.209 E0.016
G1 X126.39 Y101.138 E0.005
G1 X126.596 Y101.012 E0.006
G1 X127.057 Y101.473 E0.016
G1 X127.141 Y101.418 E0.003
G1 X127.377 Y101.227 E0.007
G1 X126.922 Y100.772 E0.016
G1 X127.035 Y100.679 E0.004
G1 X127.209 Y100.494 E0.006
G1 X127.664 Y100.948 E0.016
G1 X127.867 Y100.708 E0.008
G1 X127.917 Y100.637 E0.002
G1 X127.458 Y100.177 E0.017
G1 X127.547 Y100.05 E0.003
G1 X127.667 Y99.82 E0.007
G1 X128.139 Y100.293 E0.017
G1 X128.228 Y100.136 E0.004
G1 X128.327 Y99.915 E0.006
G1 X127.83 Y99.417 E0.018
G1 X127.876 Y99.283 E0.003
G1 X127.942 Y98.964 E0.008
G1 X128.478 Y99.5 E0.019
G1 X128.555 Y99.175 E0.009
G1 X128.576 Y99.032 E0.003
G1 X127.978 Y98.434 E0.021
G1 X127.954 Y98.094 E0.009
G1 X127.889 Y97.78 E0.008
G1 X128.619 Y98.509 E0.026
G1 Y98.5
G1 X128.603 Y98.161 E0.008
G1 X128.565 Y97.89 E0.007
G1 X127.361 Y96.686 E0.043
G1 X127.313 Y96.619 E0.002
G1 X127.036 Y96.321 E0.01
G1 X126.869 Y96.185 E0.005
G1 X126.82 Y96.145 E0.002
G1 X125.608 Y94.933 E0.042
G1 X125.591 Y94.929 E0.001
G1 X125.254 Y94.89 E0.008
G1 X124.993 Y94.884 E0.007
G1 X125.722 Y95.613 E0.026
G1 X125.606 Y95.58 E0.003
G1 X125.26 Y95.533 E0.008
G1 X125.2 Y95.525 E0.002
G1 X125.069 E0.003
G1 X124.468 Y94.924 E0.021
G1 X124.242 Y94.962 E0.006
G1 X124.002 Y95.024 E0.006
G1 X124.538 Y95.56 E0.019
G1 X124.393 Y95.581 E0.004
G1 X124.08 Y95.668 E0.008
G1 X123.583 Y95.171 E0.017
G1 X123.289 Y95.311 E0.008
G1 X123.207 Y95.36 E0.003
G1 X123.679 Y95.832 E0.017
G1 X123.61 Y95.862 E0.001
G1 X123.32 Y96.039 E0.009
G1 X122.864 Y95.584 E0.016
G1 X122.725 Y95.686 E0.004
G1 X122.554 Y95.838 E0.006
G1 X123.004 Y96.289 E0.016
G1 X122.965 Y96.321 E0.001
G1 X122.726 Y96.576 E0.009
G1 X122.273 Y96.124 E0.016
G1 X122.24 Y96.16 E0.001
G1 X122.032 Y96.429 E0.009
G1 X122.025 Y96.441
G1 X122.486 Y96.903 E0.016
G1 X122.453 Y96.95 E0.002
G1 X122.287 Y97.269 E0.009
G1 X121.812 Y96.794 E0.016
G1 X121.699 Y97.018 E0.007
G1 X121.634 Y97.182 E0.004
G1 X122.135 Y97.683 E0.018
G1 X122.124 Y97.717 E0.001
G1 X122.046 Y98.094 E0.009
G1 X122.042 Y98.155 E0.002
G1 X121.495 Y97.608 E0.019
G1 X121.48 Y97.66 E0.001
G1 X121.416 Y97.992 E0.009
G1 X121.408 Y98.087 E0.002
G1 X122.033 Y98.712 E0.022
G1 X122.046 Y98.906 E0.005
G1 X122.129 Y99.308 E0.01
G1 X122.167 Y99.412 E0.003
G1 X121.385 Y98.63 E0.028
G1 Y98.67 E0.001
G1 X121.387 Y98.689
G1 X121.416 Y99.008 E0.008
G1 X121.468 Y99.278 E0.007
G1 X124.223 Y102.034 E0.097
G1 X124.023 Y101.981 E0.005
G1 X123.914 Y101.953 E0.003
G1 X123.596 Y101.835 E0.009
G1 X123.335 Y101.711 E0.007
G1 X121.793 Y100.169 E0.054
G1 F2100 E-0.5
;rapid-dry
G0 X126.413 Y95.172 F7200
G1 F2100 E0.5
;bead-solid_infill
G1 X128.329 Y97.088 F1484 E0.068
G1 F2100 E-0.5
;LAYER:3
M107
;rapid-dry
G0 X123.199 Y97.072 Z0.5 F7200
G1 F2100 E0.5
;bead-perimeter_outer
G1 X123.035 Y97.305 F1368 E0.007
G1 X122.89 Y97.583 E0.008
G1 X122.785 Y97.879 E0.008
G1 X122.721 Y98.187 E0.007
G1 X122.7 Y98.5 E0.008
G1 X122.721 Y98.813 E0.008
G1 X122.785 Y99.122 E0.008
G1 X122.903 Y99.442 E0.009
G1 X123.035 Y99.695 E0.007
G1 X123.215 Y99.951 E0.007
G1 X123.43 Y100.181 E0.008
G1 X123.673 Y100.38 E0.008
G1 X123.942 Y100.543 E0.008
G1 X124.23 Y100.668 E0.008
G1 X124.532 Y100.752 E0.008
G1 X124.843 Y100.795 E0.007
G1 X125.157 E0.008
G1 X125.468 Y100.752 E0.008
G1 X125.77 Y100.668 E0.008
G1 X126.058 Y100.543 E0.008
G1 X126.327 Y100.38 E0.008
G1 X126.571 Y100.181 E0.007
G1 X126.801 Y99.928 E0.009
G1 X126.965 Y99.695 E0.007
G1 X127.11 Y99.417 E0.008
G1 X127.215 Y99.121 E0.008
G1 X127.279 Y98.813 E0.008
G1 X127.3 Y98.5 E0.007
G1 X127.279 Y98.187 E0.008
G1 X127.215 Y97.878 E0.008
G1 X127.097 Y97.558 E0.009
G1 X126.965 Y97.305 E0.007
G1 X126.785 Y97.049 E0.008
G1 X126.57 Y96.819 E0.007
G1 X126.327 Y96.62 E0.008
G1 X126.058 Y96.457 E0.008
G1 X125.77 Y96.332 E0.008
G1 X125.468 Y96.248 E0.008
G1 X125.157 Y96.205 E0.008
G1 X124.843 E0.007
G1 X124.532 Y96.248 E0.008
G1 X124.23 Y96.332 E0.008
G1 X123.942 Y96.457 E0.008
G1 X123.673 Y96.62 E0.008
G1 X123.429 Y96.819 E0.008
G1 X123.199 Y97.072 E0.008
;rapid-leaky
G0 X122.917 Y96.846 F7200
;bead-perimeter_inner
G1 X122.726 Y97.118 F1824 E0.008
G1 X122.559 Y97.439 E0.009
G1 X122.437 Y97.782 E0.01
G1 X122.364 Y98.138 E0.009
G1 X122.339 Y98.5 E0.009
G1 X122.364 Y98.862 E0.009
G1 X122.438 Y99.221 E0.009
G1 X122.573 Y99.588 E0.01
G1 X122.727 Y99.883 E0.008
G1 X122.935 Y100.179 E0.009
G1 X123.184 Y100.445 E0.009
G1 X123.465 Y100.674 E0.009
G1 X123.776 Y100.863 E0.009
G1 X124.11 Y101.008 E0.009
G1 X124.459 Y101.106 E0.009
G1 X124.819 Y101.155 E0.009
G1 X125.181 E0.009
G1 X125.541 Y101.106 E0.009
G1 X125.89 Y101.008 E0.009
G1 X126.224 Y100.863 E0.01
G1 X126.535 Y100.674 E0.009
G1 X126.819 Y100.443 E0.009
G1 X127.083 Y100.154 E0.01
G1 X127.274 Y99.882 E0.008
G1 X127.441 Y99.561 E0.009
G1 X127.563 Y99.218 E0.009
G1 X127.636 Y98.862 E0.009
G1 X127.661 Y98.5 E0.009
G1 X127.636 Y98.138 E0.009
G1 X127.562 Y97.779 E0.009
G1 X127.427 Y97.412 E0.01
G1 X127.273 Y97.117 E0.008
G1 X127.065 Y96.821 E0.009
G1 X126.816 Y96.555 E0.009
G1 X126.535 Y96.326 E0.009
G1 X126.224 Y96.137 E0.01
G1 X125.89 Y95.992 E0.009
G1 X125.541 Y95.894 E0.009
G1 X125.181 Y95.845 E0.009
G1 X124.819 E0.009
G1 X124.459 Y95.894 E0.009
G1 X124.11 Y95.992 E0.009
G1 X123.776 Y96.137 E0.009
G1 X123.465 Y96.326 E0.009
G1 X123.181 Y96.557 E0.009
G1 X122.917 Y96.846 E0.01
G1 F2100 E-0.5
;rapid-dry
G0 X121.721 Y95.72 F7200
G1 F2100 E0.5
;bead-perimeter_outer
G1 X121.996 Y95.424 F1368 E0.01
G1 X122.297 Y95.157 E0.01
G1 X122.622 Y94.918 E0.01
G1 X122.968 Y94.711 E0.01
G1 X123.332 Y94.538 E0.01
G1 X123.71 Y94.398 E0.01
G1 X123.916 Y94.344 E0.006
G1 X124.1 Y94.296 E0.004
G1 X124.498 Y94.23 E0.01
G1 X124.899 Y94.201 E0.01
G1 X125.302 Y94.211 E0.01
G1 X125.702 Y94.258 E0.01
G1 X126.097 Y94.343 E0.011
G1 X126.481 Y94.463 E0.01
G1 X126.853 Y94.62 E0.01
G1 X127.208 Y94.811 E0.01
G1 X127.544 Y95.033 E0.01
G1 X127.857 Y95.287 E0.01
G1 X128.146 Y95.569 E0.01
G1 X128.406 Y95.876 E0.01
G1 X128.637 Y96.206 E0.01
G1 X128.835 Y96.556 E0.01
G1 X129.001 Y96.924 E0.01
G1 X129.131 Y97.307 E0.01
G1 X129.224 Y97.698 E0.01
G1 X129.281 Y98.098 E0.01
G1 X129.3 Y98.5 E0.01
G1 X129.281 Y98.902 E0.01
G1 X129.224 Y99.302 E0.01
G1 X129.131 Y99.693 E0.01
G1 X129.001 Y100.076 E0.011
G1 X128.835 Y100.444 E0.01
G1 X128.637 Y100.794 E0.01
G1 X128.406 Y101.124 E0.01
G1 X128.146 Y101.432 E0.01
G1 X127.857 Y101.713 E0.01
G1 X127.544 Y101.967 E0.01
G1 X127.208 Y102.189 E0.01
G1 X126.853 Y102.38 E0.01
G1 X126.481 Y102.537 E0.01
G1 X126.097 Y102.657 E0.01
G1 X125.702 Y102.742 E0.01
G1 X125.302 Y102.789 E0.01
G1 X124.899 Y102.799 E0.01
G1 X124.498 Y102.77 E0.01
G1 X124.1 Y102.704 E0.01
G1 X123.71 Y102.602 E0.01
G1 X123.332 Y102.462 E0.01
G1 X122.968 Y102.289 E0.011
G1 X122.622 Y102.082 E0.01
G1 X122.297 Y101.843 E0.01
G1 X121.996 Y101.576 E0.01
G1 X121.721 Y101.28 E0.01
G1 X121.474 Y100.961 E0.01
G1 X121.259 Y100.62 E0.01
G1 X121.078 Y100.261 E0.01
G1 X120.93 Y99.886 E0.01
G1 X120.818 Y99.498 E0.01
G1 X120.742 Y99.103 E0.01
G1 X120.705 Y98.702 E0.01
G1 Y98.298 E0.01
G1 X120.742 Y97.897 E0.01
G1 X120.818 Y97.502 E0.01
G1 X120.93 Y97.114 E0.01
G1 X121.078 Y96.739 E0.01
G1 X121.259 Y96.38 E0.01
G1 X121.474 Y96.039 E0.011
G1 X121.721 Y95.72 E0.01
;rapid-leaky
G0 X121.995 Y95.953 F7200
;bead-perimeter_inner
G1 X122.248 Y95.682 F1824 E0.009
G1 X122.524 Y95.437 E0.009
G1 X122.822 Y95.218 E0.009
G1 X123.138 Y95.028 E0.009
G1 X123.471 Y94.87 E0.01
G1 X123.819 Y94.742 E0.009
G1 X124.008 Y94.692 E0.005
G1 X124.175 Y94.648 E0.004
G1 X124.54 Y94.588 E0.009
G1 X124.907 Y94.561 E0.009
G1 X125.277 Y94.57 E0.01
G1 X125.643 Y94.613 E0.009
G1 X126.005 Y94.691 E0.009
G1 X126.357 Y94.801 E0.009
G1 X126.697 Y94.945 E0.01
G1 X127.023 Y95.12 E0.009
G1 X127.33 Y95.324 E0.009
G1 X127.618 Y95.556 E0.009
G1 X127.882 Y95.814 E0.009
G1 X128.121 Y96.096 E0.01
G1 X128.332 Y96.398 E0.009
G1 X128.514 Y96.719 E0.009
G1 X128.665 Y97.056 E0.009
G1 X128.784 Y97.407 E0.009
G1 X128.87 Y97.765 E0.01
G1 X128.922 Y98.132 E0.009
G1 X128.939 Y98.499 E0.009
G1 X128.922 Y98.868 E0.009
G1 X128.87 Y99.235 E0.01
G1 X128.784 Y99.593 E0.009
G1 X128.665 Y99.944 E0.009
G1 X128.514 Y100.281 E0.009
G1 X128.332 Y100.602 E0.009
G1 X128.121 Y100.904 E0.01
G1 X127.882 Y101.186 E0.009
G1 X127.618 Y101.444 E0.009
G1 X127.33 Y101.676 E0.009
G1 X127.023 Y101.88 E0.009
G1 X126.697 Y102.055 E0.01
G1 X126.357 Y102.199 E0.009
G1 X126.005 Y102.309 E0.009
G1 X125.643 Y102.387 E0.009
G1 X125.277 Y102.43 E0.009
G1 X124.907 Y102.439 E0.01
G1 X124.54 Y102.412 E0.009
G1 X124.175 Y102.352 E0.009
G1 X123.818 Y102.258 E0.009
G1 X123.471 Y102.13 E0.01
G1 X123.138 Y101.972 E0.009
G1 X122.821 Y101.782 E0.009
G1 X122.524 Y101.563 E0.009
G1 X122.248 Y101.318 E0.009
G1 X121.995 Y101.047 E0.01
G1 X121.77 Y100.755 E0.009
G1 X121.573 Y100.443 E0.009
G1 X121.406 Y100.113 E0.009
G1 X121.271 Y99.77 E0.009
G1 X121.168 Y99.415 E0.01
G1 X121.099 Y99.052 E0.009
G1 X121.065 Y98.685 E0.009
G1 Y98.315 E0.009
G1 X121.099 Y97.948 E0.01
G1 X121.168 Y97.585 E0.009
G1 X121.271 Y97.23 E0.009
G1 X121.406 Y96.887 E0.009
G1 X121.573 Y96.557 E0.009
G1 X121.77 Y96.245 E0.01
G1 X121.995 Y95.953 E0.009
G1 F2100 E-0.5
;rapid-dry
G0 X124.648 Y107.483 F7200
G1 F2100 E0.5
;bead-perimeter_outer
G1 X125.028 Y107.468 F1368 E0.009
G1 X125.352 Y107.482 E0.008
G1 X125.701 Y107.527 E0.009
G1 X126.044 Y107.603 E0.009
G1 X126.379 Y107.709 E0.009
G1 X126.704 Y107.844 E0.008
G1 X127.017 Y108.006 E0.009
G1 X127.313 Y108.196 E0.009
G1 X127.593 Y108.409 E0.009
G1 X127.872 Y108.668 E0.009
G1 X128.09 Y108.906 E0.008
G1 X128.304 Y109.187 E0.009
G1 X128.494 Y109.483 E0.009
G1 X128.656 Y109.796 E0.009
G1 X128.791 Y110.121 E0.008
G1 X128.897 Y110.456 E0.009
G1 X128.973 Y110.799 E0.009
G1 X129.017 Y111.148 E0.009
G1 X129.032 Y111.528 E0.009
G1 X129.018 Y111.852 E0.008
G1 X128.973 Y112.201 E0.009
G1 X128.897 Y112.544 E0.009
G1 X128.791 Y112.879 E0.009
G1 X128.656 Y113.204 E0.008
G1 X128.494 Y113.517 E0.009
G1 X128.304 Y113.813 E0.009
G1 X128.091 Y114.093 E0.009
G1 X127.832 Y114.372 E0.009
G1 X127.594 Y114.59 E0.008
G1 X127.313 Y114.804 E0.009
G1 X127.017 Y114.994 E0.009
G1 X126.704 Y115.156 E0.009
G1 X126.379 Y115.291 E0.008
G1 X126.044 Y115.397 E0.009
G1 X125.701 Y115.473 E0.009
G1 X125.352 Y115.517 E0.009
G1 X124.972 Y115.532 E0.009
G1 X124.648 Y115.518 E0.008
G1 X124.299 Y115.473 E0.009
G1 X123.956 Y115.397 E0.009
G1 X123.621 Y115.291 E0.009
G1 X123.296 Y115.156 E0.008
G1 X122.983 Y114.994 E0.009
G1 X122.687 Y114.804 E0.009
G1 X122.407 Y114.591 E0.009
G1 X122.128 Y114.332 E0.009
G1 X121.91 Y114.094 E0.008
G1 X121.696 Y113.813 E0.009
G1 X121.506 Y113.517 E0.009
G1 X121.344 Y113.204 E0.009
G1 X121.209 Y112.879 E0.008
G1 X121.103 Y112.544 E0.009
G1 X121.027 Y112.201 E0.009
G1 X120.983 Y111.852 E0.009
G1 X120.968 Y111.472 E0.009
G1 X120.982 Y111.148 E0.008
G1 X121.027 Y110.799 E0.009
G1 X121.103 Y110.456 E0.009
G1 X121.209 Y110.121 E0.009
G1 X121.344 Y109.796 E0.008
G1 X121.506 Y109.484 E0.009
G1 X121.714 Y109.163 E0.01
G1 X121.909 Y108.907 E0.008
G1 X122.148 Y108.648 E0.009
G1 X122.407 Y108.409 E0.008
G1 X122.687 Y108.196 E0.009
G1 X122.983 Y108.006 E0.009
G1 X123.296 Y107.844 E0.009
G1 X123.621 Y107.709 E0.008
G1 X123.956 Y107.603 E0.009
G1 X124.299 Y107.527 E0.009
G1 X124.648 Y107.483 E0.009
;rapid-leaky
G0 X124.677 Y107.842 F7200
;bead-perimeter_inner
G1 X125.027 Y107.828 F1824 E0.009
G1 X125.321 Y107.841 E0.007
G1 X125.639 Y107.882 E0.008
G1 X125.951 Y107.951 E0.008
G1 X126.256 Y108.048 E0.008
G1 X126.552 Y108.171 E0.008
G1 X126.837 Y108.318 E0.008
G1 X127.107 Y108.491 E0.008
G1 X127.361 Y108.685 E0.008
G1 X127.616 Y108.922 E0.008
G1 X127.814 Y109.138 E0.008
G1 X128.009 Y109.393 E0.008
G1 X128.182 Y109.663 E0.008
G1 X128.329 Y109.948 E0.008
G1 X128.452 Y110.244 E0.008
G1 X128.549 Y110.549 E0.008
G1 X128.618 Y110.861 E0.008
G1 X128.658 Y111.177 E0.008
G1 X128.672 Y111.527 E0.008
G1 X128.659 Y111.821 E0.008
G1 X128.618 Y112.139 E0.008
G1 X128.549 Y112.451 E0.008
G1 X128.452 Y112.756 E0.008
G1 X128.329 Y113.052 E0.008
G1 X128.182 Y113.337 E0.008
G1 X128.009 Y113.607 E0.008
G1 X127.815 Y113.861 E0.008
G1 X127.578 Y114.116 E0.008
G1 X127.362 Y114.314 E0.008
G1 X127.107 Y114.509 E0.008
G1 X126.837 Y114.682 E0.008
G1 X126.552 Y114.829 E0.008
G1 X126.256 Y114.952 E0.008
G1 X125.951 Y115.049 E0.008
G1 X125.639 Y115.118 E0.008
G1 X125.323 Y115.158 E0.008
G1 X124.973 Y115.172 E0.008
G1 X124.679 Y115.159 E0.008
G1 X124.361 Y115.118 E0.008
G1 X124.049 Y115.049 E0.008
G1 X123.744 Y114.952 E0.008
G1 X123.448 Y114.829 E0.008
G1 X123.163 Y114.682 E0.008
G1 X122.893 Y114.509 E0.008
G1 X122.639 Y114.315 E0.008
G1 X122.384 Y114.078 E0.008
G1 X122.186 Y113.862 E0.008
G1 X121.991 Y113.607 E0.008
G1 X121.818 Y113.337 E0.008
G1 X121.671 Y113.052 E0.008
G1 X121.548 Y112.756 E0.008
G1 X121.451 Y112.451 E0.008
G1 X121.382 Y112.139 E0.008
G1 X121.342 Y111.823 E0.007
G1 X121.328 Y111.473 E0.009
G1 X121.341 Y111.179 E0.008
G1 X121.382 Y110.861 E0.008
G1 X121.451 Y110.549 E0.007
G1 X121.548 Y110.244 E0.008
G1 X121.671 Y109.948 E0.008
G1 X121.818 Y109.665 E0.008
G1 X122.008 Y109.371 E0.009
G1 X122.186 Y109.138 E0.007
G1 X122.402 Y108.902 E0.008
G1 X122.638 Y108.686 E0.008
G1 X122.893 Y108.491 E0.008
G1 X123.163 Y108.318 E0.008
G1 X123.448 Y108.171 E0.008
G1 X123.744 Y108.048 E0.008
G1 X124.049 Y107.951 E0.008
G1 X124.361 Y107.882 E0.008
G1 X124.677 Y107.842 E0.008
G1 F2100 E-0.5
;rapid-dry
G0 X124.844 Y109.205 F7200
G1 F2100 E0.5
;bead-perimeter_outer
G1 X124.532 Y109.248 F1368 E0.008
G1 X124.23 Y109.332 E0.008
G1 X123.942 Y109.457 E0.008
G1 X123.673 Y109.62 E0.008
G1 X123.43 Y109.819 E0.008
G1 X123.214 Y110.05 E0.007
G1 X123.012 Y110.348 E0.009
G1 X122.89 Y110.583 E0.007
G1 X122.785 Y110.879 E0.008
G1 X122.721 Y111.187 E0.008
G1 X122.7 Y111.499 E0.008
G1 X122.721 Y111.813 E0.007
G1 X122.785 Y112.121 E0.008
G1 X122.89 Y112.417 E0.008
G1 X123.035 Y112.695 E0.008
G1 X123.215 Y112.951 E0.008
G1 X123.476 Y113.219 E0.009
G1 X123.673 Y113.38 E0.006
G1 X123.942 Y113.543 E0.008
G1 X124.229 Y113.668 E0.008
G1 X124.533 Y113.752 E0.008
G1 X124.843 Y113.795 E0.008
G1 X125.156 E0.007
G1 X125.468 Y113.752 E0.008
G1 X125.77 Y113.668 E0.008
G1 X126.058 Y113.543 E0.008
G1 X126.327 Y113.38 E0.008
G1 X126.57 Y113.181 E0.008
G1 X126.786 Y112.95 E0.008
G1 X126.988 Y112.652 E0.009
G1 X127.11 Y112.417 E0.006
G1 X127.215 Y112.121 E0.008
G1 X127.279 Y111.813 E0.008
G1 X127.3 Y111.501 E0.008
G1 X127.279 Y111.187 E0.007
G1 X127.215 Y110.879 E0.008
G1 X127.11 Y110.583 E0.008
G1 X126.965 Y110.305 E0.008
G1 X126.785 Y110.049 E0.008
G1 X126.524 Y109.781 E0.009
G1 X126.327 Y109.62 E0.006
G1 X126.058 Y109.457 E0.008
G1 X125.771 Y109.332 E0.008
G1 X125.467 Y109.248 E0.008
G1 X125.157 Y109.205 E0.008
G1 X124.844 E0.008
;rapid-leaky
G0 X124.736 Y108.856 F7200
;bead-perimeter_inner
G1 X124.459 Y108.894 F1824 E0.007
G1 X124.11 Y108.992 E0.009
G1 X123.777 Y109.136 E0.009
G1 X123.465 Y109.326 E0.009
G1 X123.184 Y109.555 E0.009
G1 X122.932 Y109.824 E0.009
G1 X122.702 Y110.163 E0.01
G1 X122.559 Y110.44 E0.008
G1 X122.437 Y110.782 E0.009
G1 X122.364 Y111.138 E0.009
G1 X122.339 Y111.498 E0.009
G1 X122.364 Y111.863 E0.009
G1 X122.437 Y112.218 E0.009
G1 X122.559 Y112.561 E0.009
G1 X122.727 Y112.883 E0.009
G1 X122.935 Y113.179 E0.009
G1 X123.182 Y113.443 E0.009
G1 X123.466 Y113.675 E0.01
G1 X123.776 Y113.863 E0.009
G1 X124.107 Y114.007 E0.009
G1 X124.46 Y114.106 E0.009
G1 X124.819 Y114.155 E0.009
G1 X125.264 Y114.144 E0.011
G1 X125.541 Y114.106 E0.007
G1 X125.89 Y114.008 E0.009
G1 X126.223 Y113.864 E0.009
G1 X126.535 Y113.674 E0.009
G1 X126.816 Y113.445 E0.009
G1 X127.068 Y113.176 E0.009
G1 X127.298 Y112.837 E0.011
G1 X127.441 Y112.56 E0.007
G1 X127.563 Y112.218 E0.009
G1 X127.636 Y111.862 E0.009
G1 X127.661 Y111.502 E0.01
G1 X127.636 Y111.137 E0.009
G1 X127.563 Y110.782 E0.009
G1 X127.441 Y110.439 E0.009
G1 X127.273 Y110.117 E0.009
G1 X127.065 Y109.821 E0.009
G1 X126.818 Y109.557 E0.009
G1 X126.534 Y109.325 E0.009
G1 X126.224 Y109.137 E0.009
G1 X125.893 Y108.993 E0.009
G1 X125.54 Y108.894 E0.009
G1 X125.181 Y108.845 E0.009
G1 X124.736 Y108.856 E0.011
G1 F2100 E-0.5
;rapid-dry
G0 X123.832 Y108.358 F7200
G1 F2100 E0.5
;bead-solid_infill
G1 X121.858 Y110.332 F1368 E0.07
G1 X121.848 Y110.354 E0.001
G1 X121.761 Y110.632 E0.007
G1 X121.698 Y110.917 E0.007
G1 X121.677 Y111.078 E0.004
G1 X122.166 Y110.589 E0.017
G1 X122.128 Y110.696 E0.003
G1 X122.046 Y111.094 E0.01
G1 X122.033 Y111.288 E0.005
G1 X121.656 Y111.665 E0.014
G1 X121.661 Y111.796 E0.003
G1 X121.698 Y112.083 E0.007
G1 X121.717 Y112.17 E0.002
G1 X122.042 Y111.845 E0.012
G1 X122.043 Y111.865
G1 X122.046 Y111.906 E0.001
G1 X122.128 Y112.304 E0.01
G1 X122.134 Y112.319 E0.001
G1 X121.838 Y112.614 E0.01
G1 X121.848 Y112.646 E0.001
G1 X121.961 Y112.917 E0.007
G1 X122.009 Y113.009 E0.003
G1 X122.287 Y112.731 E0.01
G1 X122.453 Y113.05 E0.009
G1 X122.486 Y113.097 E0.001
G1 X122.217 Y113.366 E0.01
G1 X122.254 Y113.423 E0.001
G1 X122.369 Y113.575 E0.005
G1 X122.432 Y113.657 E0.003
G1 X122.461 Y113.689 E0.001
G1 X122.726 Y113.424 E0.009
G1 X122.962 Y113.677 E0.009
G1 X123.004 Y113.711 E0.001
G1 X122.742 Y113.974 E0.009
G1 X122.845 Y114.07 E0.004
G1 X123.053 Y114.228 E0.006
G1 X123.32 Y113.961 E0.01
G1 X123.628 Y114.148 E0.009
G1 X123.677 Y114.169 E0.001
G1 X123.402 Y114.445 E0.01
G1 X123.583 Y114.539 E0.005
G1 X123.788 Y114.624 E0.005
G1 X124.08 Y114.332 E0.011
G1 X124.394 Y114.42 E0.008
G1 X124.538 Y114.44 E0.004
G1 X124.219 Y114.759 E0.011
G1 X124.417 Y114.802 E0.005
G1 X124.704 Y114.839 E0.007
G1 X125.075 Y114.469 E0.013
G1 X125.29 Y114.463 E0.006
G1 X125.606 Y114.42 E0.008
G1 X125.722 Y114.387 E0.002
G1 X125.269 Y114.84 E0.016
G1 X125.296 Y114.839 E0.001
G1 X125.583 Y114.802 E0.007
G1 X125.868 Y114.739 E0.008
G1 X125.967 Y114.708 E0.002
G1 X126.82 Y113.855 E0.03
G1 X127.036 Y113.679 E0.007
G1 X127.319 Y113.376 E0.011
G1 X127.36 Y113.315 E0.001
G1 X128.208 Y112.467 E0.03
G1 X128.239 Y112.368 E0.003
G1 X128.302 Y112.083 E0.007
G1 X128.339 Y111.793 E0.008
G1 X128.341 Y111.769
G1 X127.889 Y112.22 E0.016
G1 X127.954 Y111.906 E0.008
G1 X127.978 Y111.566 E0.009
G1 X128.339 Y111.204 E0.012
G1 X128.322 Y111.069 E0.004
G1 X128.302 Y110.917 E0.004
G1 X128.259 Y110.719 E0.005
G1 X127.942 Y111.036 E0.011
G1 X127.871 Y110.696 E0.008
G1 X127.831 Y110.581 E0.003
G1 X128.124 Y110.288 E0.011
G1 X128.109 Y110.251 E0.001
G1 X128.039 Y110.083 E0.004
G1 X127.945 Y109.902 E0.005
G1 X127.667 Y110.18 E0.01
G1 X127.547 Y109.95 E0.007
G1 X127.458 Y109.823 E0.004
G1 X127.728 Y109.553 E0.009
G1 X127.568 Y109.343 E0.007
G1 X127.476 Y109.243 E0.003
G1 X127.474 Y109.241
G1 X127.209 Y109.506 E0.01
G1 X127.038 Y109.323 E0.006
G1 X126.921 Y109.228 E0.004
G1 X127.188 Y108.961 E0.009
G1 X127.155 Y108.93 E0.001
G1 X126.923 Y108.754 E0.007
G1 X126.866 Y108.717 E0.002
G1 X126.596 Y108.988 E0.01
G1 X126.371 Y108.852 E0.006
G1 X126.228 Y108.79 E0.004
G1 X126.509 Y108.509 E0.01
G1 X126.422 Y108.464 E0.002
G1 X126.417 Y108.461 E0.001
G1 X126.146 Y108.348 E0.007
G1 X126.114 Y108.338 E0.001
G1 X125.814 Y108.639 E0.01
G1 X125.606 Y108.58 E0.006
G1 X125.343 Y108.544 E0.006
G1 X125.67 Y108.217 E0.012
G1 X125.584 Y108.198 E0.002
G1 X125.293 Y108.16 E0.007
G1 X125.166 Y108.155 E0.004
G1 X124.786 Y108.535 E0.013
G1 X124.71 Y108.537 E0.002
G1 X124.394 Y108.58 E0.008
G1 X124.09 Y108.665 E0.008
G1 X124.578 Y108.177 E0.017
G1 F2100 E-0.5
;rapid-dry
G0 X126.394 Y101.836 F7200
G1 F2100 E0.5
;bead-solid_infill
G1 X128.338 Y99.892 F1368 E0.068
G1 F2100 E-0.5
;rapid-dry
G0 X124.859 Y94.886 F7200
G1 F2100 E0.5
;bead-solid_infill
G1 X124.075 Y95.669 F1368 E0.028
G1 X124.394 Y95.58 E0.008
G1 X124.783 Y95.527 E0.01
G1 X125.403 Y94.907 E0.022
G1 X125.591 Y94.929 E0.005
G1 X125.884 Y94.992 E0.007
G1 X125.333 Y95.543 E0.02
G1 X125.606 Y95.58 E0.006
G1 X125.806 Y95.636 E0.006
G1 X126.312 Y95.13 E0.017
G1 X126.429 Y95.179 E0.004
G1 X126.559 Y95.234 E0.003
G1 X126.698 Y95.309 E0.004
G1 X126.221 Y95.786 E0.017
G1 X126.371 Y95.852 E0.004
G1 X126.589 Y95.984 E0.006
G1 X127.051 Y95.522 E0.017
G1 X127.141 Y95.582 E0.002
G1 X127.371 Y95.768 E0.008
G1 X126.916 Y96.223 E0.016
G1 X127.035 Y96.321 E0.004
G1 X127.204 Y96.501 E0.006
G1 X127.659 Y96.046 E0.016
G1 X127.867 Y96.292 E0.008
G1 X127.913 Y96.357 E0.002
G1 X127.453 Y96.817 E0.016
G1 X127.547 Y96.95 E0.004
G1 X127.654 Y97.155 E0.006
G1 X127.663 Y97.173
G1 X128.135 Y96.7 E0.017
G1 X128.228 Y96.864 E0.005
G1 X128.324 Y97.077 E0.006
G1 X127.828 Y97.574 E0.017
G1 X127.871 Y97.691 E0.003
G1 X127.94 Y98.027 E0.009
G1 X128.475 Y97.492 E0.019
G1 X128.477 Y97.495
G1 X128.555 Y97.825 E0.008
G1 X128.574 Y97.959 E0.004
G1 X127.978 Y98.554 E0.021
G1 X127.954 Y98.906 E0.008
G1 X127.892 Y99.207 E0.008
G1 X128.618 Y98.48 E0.026
G1 X128.619 Y98.499
G1 X128.603 Y98.838 E0.009
G1 X128.566 Y99.098 E0.006
G1 X127.388 Y100.276 E0.042
G1 X127.333 Y100.355 E0.002
G1 X127.039 Y100.676 E0.011
G1 X126.762 Y100.902 E0.009
G1 X125.594 Y102.07 E0.041
G1 X125.591 Y102.071
G1 X125.563 Y102.074 E0.001
G1 X125.254 Y102.11 E0.008
G1 X124.982 Y102.117 E0.006
G1 X125.707 Y101.392 E0.026
G1 X125.606 Y101.42 E0.003
G1 X125.203 Y101.475 E0.01
G1 X125.058 E0.003
G1 X124.458 Y102.074 E0.022
G1 X124.242 Y102.038 E0.005
G1 X124.023 Y101.981 E0.006
G1 X123.994 Y101.973
G1 X124.529 Y101.438 E0.019
G1 X124.394 Y101.42 E0.004
G1 X124.308 Y101.396 E0.002
G1 X124.072 Y101.33 E0.006
G1 X123.576 Y101.826 E0.018
G1 X123.289 Y101.689 E0.008
G1 X123.2 Y101.636 E0.002
G1 X123.67 Y101.166 E0.017
G1 X123.628 Y101.148 E0.001
G1 X123.539 Y101.094 E0.002
G1 X123.313 Y100.957 E0.007
G1 X122.858 Y101.412 E0.016
G1 X122.725 Y101.314 E0.004
G1 X122.548 Y101.157 E0.006
G1 X122.998 Y100.706 E0.016
G1 X122.965 Y100.679 E0.001
G1 X122.721 Y100.418 E0.009
G1 X122.268 Y100.871 E0.016
G1 X122.24 Y100.84 E0.001
G1 X122.093 Y100.65 E0.006
G1 X122.032 Y100.571 E0.002
G1 X122.02 Y100.553 E0.001
G1 X122.482 Y100.091 E0.016
G1 X122.453 Y100.05 E0.002
G1 X122.283 Y99.724 E0.009
G1 X121.808 Y100.199 E0.016
G1 X121.806 Y100.194 E0.001
G1 X121.699 Y99.982 E0.006
G1 X121.631 Y99.811 E0.004
G1 X122.13 Y99.311 E0.018
G1 X122.129 Y99.309
G1 X122.046 Y98.906 E0.01
G1 X122.041 Y98.835 E0.002
G1 X121.492 Y99.384 E0.019
G1 X121.48 Y99.34 E0.001
G1 X121.472 Y99.302 E0.001
G1 X121.416 Y99.008 E0.008
G1 X121.407 Y98.904 E0.002
G1 X122.033 Y98.277 E0.022
G1 X122.046 Y98.094 E0.005
G1 X122.128 Y97.696 E0.01
G1 X122.172 Y97.572 E0.003
G1 X121.385 Y98.36 E0.028
G1 Y98.33 E0.001
G1 X121.416 Y97.992 E0.008
G1 X121.471 Y97.708 E0.008
G1 X124.209 Y94.97 E0.096
G1 X124.089 Y95.001 E0.003
G1 X123.915 Y95.047 E0.005
G1 X123.596 Y95.165 E0.008
G1 X123.315 Y95.298 E0.008
G1 X121.804 Y96.809 E0.053
G1 F2100 E-0.5
;LAYER:4
M106 S255
;rapid-dry
G0 X124.532 Y96.248 Z0.65 F7200
G1 F2100 E0.5
;bead-perimeter_outer
G1 X124.23 Y96.332 F1200 E0.008
G1 X123.942 Y96.457 E0.008
G1 X123.673 Y96.62 E0.008
G1 X123.43 Y96.819 E0.008
G1 X123.214 Y97.05 E0.008
G1 X123.017 Y97.338 E0.008
G1 X122.89 Y97.583 E0.007
G1 X122.785 Y97.879 E0.008
G1 X122.721 Y98.187 E0.008
G1 X122.7 Y98.5 E0.008
G1 X122.721 Y98.813 E0.008
G1 X122.785 Y99.121 E0.007
G1 X122.89 Y99.417 E0.008
G1 X123.035 Y99.695 E0.008
G1 X123.216 Y99.953 E0.008
G1 X123.459 Y100.205 E0.009
G1 X123.673 Y100.38 E0.007
G1 X123.943 Y100.544 E0.007
G1 X124.267 Y100.678 E0.009
G1 X124.532 Y100.752 E0.007
G1 X124.843 Y100.795 E0.008
G1 X125.157 E0.008
G1 X125.468 Y100.752 E0.007
G1 X125.77 Y100.668 E0.008
G1 X126.058 Y100.543 E0.008
G1 X126.327 Y100.38 E0.008
G1 X126.57 Y100.181 E0.008
G1 X126.786 Y99.95 E0.008
G1 X126.983 Y99.662 E0.008
G1 X127.11 Y99.417 E0.007
G1 X127.215 Y99.121 E0.008
G1 X127.279 Y98.813 E0.008
G1 X127.3 Y98.5 E0.008
G1 X127.279 Y98.187 E0.008
G1 X127.215 Y97.879 E0.007
G1 X127.11 Y97.583 E0.008
G1 X126.965 Y97.305 E0.008
G1 X126.784 Y97.047 E0.008
G1 X126.541 Y96.795 E0.009
G1 X126.327 Y96.62 E0.007
G1 X126.057 Y96.456 E0.008
G1 X125.733 Y96.322 E0.008
G1 X125.468 Y96.248 E0.007
G1 X125.157 Y96.205 E0.008
G1 X124.843 E0.008
G1 X124.532 Y96.248 E0.008
;rapid-leaky
G0 X124.459 Y95.894 F7200
;bead-perimeter_inner
G1 X124.11 Y95.992 F1463 E0.009
G1 X123.776 Y96.137 E0.009
G1 X123.465 Y96.326 E0.009
G1 X123.184 Y96.555 E0.009
G1 X122.933 Y96.824 E0.009
G1 X122.707 Y97.153 E0.01
G1 X122.559 Y97.439 E0.008
G1 X122.437 Y97.782 E0.009
G1 X122.364 Y98.138 E0.009
G1 X122.339 Y98.5 E0.009
G1 X122.364 Y98.862 E0.009
G1 X122.437 Y99.218 E0.009
G1 X122.559 Y99.561 E0.009
G1 X122.727 Y99.883 E0.009
G1 X122.938 Y100.182 E0.01
G1 X123.215 Y100.471 E0.01
G1 X123.465 Y100.674 E0.008
G1 X123.779 Y100.866 E0.009
G1 X124.149 Y101.019 E0.01
G1 X124.459 Y101.106 E0.008
G1 X124.819 Y101.155 E0.009
G1 X125.181 E0.009
G1 X125.541 Y101.106 E0.009
G1 X125.89 Y101.008 E0.009
G1 X126.224 Y100.863 E0.009
G1 X126.535 Y100.674 E0.009
G1 X126.816 Y100.445 E0.009
G1 X127.067 Y100.176 E0.009
G1 X127.292 Y99.847 E0.01
G1 X127.441 Y99.561 E0.008
G1 X127.563 Y99.218 E0.009
G1 X127.636 Y98.862 E0.01
G1 X127.661 Y98.5 E0.009
G1 X127.636 Y98.138 E0.009
G1 X127.563 Y97.782 E0.009
G1 X127.441 Y97.439 E0.009
G1 X127.273 Y97.117 E0.009
G1 X127.062 Y96.818 E0.009
G1 X126.785 Y96.529 E0.01
G1 X126.535 Y96.326 E0.008
G1 X126.221 Y96.134 E0.009
G1 X125.851 Y95.981 E0.01
G1 X125.541 Y95.894 E0.008
G1 X125.181 Y95.845 E0.009
G1 X124.819 E0.009
G1 X124.459 Y95.894 E0.009
G1 F2100 E-0.5
;rapid-dry
G0 X124.1 Y94.296 F7200
G1 F2100 E0.5
;bead-perimeter_outer
G1 X124.498 Y94.23 F1200 E0.01
G1 X124.899 Y94.201 E0.01
G1 X125.302 Y94.211 E0.011
G1 X125.702 Y94.258 E0.01
G1 X126.097 Y94.343 E0.01
G1 X126.481 Y94.463 E0.01
G1 X126.853 Y94.62 E0.01
G1 X127.208 Y94.811 E0.01
G1 X127.544 Y95.033 E0.01
G1 X127.857 Y95.287 E0.01
G1 X128.146 Y95.569 E0.01
G1 X128.406 Y95.876 E0.01
G1 X128.637 Y96.206 E0.01
G1 X128.835 Y96.556 E0.01
G1 X129.001 Y96.924 E0.01
G1 X129.131 Y97.307 E0.01
G1 X129.224 Y97.698 E0.01
G1 X129.281 Y98.098 E0.01
G1 X129.3 Y98.5 E0.01
G1 X129.281 Y98.902 E0.01
G1 X129.224 Y99.302 E0.01
G1 X129.131 Y99.693 E0.011
G1 X129.001 Y100.076 E0.01
G1 X128.835 Y100.444 E0.01
G1 X128.637 Y100.794 E0.01
G1 X128.406 Y101.124 E0.01
G1 X128.146 Y101.432 E0.01
G1 X127.857 Y101.713 E0.01
G1 X127.544 Y101.967 E0.01
G1 X127.208 Y102.189 E0.01
G1 X126.853 Y102.38 E0.01
G1 X126.481 Y102.537 E0.01
G1 X126.097 Y102.657 E0.01
G1 X125.702 Y102.742 E0.01
G1 X125.302 Y102.789 E0.01
G1 X124.899 Y102.799 E0.01
G1 X124.498 Y102.77 E0.01
G1 X124.1 Y102.704 E0.01
G1 X123.71 Y102.602 E0.01
G1 X123.332 Y102.462 E0.011
G1 X122.968 Y102.289 E0.01
G1 X122.622 Y102.082 E0.01
G1 X122.297 Y101.843 E0.01
G1 X121.996 Y101.576 E0.01
G1 X121.721 Y101.28 E0.01
G1 X121.474 Y100.961 E0.01
G1 X121.259 Y100.62 E0.01
G1 X121.078 Y100.261 E0.01
G1 X120.93 Y99.886 E0.01
G1 X120.818 Y99.498 E0.01
G1 X120.742 Y99.103 E0.01
G1 X120.705 Y98.702 E0.01
G1 Y98.298 E0.01
G1 X120.742 Y97.897 E0.01
G1 X120.818 Y97.502 E0.01
G1 X120.93 Y97.114 E0.01
G1 X121.078 Y96.739 E0.01
G1 X121.259 Y96.38 E0.011
G1 X121.474 Y96.039 E0.01
G1 X121.721 Y95.72 E0.01
G1 X121.996 Y95.424 E0.01
G1 X122.297 Y95.157 E0.01
G1 X122.622 Y94.918 E0.01
G1 X122.968 Y94.711 E0.01
G1 X123.332 Y94.538 E0.01
G1 X123.71 Y94.398 E0.01
G1 X124.1 Y94.296 E0.01
;rapid-leaky
G0 X124.175 Y94.648 F7200
;bead-perimeter_inner
G1 X124.54 Y94.588 F1463 E0.009
G1 X124.907 Y94.561 E0.009
G1 X125.277 Y94.57 E0.01
G1 X125.643 Y94.613 E0.009
G1 X126.005 Y94.691 E0.009
G1 X126.357 Y94.801 E0.009
G1 X126.697 Y94.945 E0.01
G1 X127.023 Y95.12 E0.009
G1 X127.33 Y95.324 E0.009
G1 X127.618 Y95.556 E0.009
G1 X127.882 Y95.814 E0.009
G1 X128.121 Y96.096 E0.01
G1 X128.332 Y96.398 E0.009
G1 X128.514 Y96.719 E0.009
G1 X128.665 Y97.056 E0.009
G1 X128.784 Y97.407 E0.009
G1 X128.87 Y97.765 E0.01
G1 X128.922 Y98.131 E0.009
G1 X128.939 Y98.5 E0.009
G1 X128.922 Y98.868 E0.009
G1 X128.87 Y99.235 E0.009
G1 X128.784 Y99.593 E0.01
G1 X128.665 Y99.944 E0.009
G1 X128.514 Y100.281 E0.009
G1 X128.332 Y100.602 E0.009
G1 X128.121 Y100.904 E0.01
G1 X127.882 Y101.186 E0.009
G1 X127.618 Y101.444 E0.009
G1 X127.33 Y101.676 E0.009
G1 X127.023 Y101.88 E0.009
G1 X126.697 Y102.055 E0.01
G1 X126.357 Y102.199 E0.009
G1 X126.005 Y102.309 E0.009
G1 X125.643 Y102.387 E0.009
G1 X125.277 Y102.43 E0.009
G1 X124.907 Y102.439 E0.01
G1 X124.54 Y102.412 E0.009
G1 X124.175 Y102.352 E0.009
