;role deget
;Printer name: Prusa i3 MK3
;TIME:1153
;Print time: 19m:13s
;Extruder 1 material used: 750mm
;Extruder 1 material name: 
;Extruder 1 filament diameter: 1.75mm
;Extruder 1 nozzle diameter: 0.4mm
;Extruder 1 offset x: 0mm
;Extruder 1 offset y: 0mm
;Extruder 1 offset z: 0mm
;Extruder 1 max temp: 200
;Bed temp: 70
;Layer count: 83
;Width: 250mm
;Depth: 210mm
;Height: 210mm
;Center x: 125mm
;Center y: 105mm
;Center z: 0mm
;Count of bodies: 6
;Fusion version: 2.0.19440
G21
M115 U3.0.10 ;tell printer latest fw version
G28 W ;home all without mesh bed level
;--------------------------------
;Selected Profile: PLA Direct Drive
;--------------------------------
;Selected Printer: Prusa, i3 MK3
;--------------------------------
T0
M140 S70
M104 S200 T0
M190 S70
M109 S200 T0
G80 ;mesh bed leveling
G92 E0
G90
M83
G0 X10 Y10 Z10 F7200
G92 E0
;--------------------------------
;Part 1
;LAYER_COUNT:83
;LAYER:1
M107
;rapid-leaky
G0 X20 Y20.5 Z0.2 F7200
;bead-prime
G1 X120 F720 E8.315
G1 F2100 E-0.5
;rapid-dry
G0 X124.418 Y67.217 F7200
G1 F2100 E0.5
;bead-skirt/brim
G1 X125.197 Y67.197 F960 E0.026
G1 X125.973 Y67.256 E0.026
G1 X126.739 Y67.39 E0.026
G1 X127.489 Y67.602 E0.026
G1 X128.215 Y67.887 E0.026
G1 X128.905 Y68.242 E0.025
G1 X129.557 Y68.662 E0.026
G1 X130.165 Y69.147 E0.026
G1 X130.724 Y69.691 E0.026
G1 X131.224 Y70.288 E0.026
G1 X131.663 Y70.93 E0.026
G1 X132.035 Y71.616 E0.026
G1 X132.336 Y72.329 E0.025
G1 X132.566 Y73.072 E0.026
G1 X132.72 Y73.836 E0.026
G1 X132.798 Y74.61 E0.026
G1 Y75.39 E0.026
G1 X132.72 Y76.164 E0.026
G1 X132.566 Y76.928 E0.026
G1 X132.336 Y77.671 E0.026
G1 X132.035 Y78.384 E0.025
G1 X131.663 Y79.07 E0.026
G1 X131.224 Y79.712 E0.026
G1 X130.724 Y80.309 E0.026
G1 X130.164 Y80.853 E0.026
G1 X129.981 Y81 E0.008
G1 X130.164 Y81.147 E0.008
G1 X130.724 Y81.691 E0.026
G1 X131.224 Y82.288 E0.026
G1 X131.663 Y82.93 E0.026
G1 X132.035 Y83.616 E0.025
G1 X132.336 Y84.329 E0.026
G1 X132.566 Y85.072 E0.026
G1 X132.72 Y85.836 E0.026
G1 X132.798 Y86.61 E0.026
G1 Y87.39 E0.026
G1 X132.72 Y88.164 E0.026
G1 X132.566 Y88.928 E0.026
G1 X132.336 Y89.671 E0.025
G1 X132.035 Y90.384 E0.026
G1 X131.663 Y91.07 E0.026
G1 X131.224 Y91.712 E0.026
G1 X130.724 Y92.309 E0.026
G1 X130.153 Y92.864 E0.026
G1 X129.98 Y93 E0.008
G1 X130.165 Y93.147 E0.008
G1 X130.724 Y93.691 E0.026
G1 X131.224 Y94.288 E0.025
G1 X131.671 Y94.942 E0.027
G1 X132.057 Y95.666 E0.027
G1 X132.336 Y96.33 E0.024
G1 X132.566 Y97.072 E0.026
G1 X132.72 Y97.836 E0.026
G1 X132.798 Y98.61 E0.026
G1 Y99.39 E0.026
G1 X132.72 Y100.164 E0.025
G1 X132.566 Y100.928 E0.026
G1 X132.336 Y101.671 E0.026
G1 X132.035 Y102.384 E0.026
G1 X131.663 Y103.07 E0.026
G1 X131.224 Y103.712 E0.026
G1 X130.724 Y104.309 E0.026
G1 X130.164 Y104.853 E0.026
G1 X129.979 Y105.001 E0.008
G1 X130.444 Y105.411 E0.02
G1 X130.977 Y105.983 E0.026
G1 X131.447 Y106.606 E0.026
G1 X131.851 Y107.266 E0.026
G1 X132.188 Y107.966 E0.026
G1 X132.456 Y108.699 E0.026
G1 X132.647 Y109.452 E0.026
G1 X132.764 Y110.22 E0.025
G1 X132.803 Y111 E0.026
G1 X132.764 Y111.78 E0.026
G1 X132.647 Y112.548 E0.026
G1 X132.456 Y113.301 E0.026
G1 X132.188 Y114.034 E0.026
G1 X131.851 Y114.734 E0.026
G1 X131.447 Y115.394 E0.026
G1 X130.977 Y116.017 E0.025
G1 X130.444 Y116.589 E0.026
G1 X129.978 Y117 E0.021
G1 X130.444 Y117.411 E0.021
G1 X130.977 Y117.983 E0.026
G1 X131.447 Y118.606 E0.026
G1 X131.851 Y119.266 E0.025
G1 X132.188 Y119.966 E0.026
G1 X132.456 Y120.699 E0.026
G1 X132.647 Y121.452 E0.026
G1 X132.764 Y122.22 E0.026
G1 X132.803 Y123 E0.026
G1 X132.764 Y123.78 E0.026
G1 X132.647 Y124.548 E0.026
G1 X132.456 Y125.301 E0.026
G1 X132.188 Y126.034 E0.026
G1 X131.851 Y126.734 E0.025
G1 X131.447 Y127.394 E0.026
G1 X130.977 Y128.017 E0.026
G1 X130.444 Y128.589 E0.026
G1 X129.979 Y128.999 E0.021
G1 X130.164 Y129.147 E0.008
G1 X130.724 Y129.691 E0.025
G1 X131.224 Y130.288 E0.026
G1 X131.663 Y130.93 E0.026
G1 X132.035 Y131.616 E0.026
G1 X132.336 Y132.329 E0.026
G1 X132.566 Y133.072 E0.026
G1 X132.72 Y133.836 E0.026
G1 X132.798 Y134.61 E0.026
G1 Y135.39 E0.026
G1 X132.72 Y136.164 E0.025
G1 X132.566 Y136.928 E0.026
G1 X132.336 Y137.671 E0.026
G1 X132.035 Y138.384 E0.026
G1 X131.663 Y139.07 E0.026
G1 X131.224 Y139.712 E0.026
G1 X130.724 Y140.309 E0.026
G1 X130.164 Y140.853 E0.026
G1 X129.557 Y141.338 E0.026
G1 X128.905 Y141.758 E0.025
G1 X128.215 Y142.113 E0.026
G1 X127.489 Y142.398 E0.026
G1 X126.739 Y142.609 E0.026
G1 X125.973 Y142.744 E0.026
G1 X125.197 Y142.803 E0.026
G1 X124.418 Y142.783 E0.026
G1 X123.645 Y142.685 E0.026
G1 X122.888 Y142.512 E0.025
G1 X122.15 Y142.264 E0.026
G1 X121.444 Y141.945 E0.026
G1 X120.768 Y141.556 E0.026
G1 X120.134 Y141.099 E0.026
G1 X119.556 Y140.589 E0.026
G1 X119.023 Y140.017 E0.026
G1 X118.553 Y139.394 E0.026
G1 X118.149 Y138.734 E0.025
G1 X117.812 Y138.034 E0.026
G1 X117.544 Y137.301 E0.026
G1 X117.353 Y136.548 E0.026
G1 X117.236 Y135.78 E0.026
G1 X117.197 Y135 E0.026
G1 X117.236 Y134.22 E0.026
G1 X117.353 Y133.452 E0.026
G1 X117.544 Y132.699 E0.025
G1 X117.812 Y131.966 E0.026
G1 X118.149 Y131.266 E0.026
G1 X118.553 Y130.606 E0.026
G1 X119.023 Y129.983 E0.026
G1 X119.556 Y129.411 E0.026
G1 X120.021 Y129.001 E0.021
G1 X119.836 Y128.853 E0.007
G1 X119.276 Y128.309 E0.026
G1 X118.776 Y127.712 E0.026
G1 X118.337 Y127.07 E0.026
G1 X117.965 Y126.384 E0.026
G1 X117.664 Y125.671 E0.026
G1 X117.434 Y124.928 E0.026
G1 X117.28 Y124.164 E0.026
G1 X117.202 Y123.39 E0.025
G1 Y122.61 E0.026
G1 X117.28 Y121.836 E0.026
G1 X117.434 Y121.072 E0.026
G1 X117.664 Y120.329 E0.026
G1 X117.965 Y119.616 E0.026
G1 X118.337 Y118.93 E0.026
G1 X118.776 Y118.288 E0.026
G1 X119.276 Y117.691 E0.026
G1 X119.836 Y117.147 E0.026
G1 X120.019 Y117 E0.007
G1 X119.836 Y116.853 E0.008
G1 X119.276 Y116.309 E0.026
G1 X118.776 Y115.712 E0.026
G1 X118.337 Y115.07 E0.026
G1 X117.965 Y114.384 E0.026
G1 X117.664 Y113.671 E0.026
G1 X117.434 Y112.928 E0.025
G1 X117.28 Y112.164 E0.026
G1 X117.202 Y111.39 E0.026
G1 Y110.61 E0.026
G1 X117.28 Y109.836 E0.026
G1 X117.434 Y109.072 E0.026
G1 X117.664 Y108.329 E0.026
G1 X117.965 Y107.616 E0.026
G1 X118.337 Y106.93 E0.026
G1 X118.776 Y106.288 E0.025
G1 X119.276 Y105.691 E0.026
G1 X119.836 Y105.147 E0.026
G1 X120.021 Y104.999 E0.008
G1 X119.556 Y104.589 E0.021
G1 X119.023 Y104.017 E0.026
G1 X118.553 Y103.394 E0.026
G1 X118.149 Y102.734 E0.025
G1 X117.812 Y102.034 E0.026
G1 X117.544 Y101.301 E0.026
G1 X117.353 Y100.548 E0.026
G1 X117.236 Y99.78 E0.026
G1 X117.197 Y99 E0.026
G1 X117.236 Y98.22 E0.026
G1 X117.353 Y97.452 E0.026
G1 X117.544 Y96.699 E0.026
G1 X117.812 Y95.966 E0.026
G1 X118.149 Y95.266 E0.025
G1 X118.553 Y94.606 E0.026
G1 X119.023 Y93.983 E0.026
G1 X119.556 Y93.411 E0.026
G1 X120.022 Y93 E0.021
G1 X119.556 Y92.589 E0.02
G1 X119.023 Y92.017 E0.026
G1 X118.553 Y91.394 E0.026
G1 X118.149 Y90.734 E0.026
G1 X117.812 Y90.034 E0.026
G1 X117.544 Y89.301 E0.026
G1 X117.353 Y88.548 E0.026
G1 X117.236 Y87.78 E0.026
G1 X117.197 Y87 E0.026
G1 X117.236 Y86.22 E0.025
G1 X117.353 Y85.452 E0.026
G1 X117.544 Y84.699 E0.026
G1 X117.812 Y83.966 E0.026
G1 X118.149 Y83.266 E0.026
G1 X118.553 Y82.606 E0.026
G1 X119.023 Y81.983 E0.026
G1 X119.556 Y81.411 E0.026
G1 X120.022 Y81 E0.02
G1 X119.556 Y80.589 E0.021
G1 X119.023 Y80.017 E0.026
G1 X118.553 Y79.394 E0.026
G1 X118.149 Y78.734 E0.026
G1 X117.812 Y78.034 E0.025
G1 X117.544 Y77.301 E0.026
G1 X117.353 Y76.548 E0.026
G1 X117.236 Y75.78 E0.026
G1 X117.197 Y75 E0.026
G1 X117.236 Y74.22 E0.026
G1 X117.353 Y73.452 E0.026
G1 X117.544 Y72.699 E0.026
G1 X117.812 Y71.966 E0.026
G1 X118.149 Y71.266 E0.026
G1 X118.553 Y70.606 E0.025
G1 X119.023 Y69.983 E0.026
G1 X119.556 Y69.411 E0.026
G1 X120.134 Y68.901 E0.026
G1 X120.768 Y68.444 E0.026
G1 X121.441 Y68.057 E0.026
G1 X122.15 Y67.734 E0.026
G1 X122.892 Y67.487 E0.026
G1 X123.645 Y67.315 E0.025
G1 X124.418 Y67.217 E0.026
;rapid-leaky
G0 X124.448 Y67.616 F7200
;bead-skirt/brim
G1 X125.187 Y67.598 F960 E0.025
G1 X125.923 Y67.653 E0.024
G1 X126.65 Y67.781 E0.025
G1 X127.361 Y67.981 E0.024
G1 X128.05 Y68.252 E0.025
G1 X128.705 Y68.588 E0.025
G1 X129.324 Y68.988 E0.024
G1 X129.9 Y69.447 E0.025
G1 X130.43 Y69.963 E0.024
G1 X130.904 Y70.53 E0.025
G1 X131.321 Y71.139 E0.024
G1 X131.674 Y71.79 E0.025
G1 X131.959 Y72.466 E0.024
G1 X132.178 Y73.171 E0.025
G1 X132.324 Y73.896 E0.025
G1 X132.398 Y74.63 E0.024
G1 Y75.37 E0.025
G1 X132.324 Y76.104 E0.024
G1 X132.178 Y76.829 E0.025
G1 X131.959 Y77.534 E0.024
G1 X131.674 Y78.211 E0.025
G1 X131.321 Y78.861 E0.024
G1 X130.905 Y79.47 E0.025
G1 X130.43 Y80.037 E0.025
G1 X129.9 Y80.553 E0.024
G1 X129.339 Y81 E0.024
G1 X129.9 Y81.447 E0.024
G1 X130.43 Y81.963 E0.024
G1 X130.904 Y82.53 E0.025
G1 X131.321 Y83.139 E0.025
G1 X131.674 Y83.79 E0.024
G1 X131.959 Y84.466 E0.025
G1 X132.178 Y85.171 E0.024
G1 X132.324 Y85.896 E0.025
G1 X132.398 Y86.63 E0.024
G1 Y87.37 E0.025
G1 X132.324 Y88.104 E0.024
G1 X132.178 Y88.829 E0.025
G1 X131.959 Y89.534 E0.025
G1 X131.674 Y90.21 E0.024
G1 X131.321 Y90.861 E0.025
G1 X130.904 Y91.47 E0.024
G1 X130.43 Y92.037 E0.025
G1 X129.89 Y92.562 E0.025
G1 X129.336 Y92.997 E0.023
G1 X129.9 Y93.447 E0.024
G1 X130.43 Y93.963 E0.025
G1 X130.905 Y94.53 E0.024
G1 X131.329 Y95.15 E0.025
G1 X131.695 Y95.838 E0.026
G1 X131.96 Y96.467 E0.023
G1 X132.178 Y97.171 E0.025
G1 X132.324 Y97.896 E0.024
G1 X132.398 Y98.63 E0.025
G1 Y99.37 E0.024
G1 X132.324 Y100.104 E0.025
G1 X132.178 Y100.829 E0.024
G1 X131.959 Y101.534 E0.025
G1 X131.674 Y102.211 E0.024
G1 X131.321 Y102.861 E0.025
G1 X130.905 Y103.47 E0.025
G1 X130.43 Y104.037 E0.024
G1 X129.9 Y104.553 E0.025
G1 X129.33 Y105.007 E0.024
G1 X129.616 Y105.214 E0.012
G1 X130.165 Y105.698 E0.024
G1 X130.67 Y106.24 E0.025
G1 X131.116 Y106.831 E0.024
G1 X131.499 Y107.458 E0.025
G1 X131.819 Y108.121 E0.024
G1 X132.073 Y108.817 E0.025
G1 X132.254 Y109.532 E0.024
G1 X132.365 Y110.261 E0.025
G1 X132.402 Y111 E0.025
G1 X132.365 Y111.739 E0.024
G1 X132.254 Y112.468 E0.025
G1 X132.073 Y113.183 E0.024
G1 X131.819 Y113.879 E0.025
G1 X131.499 Y114.542 E0.024
G1 X131.116 Y115.169 E0.025
G1 X130.67 Y115.76 E0.024
G1 X130.165 Y116.302 E0.025
G1 X129.616 Y116.786 E0.024
G1 X129.32 Y117 E0.013
G1 X129.616 Y117.214 E0.012
G1 X130.165 Y117.698 E0.024
G1 X130.67 Y118.24 E0.025
G1 X131.116 Y118.831 E0.024
G1 X131.499 Y119.458 E0.025
G1 X131.819 Y120.121 E0.024
G1 X132.073 Y120.817 E0.025
G1 X132.254 Y121.532 E0.024
G1 X132.365 Y122.26 E0.025
G1 X132.402 Y123 E0.025
G1 X132.365 Y123.739 E0.024
G1 X132.254 Y124.468 E0.025
G1 X132.073 Y125.183 E0.024
G1 X131.819 Y125.879 E0.025
G1 X131.499 Y126.542 E0.024
G1 X131.116 Y127.169 E0.025
G1 X130.67 Y127.76 E0.024
G1 X130.165 Y128.302 E0.025
G1 X129.616 Y128.787 E0.024
G1 X129.33 Y128.993 E0.012
G1 X129.9 Y129.447 E0.024
G1 X130.43 Y129.963 E0.025
G1 X130.904 Y130.53 E0.025
G1 X131.321 Y131.139 E0.024
G1 X131.674 Y131.79 E0.025
G1 X131.959 Y132.466 E0.024
G1 X132.178 Y133.171 E0.025
G1 X132.324 Y133.896 E0.024
G1 X132.398 Y134.63 E0.025
G1 Y135.37 E0.024
G1 X132.324 Y136.104 E0.025
G1 X132.178 Y136.829 E0.025
G1 X131.959 Y137.534 E0.024
G1 X131.674 Y138.211 E0.025
G1 X131.321 Y138.861 E0.024
G1 X130.904 Y139.47 E0.025
G1 X130.43 Y140.037 E0.024
G1 X129.9 Y140.553 E0.025
G1 X129.324 Y141.012 E0.024
G1 X128.705 Y141.412 E0.025
G1 X128.05 Y141.748 E0.024
G1 X127.361 Y142.019 E0.025
G1 X126.65 Y142.219 E0.025
G1 X125.923 Y142.347 E0.024
G1 X125.187 Y142.402 E0.025
G1 X124.448 Y142.384 E0.024
G1 X123.714 Y142.291 E0.025
G1 X122.996 Y142.127 E0.024
G1 X122.296 Y141.892 E0.025
G1 X121.627 Y141.589 E0.024
G1 X120.985 Y141.22 E0.025
G1 X120.384 Y140.787 E0.025
G1 X119.835 Y140.302 E0.024
G1 X119.33 Y139.76 E0.025
G1 X118.884 Y139.169 E0.024
G1 X118.501 Y138.542 E0.025
G1 X118.181 Y137.879 E0.024
G1 X117.927 Y137.183 E0.025
G1 X117.746 Y136.468 E0.024
G1 X117.635 Y135.739 E0.025
G1 X117.598 Y135 E0.024
G1 X117.635 Y134.26 E0.025
G1 X117.746 Y133.532 E0.025
G1 X117.927 Y132.817 E0.024
G1 X118.181 Y132.121 E0.025
G1 X118.501 Y131.458 E0.024
G1 X118.884 Y130.831 E0.025
G1 X119.33 Y130.24 E0.024
G1 X119.835 Y129.698 E0.025
G1 X120.384 Y129.214 E0.024
G1 X120.67 Y129.007 E0.012
G1 X120.1 Y128.553 E0.024
G1 X119.57 Y128.037 E0.025
G1 X119.096 Y127.47 E0.024
G1 X118.679 Y126.861 E0.025
G1 X118.326 Y126.21 E0.025
G1 X118.041 Y125.534 E0.024
G1 X117.822 Y124.829 E0.025
G1 X117.676 Y124.104 E0.024
G1 X117.602 Y123.37 E0.025
G1 Y122.63 E0.024
G1 X117.676 Y121.896 E0.025
G1 X117.822 Y121.171 E0.024
G1 X118.041 Y120.466 E0.025
G1 X118.326 Y119.79 E0.024
G1 X118.679 Y119.139 E0.025
G1 X119.096 Y118.53 E0.025
G1 X119.57 Y117.963 E0.024
G1 X120.1 Y117.447 E0.025
G1 X120.661 Y117 E0.024
G1 X120.1 Y116.553 E0.023
G1 X119.57 Y116.037 E0.025
G1 X119.096 Y115.47 E0.025
G1 X118.679 Y114.861 E0.024
G1 X118.326 Y114.21 E0.025
G1 X118.041 Y113.534 E0.024
G1 X117.822 Y112.829 E0.025
G1 X117.676 Y112.104 E0.024
G1 X117.602 Y111.37 E0.025
G1 Y110.63 E0.025
G1 X117.676 Y109.896 E0.024
G1 X117.822 Y109.171 E0.025
G1 X118.041 Y108.466 E0.024
G1 X118.326 Y107.79 E0.025
G1 X118.679 Y107.139 E0.024
G1 X119.096 Y106.53 E0.025
G1 X119.57 Y105.963 E0.024
G1 X120.1 Y105.447 E0.025
G1 X120.67 Y104.993 E0.024
G1 X120.384 Y104.786 E0.012
G1 X119.835 Y104.302 E0.024
G1 X119.33 Y103.76 E0.025
G1 X118.884 Y103.169 E0.025
G1 X118.501 Y102.542 E0.024
G1 X118.181 Y101.879 E0.025
G1 X117.927 Y101.183 E0.024
G1 X117.746 Y100.468 E0.025
G1 X117.635 Y99.74 E0.024
G1 X117.598 Y99 E0.025
G1 X117.635 Y98.261 E0.024
G1 X117.746 Y97.532 E0.025
G1 X117.927 Y96.817 E0.024
G1 X118.181 Y96.122 E0.025
G1 X118.501 Y95.458 E0.025
G1 X118.884 Y94.831 E0.024
G1 X119.33 Y94.24 E0.025
G1 X119.835 Y93.698 E0.024
G1 X120.384 Y93.214 E0.025
G1 X120.68 Y93 E0.012
G1 X120.384 Y92.787 E0.012
G1 X119.835 Y92.302 E0.024
G1 X119.33 Y91.76 E0.025
G1 X118.884 Y91.169 E0.025
G1 X118.501 Y90.542 E0.024
G1 X118.181 Y89.879 E0.024
G1 X117.927 Y89.183 E0.025
G1 X117.746 Y88.468 E0.025
G1 X117.635 Y87.74 E0.024
G1 X117.598 Y87 E0.025
G1 X117.635 Y86.261 E0.024
G1 X117.746 Y85.532 E0.025
G1 X117.927 Y84.817 E0.024
G1 X118.181 Y84.121 E0.025
G1 X118.501 Y83.458 E0.025
G1 X118.884 Y82.831 E0.024
G1 X119.33 Y82.24 E0.025
G1 X119.835 Y81.698 E0.024
G1 X120.384 Y81.213 E0.025
G1 X120.68 Y81 E0.012
G1 X120.384 Y80.787 E0.012
G1 X119.835 Y80.302 E0.024
G1 X119.33 Y79.76 E0.025
G1 X118.884 Y79.169 E0.025
G1 X118.501 Y78.542 E0.024
G1 X118.181 Y77.879 E0.024
G1 X117.927 Y77.183 E0.025
G1 X117.746 Y76.468 E0.025
G1 X117.635 Y75.74 E0.024
G1 X117.598 Y75 E0.025
G1 X117.635 Y74.261 E0.024
G1 X117.746 Y73.532 E0.025
G1 X117.927 Y72.817 E0.024
G1 X118.181 Y72.121 E0.025
G1 X118.501 Y71.458 E0.025
G1 X118.884 Y70.831 E0.024
G1 X119.33 Y70.24 E0.025
G1 X119.835 Y69.698 E0.024
G1 X120.384 Y69.213 E0.025
G1 X120.985 Y68.78 E0.024
G1 X121.623 Y68.413 E0.025
G1 X122.297 Y68.107 E0.024
G1 X123 Y67.872 E0.025
G1 X123.715 Y67.709 E0.024
G1 X124.448 Y67.616 E0.025
;rapid-leaky
G0 X124.478 Y68.016 F7200
;bead-skirt/brim
G1 X125.177 Y67.998 F960 E0.023
G1 X125.873 Y68.051 E0.023
G1 X126.561 Y68.171 E0.024
G1 X127.233 Y68.361 E0.023
G1 X127.885 Y68.617 E0.023
G1 X128.504 Y68.935 E0.023
G1 X129.09 Y69.313 E0.024
G1 X129.635 Y69.748 E0.023
G1 X130.137 Y70.236 E0.023
G1 X130.585 Y70.772 E0.023
G1 X130.979 Y71.347 E0.023
G1 X131.313 Y71.963 E0.024
G1 X131.583 Y72.604 E0.023
G1 X131.79 Y73.27 E0.023
G1 X131.928 Y73.955 E0.023
G1 X131.998 Y74.65 E0.024
G1 Y75.35 E0.023
G1 X131.928 Y76.045 E0.023
G1 X131.79 Y76.73 E0.023
G1 X131.583 Y77.397 E0.024
G1 X131.313 Y78.037 E0.023
G1 X130.979 Y78.653 E0.023
G1 X130.585 Y79.228 E0.023
G1 X130.137 Y79.765 E0.023
G1 X129.635 Y80.252 E0.024
G1 X129.09 Y80.687 E0.023
G1 X128.605 Y81 E0.019
G1 X129.09 Y81.313 E0.019
G1 X129.635 Y81.748 E0.023
G1 X130.137 Y82.236 E0.024
G1 X130.585 Y82.772 E0.023
G1 X130.979 Y83.347 E0.023
G1 X131.313 Y83.963 E0.023
G1 X131.583 Y84.604 E0.024
G1 X131.79 Y85.27 E0.023
G1 X131.928 Y85.956 E0.023
G1 X131.998 Y86.65 E0.023
G1 Y87.35 E0.024
G1 X131.928 Y88.045 E0.023
G1 X131.79 Y88.73 E0.023
G1 X131.583 Y89.397 E0.023
G1 X131.313 Y90.037 E0.023
G1 X130.979 Y90.653 E0.024
G1 X130.585 Y91.228 E0.023
G1 X130.137 Y91.765 E0.023
G1 X129.626 Y92.261 E0.024
G1 X129.047 Y92.716 E0.024
G1 X128.605 Y93 E0.018
G1 X129.09 Y93.313 E0.019
G1 X129.635 Y93.748 E0.023
G1 X130.137 Y94.236 E0.023
G1 X130.585 Y94.772 E0.024
G1 X130.986 Y95.358 E0.023
G1 X131.333 Y96.01 E0.025
G1 X131.583 Y96.604 E0.021
G1 X131.79 Y97.27 E0.023
G1 X131.928 Y97.955 E0.024
G1 X131.998 Y98.65 E0.023
G1 Y99.35 E0.023
G1 X131.928 Y100.045 E0.023
G1 X131.79 Y100.73 E0.024
G1 X131.583 Y101.397 E0.023
G1 X131.313 Y102.037 E0.023
G1 X130.979 Y102.653 E0.023
G1 X130.585 Y103.228 E0.024
G1 X130.137 Y103.765 E0.023
G1 X129.635 Y104.252 E0.023
G1 X129.09 Y104.687 E0.023
G1 X128.6 Y105.003 E0.02
G1 X128.798 Y105.117 E0.007
G1 X129.366 Y105.526 E0.023
G1 X129.885 Y105.985 E0.024
G1 X130.363 Y106.498 E0.023
G1 X130.785 Y107.057 E0.023
G1 X131.147 Y107.65 E0.023
G1 X131.45 Y108.277 E0.023
G1 X131.69 Y108.935 E0.024
G1 X131.862 Y109.611 E0.023
G1 X131.967 Y110.301 E0.023
G1 X132.002 Y111 E0.023
G1 X131.967 Y111.699 E0.024
G1 X131.862 Y112.389 E0.023
G1 X131.69 Y113.065 E0.023
G1 X131.45 Y113.723 E0.023
G1 X131.147 Y114.351 E0.024
G1 X130.785 Y114.943 E0.023
G1 X130.363 Y115.502 E0.023
G1 X129.885 Y116.015 E0.023
G1 X129.366 Y116.474 E0.023
G1 X128.798 Y116.883 E0.024
G1 X128.595 Y117 E0.007
G1 X128.798 Y117.117 E0.008
G1 X129.366 Y117.526 E0.023
G1 X129.885 Y117.985 E0.024
G1 X130.363 Y118.498 E0.023
G1 X130.785 Y119.057 E0.023
G1 X131.147 Y119.649 E0.023
G1 X131.45 Y120.277 E0.023
G1 X131.69 Y120.935 E0.024
G1 X131.862 Y121.611 E0.023
G1 X131.967 Y122.301 E0.023
G1 X132.002 Y123 E0.023
G1 X131.967 Y123.699 E0.024
G1 X131.862 Y124.389 E0.023
G1 X131.69 Y125.065 E0.023
G1 X131.45 Y125.723 E0.023
G1 X131.147 Y126.351 E0.024
G1 X130.785 Y126.943 E0.023
G1 X130.363 Y127.502 E0.023
G1 X129.885 Y128.015 E0.023
G1 X129.366 Y128.474 E0.023
G1 X128.798 Y128.883 E0.024
G1 X128.6 Y128.997 E0.007
G1 X129.09 Y129.313 E0.02
G1 X129.635 Y129.748 E0.023
G1 X130.137 Y130.235 E0.023
G1 X130.585 Y130.772 E0.023
G1 X130.979 Y131.347 E0.023
G1 X131.313 Y131.963 E0.024
G1 X131.583 Y132.603 E0.023
G1 X131.79 Y133.27 E0.023
G1 X131.928 Y133.955 E0.023
G1 X131.998 Y134.65 E0.024
G1 Y135.35 E0.023
G1 X131.928 Y136.045 E0.023
G1 X131.79 Y136.73 E0.023
G1 X131.583 Y137.396 E0.024
G1 X131.313 Y138.037 E0.023
G1 X130.979 Y138.653 E0.023
G1 X130.585 Y139.228 E0.023
G1 X130.137 Y139.764 E0.023
G1 X129.635 Y140.252 E0.024
G1 X129.09 Y140.687 E0.023
G1 X128.504 Y141.065 E0.023
G1 X127.885 Y141.383 E0.023
G1 X127.233 Y141.639 E0.023
G1 X126.561 Y141.829 E0.024
G1 X125.873 Y141.949 E0.023
G1 X125.177 Y142.002 E0.023
G1 X124.478 Y141.984 E0.023
G1 X123.784 Y141.897 E0.024
G1 X123.105 Y141.741 E0.023
G1 X122.443 Y141.519 E0.023
G1 X121.809 Y141.233 E0.023
G1 X121.202 Y140.883 E0.024
G1 X120.634 Y140.474 E0.023
G1 X120.115 Y140.015 E0.023
G1 X119.637 Y139.502 E0.023
G1 X119.215 Y138.943 E0.023
G1 X118.853 Y138.35 E0.024
G1 X118.55 Y137.723 E0.023
G1 X118.31 Y137.065 E0.023
G1 X118.138 Y136.389 E0.023
G1 X118.033 Y135.699 E0.023
G1 X117.998 Y135 E0.024
G1 X118.033 Y134.301 E0.023
G1 X118.138 Y133.611 E0.023
G1 X118.31 Y132.935 E0.023
G1 X118.55 Y132.277 E0.024
G1 X118.853 Y131.649 E0.023
G1 X119.215 Y131.057 E0.023
G1 X119.637 Y130.498 E0.023
G1 X120.115 Y129.985 E0.024
G1 X120.634 Y129.526 E0.023
G1 X121.2 Y129.118 E0.023
G1 X121.4 Y129.003 E0.008
G1 X120.91 Y128.687 E0.019
G1 X120.365 Y128.252 E0.023
G1 X119.863 Y127.764 E0.023
G1 X119.415 Y127.228 E0.024
G1 X119.021 Y126.653 E0.023
G1 X118.687 Y126.037 E0.023
G1 X118.417 Y125.396 E0.023
G1 X118.21 Y124.73 E0.023
G1 X118.072 Y124.045 E0.024
G1 X118.002 Y123.35 E0.023
G1 Y122.65 E0.023
G1 X118.072 Y121.955 E0.023
G1 X118.21 Y121.27 E0.024
G1 X118.417 Y120.604 E0.023
G1 X118.687 Y119.963 E0.023
G1 X119.021 Y119.347 E0.023
G1 X119.415 Y118.772 E0.023
G1 X119.863 Y118.236 E0.024
G1 X120.365 Y117.748 E0.023
G1 X120.91 Y117.313 E0.023
G1 X121.395 Y117 E0.019
G1 X120.91 Y116.687 E0.02
G1 X120.365 Y116.252 E0.023
G1 X119.863 Y115.764 E0.023
G1 X119.415 Y115.229 E0.023
G1 X119.021 Y114.653 E0.024
G1 X118.687 Y114.037 E0.023
G1 X118.417 Y113.396 E0.023
G1 X118.21 Y112.73 E0.023
G1 X118.072 Y112.045 E0.023
G1 X118.002 Y111.35 E0.024
G1 Y110.65 E0.023
G1 X118.072 Y109.955 E0.023
G1 X118.21 Y109.27 E0.023
G1 X118.417 Y108.604 E0.024
G1 X118.687 Y107.963 E0.023
G1 X119.021 Y107.347 E0.023
G1 X119.415 Y106.771 E0.023
G1 X119.863 Y106.236 E0.023
G1 X120.365 Y105.748 E0.024
G1 X120.91 Y105.313 E0.023
G1 X121.4 Y104.997 E0.019
G1 X121.202 Y104.883 E0.008
G1 X120.634 Y104.474 E0.023
G1 X120.115 Y104.015 E0.023
G1 X119.637 Y103.502 E0.024
G1 X119.215 Y102.943 E0.023
G1 X118.853 Y102.351 E0.023
G1 X118.55 Y101.723 E0.023
G1 X118.31 Y101.065 E0.023
G1 X118.138 Y100.389 E0.024
G1 X118.033 Y99.699 E0.023
G1 X117.998 Y99 E0.023
G1 X118.033 Y98.301 E0.023
G1 X118.138 Y97.611 E0.024
G1 X118.31 Y96.935 E0.023
G1 X118.55 Y96.277 E0.023
G1 X118.853 Y95.649 E0.023
G1 X119.215 Y95.057 E0.023
G1 X119.637 Y94.498 E0.024
G1 X120.115 Y93.985 E0.023
G1 X120.634 Y93.526 E0.023
G1 X121.202 Y93.117 E0.023
G1 X121.405 Y93 E0.008
G1 X121.202 Y92.883 E0.008
G1 X120.634 Y92.474 E0.023
G1 X120.115 Y92.015 E0.023
G1 X119.637 Y91.502 E0.023
G1 X119.215 Y90.943 E0.024
G1 X118.853 Y90.351 E0.023
G1 X118.55 Y89.723 E0.023
G1 X118.31 Y89.065 E0.023
G1 X118.138 Y88.389 E0.024
G1 X118.033 Y87.699 E0.023
G1 X117.998 Y87 E0.023
G1 X118.033 Y86.301 E0.023
G1 X118.138 Y85.611 E0.024
G1 X118.31 Y84.935 E0.023
G1 X118.55 Y84.277 E0.023
G1 X118.853 Y83.649 E0.023
G1 X119.215 Y83.057 E0.023
G1 X119.637 Y82.498 E0.024
G1 X120.115 Y81.985 E0.023
G1 X120.634 Y81.526 E0.023
G1 X121.202 Y81.117 E0.023
G1 X121.405 Y81 E0.008
G1 X121.202 Y80.883 E0.008
G1 X120.634 Y80.474 E0.023
G1 X120.115 Y80.015 E0.023
G1 X119.637 Y79.502 E0.023
G1 X119.215 Y78.943 E0.024
G1 X118.853 Y78.351 E0.023
G1 X118.55 Y77.723 E0.023
G1 X118.31 Y77.065 E0.023
G1 X118.138 Y76.389 E0.024
G1 X118.033 Y75.699 E0.023
G1 X117.998 Y75 E0.023
G1 X118.033 Y74.301 E0.023
G1 X118.138 Y73.611 E0.024
G1 X118.31 Y72.935 E0.023
G1 X118.55 Y72.277 E0.023
G1 X118.853 Y71.649 E0.023
G1 X119.215 Y71.057 E0.023
G1 X119.637 Y70.498 E0.024
G1 X120.115 Y69.985 E0.023
G1 X120.634 Y69.526 E0.023
G1 X121.202 Y69.117 E0.023
G1 X121.806 Y68.769 E0.023
G1 X122.443 Y68.48 E0.024
G1 X123.108 Y68.258 E0.023
G1 X123.784 Y68.103 E0.023
G1 X124.478 Y68.016 E0.023
;rapid-leaky
G0 X124.508 Y68.415 F7200
;bead-skirt/brim
G1 X125.167 Y68.399 F960 E0.022
G1 X125.823 Y68.448 E0.022
G1 X126.472 Y68.562 E0.022
G1 X127.106 Y68.741 E0.022
G1 X127.72 Y68.982 E0.022
G1 X128.304 Y69.282 E0.022
G1 X128.856 Y69.638 E0.022
G1 X129.37 Y70.048 E0.021
G1 X129.843 Y70.508 E0.022
G1 X130.266 Y71.013 E0.022
G1 X130.637 Y71.556 E0.022
G1 X130.952 Y72.136 E0.022
G1 X131.207 Y72.741 E0.022
G1 X131.401 Y73.369 E0.022
G1 X131.532 Y74.015 E0.022
G1 X131.598 Y74.67 E0.022
G1 Y75.33 E0.022
G1 X131.532 Y75.985 E0.021
G1 X131.401 Y76.631 E0.022
G1 X131.207 Y77.259 E0.022
G1 X130.952 Y77.864 E0.022
G1 X130.637 Y78.444 E0.022
G1 X130.266 Y78.987 E0.022
G1 X129.843 Y79.492 E0.022
G1 X129.37 Y79.952 E0.022
G1 X128.856 Y80.362 E0.022
G1 X128.304 Y80.718 E0.022
G1 X127.756 Y81 E0.02
G1 X128.304 Y81.282 E0.021
G1 X128.856 Y81.638 E0.021
G1 X129.37 Y82.048 E0.022
G1 X129.843 Y82.508 E0.022
G1 X130.266 Y83.013 E0.022
G1 X130.637 Y83.556 E0.022
G1 X130.952 Y84.136 E0.022
G1 X131.207 Y84.741 E0.022
G1 X131.401 Y85.369 E0.022
G1 X131.532 Y86.015 E0.022
G1 X131.598 Y86.67 E0.021
G1 Y87.33 E0.022
G1 X131.532 Y87.985 E0.022
G1 X131.401 Y88.631 E0.022
G1 X131.207 Y89.259 E0.022
G1 X130.952 Y89.864 E0.022
G1 X130.637 Y90.444 E0.022
G1 X130.266 Y90.987 E0.022
G1 X129.843 Y91.492 E0.022
G1 X129.363 Y91.959 E0.022
G1 X128.815 Y92.389 E0.023
G1 X128.303 Y92.719 E0.02
G1 X127.756 Y93 E0.021
G1 X128.304 Y93.282 E0.02
G1 X128.856 Y93.638 E0.022
G1 X129.37 Y94.048 E0.022
G1 X129.843 Y94.508 E0.022
G1 X130.266 Y95.013 E0.022
G1 X130.643 Y95.565 E0.022
G1 X130.972 Y96.182 E0.023
G1 X131.207 Y96.741 E0.021
G1 X131.401 Y97.369 E0.021
G1 X131.532 Y98.015 E0.022
G1 X131.598 Y98.67 E0.022
G1 Y99.33 E0.022
G1 X131.532 Y99.985 E0.022
G1 X131.401 Y100.631 E0.022
G1 X131.207 Y101.259 E0.022
G1 X130.952 Y101.864 E0.022
G1 X130.637 Y102.444 E0.022
G1 X130.266 Y102.987 E0.022
G1 X129.843 Y103.492 E0.021
G1 X129.37 Y103.952 E0.022
G1 X128.856 Y104.362 E0.022
G1 X128.304 Y104.718 E0.022
G1 X127.746 Y105.005 E0.021
G1 X128.011 Y105.125 E0.01
G1 X128.581 Y105.453 E0.021
G1 X129.116 Y105.839 E0.022
G1 X129.606 Y106.272 E0.022
G1 X130.056 Y106.755 E0.022
G1 X130.454 Y107.282 E0.022
G1 X130.796 Y107.841 E0.022
G1 X131.081 Y108.433 E0.022
G1 X131.307 Y109.053 E0.022
G1 X131.469 Y109.691 E0.022
G1 X131.568 Y110.341 E0.021
G1 X131.601 Y111 E0.022
G1 X131.568 Y111.659 E0.022
G1 X131.469 Y112.31 E0.022
G1 X131.307 Y112.947 E0.022
G1 X131.081 Y113.567 E0.022
G1 X130.796 Y114.159 E0.022
G1 X130.454 Y114.718 E0.022
G1 X130.056 Y115.245 E0.022
G1 X129.606 Y115.728 E0.022
G1 X129.116 Y116.161 E0.021
G1 X128.58 Y116.547 E0.022
G1 X128.008 Y116.876 E0.022
G1 X127.734 Y117 E0.01
G1 X128.011 Y117.125 E0.01
G1 X128.58 Y117.453 E0.022
G1 X129.116 Y117.839 E0.022
G1 X129.606 Y118.272 E0.022
G1 X130.056 Y118.755 E0.022
G1 X130.454 Y119.282 E0.022
G1 X130.796 Y119.841 E0.022
G1 X131.081 Y120.433 E0.022
G1 X131.307 Y121.053 E0.021
G1 X131.469 Y121.691 E0.022
G1 X131.568 Y122.341 E0.022
G1 X131.601 Y123 E0.022
G1 X131.568 Y123.659 E0.022
G1 X131.469 Y124.309 E0.022
G1 X131.307 Y124.947 E0.022
G1 X131.081 Y125.567 E0.022
G1 X130.796 Y126.159 E0.022
G1 X130.454 Y126.718 E0.022
G1 X130.056 Y127.245 E0.021
G1 X129.606 Y127.728 E0.022
G1 X129.116 Y128.161 E0.022
G1 X128.58 Y128.547 E0.022
G1 X128.008 Y128.876 E0.022
G1 X127.746 Y128.995 E0.01
G1 X128.304 Y129.282 E0.021
G1 X128.856 Y129.638 E0.021
G1 X129.37 Y130.048 E0.022
G1 X129.843 Y130.508 E0.022
G1 X130.266 Y131.013 E0.022
G1 X130.637 Y131.556 E0.022
G1 X130.952 Y132.136 E0.022
G1 X131.207 Y132.741 E0.022
G1 X131.401 Y133.369 E0.022
G1 X131.532 Y134.015 E0.022
G1 X131.598 Y134.67 E0.021
G1 Y135.33 E0.022
G1 X131.532 Y135.985 E0.022
G1 X131.401 Y136.631 E0.022
G1 X131.207 Y137.259 E0.022
G1 X130.952 Y137.864 E0.022
G1 X130.637 Y138.444 E0.022
G1 X130.266 Y138.987 E0.022
G1 X129.843 Y139.492 E0.022
G1 X129.37 Y139.952 E0.022
G1 X128.856 Y140.362 E0.021
G1 X128.304 Y140.718 E0.022
G1 X127.72 Y141.018 E0.022
G1 X127.106 Y141.259 E0.022
G1 X126.472 Y141.438 E0.022
G1 X125.823 Y141.552 E0.022
G1 X125.167 Y141.601 E0.022
G1 X124.508 Y141.585 E0.022
G1 X123.854 Y141.502 E0.022
G1 X123.213 Y141.356 E0.022
G1 X122.589 Y141.146 E0.021
G1 X121.992 Y140.876 E0.022
G1 X121.42 Y140.547 E0.022
G1 X120.884 Y140.161 E0.022
G1 X120.394 Y139.728 E0.022
G1 X119.944 Y139.245 E0.022
G1 X119.546 Y138.718 E0.022
G1 X119.204 Y138.159 E0.022
G1 X118.919 Y137.567 E0.021
G1 X118.693 Y136.947 E0.022
G1 X118.531 Y136.31 E0.022
G1 X118.432 Y135.659 E0.022
G1 X118.399 Y135 E0.022
G1 X118.432 Y134.341 E0.022
G1 X118.531 Y133.691 E0.022
G1 X118.693 Y133.053 E0.022
G1 X118.919 Y132.433 E0.022
G1 X119.204 Y131.841 E0.022
G1 X119.546 Y131.282 E0.021
G1 X119.944 Y130.755 E0.022
G1 X120.394 Y130.272 E0.022
G1 X120.884 Y129.839 E0.022
G1 X121.417 Y129.455 E0.022
G1 X121.989 Y129.124 E0.022
G1 X122.253 Y129.005 E0.01
G1 X121.696 Y128.718 E0.02
G1 X121.144 Y128.362 E0.022
G1 X120.63 Y127.952 E0.022
G1 X120.157 Y127.492 E0.022
G1 X119.734 Y126.987 E0.022
G1 X119.363 Y126.444 E0.022
G1 X119.048 Y125.864 E0.022
G1 X118.793 Y125.259 E0.022
G1 X118.599 Y124.631 E0.022
G1 X118.468 Y123.985 E0.021
G1 X118.402 Y123.33 E0.022
G1 Y122.67 E0.022
G1 X118.468 Y122.015 E0.022
G1 X118.599 Y121.369 E0.022
G1 X118.793 Y120.741 E0.022
G1 X119.048 Y120.136 E0.022
G1 X119.363 Y119.556 E0.022
G1 X119.734 Y119.013 E0.022
G1 X120.157 Y118.508 E0.022
G1 X120.63 Y118.048 E0.021
G1 X121.144 Y117.638 E0.022
G1 X121.696 Y117.282 E0.022
G1 X122.244 Y117 E0.021
G1 X121.696 Y116.718 E0.02
G1 X121.144 Y116.362 E0.022
G1 X120.63 Y115.952 E0.022
G1 X120.157 Y115.492 E0.022
G1 X119.734 Y114.987 E0.022
G1 X119.363 Y114.444 E0.022
G1 X119.048 Y113.864 E0.022
G1 X118.793 Y113.259 E0.021
G1 X118.599 Y112.631 E0.022
G1 X118.468 Y111.985 E0.022
G1 X118.402 Y111.33 E0.022
G1 Y110.67 E0.022
G1 X118.468 Y110.015 E0.022
G1 X118.599 Y109.369 E0.022
G1 X118.793 Y108.741 E0.022
G1 X119.048 Y108.136 E0.022
G1 X119.363 Y107.556 E0.022
G1 X119.734 Y107.013 E0.021
G1 X120.157 Y106.508 E0.022
G1 X120.63 Y106.048 E0.022
G1 X121.144 Y105.638 E0.022
G1 X121.696 Y105.282 E0.022
G1 X122.254 Y104.995 E0.021
G1 X121.992 Y104.876 E0.009
G1 X121.42 Y104.547 E0.022
G1 X120.884 Y104.161 E0.022
G1 X120.394 Y103.728 E0.022
G1 X119.944 Y103.245 E0.022
G1 X119.546 Y102.718 E0.022
G1 X119.204 Y102.159 E0.022
G1 X118.919 Y101.567 E0.022
G1 X118.693 Y100.947 E0.022
G1 X118.531 Y100.309 E0.022
G1 X118.432 Y99.659 E0.021
G1 X118.399 Y99 E0.022
G1 X118.432 Y98.341 E0.022
G1 X118.531 Y97.691 E0.022
G1 X118.693 Y97.053 E0.022
G1 X118.919 Y96.433 E0.022
G1 X119.204 Y95.841 E0.022
G1 X119.546 Y95.282 E0.022
G1 X119.944 Y94.755 E0.022
G1 X120.394 Y94.272 E0.022
G1 X120.884 Y93.839 E0.021
G1 X121.42 Y93.453 E0.022
G1 X121.989 Y93.125 E0.022
G1 X122.265 Y93 E0.01
G1 X121.989 Y92.875 E0.01
G1 X121.42 Y92.547 E0.022
G1 X120.884 Y92.161 E0.022
G1 X120.394 Y91.728 E0.022
G1 X119.944 Y91.245 E0.022
G1 X119.546 Y90.718 E0.022
G1 X119.204 Y90.159 E0.022
G1 X118.919 Y89.567 E0.021
G1 X118.693 Y88.947 E0.022
G1 X118.531 Y88.309 E0.022
G1 X118.432 Y87.659 E0.022
G1 X118.399 Y87 E0.022
G1 X118.432 Y86.341 E0.022
G1 X118.531 Y85.691 E0.022
G1 X118.693 Y85.053 E0.022
G1 X118.919 Y84.433 E0.022
G1 X119.204 Y83.841 E0.022
G1 X119.546 Y83.282 E0.021
G1 X119.944 Y82.755 E0.022
G1 X120.394 Y82.272 E0.022
G1 X120.884 Y81.839 E0.022
G1 X121.42 Y81.453 E0.022
G1 X121.992 Y81.124 E0.022
G1 X122.266 Y81 E0.01
G1 X121.992 Y80.876 E0.01
G1 X121.42 Y80.547 E0.022
G1 X120.884 Y80.161 E0.022
G1 X120.394 Y79.728 E0.022
G1 X119.944 Y79.245 E0.022
G1 X119.546 Y78.718 E0.022
G1 X119.204 Y78.159 E0.021
G1 X118.919 Y77.567 E0.022
G1 X118.693 Y76.947 E0.022
G1 X118.531 Y76.309 E0.022
G1 X118.432 Y75.659 E0.022
G1 X118.399 Y75 E0.022
G1 X118.432 Y74.341 E0.022
G1 X118.531 Y73.691 E0.022
G1 X118.693 Y73.053 E0.022
G1 X118.919 Y72.433 E0.022
G1 X119.204 Y71.841 E0.021
G1 X119.546 Y71.282 E0.022
G1 X119.944 Y70.755 E0.022
G1 X120.394 Y70.272 E0.022
G1 X120.884 Y69.839 E0.022
G1 X121.42 Y69.453 E0.022
G1 X121.989 Y69.125 E0.022
G1 X122.589 Y68.853 E0.022
G1 X123.216 Y68.644 E0.022
G1 X123.854 Y68.498 E0.021
G1 X124.508 Y68.415 E0.022
;rapid-leaky
G0 X124.538 Y68.814 F7200
;bead-skirt/brim
G1 X125.157 Y68.799 F960 E0.021
G1 X125.774 Y68.845 E0.02
G1 X126.383 Y68.952 E0.021
G1 X126.978 Y69.12 E0.021
G1 X127.555 Y69.347 E0.02
G1 X128.104 Y69.629 E0.021
G1 X128.623 Y69.963 E0.02
G1 X129.105 Y70.349 E0.021
G1 X129.55 Y70.78 E0.02
G1 X129.947 Y71.255 E0.021
G1 X130.296 Y71.765 E0.021
G1 X130.591 Y72.31 E0.02
G1 X130.83 Y72.878 E0.021
G1 X131.013 Y73.468 E0.02
G1 X131.136 Y74.075 E0.021
G1 X131.198 Y74.69 E0.02
G1 Y75.31 E0.021
G1 X131.136 Y75.925 E0.021
G1 X131.013 Y76.532 E0.02
G1 X130.83 Y77.122 E0.021
G1 X130.591 Y77.69 E0.02
G1 X130.296 Y78.235 E0.021
G1 X129.947 Y78.745 E0.02
G1 X129.55 Y79.22 E0.021
G1 X129.105 Y79.651 E0.021
G1 X128.623 Y80.037 E0.02
G1 X128.104 Y80.371 E0.021
G1 X127.555 Y80.653 E0.02
G1 X126.978 Y80.88 E0.021
G1 X126.552 Y81 E0.014
G1 X126.978 Y81.12 E0.015
G1 X127.555 Y81.347 E0.021
G1 X128.104 Y81.629 E0.02
G1 X128.622 Y81.963 E0.021
G1 X129.105 Y82.349 E0.02
G1 X129.55 Y82.78 E0.021
G1 X129.947 Y83.255 E0.021
G1 X130.296 Y83.765 E0.02
G1 X130.591 Y84.31 E0.021
G1 X130.83 Y84.878 E0.02
G1 X131.013 Y85.468 E0.021
G1 X131.136 Y86.075 E0.02
G1 X131.198 Y86.69 E0.021
G1 Y87.31 E0.021
G1 X131.136 Y87.925 E0.02
G1 X131.013 Y88.532 E0.021
G1 X130.83 Y89.122 E0.02
G1 X130.591 Y89.69 E0.021
G1 X130.296 Y90.235 E0.02
G1 X129.947 Y90.745 E0.021
G1 X129.55 Y91.22 E0.021
G1 X129.099 Y91.658 E0.02
G1 X128.582 Y92.063 E0.022
G1 X128.103 Y92.372 E0.019
G1 X127.555 Y92.653 E0.021
G1 X126.978 Y92.88 E0.02
G1 X126.552 Y93 E0.015
G1 X126.978 Y93.12 E0.015
G1 X127.555 Y93.347 E0.02
G1 X128.104 Y93.629 E0.021
G1 X128.623 Y93.963 E0.02
G1 X129.105 Y94.349 E0.021
G1 X129.55 Y94.78 E0.021
G1 X129.947 Y95.255 E0.02
G1 X130.301 Y95.773 E0.021
G1 X130.61 Y96.354 E0.022
G1 X130.831 Y96.878 E0.019
G1 X131.013 Y97.468 E0.02
G1 X131.136 Y98.075 E0.021
G1 X131.198 Y98.69 E0.021
G1 Y99.31 E0.02
G1 X131.136 Y99.925 E0.021
G1 X131.013 Y100.532 E0.02
G1 X130.83 Y101.122 E0.021
G1 X130.591 Y101.69 E0.02
G1 X130.296 Y102.235 E0.021
G1 X129.947 Y102.745 E0.021
G1 X129.55 Y103.22 E0.02
G1 X129.105 Y103.651 E0.021
G1 X128.623 Y104.037 E0.02
G1 X128.104 Y104.371 E0.021
G1 X127.555 Y104.653 E0.02
G1 X126.978 Y104.88 E0.021
G1 X126.55 Y105 E0.015
G1 X126.676 Y105.029 E0.004
G1 X127.264 Y105.225 E0.021
G1 X127.828 Y105.482 E0.02
G1 X128.363 Y105.79 E0.021
G1 X128.866 Y106.152 E0.02
G1 X129.327 Y106.559 E0.021
G1 X129.749 Y107.013 E0.021
G1 X130.123 Y107.507 E0.02
G1 X130.444 Y108.033 E0.021
G1 X130.712 Y108.589 E0.02
G1 X130.925 Y109.171 E0.021
G1 X131.077 Y109.77 E0.02
G1 X131.17 Y110.381 E0.021
G1 X131.201 Y111 E0.02
G1 X131.17 Y111.619 E0.021
G1 X131.077 Y112.23 E0.021
G1 X130.925 Y112.829 E0.02
G1 X130.712 Y113.411 E0.021
G1 X130.444 Y113.967 E0.02
G1 X130.123 Y114.493 E0.021
G1 X129.749 Y114.987 E0.02
G1 X129.327 Y115.441 E0.021
G1 X128.866 Y115.848 E0.021
G1 X128.363 Y116.211 E0.02
G1 X127.826 Y116.52 E0.021
G1 X127.264 Y116.773 E0.02
G1 X126.678 Y116.97 E0.021
G1 X126.548 Y117 E0.004
G1 X126.676 Y117.029 E0.005
G1 X127.264 Y117.225 E0.02
G1 X127.828 Y117.482 E0.021
G1 X128.363 Y117.789 E0.02
G1 X128.866 Y118.152 E0.021
G1 X129.327 Y118.559 E0.02
G1 X129.749 Y119.013 E0.021
G1 X130.123 Y119.507 E0.021
G1 X130.444 Y120.033 E0.02
G1 X130.712 Y120.589 E0.021
G1 X130.925 Y121.171 E0.02
G1 X131.077 Y121.77 E0.021
G1 X131.17 Y122.381 E0.02
G1 X131.201 Y123 E0.021
G1 X131.17 Y123.619 E0.021
G1 X131.077 Y124.23 E0.02
G1 X130.925 Y124.829 E0.021
G1 X130.712 Y125.411 E0.02
G1 X130.444 Y125.967 E0.021
G1 X130.123 Y126.493 E0.02
G1 X129.749 Y126.987 E0.021
G1 X129.327 Y127.441 E0.021
G1 X128.866 Y127.848 E0.02
G1 X128.363 Y128.211 E0.021
G1 X127.826 Y128.52 E0.02
G1 X127.264 Y128.773 E0.021
G1 X126.678 Y128.97 E0.02
G1 X126.55 Y129 E0.005
G1 X126.978 Y129.12 E0.015
G1 X127.555 Y129.347 E0.02
G1 X128.104 Y129.629 E0.021
G1 X128.623 Y129.963 E0.02
G1 X129.105 Y130.349 E0.021
G1 X129.55 Y130.78 E0.02
G1 X129.947 Y131.255 E0.021
G1 X130.296 Y131.765 E0.02
G1 X130.591 Y132.31 E0.021
G1 X130.83 Y132.878 E0.021
G1 X131.013 Y133.468 E0.02
G1 X131.136 Y134.075 E0.021
G1 X131.198 Y134.69 E0.02
G1 Y135.31 E0.021
G1 X131.136 Y135.925 E0.02
G1 X131.013 Y136.532 E0.021
G1 X130.831 Y137.122 E0.021
G1 X130.591 Y137.69 E0.02
G1 X130.296 Y138.235 E0.021
G1 X129.947 Y138.745 E0.02
G1 X129.55 Y139.22 E0.021
G1 X129.105 Y139.651 E0.02
G1 X128.623 Y140.037 E0.021
G1 X128.104 Y140.371 E0.021
G1 X127.555 Y140.653 E0.02
G1 X126.978 Y140.88 E0.021
G1 X126.383 Y141.048 E0.02
G1 X125.774 Y141.155 E0.021
G1 X125.157 Y141.201 E0.02
G1 X124.538 Y141.186 E0.021
G1 X123.924 Y141.108 E0.021
G1 X123.322 Y140.97 E0.02
G1 X122.736 Y140.773 E0.021
G1 X122.174 Y140.52 E0.02
G1 X121.637 Y140.211 E0.021
G1 X121.134 Y139.848 E0.02
G1 X120.673 Y139.441 E0.021
G1 X120.251 Y138.987 E0.02
G1 X119.877 Y138.493 E0.021
G1 X119.556 Y137.967 E0.021
G1 X119.288 Y137.411 E0.02
G1 X119.075 Y136.829 E0.021
G1 X118.923 Y136.23 E0.02
G1 X118.83 Y135.619 E0.021
G1 X118.799 Y135 E0.02
G1 X118.83 Y134.381 E0.021
G1 X118.923 Y133.77 E0.021
G1 X119.075 Y133.171 E0.02
G1 X119.288 Y132.589 E0.021
G1 X119.556 Y132.033 E0.02
G1 X119.877 Y131.507 E0.021
G1 X120.251 Y131.013 E0.02
G1 X120.673 Y130.559 E0.021
G1 X121.134 Y130.152 E0.02
G1 X121.635 Y129.791 E0.021
G1 X122.172 Y129.48 E0.021
G1 X122.738 Y129.225 E0.02
G1 X123.324 Y129.029 E0.021
G1 X123.45 Y129.001 E0.004
G1 X123.022 Y128.88 E0.015
G1 X122.445 Y128.653 E0.021
G1 X121.896 Y128.371 E0.02
G1 X121.378 Y128.037 E0.021
G1 X120.895 Y127.651 E0.02
G1 X120.45 Y127.22 E0.021
G1 X120.053 Y126.745 E0.02
G1 X119.704 Y126.235 E0.021
G1 X119.409 Y125.69 E0.021
G1 X119.17 Y125.122 E0.02
G1 X118.987 Y124.532 E0.021
G1 X118.864 Y123.925 E0.02
G1 X118.802 Y123.31 E0.021
G1 Y122.69 E0.02
G1 X118.864 Y122.075 E0.021
G1 X118.987 Y121.468 E0.02
G1 X119.17 Y120.878 E0.021
G1 X119.409 Y120.31 E0.021
G1 X119.704 Y119.765 E0.02
G1 X120.053 Y119.255 E0.021
G1 X120.45 Y118.78 E0.02
G1 X120.895 Y118.349 E0.021
G1 X121.377 Y117.963 E0.02
G1 X121.896 Y117.629 E0.021
G1 X122.445 Y117.347 E0.02
G1 X123.022 Y117.12 E0.021
G1 X123.448 Y117 E0.015
G1 X123.022 Y116.88 E0.015
G1 X122.445 Y116.653 E0.02
G1 X121.896 Y116.371 E0.021
G1 X121.378 Y116.037 E0.02
G1 X120.895 Y115.651 E0.021
G1 X120.45 Y115.22 E0.02
G1 X120.053 Y114.745 E0.021
G1 X119.704 Y114.235 E0.021
G1 X119.409 Y113.69 E0.02
G1 X119.17 Y113.122 E0.021
G1 X118.987 Y112.532 E0.02
G1 X118.864 Y111.925 E0.021
G1 X118.802 Y111.31 E0.02
G1 Y110.69 E0.021
G1 X118.864 Y110.075 E0.021
G1 X118.987 Y109.468 E0.02
G1 X119.17 Y108.878 E0.021
G1 X119.409 Y108.31 E0.02
G1 X119.704 Y107.765 E0.021
G1 X120.053 Y107.255 E0.02
G1 X120.45 Y106.78 E0.021
G1 X120.895 Y106.349 E0.021
G1 X121.377 Y105.963 E0.02
G1 X121.896 Y105.629 E0.021
G1 X122.445 Y105.347 E0.02
G1 X123.022 Y105.12 E0.021
G1 X123.45 Y105 E0.015
G1 X123.322 Y104.97 E0.004
G1 X122.736 Y104.773 E0.02
G1 X122.174 Y104.52 E0.021
G1 X121.637 Y104.211 E0.021
G1 X121.134 Y103.848 E0.02
G1 X120.673 Y103.441 E0.021
G1 X120.251 Y102.987 E0.02
G1 X119.877 Y102.493 E0.021
G1 X119.556 Y101.967 E0.02
G1 X119.288 Y101.411 E0.021
G1 X119.075 Y100.829 E0.021
G1 X118.923 Y100.23 E0.02
G1 X118.83 Y99.619 E0.021
G1 X118.799 Y99 E0.02
G1 X118.83 Y98.381 E0.021
G1 X118.923 Y97.77 E0.02
G1 X119.075 Y97.171 E0.021
G1 X119.288 Y96.589 E0.021
G1 X119.556 Y96.033 E0.02
G1 X119.877 Y95.507 E0.021
G1 X120.251 Y95.013 E0.02
G1 X120.673 Y94.559 E0.021
G1 X121.134 Y94.152 E0.02
G1 X121.637 Y93.789 E0.021
G1 X122.172 Y93.482 E0.02
G1 X122.736 Y93.225 E0.021
G1 X123.324 Y93.029 E0.021
G1 X123.452 Y93 E0.004
G1 X123.324 Y92.971 E0.004
G1 X122.736 Y92.775 E0.021
G1 X122.172 Y92.518 E0.021
G1 X121.637 Y92.211 E0.02
G1 X121.134 Y91.848 E0.021
G1 X120.673 Y91.441 E0.02
G1 X120.251 Y90.987 E0.021
G1 X119.877 Y90.493 E0.02
G1 X119.556 Y89.967 E0.021
G1 X119.288 Y89.411 E0.02
G1 X119.075 Y88.829 E0.021
G1 X118.923 Y88.23 E0.021
G1 X118.83 Y87.619 E0.02
G1 X118.799 Y87 E0.021
G1 X118.83 Y86.381 E0.02
G1 X118.923 Y85.77 E0.021
G1 X119.075 Y85.171 E0.02
G1 X119.288 Y84.589 E0.021
G1 X119.556 Y84.033 E0.021
G1 X119.877 Y83.507 E0.02
G1 X120.251 Y83.013 E0.021
G1 X120.673 Y82.559 E0.02
G1 X121.134 Y82.152 E0.021
G1 X121.637 Y81.789 E0.02
G1 X122.174 Y81.48 E0.021
G1 X122.736 Y81.227 E0.021
G1 X123.322 Y81.03 E0.02
G1 X123.452 Y81 E0.005
G1 X123.322 Y80.97 E0.004
G1 X122.736 Y80.773 E0.021
G1 X122.174 Y80.52 E0.02
G1 X121.637 Y80.211 E0.021
G1 X121.134 Y79.848 E0.02
G1 X120.673 Y79.441 E0.021
G1 X120.251 Y78.987 E0.02
G1 X119.877 Y78.493 E0.021
G1 X119.556 Y77.967 E0.02
G1 X119.288 Y77.411 E0.021
G1 X119.075 Y76.829 E0.021
G1 X118.923 Y76.23 E0.02
G1 X118.83 Y75.619 E0.021
G1 X118.799 Y75 E0.02
G1 X118.83 Y74.381 E0.021
G1 X118.923 Y73.77 E0.02
G1 X119.075 Y73.171 E0.021
G1 X119.288 Y72.589 E0.021
G1 X119.556 Y72.033 E0.02
G1 X119.877 Y71.507 E0.021
G1 X120.251 Y71.013 E0.02
G1 X120.673 Y70.559 E0.021
G1 X121.134 Y70.152 E0.02
G1 X121.637 Y69.789 E0.021
G1 X122.172 Y69.482 E0.021
G1 X122.736 Y69.225 E0.02
G1 X123.324 Y69.029 E0.021
G1 X123.924 Y68.892 E0.02
G1 X124.538 Y68.814 E0.021
;rapid-leaky
G0 X124.568 Y69.214 F7200
;bead-skirt/brim
G1 X125.147 Y69.199 F960 E0.019
G1 X125.724 Y69.243 E0.019
G1 X126.294 Y69.343 E0.02
G1 X126.85 Y69.5 E0.019
G1 X127.39 Y69.712 E0.019
G1 X127.903 Y69.975 E0.019
G1 X128.389 Y70.288 E0.019
G1 X128.841 Y70.649 E0.02
G1 X129.256 Y71.053 E0.019
G1 X129.628 Y71.497 E0.019
G1 X129.954 Y71.974 E0.019
G1 X130.23 Y72.483 E0.02
G1 X130.454 Y73.015 E0.019
G1 X130.625 Y73.567 E0.019
G1 X130.74 Y74.135 E0.019
G1 X130.798 Y74.711 E0.02
G1 Y75.289 E0.019
G1 X130.74 Y75.865 E0.019
G1 X130.625 Y76.433 E0.019
G1 X130.454 Y76.985 E0.02
G1 X130.23 Y77.517 E0.019
G1 X129.954 Y78.026 E0.019
G1 X129.628 Y78.503 E0.019
G1 X129.256 Y78.947 E0.02
G1 X128.841 Y79.351 E0.019
G1 X128.389 Y79.712 E0.019
G1 X127.903 Y80.025 E0.019
G1 X127.39 Y80.288 E0.019
G1 X126.85 Y80.5 E0.02
G1 X126.294 Y80.657 E0.019
G1 X125.724 Y80.757 E0.019
G1 X125.147 Y80.801 E0.019
G1 X124.568 Y80.786 E0.02
G1 X123.994 Y80.714 E0.019
G1 X123.43 Y80.585 E0.019
G1 X122.882 Y80.401 E0.019
G1 X122.357 Y80.163 E0.02
G1 X121.854 Y79.874 E0.019
G1 X121.384 Y79.535 E0.019
G1 X120.953 Y79.154 E0.019
G1 X120.557 Y78.73 E0.02
G1 X120.208 Y78.267 E0.019
G1 X119.908 Y77.776 E0.019
G1 X119.657 Y77.255 E0.019
G1 X119.458 Y76.711 E0.02
G1 X119.316 Y76.151 E0.019
G1 X119.229 Y75.579 E0.019
G1 X119.2 Y75 E0.019
G1 X119.229 Y74.421 E0.02
G1 X119.316 Y73.85 E0.019
G1 X119.458 Y73.289 E0.019
G1 X119.657 Y72.745 E0.019
G1 X119.908 Y72.224 E0.019
G1 X120.208 Y71.733 E0.02
G1 X120.557 Y71.27 E0.019
G1 X120.953 Y70.846 E0.019
G1 X121.384 Y70.465 E0.019
G1 X121.854 Y70.126 E0.02
G1 X122.355 Y69.838 E0.019
G1 X122.882 Y69.598 E0.019
G1 X123.433 Y69.415 E0.019
G1 X123.994 Y69.286 E0.02
G1 X124.568 Y69.214 E0.019
;rapid-leaky
G0 X124.598 Y69.613 F7200
;bead-skirt/brim
G1 X125.137 Y69.6 F960 E0.018
G1 X125.674 Y69.64 E0.018
G1 X126.205 Y69.733 E0.018
G1 X126.723 Y69.879 E0.017
G1 X127.225 Y70.077 E0.018
G1 X127.703 Y70.322 E0.018
G1 X128.155 Y70.614 E0.018
G1 X128.576 Y70.949 E0.018
G1 X128.963 Y71.325 E0.018
G1 X129.308 Y71.739 E0.018
G1 X129.612 Y72.183 E0.018
G1 X129.869 Y72.657 E0.018
G1 X130.078 Y73.152 E0.018
G1 X130.237 Y73.666 E0.018
G1 X130.344 Y74.195 E0.017
G1 X130.398 Y74.731 E0.018
G1 Y75.269 E0.018
G1 X130.344 Y75.805 E0.018
G1 X130.237 Y76.334 E0.018
G1 X130.078 Y76.848 E0.018
G1 X129.869 Y77.343 E0.018
G1 X129.612 Y77.817 E0.018
G1 X129.308 Y78.261 E0.018
G1 X128.963 Y78.675 E0.018
G1 X128.576 Y79.051 E0.018
G1 X128.155 Y79.386 E0.018
G1 X127.703 Y79.678 E0.017
G1 X127.225 Y79.923 E0.018
G1 X126.723 Y80.121 E0.018
G1 X126.205 Y80.267 E0.018
G1 X125.674 Y80.36 E0.018
G1 X125.137 Y80.4 E0.018
G1 X124.598 Y80.387 E0.018
G1 X124.064 Y80.319 E0.018
G1 X123.539 Y80.199 E0.018
G1 X123.029 Y80.028 E0.018
G1 X122.539 Y79.807 E0.018
G1 X122.071 Y79.538 E0.017
G1 X121.634 Y79.222 E0.018
G1 X121.232 Y78.867 E0.018
G1 X120.864 Y78.472 E0.018
G1 X120.539 Y78.042 E0.018
G1 X120.259 Y77.584 E0.018
G1 X120.026 Y77.099 E0.018
G1 X119.841 Y76.593 E0.018
G1 X119.708 Y76.071 E0.018
G1 X119.627 Y75.539 E0.018
G1 X119.6 Y75 E0.018
G1 X119.627 Y74.461 E0.018
G1 X119.708 Y73.929 E0.017
G1 X119.841 Y73.407 E0.018
G1 X120.026 Y72.901 E0.018
G1 X120.259 Y72.416 E0.018
G1 X120.539 Y71.958 E0.018
G1 X120.864 Y71.528 E0.018
G1 X121.232 Y71.133 E0.018
G1 X121.634 Y70.778 E0.018
G1 X122.071 Y70.462 E0.018
G1 X122.538 Y70.194 E0.018
G1 X123.029 Y69.971 E0.017
G1 X123.541 Y69.8 E0.018
G1 X124.064 Y69.681 E0.018
G1 X124.598 Y69.613 E0.018
;rapid-leaky
G0 X124.629 Y70.013 F7200
;bead-skirt/brim
G1 X125.127 Y70 F960 E0.017
G1 X125.624 Y70.038 E0.016
G1 X126.116 Y70.124 E0.017
G1 X126.595 Y70.259 E0.017
G1 X127.06 Y70.442 E0.016
G1 X127.503 Y70.669 E0.017
G1 X127.921 Y70.939 E0.016
G1 X128.311 Y71.25 E0.017
G1 X128.669 Y71.598 E0.016
G1 X128.989 Y71.981 E0.017
G1 X129.27 Y72.392 E0.017
G1 X129.508 Y72.83 E0.016
G1 X129.702 Y73.289 E0.017
G1 X129.849 Y73.765 E0.016
G1 X129.948 Y74.254 E0.017
G1 X129.998 Y74.751 E0.017
G1 Y75.249 E0.016
G1 X129.948 Y75.746 E0.017
G1 X129.849 Y76.235 E0.016
G1 X129.702 Y76.711 E0.017
G1 X129.508 Y77.17 E0.016
G1 X129.27 Y77.608 E0.017
G1 X128.989 Y78.019 E0.017
G1 X128.669 Y78.402 E0.016
G1 X128.311 Y78.75 E0.017
G1 X127.921 Y79.061 E0.016
G1 X127.503 Y79.331 E0.017
G1 X127.06 Y79.558 E0.017
G1 X126.595 Y79.741 E0.016
G1 X126.116 Y79.876 E0.017
G1 X125.624 Y79.962 E0.016
G1 X125.127 Y80 E0.017
G1 X124.629 Y79.987 E0.016
G1 X124.133 Y79.925 E0.017
G1 X123.648 Y79.814 E0.017
G1 X123.175 Y79.655 E0.016
G1 X122.722 Y79.45 E0.017
G1 X122.289 Y79.201 E0.016
G1 X121.884 Y78.909 E0.017
G1 X121.512 Y78.58 E0.017
G1 X121.171 Y78.215 E0.016
G1 X120.87 Y77.816 E0.017
G1 X120.611 Y77.392 E0.016
G1 X120.395 Y76.944 E0.017
G1 X120.223 Y76.474 E0.016
G1 X120.101 Y75.992 E0.017
G1 X120.026 Y75.498 E0.017
G1 X120.001 Y75 E0.016
G1 X120.026 Y74.502 E0.017
G1 X120.101 Y74.008 E0.016
G1 X120.223 Y73.526 E0.017
G1 X120.395 Y73.056 E0.017
G1 X120.611 Y72.608 E0.016
G1 X120.87 Y72.184 E0.017
G1 X121.171 Y71.785 E0.016
G1 X121.512 Y71.42 E0.017
G1 X121.884 Y71.091 E0.016
G1 X122.289 Y70.799 E0.017
G1 X122.721 Y70.55 E0.017
G1 X123.175 Y70.344 E0.016
G1 X123.649 Y70.186 E0.017
G1 X124.133 Y70.075 E0.016
G1 X124.629 Y70.013 E0.017
;rapid-leaky
G0 X124.659 Y70.412 F7200
;bead-skirt/brim
G1 X125.117 Y70.4 F960 E0.015
G1 X125.575 Y70.435 E0.015
G1 X126.027 Y70.514 E0.016
G1 X126.467 Y70.639 E0.015
G1 X126.895 Y70.807 E0.015
G1 X127.302 Y71.016 E0.015
G1 X127.688 Y71.264 E0.016
G1 X128.046 Y71.55 E0.015
G1 X128.375 Y71.87 E0.015
G1 X128.67 Y72.222 E0.015
G1 X128.929 Y72.601 E0.016
G1 X129.147 Y73.004 E0.015
G1 X129.325 Y73.426 E0.015
G1 X129.461 Y73.864 E0.015
G1 X129.552 Y74.314 E0.016
G1 X129.598 Y74.771 E0.015
G1 Y75.229 E0.015
G1 X129.552 Y75.686 E0.016
G1 X129.461 Y76.136 E0.015
G1 X129.325 Y76.574 E0.015
G1 X129.147 Y76.996 E0.015
G1 X128.929 Y77.399 E0.016
G1 X128.67 Y77.778 E0.015
G1 X128.375 Y78.13 E0.015
G1 X128.046 Y78.45 E0.015
G1 X127.688 Y78.736 E0.016
G1 X127.302 Y78.984 E0.015
G1 X126.895 Y79.193 E0.015
G1 X126.467 Y79.361 E0.015
G1 X126.027 Y79.486 E0.016
G1 X125.575 Y79.565 E0.015
G1 X125.117 Y79.6 E0.015
G1 X124.659 Y79.588 E0.015
G1 X124.203 Y79.531 E0.016
G1 X123.756 Y79.428 E0.015
G1 X123.321 Y79.282 E0.015
G1 X122.904 Y79.094 E0.015
G1 X122.506 Y78.865 E0.016
G1 X122.134 Y78.596 E0.015
G1 X121.791 Y78.293 E0.015
G1 X121.478 Y77.957 E0.015
G1 X121.201 Y77.591 E0.016
G1 X120.963 Y77.201 E0.015
G1 X120.764 Y76.788 E0.015
G1 X120.606 Y76.356 E0.015
G1 X120.493 Y75.912 E0.016
G1 X120.424 Y75.458 E0.015
G1 X120.401 Y75 E0.015
G1 X120.424 Y74.542 E0.015
G1 X120.493 Y74.088 E0.016
G1 X120.606 Y73.644 E0.015
G1 X120.764 Y73.212 E0.015
G1 X120.963 Y72.8 E0.015
G1 X121.201 Y72.409 E0.016
G1 X121.478 Y72.043 E0.015
G1 X121.791 Y71.707 E0.015
G1 X122.134 Y71.404 E0.015
G1 X122.506 Y71.135 E0.016
G1 X122.904 Y70.907 E0.015
G1 X123.321 Y70.717 E0.015
G1 X123.757 Y70.572 E0.015
G1 X124.203 Y70.469 E0.016
G1 X124.659 Y70.412 E0.015
;rapid-leaky
G0 X124.689 Y70.811 F7200
;bead-skirt/brim
G1 X125.107 Y70.801 F960 E0.014
G1 X125.525 Y70.832 E0.014
G1 X125.938 Y70.905 E0.014
G1 X126.34 Y71.018 E0.014
G1 X126.73 Y71.172 E0.014
G1 X127.102 Y71.363 E0.014
G1 X127.454 Y71.589 E0.013
G1 X127.781 Y71.851 E0.014
G1 X128.082 Y72.143 E0.014
G1 X128.351 Y72.464 E0.014
G1 X128.587 Y72.81 E0.014
G1 X128.786 Y73.177 E0.014
G1 X128.949 Y73.563 E0.014
G1 X129.073 Y73.964 E0.014
G1 X129.156 Y74.374 E0.014
G1 X129.198 Y74.791 E0.014
G1 Y75.209 E0.014
G1 X129.156 Y75.626 E0.014
G1 X129.073 Y76.037 E0.014
G1 X128.949 Y76.437 E0.014
G1 X128.786 Y76.823 E0.013
G1 X128.587 Y77.19 E0.014
G1 X128.351 Y77.536 E0.014
G1 X128.082 Y77.857 E0.014
G1 X127.781 Y78.149 E0.014
G1 X127.454 Y78.411 E0.014
G1 X127.102 Y78.637 E0.014
G1 X126.73 Y78.828 E0.014
G1 X126.34 Y78.982 E0.014
G1 X125.938 Y79.095 E0.014
G1 X125.525 Y79.168 E0.014
G1 X125.107 Y79.199 E0.014
G1 X124.689 Y79.189 E0.014
G1 X124.273 Y79.136 E0.014
G1 X123.865 Y79.043 E0.013
G1 X123.468 Y78.909 E0.014
G1 X123.087 Y78.737 E0.014
G1 X122.723 Y78.528 E0.014
G1 X122.384 Y78.283 E0.014
G1 X122.07 Y78.006 E0.014
G1 X121.785 Y77.7 E0.014
G1 X121.533 Y77.366 E0.014
G1 X121.314 Y77.009 E0.014
G1 X121.133 Y76.632 E0.014
G1 X120.989 Y76.238 E0.014
G1 X120.886 Y75.833 E0.014
G1 X120.823 Y75.418 E0.014
G1 X120.802 Y75 E0.013
G1 X120.823 Y74.582 E0.014
G1 X120.886 Y74.167 E0.014
G1 X120.989 Y73.762 E0.014
G1 X121.133 Y73.368 E0.014
G1 X121.314 Y72.991 E0.014
G1 X121.533 Y72.634 E0.014
G1 X121.785 Y72.3 E0.014
G1 X122.07 Y71.994 E0.014
G1 X122.384 Y71.717 E0.014
G1 X122.723 Y71.472 E0.014
G1 X123.087 Y71.263 E0.014
G1 X123.468 Y71.09 E0.014
G1 X123.865 Y70.957 E0.014
G1 X124.273 Y70.864 E0.013
G1 X124.689 Y70.811 E0.014
;rapid-leaky
G0 X125.147 Y81.199 F7200
;bead-skirt/brim
G1 X125.724 Y81.243 F960 E0.02
G1 X126.294 Y81.343 E0.019
G1 X126.85 Y81.5 E0.019
G1 X127.39 Y81.712 E0.019
G1 X127.903 Y81.975 E0.02
G1 X128.389 Y82.288 E0.019
G1 X128.841 Y82.649 E0.019
G1 X129.256 Y83.053 E0.019
G1 X129.628 Y83.497 E0.02
G1 X129.954 Y83.974 E0.019
G1 X130.23 Y84.483 E0.019
G1 X130.454 Y85.015 E0.019
G1 X130.625 Y85.567 E0.019
G1 X130.74 Y86.135 E0.02
G1 X130.798 Y86.711 E0.019
G1 Y87.289 E0.019
G1 X130.74 Y87.865 E0.019
G1 X130.625 Y88.433 E0.02
G1 X130.454 Y88.985 E0.019
G1 X130.23 Y89.517 E0.019
G1 X129.954 Y90.026 E0.019
G1 X129.628 Y90.503 E0.02
G1 X129.256 Y90.947 E0.019
G1 X128.835 Y91.356 E0.019
G1 X128.35 Y91.737 E0.021
G1 X127.903 Y92.025 E0.018
G1 X127.39 Y92.288 E0.019
G1 X126.85 Y92.5 E0.019
G1 X126.294 Y92.657 E0.019
G1 X125.724 Y92.757 E0.02
G1 X125.147 Y92.801 E0.019
G1 X124.568 Y92.786 E0.019
G1 X123.994 Y92.714 E0.019
G1 X123.433 Y92.585 E0.019
G1 X122.882 Y92.402 E0.02
G1 X122.355 Y92.162 E0.019
G1 X121.854 Y91.874 E0.019
G1 X121.384 Y91.535 E0.02
G1 X120.953 Y91.154 E0.019
G1 X120.557 Y90.73 E0.019
G1 X120.208 Y90.267 E0.019
G1 X119.908 Y89.776 E0.019
G1 X119.657 Y89.255 E0.02
G1 X119.458 Y88.711 E0.019
G1 X119.316 Y88.151 E0.019
G1 X119.229 Y87.579 E0.019
G1 X119.2 Y87 E0.02
G1 X119.229 Y86.421 E0.019
G1 X119.316 Y85.85 E0.019
G1 X119.458 Y85.289 E0.019
G1 X119.657 Y84.745 E0.02
G1 X119.908 Y84.224 E0.019
G1 X120.208 Y83.733 E0.019
G1 X120.557 Y83.27 E0.019
G1 X120.953 Y82.846 E0.02
G1 X121.384 Y82.465 E0.019
G1 X121.854 Y82.126 E0.019
G1 X122.357 Y81.837 E0.019
G1 X122.882 Y81.599 E0.019
G1 X123.43 Y81.415 E0.02
G1 X123.994 Y81.286 E0.019
G1 X124.568 Y81.214 E0.019
G1 X125.147 Y81.199 E0.019
;rapid-leaky
G0 X125.137 Y81.6 F7200
;bead-skirt/brim
G1 X125.674 Y81.64 F960 E0.018
G1 X126.205 Y81.733 E0.018
G1 X126.723 Y81.879 E0.018
G1 X127.225 Y82.077 E0.018
G1 X127.703 Y82.322 E0.018
G1 X128.155 Y82.614 E0.018
G1 X128.576 Y82.949 E0.018
G1 X128.963 Y83.325 E0.018
G1 X129.308 Y83.739 E0.018
G1 X129.612 Y84.183 E0.018
G1 X129.869 Y84.657 E0.017
G1 X130.078 Y85.152 E0.018
G1 X130.237 Y85.666 E0.018
G1 X130.344 Y86.195 E0.018
G1 X130.398 Y86.731 E0.018
G1 Y87.269 E0.018
G1 X130.344 Y87.805 E0.018
G1 X130.237 Y88.334 E0.018
G1 X130.078 Y88.848 E0.018
G1 X129.869 Y89.343 E0.018
G1 X129.612 Y89.817 E0.018
G1 X129.308 Y90.261 E0.017
G1 X128.963 Y90.675 E0.018
G1 X128.572 Y91.055 E0.019
G1 X128.118 Y91.411 E0.019
G1 X127.703 Y91.678 E0.016
G1 X127.225 Y91.923 E0.018
G1 X126.723 Y92.121 E0.018
G1 X126.205 Y92.267 E0.018
G1 X125.674 Y92.36 E0.018
G1 X125.137 Y92.4 E0.018
G1 X124.598 Y92.387 E0.018
G1 X124.064 Y92.319 E0.018
G1 X123.541 Y92.2 E0.017
G1 X123.029 Y92.029 E0.018
G1 X122.538 Y91.806 E0.018
G1 X122.071 Y91.538 E0.018
G1 X121.634 Y91.222 E0.018
G1 X121.232 Y90.867 E0.018
G1 X120.864 Y90.472 E0.018
G1 X120.539 Y90.042 E0.018
G1 X120.259 Y89.584 E0.018
G1 X120.026 Y89.099 E0.018
G1 X119.841 Y88.593 E0.017
G1 X119.708 Y88.071 E0.018
G1 X119.627 Y87.539 E0.018
G1 X119.6 Y87 E0.018
G1 X119.627 Y86.461 E0.018
G1 X119.708 Y85.929 E0.018
G1 X119.841 Y85.407 E0.018
G1 X120.026 Y84.901 E0.018
G1 X120.259 Y84.416 E0.018
G1 X120.539 Y83.958 E0.018
G1 X120.864 Y83.528 E0.018
G1 X121.232 Y83.133 E0.018
G1 X121.634 Y82.778 E0.017
G1 X122.071 Y82.462 E0.018
G1 X122.539 Y82.193 E0.018
G1 X123.029 Y81.972 E0.018
G1 X123.539 Y81.801 E0.018
G1 X124.064 Y81.681 E0.018
G1 X124.598 Y81.613 E0.018
G1 X125.137 Y81.6 E0.018
;rapid-leaky
G0 X125.127 Y82 F7200
;bead-skirt/brim
G1 X125.624 Y82.038 F960 E0.016
G1 X126.116 Y82.124 E0.017
G1 X126.595 Y82.259 E0.017
G1 X127.06 Y82.442 E0.016
G1 X127.503 Y82.669 E0.017
G1 X127.921 Y82.939 E0.016
G1 X128.311 Y83.25 E0.017
G1 X128.669 Y83.598 E0.016
G1 X128.989 Y83.981 E0.017
G1 X129.27 Y84.392 E0.017
G1 X129.508 Y84.83 E0.016
G1 X129.702 Y85.289 E0.017
G1 X129.849 Y85.765 E0.016
G1 X129.948 Y86.255 E0.017
G1 X129.998 Y86.751 E0.017
G1 Y87.249 E0.016
G1 X129.948 Y87.745 E0.017
G1 X129.849 Y88.235 E0.016
G1 X129.702 Y88.711 E0.017
G1 X129.508 Y89.17 E0.016
G1 X129.27 Y89.608 E0.017
G1 X128.989 Y90.02 E0.017
G1 X128.669 Y90.402 E0.016
G1 X128.308 Y90.753 E0.017
G1 X127.886 Y91.085 E0.018
G1 X127.502 Y91.331 E0.015
G1 X127.06 Y91.558 E0.016
G1 X126.595 Y91.741 E0.017
G1 X126.116 Y91.876 E0.017
G1 X125.624 Y91.962 E0.016
G1 X125.127 Y92 E0.017
G1 X124.629 Y91.987 E0.016
G1 X124.133 Y91.925 E0.017
G1 X123.649 Y91.814 E0.017
G1 X123.175 Y91.656 E0.016
G1 X122.721 Y91.45 E0.017
G1 X122.289 Y91.201 E0.016
G1 X121.884 Y90.909 E0.017
G1 X121.512 Y90.58 E0.016
G1 X121.171 Y90.215 E0.017
G1 X120.87 Y89.816 E0.017
G1 X120.611 Y89.392 E0.016
G1 X120.395 Y88.944 E0.017
G1 X120.223 Y88.474 E0.016
G1 X120.101 Y87.992 E0.017
G1 X120.026 Y87.498 E0.017
G1 X120.001 Y87 E0.016
G1 X120.026 Y86.502 E0.017
G1 X120.101 Y86.008 E0.016
G1 X120.223 Y85.526 E0.017
G1 X120.395 Y85.056 E0.017
G1 X120.611 Y84.608 E0.016
G1 X120.87 Y84.184 E0.017
G1 X121.171 Y83.785 E0.016
G1 X121.512 Y83.42 E0.017
G1 X121.884 Y83.091 E0.016
G1 X122.289 Y82.799 E0.017
G1 X122.722 Y82.55 E0.017
G1 X123.175 Y82.345 E0.016
G1 X123.648 Y82.186 E0.017
G1 X124.133 Y82.075 E0.016
G1 X124.629 Y82.013 E0.017
G1 X125.127 Y82 E0.016
;rapid-leaky
G0 X125.117 Y82.4 F7200
;bead-skirt/brim
G1 X125.575 Y82.435 F960 E0.016
G1 X126.027 Y82.514 E0.015
G1 X126.467 Y82.639 E0.015
G1 X126.895 Y82.807 E0.016
G1 X127.302 Y83.016 E0.015
G1 X127.688 Y83.264 E0.015
G1 X128.046 Y83.55 E0.015
G1 X128.375 Y83.87 E0.016
G1 X128.67 Y84.222 E0.015
G1 X128.929 Y84.601 E0.015
G1 X129.147 Y85.004 E0.015
G1 X129.325 Y85.426 E0.016
G1 X129.461 Y85.864 E0.015
G1 X129.552 Y86.314 E0.015
G1 X129.598 Y86.771 E0.015
G1 Y87.229 E0.016
G1 X129.552 Y87.686 E0.015
G1 X129.461 Y88.136 E0.015
G1 X129.325 Y88.574 E0.015
G1 X129.147 Y88.996 E0.016
G1 X128.929 Y89.399 E0.015
G1 X128.67 Y89.778 E0.015
G1 X128.375 Y90.13 E0.015
G1 X128.044 Y90.451 E0.016
G1 X127.653 Y90.758 E0.016
G1 X127.302 Y90.984 E0.014
G1 X126.895 Y91.193 E0.015
G1 X126.467 Y91.361 E0.016
G1 X126.027 Y91.486 E0.015
G1 X125.575 Y91.565 E0.015
G1 X125.117 Y91.6 E0.015
G1 X124.659 Y91.588 E0.016
G1 X124.203 Y91.531 E0.015
G1 X123.757 Y91.428 E0.015
G1 X123.321 Y91.283 E0.015
G1 X122.904 Y91.093 E0.016
G1 X122.506 Y90.865 E0.015
G1 X122.134 Y90.596 E0.015
G1 X121.791 Y90.293 E0.015
G1 X121.478 Y89.957 E0.016
G1 X121.201 Y89.591 E0.015
G1 X120.963 Y89.201 E0.015
G1 X120.764 Y88.788 E0.015
G1 X120.606 Y88.356 E0.016
G1 X120.493 Y87.912 E0.015
G1 X120.424 Y87.458 E0.015
G1 X120.401 Y87 E0.015
G1 X120.424 Y86.542 E0.016
G1 X120.493 Y86.088 E0.015
G1 X120.606 Y85.644 E0.015
G1 X120.764 Y85.212 E0.016
G1 X120.963 Y84.8 E0.015
G1 X121.201 Y84.409 E0.015
G1 X121.478 Y84.043 E0.015
G1 X121.791 Y83.707 E0.016
G1 X122.134 Y83.404 E0.015
G1 X122.506 Y83.135 E0.015
G1 X122.904 Y82.906 E0.015
G1 X123.321 Y82.718 E0.016
G1 X123.756 Y82.572 E0.015
G1 X124.203 Y82.469 E0.015
G1 X124.659 Y82.412 E0.015
G1 X125.117 Y82.4 E0.016
;rapid-leaky
G0 X125.107 Y82.801 F7200
;bead-skirt/brim
G1 X125.525 Y82.832 F960 E0.013
G1 X125.938 Y82.905 E0.014
G1 X126.34 Y83.018 E0.014
G1 X126.73 Y83.172 E0.014
G1 X127.102 Y83.363 E0.014
G1 X127.454 Y83.589 E0.014
G1 X127.781 Y83.851 E0.014
G1 X128.082 Y84.143 E0.014
G1 X128.351 Y84.464 E0.014
G1 X128.587 Y84.81 E0.014
G1 X128.786 Y85.177 E0.014
G1 X128.949 Y85.563 E0.014
G1 X129.073 Y85.963 E0.014
G1 X129.156 Y86.374 E0.014
G1 X129.198 Y86.791 E0.013
G1 Y87.209 E0.014
G1 X129.156 Y87.626 E0.014
G1 X129.073 Y88.037 E0.014
G1 X128.949 Y88.437 E0.014
G1 X128.786 Y88.823 E0.014
G1 X128.587 Y89.19 E0.014
G1 X128.351 Y89.536 E0.014
G1 X128.082 Y89.857 E0.014
G1 X127.781 Y90.15 E0.014
G1 X127.421 Y90.432 E0.015
G1 X127.102 Y90.637 E0.013
G1 X126.73 Y90.829 E0.014
G1 X126.34 Y90.982 E0.014
G1 X125.938 Y91.095 E0.013
G1 X125.525 Y91.168 E0.014
G1 X125.107 Y91.199 E0.014
G1 X124.689 Y91.189 E0.014
G1 X124.273 Y91.136 E0.014
G1 X123.865 Y91.043 E0.014
G1 X123.468 Y90.91 E0.014
G1 X123.087 Y90.737 E0.014
G1 X122.723 Y90.528 E0.014
G1 X122.384 Y90.283 E0.014
G1 X122.07 Y90.006 E0.014
G1 X121.785 Y89.7 E0.014
G1 X121.533 Y89.366 E0.014
G1 X121.314 Y89.009 E0.013
G1 X121.133 Y88.632 E0.014
G1 X120.989 Y88.238 E0.014
G1 X120.886 Y87.833 E0.014
G1 X120.823 Y87.418 E0.014
G1 X120.802 Y87 E0.014
G1 X120.823 Y86.582 E0.014
G1 X120.886 Y86.167 E0.014
G1 X120.989 Y85.762 E0.014
G1 X121.133 Y85.368 E0.014
G1 X121.314 Y84.991 E0.014
G1 X121.533 Y84.634 E0.014
G1 X121.785 Y84.3 E0.014
G1 X122.07 Y83.994 E0.014
G1 X122.384 Y83.717 E0.013
G1 X122.723 Y83.472 E0.014
G1 X123.087 Y83.263 E0.014
G1 X123.468 Y83.091 E0.014
G1 X123.865 Y82.957 E0.014
G1 X124.273 Y82.864 E0.014
G1 X124.689 Y82.811 E0.014
G1 X125.107 Y82.801 E0.014
;rapid-leaky
G0 X125.147 Y93.199 F7200
;bead-skirt/brim
G1 X125.724 Y93.243 F960 E0.019
G1 X126.294 Y93.343 E0.019
G1 X126.85 Y93.5 E0.02
G1 X127.39 Y93.712 E0.019
G1 X127.903 Y93.975 E0.019
G1 X128.389 Y94.288 E0.019
G1 X128.841 Y94.649 E0.02
G1 X129.256 Y95.053 E0.019
G1 X129.628 Y95.497 E0.019
G1 X129.958 Y95.98 E0.02
G1 X130.248 Y96.526 E0.02
G1 X130.454 Y97.015 E0.018
G1 X130.625 Y97.567 E0.019
G1 X130.74 Y98.135 E0.019
G1 X130.798 Y98.711 E0.02
G1 Y99.289 E0.019
G1 X130.74 Y99.865 E0.019
G1 X130.625 Y100.433 E0.019
G1 X130.454 Y100.985 E0.02
G1 X130.23 Y101.517 E0.019
G1 X129.954 Y102.026 E0.019
G1 X129.628 Y102.503 E0.019
G1 X129.256 Y102.947 E0.019
G1 X128.841 Y103.351 E0.02
G1 X128.389 Y103.712 E0.019
G1 X127.903 Y104.025 E0.019
G1 X127.39 Y104.288 E0.019
G1 X126.85 Y104.5 E0.02
G1 X126.294 Y104.657 E0.019
G1 X125.724 Y104.757 E0.019
G1 X125.147 Y104.801 E0.019
G1 X124.568 Y104.786 E0.02
G1 X123.994 Y104.714 E0.019
G1 X123.43 Y104.585 E0.019
G1 X122.882 Y104.401 E0.019
G1 X122.357 Y104.163 E0.019
G1 X121.854 Y103.874 E0.02
G1 X121.384 Y103.535 E0.019
G1 X120.953 Y103.154 E0.019
G1 X120.557 Y102.73 E0.019
G1 X120.208 Y102.267 E0.02
G1 X119.908 Y101.776 E0.019
G1 X119.657 Y101.255 E0.019
G1 X119.458 Y100.711 E0.019
G1 X119.316 Y100.151 E0.02
G1 X119.229 Y99.579 E0.019
G1 X119.2 Y99 E0.019
G1 X119.229 Y98.421 E0.019
G1 X119.316 Y97.849 E0.02
G1 X119.458 Y97.289 E0.019
G1 X119.657 Y96.745 E0.019
G1 X119.908 Y96.224 E0.019
G1 X120.208 Y95.733 E0.02
G1 X120.557 Y95.27 E0.019
G1 X120.953 Y94.846 E0.019
G1 X121.384 Y94.465 E0.019
G1 X121.854 Y94.126 E0.02
G1 X122.355 Y93.838 E0.019
G1 X122.882 Y93.598 E0.019
G1 X123.433 Y93.415 E0.019
G1 X123.994 Y93.286 E0.019
G1 X124.568 Y93.214 E0.02
G1 X125.147 Y93.199 E0.019
;rapid-leaky
G0 X125.137 Y93.6 F7200
;bead-skirt/brim
G1 X125.674 Y93.64 F960 E0.018
G1 X126.205 Y93.733 E0.018
G1 X126.723 Y93.879 E0.018
G1 X127.225 Y94.077 E0.018
G1 X127.703 Y94.322 E0.018
G1 X128.155 Y94.614 E0.017
G1 X128.576 Y94.949 E0.018
G1 X128.963 Y95.325 E0.018
G1 X129.308 Y95.739 E0.018
G1 X129.615 Y96.188 E0.018
G1 X129.887 Y96.697 E0.019
G1 X130.078 Y97.152 E0.017
G1 X130.237 Y97.666 E0.018
G1 X130.344 Y98.195 E0.018
G1 X130.398 Y98.731 E0.018
G1 Y99.269 E0.018
G1 X130.344 Y99.805 E0.017
G1 X130.237 Y100.334 E0.018
G1 X130.078 Y100.848 E0.018
G1 X129.869 Y101.343 E0.018
G1 X129.612 Y101.817 E0.018
G1 X129.308 Y102.261 E0.018
G1 X128.963 Y102.675 E0.018
G1 X128.576 Y103.051 E0.018
G1 X128.155 Y103.386 E0.018
G1 X127.703 Y103.678 E0.018
G1 X127.225 Y103.923 E0.018
G1 X126.723 Y104.121 E0.017
G1 X126.205 Y104.267 E0.018
G1 X125.674 Y104.36 E0.018
G1 X125.137 Y104.4 E0.018
G1 X124.598 Y104.387 E0.018
G1 X124.064 Y104.319 E0.018
G1 X123.539 Y104.199 E0.018
G1 X123.029 Y104.028 E0.018
G1 X122.539 Y103.807 E0.018
G1 X122.071 Y103.538 E0.018
G1 X121.634 Y103.222 E0.018
G1 X121.232 Y102.867 E0.017
G1 X120.864 Y102.472 E0.018
G1 X120.539 Y102.042 E0.018
G1 X120.259 Y101.584 E0.018
G1 X120.026 Y101.099 E0.018
G1 X119.841 Y100.593 E0.018
G1 X119.708 Y100.071 E0.018
G1 X119.627 Y99.539 E0.018
G1 X119.6 Y99 E0.018
G1 X119.627 Y98.461 E0.018
G1 X119.708 Y97.929 E0.018
G1 X119.841 Y97.408 E0.018
G1 X120.026 Y96.901 E0.017
G1 X120.259 Y96.416 E0.018
G1 X120.539 Y95.958 E0.018
G1 X120.864 Y95.528 E0.018
G1 X121.232 Y95.133 E0.018
G1 X121.634 Y94.778 E0.018
G1 X122.071 Y94.462 E0.018
G1 X122.538 Y94.194 E0.018
G1 X123.029 Y93.971 E0.018
G1 X123.541 Y93.8 E0.018
G1 X124.064 Y93.681 E0.017
G1 X124.598 Y93.613 E0.018
G1 X125.137 Y93.6 E0.018
;rapid-leaky
G0 X125.127 Y94 F7200
;bead-skirt/brim
G1 X125.624 Y94.038 F960 E0.017
G1 X126.116 Y94.124 E0.017
G1 X126.595 Y94.259 E0.016
G1 X127.06 Y94.442 E0.017
G1 X127.503 Y94.669 E0.016
G1 X127.921 Y94.939 E0.017
G1 X128.311 Y95.25 E0.016
G1 X128.669 Y95.598 E0.017
G1 X128.989 Y95.981 E0.017
G1 X129.273 Y96.395 E0.016
G1 X129.525 Y96.869 E0.018
G1 X129.702 Y97.289 E0.015
G1 X129.849 Y97.765 E0.017
G1 X129.948 Y98.255 E0.016
G1 X129.998 Y98.751 E0.017
G1 Y99.249 E0.017
G1 X129.948 Y99.745 E0.016
G1 X129.849 Y100.235 E0.017
G1 X129.702 Y100.711 E0.016
G1 X129.508 Y101.17 E0.017
G1 X129.27 Y101.608 E0.017
G1 X128.989 Y102.019 E0.016
G1 X128.669 Y102.402 E0.017
G1 X128.311 Y102.75 E0.016
G1 X127.921 Y103.061 E0.017
G1 X127.503 Y103.331 E0.017
G1 X127.06 Y103.558 E0.016
G1 X126.595 Y103.741 E0.017
G1 X126.116 Y103.876 E0.016
G1 X125.624 Y103.962 E0.017
G1 X125.127 Y104 E0.016
G1 X124.629 Y103.987 E0.017
G1 X124.133 Y103.925 E0.017
G1 X123.648 Y103.814 E0.016
G1 X123.175 Y103.655 E0.017
G1 X122.722 Y103.45 E0.016
G1 X122.289 Y103.201 E0.017
G1 X121.884 Y102.909 E0.017
G1 X121.512 Y102.58 E0.016
G1 X121.171 Y102.215 E0.017
G1 X120.87 Y101.816 E0.016
G1 X120.611 Y101.392 E0.017
G1 X120.395 Y100.944 E0.016
G1 X120.223 Y100.474 E0.017
G1 X120.101 Y99.992 E0.017
G1 X120.026 Y99.498 E0.016
G1 X120.001 Y99 E0.017
G1 X120.026 Y98.502 E0.016
G1 X120.101 Y98.008 E0.017
G1 X120.223 Y97.526 E0.016
G1 X120.395 Y97.056 E0.017
G1 X120.611 Y96.608 E0.017
G1 X120.87 Y96.184 E0.016
G1 X121.171 Y95.785 E0.017
G1 X121.512 Y95.42 E0.016
G1 X121.884 Y95.091 E0.017
G1 X122.289 Y94.799 E0.017
G1 X122.721 Y94.55 E0.016
G1 X123.175 Y94.344 E0.017
G1 X123.649 Y94.186 E0.016
G1 X124.133 Y94.075 E0.017
G1 X124.629 Y94.013 E0.016
G1 X125.127 Y94 E0.017
;rapid-leaky
G0 X125.117 Y94.4 F7200
;bead-skirt/brim
G1 X125.575 Y94.435 F960 E0.015
G1 X126.027 Y94.514 E0.016
G1 X126.467 Y94.639 E0.015
G1 X126.895 Y94.807 E0.015
G1 X127.302 Y95.016 E0.015
G1 X127.688 Y95.264 E0.016
G1 X128.046 Y95.55 E0.015
G1 X128.375 Y95.87 E0.015
G1 X128.67 Y96.222 E0.015
G1 X128.93 Y96.603 E0.016
G1 X129.163 Y97.041 E0.016
G1 X129.325 Y97.426 E0.014
G1 X129.461 Y97.864 E0.015
G1 X129.552 Y98.314 E0.016
G1 X129.598 Y98.771 E0.015
G1 Y99.229 E0.015
G1 X129.552 Y99.686 E0.015
G1 X129.461 Y100.136 E0.016
G1 X129.325 Y100.574 E0.015
G1 X129.147 Y100.996 E0.015
G1 X128.929 Y101.399 E0.015
G1 X128.67 Y101.778 E0.016
G1 X128.375 Y102.13 E0.015
G1 X128.046 Y102.45 E0.015
G1 X127.688 Y102.736 E0.015
G1 X127.302 Y102.984 E0.016
G1 X126.895 Y103.193 E0.015
G1 X126.468 Y103.361 E0.015
G1 X126.027 Y103.486 E0.015
G1 X125.575 Y103.565 E0.016
G1 X125.117 Y103.6 E0.015
G1 X124.659 Y103.588 E0.015
G1 X124.203 Y103.531 E0.015
G1 X123.756 Y103.428 E0.016
G1 X123.321 Y103.282 E0.015
G1 X122.904 Y103.094 E0.015
G1 X122.506 Y102.865 E0.015
G1 X122.134 Y102.596 E0.016
G1 X121.791 Y102.293 E0.015
G1 X121.478 Y101.957 E0.015
G1 X121.201 Y101.591 E0.016
G1 X120.963 Y101.201 E0.015
G1 X120.764 Y100.788 E0.015
G1 X120.606 Y100.356 E0.015
G1 X120.493 Y99.912 E0.016
G1 X120.424 Y99.458 E0.015
G1 X120.401 Y99 E0.015
G1 X120.424 Y98.542 E0.015
G1 X120.493 Y98.088 E0.016
G1 X120.606 Y97.644 E0.015
G1 X120.764 Y97.212 E0.015
G1 X120.963 Y96.799 E0.015
G1 X121.201 Y96.409 E0.016
G1 X121.478 Y96.043 E0.015
G1 X121.791 Y95.707 E0.015
G1 X122.134 Y95.404 E0.015
G1 X122.506 Y95.135 E0.016
G1 X122.904 Y94.907 E0.015
G1 X123.321 Y94.717 E0.015
G1 X123.757 Y94.572 E0.015
G1 X124.203 Y94.469 E0.016
G1 X124.659 Y94.412 E0.015
G1 X125.117 Y94.4 E0.015
;rapid-leaky
G0 X125.107 Y94.801 F7200
;bead-skirt/brim
G1 X125.525 Y94.832 F960 E0.014
G1 X125.938 Y94.905 E0.014
G1 X126.34 Y95.018 E0.014
G1 X126.73 Y95.172 E0.014
G1 X127.102 Y95.363 E0.014
G1 X127.454 Y95.589 E0.014
G1 X127.781 Y95.851 E0.014
G1 X128.082 Y96.143 E0.014
G1 X128.351 Y96.464 E0.013
G1 X128.587 Y96.81 E0.014
G1 X128.802 Y97.213 E0.016
G1 X128.949 Y97.563 E0.012
G1 X129.073 Y97.963 E0.014
G1 X129.156 Y98.374 E0.014
G1 X129.198 Y98.791 E0.014
G1 Y99.209 E0.014
G1 X129.156 Y99.626 E0.014
G1 X129.073 Y100.037 E0.014
G1 X128.949 Y100.437 E0.014
G1 X128.786 Y100.823 E0.014
G1 X128.587 Y101.19 E0.014
G1 X128.351 Y101.536 E0.013
G1 X128.082 Y101.857 E0.014
G1 X127.781 Y102.149 E0.014
G1 X127.454 Y102.411 E0.014
G1 X127.102 Y102.637 E0.014
G1 X126.73 Y102.829 E0.014
G1 X126.34 Y102.982 E0.014
G1 X125.938 Y103.095 E0.014
G1 X125.525 Y103.168 E0.014
G1 X125.107 Y103.199 E0.014
G1 X124.689 Y103.189 E0.014
G1 X124.273 Y103.136 E0.014
G1 X123.865 Y103.043 E0.014
G1 X123.468 Y102.909 E0.014
G1 X123.087 Y102.737 E0.013
G1 X122.723 Y102.528 E0.014
G1 X122.384 Y102.283 E0.014
G1 X122.07 Y102.006 E0.014
G1 X121.785 Y101.7 E0.014
G1 X121.533 Y101.366 E0.014
G1 X121.314 Y101.009 E0.014
G1 X121.133 Y100.632 E0.014
G1 X120.989 Y100.238 E0.014
G1 X120.886 Y99.833 E0.014
G1 X120.823 Y99.418 E0.014
G1 X120.802 Y99 E0.014
G1 X120.823 Y98.582 E0.014
G1 X120.886 Y98.167 E0.014
G1 X120.989 Y97.762 E0.013
G1 X121.133 Y97.368 E0.014
G1 X121.314 Y96.991 E0.014
G1 X121.533 Y96.634 E0.014
G1 X121.785 Y96.3 E0.014
G1 X122.07 Y95.994 E0.014
G1 X122.384 Y95.717 E0.014
G1 X122.723 Y95.472 E0.014
G1 X123.087 Y95.263 E0.014
G1 X123.468 Y95.09 E0.014
G1 X123.865 Y94.957 E0.014
G1 X124.273 Y94.864 E0.014
G1 X124.689 Y94.811 E0.014
G1 X125.107 Y94.801 E0.013
;rapid-leaky
G0 X124.853 Y105.199 F7200
;bead-skirt/brim
G1 X125.432 Y105.214 F960 E0.02
G1 X126.006 Y105.286 E0.019
G1 X126.567 Y105.415 E0.019
G1 X127.118 Y105.598 E0.019
G1 X127.645 Y105.838 E0.02
G1 X128.146 Y106.126 E0.019
G1 X128.616 Y106.465 E0.019
G1 X129.047 Y106.846 E0.019
G1 X129.443 Y107.27 E0.02
G1 X129.792 Y107.733 E0.019
G1 X130.092 Y108.225 E0.019
G1 X130.343 Y108.745 E0.019
G1 X130.542 Y109.289 E0.02
G1 X130.684 Y109.849 E0.019
G1 X130.771 Y110.421 E0.019
G1 X130.8 Y111 E0.019
G1 X130.771 Y111.579 E0.02
G1 X130.684 Y112.151 E0.019
G1 X130.542 Y112.711 E0.019
G1 X130.343 Y113.255 E0.019
G1 X130.092 Y113.776 E0.02
G1 X129.792 Y114.267 E0.019
G1 X129.443 Y114.73 E0.019
G1 X129.047 Y115.154 E0.019
G1 X128.616 Y115.535 E0.019
G1 X128.146 Y115.874 E0.02
G1 X127.643 Y116.163 E0.019
G1 X127.118 Y116.401 E0.019
G1 X126.57 Y116.585 E0.019
G1 X126.006 Y116.714 E0.02
G1 X125.432 Y116.786 E0.019
G1 X124.853 Y116.801 E0.019
G1 X124.276 Y116.757 E0.019
G1 X123.706 Y116.657 E0.02
G1 X123.149 Y116.5 E0.019
G1 X122.61 Y116.288 E0.019
G1 X122.097 Y116.025 E0.019
G1 X121.611 Y115.712 E0.02
G1 X121.159 Y115.351 E0.019
G1 X120.744 Y114.947 E0.019
G1 X120.372 Y114.503 E0.019
G1 X120.046 Y114.026 E0.02
G1 X119.77 Y113.517 E0.019
G1 X119.546 Y112.985 E0.019
G1 X119.375 Y112.433 E0.019
G1 X119.26 Y111.865 E0.019
G1 X119.202 Y111.289 E0.02
G1 Y110.711 E0.019
G1 X119.26 Y110.135 E0.019
G1 X119.375 Y109.567 E0.019
G1 X119.546 Y109.015 E0.02
G1 X119.77 Y108.483 E0.019
G1 X120.046 Y107.974 E0.019
G1 X120.372 Y107.497 E0.019
G1 X120.744 Y107.053 E0.02
G1 X121.159 Y106.649 E0.019
G1 X121.611 Y106.288 E0.019
G1 X122.097 Y105.975 E0.019
G1 X122.61 Y105.712 E0.02
G1 X123.15 Y105.5 E0.019
G1 X123.706 Y105.343 E0.019
G1 X124.276 Y105.243 E0.019
G1 X124.853 Y105.199 E0.02
;rapid-leaky
G0 X124.863 Y105.6 F7200
;bead-skirt/brim
G1 X125.402 Y105.613 F960 E0.017
G1 X125.936 Y105.681 E0.018
G1 X126.459 Y105.8 E0.018
G1 X126.971 Y105.971 E0.018
G1 X127.462 Y106.194 E0.018
G1 X127.929 Y106.462 E0.018
G1 X128.366 Y106.778 E0.018
G1 X128.768 Y107.133 E0.018
G1 X129.136 Y107.528 E0.018
G1 X129.461 Y107.958 E0.018
G1 X129.741 Y108.416 E0.018
G1 X129.974 Y108.901 E0.017
G1 X130.159 Y109.407 E0.018
G1 X130.292 Y109.929 E0.018
G1 X130.373 Y110.461 E0.018
G1 X130.4 Y111 E0.018
G1 X130.373 Y111.539 E0.018
G1 X130.292 Y112.071 E0.018
G1 X130.159 Y112.593 E0.018
G1 X129.974 Y113.099 E0.018
G1 X129.741 Y113.584 E0.018
G1 X129.461 Y114.042 E0.018
G1 X129.136 Y114.472 E0.017
G1 X128.768 Y114.867 E0.018
G1 X128.366 Y115.222 E0.018
G1 X127.929 Y115.538 E0.018
G1 X127.461 Y115.807 E0.018
G1 X126.971 Y116.028 E0.018
G1 X126.461 Y116.199 E0.018
G1 X125.936 Y116.319 E0.018
G1 X125.402 Y116.387 E0.018
G1 X124.863 Y116.4 E0.018
G1 X124.326 Y116.36 E0.018
G1 X123.795 Y116.267 E0.017
G1 X123.277 Y116.121 E0.018
G1 X122.775 Y115.923 E0.018
G1 X122.297 Y115.678 E0.018
G1 X121.845 Y115.386 E0.018
G1 X121.424 Y115.051 E0.018
G1 X121.037 Y114.675 E0.018
G1 X120.692 Y114.261 E0.018
G1 X120.388 Y113.817 E0.018
G1 X120.131 Y113.343 E0.018
G1 X119.922 Y112.848 E0.018
G1 X119.763 Y112.334 E0.017
G1 X119.656 Y111.805 E0.018
G1 X119.602 Y111.269 E0.018
G1 Y110.731 E0.018
G1 X119.656 Y110.195 E0.018
G1 X119.763 Y109.666 E0.018
G1 X119.922 Y109.152 E0.018
G1 X120.131 Y108.657 E0.018
G1 X120.388 Y108.183 E0.018
G1 X120.692 Y107.739 E0.018
G1 X121.037 Y107.325 E0.018
G1 X121.424 Y106.949 E0.018
G1 X121.845 Y106.614 E0.017
G1 X122.297 Y106.322 E0.018
G1 X122.775 Y106.077 E0.018
G1 X123.277 Y105.879 E0.018
G1 X123.795 Y105.733 E0.018
G1 X124.326 Y105.64 E0.018
G1 X124.863 Y105.6 E0.018
;rapid-leaky
G0 X124.873 Y106 F7200
;bead-skirt/brim
G1 X125.371 Y106.013 F960 E0.016
G1 X125.867 Y106.075 E0.017
G1 X126.351 Y106.186 E0.017
G1 X126.825 Y106.344 E0.016
G1 X127.279 Y106.55 E0.017
G1 X127.711 Y106.799 E0.016
G1 X128.116 Y107.091 E0.017
G1 X128.488 Y107.42 E0.017
G1 X128.829 Y107.785 E0.016
G1 X129.13 Y108.184 E0.017
G1 X129.389 Y108.608 E0.016
G1 X129.605 Y109.056 E0.017
G1 X129.777 Y109.526 E0.016
G1 X129.899 Y110.008 E0.017
G1 X129.974 Y110.502 E0.017
G1 X129.999 Y111 E0.016
G1 X129.974 Y111.498 E0.017
G1 X129.899 Y111.992 E0.016
G1 X129.777 Y112.474 E0.017
G1 X129.605 Y112.944 E0.017
G1 X129.389 Y113.392 E0.016
G1 X129.13 Y113.816 E0.017
G1 X128.829 Y114.215 E0.016
G1 X128.488 Y114.58 E0.017
G1 X128.116 Y114.909 E0.016
G1 X127.711 Y115.201 E0.017
G1 X127.278 Y115.45 E0.017
G1 X126.825 Y115.655 E0.016
G1 X126.352 Y115.814 E0.017
G1 X125.867 Y115.925 E0.016
G1 X125.371 Y115.987 E0.017
G1 X124.873 Y116 E0.017
G1 X124.376 Y115.962 E0.016
G1 X123.884 Y115.876 E0.017
G1 X123.405 Y115.741 E0.016
G1 X122.94 Y115.558 E0.017
G1 X122.497 Y115.331 E0.016
G1 X122.079 Y115.061 E0.017
G1 X121.689 Y114.75 E0.017
G1 X121.331 Y114.402 E0.016
G1 X121.011 Y114.02 E0.017
G1 X120.73 Y113.608 E0.016
G1 X120.492 Y113.17 E0.017
G1 X120.298 Y112.711 E0.017
G1 X120.151 Y112.235 E0.016
G1 X120.052 Y111.746 E0.017
G1 X120.002 Y111.249 E0.016
G1 Y110.751 E0.017
G1 X120.052 Y110.254 E0.016
G1 X120.151 Y109.765 E0.017
G1 X120.298 Y109.289 E0.017
G1 X120.492 Y108.83 E0.016
G1 X120.73 Y108.392 E0.017
G1 X121.011 Y107.98 E0.016
G1 X121.331 Y107.598 E0.017
G1 X121.689 Y107.25 E0.017
G1 X122.079 Y106.939 E0.016
G1 X122.497 Y106.669 E0.017
G1 X122.94 Y106.442 E0.016
G1 X123.405 Y106.259 E0.017
G1 X123.884 Y106.124 E0.016
G1 X124.376 Y106.038 E0.017
G1 X124.873 Y106 E0.017
;rapid-leaky
G0 X124.883 Y106.4 F7200
;bead-skirt/brim
G1 X125.341 Y106.412 F960 E0.015
G1 X125.797 Y106.469 E0.015
G1 X126.243 Y106.572 E0.015
G1 X126.679 Y106.717 E0.016
G1 X127.096 Y106.907 E0.015
G1 X127.494 Y107.135 E0.015
G1 X127.866 Y107.404 E0.015
G1 X128.209 Y107.707 E0.016
G1 X128.522 Y108.043 E0.015
G1 X128.799 Y108.409 E0.015
G1 X129.038 Y108.8 E0.015
G1 X129.236 Y109.212 E0.016
G1 X129.394 Y109.644 E0.015
G1 X129.507 Y110.088 E0.015
G1 X129.576 Y110.542 E0.015
G1 X129.599 Y111 E0.016
G1 X129.576 Y111.458 E0.015
G1 X129.507 Y111.912 E0.015
G1 X129.394 Y112.356 E0.015
G1 X129.236 Y112.788 E0.016
G1 X129.037 Y113.201 E0.015
G1 X128.799 Y113.591 E0.015
G1 X128.522 Y113.957 E0.015
G1 X128.209 Y114.293 E0.016
G1 X127.866 Y114.596 E0.015
G1 X127.494 Y114.865 E0.015
G1 X127.096 Y115.094 E0.016
G1 X126.679 Y115.282 E0.015
G1 X126.244 Y115.428 E0.015
G1 X125.797 Y115.531 E0.015
G1 X125.341 Y115.588 E0.016
G1 X124.883 Y115.6 E0.015
G1 X124.425 Y115.565 E0.015
G1 X123.973 Y115.486 E0.015
G1 X123.533 Y115.361 E0.016
G1 X123.105 Y115.193 E0.015
G1 X122.698 Y114.984 E0.015
G1 X122.312 Y114.736 E0.015
G1 X121.954 Y114.45 E0.016
G1 X121.625 Y114.13 E0.015
G1 X121.33 Y113.778 E0.015
G1 X121.071 Y113.399 E0.015
G1 X120.853 Y112.996 E0.016
G1 X120.675 Y112.574 E0.015
G1 X120.539 Y112.136 E0.015
G1 X120.448 Y111.686 E0.015
G1 X120.402 Y111.229 E0.016
G1 Y110.771 E0.015
G1 X120.448 Y110.314 E0.015
G1 X120.539 Y109.864 E0.015
G1 X120.675 Y109.426 E0.016
G1 X120.853 Y109.004 E0.015
G1 X121.071 Y108.601 E0.015
G1 X121.33 Y108.222 E0.015
G1 X121.625 Y107.87 E0.016
G1 X121.954 Y107.55 E0.015
G1 X122.312 Y107.264 E0.015
G1 X122.698 Y107.016 E0.015
G1 X123.105 Y106.807 E0.016
G1 X123.533 Y106.639 E0.015
G1 X123.973 Y106.514 E0.015
G1 X124.425 Y106.435 E0.015
G1 X124.883 Y106.4 E0.016
;rapid-leaky
G0 X124.893 Y106.801 F7200
;bead-skirt/brim
G1 X125.311 Y106.811 F960 E0.014
G1 X125.727 Y106.864 E0.014
G1 X126.135 Y106.957 E0.013
G1 X126.532 Y107.09 E0.014
G1 X126.913 Y107.263 E0.014
G1 X127.277 Y107.472 E0.014
G1 X127.616 Y107.717 E0.014
G1 X127.93 Y107.994 E0.014
G1 X128.215 Y108.3 E0.014
G1 X128.467 Y108.634 E0.014
G1 X128.686 Y108.991 E0.014
G1 X128.867 Y109.368 E0.014
G1 X129.011 Y109.762 E0.014
G1 X129.114 Y110.167 E0.014
G1 X129.177 Y110.582 E0.014
G1 X129.198 Y111 E0.014
G1 X129.177 Y111.418 E0.013
G1 X129.114 Y111.833 E0.014
G1 X129.011 Y112.238 E0.014
G1 X128.867 Y112.632 E0.014
G1 X128.686 Y113.009 E0.014
G1 X128.467 Y113.366 E0.014
G1 X128.215 Y113.7 E0.014
G1 X127.93 Y114.006 E0.014
G1 X127.616 Y114.283 E0.014
G1 X127.277 Y114.528 E0.014
G1 X126.913 Y114.737 E0.014
G1 X126.532 Y114.909 E0.014
G1 X126.135 Y115.043 E0.014
G1 X125.727 Y115.136 E0.013
G1 X125.311 Y115.189 E0.014
G1 X124.893 Y115.199 E0.014
G1 X124.475 Y115.168 E0.014
G1 X124.062 Y115.095 E0.014
G1 X123.66 Y114.982 E0.014
G1 X123.27 Y114.828 E0.014
G1 X122.898 Y114.637 E0.014
G1 X122.546 Y114.411 E0.014
G1 X122.219 Y114.149 E0.014
G1 X121.918 Y113.857 E0.014
G1 X121.649 Y113.536 E0.014
G1 X121.413 Y113.19 E0.014
G1 X121.214 Y112.823 E0.014
G1 X121.051 Y112.437 E0.013
G1 X120.927 Y112.037 E0.014
G1 X120.844 Y111.626 E0.014
G1 X120.802 Y111.209 E0.014
G1 Y110.791 E0.014
G1 X120.844 Y110.374 E0.014
G1 X120.927 Y109.963 E0.014
G1 X121.051 Y109.563 E0.014
G1 X121.214 Y109.177 E0.014
G1 X121.413 Y108.81 E0.014
G1 X121.649 Y108.464 E0.014
G1 X121.918 Y108.143 E0.014
G1 X122.219 Y107.851 E0.014
G1 X122.546 Y107.589 E0.014
G1 X122.898 Y107.363 E0.013
G1 X123.27 Y107.172 E0.014
G1 X123.66 Y107.018 E0.014
G1 X124.062 Y106.905 E0.014
G1 X124.475 Y106.832 E0.014
G1 X124.893 Y106.801 E0.014
;rapid-leaky
G0 X124.853 Y117.199 F7200
;bead-skirt/brim
G1 X125.432 Y117.214 F960 E0.019
G1 X126.006 Y117.286 E0.02
G1 X126.567 Y117.415 E0.019
G1 X127.118 Y117.598 E0.019
G1 X127.645 Y117.838 E0.019
G1 X128.146 Y118.126 E0.02
G1 X128.616 Y118.465 E0.019
G1 X129.047 Y118.846 E0.019
G1 X129.443 Y119.27 E0.019
G1 X129.792 Y119.733 E0.019
G1 X130.092 Y120.224 E0.02
G1 X130.343 Y120.745 E0.019
G1 X130.542 Y121.289 E0.019
G1 X130.684 Y121.849 E0.019
G1 X130.771 Y122.421 E0.02
G1 X130.8 Y123 E0.019
G1 X130.771 Y123.579 E0.019
G1 X130.684 Y124.151 E0.019
G1 X130.542 Y124.711 E0.02
G1 X130.343 Y125.255 E0.019
G1 X130.092 Y125.776 E0.019
G1 X129.792 Y126.267 E0.019
G1 X129.443 Y126.73 E0.02
G1 X129.047 Y127.154 E0.019
G1 X128.616 Y127.535 E0.019
G1 X128.146 Y127.874 E0.019
G1 X127.643 Y128.163 E0.02
G1 X127.118 Y128.401 E0.019
G1 X126.57 Y128.585 E0.019
G1 X126.006 Y128.714 E0.019
G1 X125.432 Y128.786 E0.019
G1 X124.853 Y128.801 E0.02
G1 X124.276 Y128.757 E0.019
G1 X123.706 Y128.657 E0.019
G1 X123.149 Y128.5 E0.019
G1 X122.61 Y128.288 E0.02
G1 X122.097 Y128.025 E0.019
G1 X121.611 Y127.712 E0.019
G1 X121.159 Y127.351 E0.019
G1 X120.744 Y126.947 E0.02
G1 X120.372 Y126.503 E0.019
G1 X120.046 Y126.026 E0.019
G1 X119.77 Y125.517 E0.019
G1 X119.546 Y124.985 E0.02
G1 X119.375 Y124.433 E0.019
G1 X119.26 Y123.865 E0.019
G1 X119.202 Y123.289 E0.019
G1 Y122.711 E0.02
G1 X119.26 Y122.135 E0.019
G1 X119.375 Y121.567 E0.019
G1 X119.546 Y121.015 E0.019
G1 X119.77 Y120.483 E0.019
G1 X120.046 Y119.974 E0.02
G1 X120.372 Y119.497 E0.019
G1 X120.744 Y119.053 E0.019
G1 X121.16 Y118.649 E0.019
G1 X121.611 Y118.288 E0.02
G1 X122.097 Y117.975 E0.019
G1 X122.61 Y117.712 E0.019
G1 X123.15 Y117.5 E0.019
G1 X123.706 Y117.343 E0.02
G1 X124.276 Y117.243 E0.019
G1 X124.853 Y117.199 E0.019
;rapid-leaky
G0 X124.863 Y117.6 F7200
;bead-skirt/brim
G1 X125.402 Y117.613 F960 E0.018
G1 X125.936 Y117.681 E0.018
G1 X126.459 Y117.8 E0.018
G1 X126.971 Y117.971 E0.018
G1 X127.462 Y118.194 E0.018
G1 X127.929 Y118.462 E0.018
G1 X128.366 Y118.778 E0.018
G1 X128.768 Y119.133 E0.017
G1 X129.136 Y119.528 E0.018
G1 X129.461 Y119.958 E0.018
G1 X129.741 Y120.416 E0.018
G1 X129.974 Y120.901 E0.018
G1 X130.159 Y121.407 E0.018
G1 X130.292 Y121.929 E0.018
G1 X130.373 Y122.461 E0.018
G1 X130.4 Y123 E0.018
G1 X130.373 Y123.539 E0.018
G1 X130.292 Y124.071 E0.018
G1 X130.159 Y124.593 E0.017
G1 X129.974 Y125.099 E0.018
G1 X129.741 Y125.584 E0.018
G1 X129.461 Y126.042 E0.018
G1 X129.136 Y126.472 E0.018
G1 X128.768 Y126.867 E0.018
G1 X128.366 Y127.222 E0.018
G1 X127.929 Y127.538 E0.018
G1 X127.461 Y127.807 E0.018
G1 X126.971 Y128.028 E0.018
G1 X126.461 Y128.199 E0.017
G1 X125.936 Y128.319 E0.018
G1 X125.402 Y128.387 E0.018
G1 X124.863 Y128.4 E0.018
G1 X124.326 Y128.36 E0.018
G1 X123.795 Y128.267 E0.018
G1 X123.277 Y128.121 E0.018
G1 X122.775 Y127.923 E0.018
G1 X122.297 Y127.678 E0.018
G1 X121.845 Y127.386 E0.018
G1 X121.424 Y127.051 E0.018
G1 X121.037 Y126.675 E0.018
G1 X120.692 Y126.261 E0.017
G1 X120.388 Y125.817 E0.018
G1 X120.131 Y125.343 E0.018
G1 X119.922 Y124.848 E0.018
G1 X119.763 Y124.334 E0.018
G1 X119.656 Y123.805 E0.018
G1 X119.602 Y123.269 E0.018
G1 Y122.731 E0.018
G1 X119.656 Y122.195 E0.018
G1 X119.763 Y121.666 E0.018
G1 X119.922 Y121.152 E0.018
G1 X120.131 Y120.657 E0.017
G1 X120.388 Y120.183 E0.018
G1 X120.692 Y119.739 E0.018
G1 X121.037 Y119.325 E0.018
G1 X121.424 Y118.949 E0.018
G1 X121.845 Y118.614 E0.018
G1 X122.297 Y118.322 E0.018
G1 X122.775 Y118.077 E0.018
G1 X123.277 Y117.879 E0.018
G1 X123.795 Y117.733 E0.018
G1 X124.326 Y117.64 E0.018
G1 X124.863 Y117.6 E0.017
;rapid-leaky
G0 X124.873 Y118 F7200
;bead-skirt/brim
G1 X125.371 Y118.013 F960 E0.017
G1 X125.867 Y118.075 E0.017
G1 X126.351 Y118.186 E0.016
G1 X126.825 Y118.344 E0.017
G1 X127.279 Y118.55 E0.016
G1 X127.711 Y118.799 E0.017
G1 X128.116 Y119.091 E0.017
G1 X128.488 Y119.42 E0.016
G1 X128.829 Y119.785 E0.017
G1 X129.13 Y120.184 E0.016
G1 X129.389 Y120.608 E0.017
G1 X129.605 Y121.056 E0.016
G1 X129.777 Y121.526 E0.017
G1 X129.899 Y122.008 E0.017
G1 X129.974 Y122.502 E0.016
G1 X129.999 Y123 E0.017
G1 X129.974 Y123.498 E0.016
G1 X129.899 Y123.992 E0.017
G1 X129.777 Y124.474 E0.017
G1 X129.605 Y124.944 E0.016
G1 X129.389 Y125.392 E0.017
G1 X129.13 Y125.816 E0.016
G1 X128.829 Y126.215 E0.017
G1 X128.488 Y126.58 E0.016
G1 X128.116 Y126.909 E0.017
G1 X127.711 Y127.201 E0.017
G1 X127.278 Y127.45 E0.016
G1 X126.825 Y127.655 E0.017
G1 X126.352 Y127.814 E0.016
G1 X125.867 Y127.925 E0.017
G1 X125.371 Y127.987 E0.017
G1 X124.873 Y128 E0.016
G1 X124.376 Y127.962 E0.017
G1 X123.884 Y127.876 E0.016
G1 X123.405 Y127.741 E0.017
G1 X122.94 Y127.558 E0.016
G1 X122.497 Y127.331 E0.017
G1 X122.079 Y127.061 E0.017
G1 X121.689 Y126.75 E0.016
G1 X121.331 Y126.402 E0.017
G1 X121.011 Y126.02 E0.016
G1 X120.73 Y125.608 E0.017
G1 X120.492 Y125.17 E0.017
G1 X120.298 Y124.711 E0.016
G1 X120.151 Y124.235 E0.017
G1 X120.052 Y123.746 E0.016
G1 X120.002 Y123.249 E0.017
G1 Y122.751 E0.016
G1 X120.052 Y122.254 E0.017
G1 X120.151 Y121.765 E0.017
G1 X120.298 Y121.289 E0.016
G1 X120.492 Y120.83 E0.017
G1 X120.73 Y120.392 E0.016
G1 X121.011 Y119.981 E0.017
G1 X121.331 Y119.598 E0.017
G1 X121.689 Y119.25 E0.016
G1 X122.079 Y118.939 E0.017
G1 X122.497 Y118.669 E0.016
G1 X122.94 Y118.442 E0.017
G1 X123.405 Y118.259 E0.016
G1 X123.884 Y118.124 E0.017
G1 X124.376 Y118.038 E0.017
G1 X124.873 Y118 E0.016
;rapid-leaky
G0 X124.883 Y118.4 F7200
;bead-skirt/brim
G1 X125.341 Y118.412 F960 E0.015
G1 X125.797 Y118.469 E0.016
G1 X126.243 Y118.572 E0.015
G1 X126.679 Y118.717 E0.015
G1 X127.096 Y118.907 E0.015
G1 X127.494 Y119.135 E0.016
G1 X127.866 Y119.404 E0.015
G1 X128.209 Y119.707 E0.015
G1 X128.522 Y120.043 E0.016
G1 X128.799 Y120.409 E0.015
G1 X129.037 Y120.799 E0.015
G1 X129.236 Y121.212 E0.015
G1 X129.394 Y121.644 E0.016
G1 X129.507 Y122.088 E0.015
G1 X129.576 Y122.542 E0.015
G1 X129.599 Y123 E0.015
G1 X129.576 Y123.458 E0.016
G1 X129.507 Y123.912 E0.015
G1 X129.394 Y124.356 E0.015
G1 X129.236 Y124.788 E0.015
G1 X129.037 Y125.201 E0.016
G1 X128.799 Y125.591 E0.015
G1 X128.522 Y125.957 E0.015
G1 X128.209 Y126.293 E0.015
G1 X127.866 Y126.596 E0.016
G1 X127.494 Y126.865 E0.015
G1 X127.096 Y127.094 E0.015
G1 X126.679 Y127.282 E0.015
G1 X126.244 Y127.428 E0.016
G1 X125.797 Y127.531 E0.015
G1 X125.341 Y127.588 E0.015
G1 X124.883 Y127.6 E0.015
G1 X124.425 Y127.565 E0.016
G1 X123.973 Y127.486 E0.015
G1 X123.533 Y127.361 E0.015
G1 X123.105 Y127.193 E0.015
G1 X122.698 Y126.984 E0.016
G1 X122.312 Y126.736 E0.015
G1 X121.954 Y126.45 E0.015
G1 X121.625 Y126.13 E0.015
G1 X121.33 Y125.778 E0.016
G1 X121.071 Y125.399 E0.015
G1 X120.853 Y124.996 E0.015
G1 X120.675 Y124.574 E0.015
G1 X120.539 Y124.136 E0.016
G1 X120.448 Y123.686 E0.015
G1 X120.402 Y123.229 E0.015
G1 Y122.771 E0.015
G1 X120.448 Y122.314 E0.016
G1 X120.539 Y121.864 E0.015
G1 X120.675 Y121.426 E0.015
G1 X120.853 Y121.004 E0.015
G1 X121.071 Y120.601 E0.016
G1 X121.33 Y120.222 E0.015
G1 X121.625 Y119.87 E0.015
G1 X121.954 Y119.55 E0.015
G1 X122.312 Y119.264 E0.016
G1 X122.698 Y119.016 E0.015
G1 X123.105 Y118.807 E0.015
G1 X123.533 Y118.639 E0.016
G1 X123.973 Y118.514 E0.015
G1 X124.425 Y118.435 E0.015
G1 X124.883 Y118.4 E0.015
;rapid-leaky
G0 X124.893 Y118.801 F7200
;bead-skirt/brim
G1 X125.311 Y118.811 F960 E0.014
G1 X125.727 Y118.864 E0.014
G1 X126.135 Y118.957 E0.014
G1 X126.532 Y119.09 E0.014
G1 X126.913 Y119.263 E0.014
G1 X127.277 Y119.472 E0.014
G1 X127.616 Y119.717 E0.014
G1 X127.93 Y119.994 E0.014
G1 X128.215 Y120.3 E0.014
G1 X128.467 Y120.634 E0.014
G1 X128.686 Y120.991 E0.013
G1 X128.867 Y121.368 E0.014
G1 X129.011 Y121.762 E0.014
G1 X129.114 Y122.167 E0.014
G1 X129.177 Y122.582 E0.014
G1 X129.198 Y123 E0.014
G1 X129.177 Y123.418 E0.014
G1 X129.114 Y123.833 E0.014
G1 X129.011 Y124.238 E0.014
G1 X128.867 Y124.632 E0.014
G1 X128.686 Y125.009 E0.014
G1 X128.467 Y125.366 E0.014
G1 X128.215 Y125.7 E0.014
G1 X127.93 Y126.006 E0.014
G1 X127.616 Y126.283 E0.013
G1 X127.277 Y126.528 E0.014
G1 X126.913 Y126.737 E0.014
G1 X126.532 Y126.909 E0.014
G1 X126.135 Y127.043 E0.014
G1 X125.727 Y127.136 E0.014
G1 X125.311 Y127.189 E0.014
G1 X124.893 Y127.199 E0.014
G1 X124.475 Y127.168 E0.014
G1 X124.063 Y127.095 E0.014
G1 X123.66 Y126.982 E0.014
G1 X123.27 Y126.828 E0.014
G1 X122.898 Y126.637 E0.014
G1 X122.546 Y126.411 E0.013
G1 X122.219 Y126.149 E0.014
G1 X121.918 Y125.857 E0.014
G1 X121.649 Y125.536 E0.014
G1 X121.413 Y125.19 E0.014
G1 X121.214 Y124.823 E0.014
G1 X121.051 Y124.437 E0.014
G1 X120.927 Y124.037 E0.014
G1 X120.844 Y123.626 E0.014
G1 X120.802 Y123.209 E0.014
G1 Y122.791 E0.014
G1 X120.844 Y122.374 E0.014
G1 X120.927 Y121.963 E0.014
G1 X121.051 Y121.563 E0.014
G1 X121.214 Y121.177 E0.013
G1 X121.413 Y120.81 E0.014
G1 X121.649 Y120.464 E0.014
G1 X121.918 Y120.143 E0.014
G1 X122.219 Y119.851 E0.014
G1 X122.546 Y119.589 E0.014
G1 X122.898 Y119.363 E0.014
G1 X123.27 Y119.172 E0.014
G1 X123.66 Y119.018 E0.014
G1 X124.062 Y118.905 E0.014
G1 X124.475 Y118.832 E0.014
G1 X124.893 Y118.801 E0.014
;rapid-leaky
G0 X125.147 Y129.199 F7200
;bead-skirt/brim
G1 X125.724 Y129.243 F960 E0.019
G1 X126.294 Y129.343 E0.019
G1 X126.85 Y129.5 E0.019
G1 X127.39 Y129.712 E0.02
G1 X127.903 Y129.975 E0.019
G1 X128.389 Y130.288 E0.019
G1 X128.841 Y130.649 E0.019
G1 X129.256 Y131.053 E0.02
G1 X129.628 Y131.497 E0.019
G1 X129.954 Y131.974 E0.019
G1 X130.23 Y132.483 E0.019
G1 X130.454 Y133.015 E0.019
G1 X130.625 Y133.567 E0.02
G1 X130.74 Y134.135 E0.019
G1 X130.798 Y134.711 E0.019
G1 Y135.289 E0.019
G1 X130.74 Y135.865 E0.02
G1 X130.625 Y136.433 E0.019
G1 X130.454 Y136.985 E0.019
G1 X130.23 Y137.517 E0.019
G1 X129.954 Y138.026 E0.02
G1 X129.628 Y138.503 E0.019
G1 X129.256 Y138.947 E0.019
G1 X128.841 Y139.351 E0.019
G1 X128.389 Y139.712 E0.02
G1 X127.903 Y140.025 E0.019
G1 X127.39 Y140.288 E0.019
G1 X126.85 Y140.5 E0.019
G1 X126.294 Y140.657 E0.02
G1 X125.724 Y140.757 E0.019
G1 X125.147 Y140.801 E0.019
G1 X124.568 Y140.786 E0.019
G1 X123.994 Y140.714 E0.02
G1 X123.43 Y140.585 E0.019
G1 X122.882 Y140.401 E0.019
G1 X122.357 Y140.163 E0.019
G1 X121.854 Y139.874 E0.02
G1 X121.384 Y139.535 E0.019
G1 X120.953 Y139.154 E0.019
G1 X120.557 Y138.73 E0.019
G1 X120.208 Y138.267 E0.019
G1 X119.908 Y137.775 E0.02
G1 X119.657 Y137.255 E0.019
G1 X119.458 Y136.711 E0.019
G1 X119.316 Y136.151 E0.019
G1 X119.229 Y135.579 E0.02
G1 X119.2 Y135 E0.019
G1 X119.229 Y134.421 E0.019
G1 X119.316 Y133.849 E0.019
G1 X119.458 Y133.289 E0.02
G1 X119.657 Y132.745 E0.019
G1 X119.908 Y132.224 E0.019
G1 X120.208 Y131.733 E0.019
G1 X120.557 Y131.27 E0.02
G1 X120.953 Y130.846 E0.019
G1 X121.384 Y130.465 E0.019
G1 X121.853 Y130.127 E0.019
G1 X122.355 Y129.837 E0.019
G1 X122.884 Y129.598 E0.02
G1 X123.433 Y129.415 E0.019
G1 X123.994 Y129.286 E0.019
G1 X124.568 Y129.214 E0.019
G1 X125.147 Y129.199 E0.02
;rapid-leaky
G0 X125.137 Y129.6 F7200
;bead-skirt/brim
G1 X125.674 Y129.64 F960 E0.018
G1 X126.205 Y129.733 E0.018
G1 X126.723 Y129.879 E0.017
G1 X127.225 Y130.077 E0.018
G1 X127.703 Y130.322 E0.018
G1 X128.155 Y130.614 E0.018
G1 X128.576 Y130.949 E0.018
G1 X128.963 Y131.325 E0.018
G1 X129.308 Y131.739 E0.018
G1 X129.612 Y132.183 E0.018
G1 X129.869 Y132.657 E0.018
G1 X130.078 Y133.152 E0.018
G1 X130.237 Y133.666 E0.018
G1 X130.344 Y134.195 E0.017
G1 X130.398 Y134.731 E0.018
G1 Y135.269 E0.018
G1 X130.344 Y135.805 E0.018
G1 X130.237 Y136.334 E0.018
G1 X130.078 Y136.848 E0.018
G1 X129.869 Y137.343 E0.018
G1 X129.612 Y137.817 E0.018
G1 X129.308 Y138.261 E0.018
G1 X128.963 Y138.675 E0.018
G1 X128.576 Y139.051 E0.018
G1 X128.155 Y139.386 E0.018
G1 X127.703 Y139.678 E0.017
G1 X127.225 Y139.923 E0.018
G1 X126.723 Y140.121 E0.018
G1 X126.205 Y140.267 E0.018
G1 X125.674 Y140.36 E0.018
G1 X125.137 Y140.4 E0.018
G1 X124.598 Y140.387 E0.018
G1 X124.064 Y140.319 E0.018
G1 X123.539 Y140.199 E0.018
G1 X123.029 Y140.028 E0.018
G1 X122.539 Y139.807 E0.017
G1 X122.071 Y139.538 E0.018
G1 X121.634 Y139.222 E0.018
G1 X121.232 Y138.867 E0.018
G1 X120.864 Y138.472 E0.018
G1 X120.539 Y138.042 E0.018
G1 X120.259 Y137.584 E0.018
G1 X120.026 Y137.099 E0.018
G1 X119.841 Y136.593 E0.018
G1 X119.708 Y136.071 E0.018
G1 X119.627 Y135.539 E0.018
G1 X119.6 Y135 E0.018
G1 X119.627 Y134.461 E0.017
G1 X119.708 Y133.929 E0.018
G1 X119.841 Y133.407 E0.018
G1 X120.026 Y132.901 E0.018
G1 X120.259 Y132.416 E0.018
G1 X120.539 Y131.958 E0.018
G1 X120.864 Y131.528 E0.018
G1 X121.232 Y131.133 E0.018
G1 X121.634 Y130.778 E0.018
G1 X122.07 Y130.463 E0.018
G1 X122.538 Y130.193 E0.018
G1 X123.03 Y129.971 E0.017
G1 X123.541 Y129.8 E0.018
G1 X124.064 Y129.681 E0.018
G1 X124.598 Y129.613 E0.018
G1 X125.137 Y129.6 E0.018
;rapid-leaky
G0 X125.127 Y130 F7200
;bead-skirt/brim
G1 X125.624 Y130.038 F960 E0.017
G1 X126.116 Y130.124 E0.016
G1 X126.595 Y130.259 E0.017
G1 X127.06 Y130.442 E0.016
G1 X127.503 Y130.669 E0.017
G1 X127.921 Y130.939 E0.017
G1 X128.311 Y131.25 E0.016
G1 X128.669 Y131.598 E0.017
G1 X128.989 Y131.981 E0.016
G1 X129.27 Y132.392 E0.017
G1 X129.508 Y132.83 E0.017
G1 X129.702 Y133.289 E0.016
G1 X129.849 Y133.765 E0.017
G1 X129.948 Y134.255 E0.016
G1 X129.998 Y134.751 E0.017
G1 Y135.249 E0.016
G1 X129.948 Y135.745 E0.017
G1 X129.849 Y136.235 E0.017
G1 X129.702 Y136.711 E0.016
G1 X129.508 Y137.17 E0.017
G1 X129.27 Y137.608 E0.016
G1 X128.989 Y138.019 E0.017
G1 X128.669 Y138.402 E0.017
G1 X128.311 Y138.75 E0.016
G1 X127.921 Y139.061 E0.017
G1 X127.503 Y139.331 E0.016
G1 X127.06 Y139.558 E0.017
G1 X126.595 Y139.741 E0.016
G1 X126.116 Y139.876 E0.017
G1 X125.624 Y139.962 E0.017
G1 X125.127 Y140 E0.016
G1 X124.629 Y139.987 E0.017
G1 X124.133 Y139.925 E0.016
G1 X123.648 Y139.814 E0.017
G1 X123.175 Y139.655 E0.017
G1 X122.722 Y139.45 E0.016
G1 X122.289 Y139.201 E0.017
G1 X121.884 Y138.909 E0.016
G1 X121.512 Y138.58 E0.017
G1 X121.171 Y138.215 E0.016
G1 X120.87 Y137.816 E0.017
G1 X120.611 Y137.392 E0.017
G1 X120.395 Y136.944 E0.016
G1 X120.223 Y136.474 E0.017
G1 X120.101 Y135.992 E0.016
G1 X120.026 Y135.498 E0.017
G1 X120.001 Y135 E0.016
G1 X120.026 Y134.502 E0.017
G1 X120.101 Y134.008 E0.017
G1 X120.223 Y133.526 E0.016
G1 X120.395 Y133.056 E0.017
G1 X120.611 Y132.608 E0.016
G1 X120.87 Y132.184 E0.017
G1 X121.171 Y131.785 E0.017
G1 X121.512 Y131.42 E0.016
G1 X121.884 Y131.091 E0.017
G1 X122.288 Y130.799 E0.016
G1 X122.721 Y130.549 E0.017
G1 X123.176 Y130.344 E0.017
G1 X123.649 Y130.186 E0.016
G1 X124.133 Y130.075 E0.017
G1 X124.629 Y130.013 E0.016
G1 X125.127 Y130 E0.017
;rapid-leaky
G0 X125.117 Y130.4 F7200
;bead-skirt/brim
G1 X125.575 Y130.435 F960 E0.015
G1 X126.027 Y130.514 E0.015
G1 X126.467 Y130.639 E0.016
G1 X126.895 Y130.807 E0.015
G1 X127.302 Y131.016 E0.015
G1 X127.688 Y131.264 E0.015
G1 X128.046 Y131.55 E0.016
G1 X128.375 Y131.87 E0.015
G1 X128.67 Y132.222 E0.015
G1 X128.929 Y132.601 E0.015
G1 X129.147 Y133.004 E0.016
G1 X129.325 Y133.426 E0.015
G1 X129.461 Y133.864 E0.015
G1 X129.552 Y134.314 E0.015
G1 X129.598 Y134.771 E0.016
G1 Y135.229 E0.015
G1 X129.552 Y135.686 E0.015
G1 X129.461 Y136.136 E0.015
G1 X129.325 Y136.574 E0.016
G1 X129.147 Y136.996 E0.015
G1 X128.929 Y137.399 E0.015
G1 X128.67 Y137.778 E0.015
G1 X128.375 Y138.13 E0.016
G1 X128.046 Y138.45 E0.015
G1 X127.688 Y138.736 E0.015
G1 X127.302 Y138.984 E0.015
G1 X126.895 Y139.193 E0.016
G1 X126.467 Y139.361 E0.015
G1 X126.027 Y139.486 E0.015
G1 X125.575 Y139.565 E0.015
G1 X125.117 Y139.6 E0.016
G1 X124.659 Y139.588 E0.015
G1 X124.203 Y139.531 E0.015
G1 X123.756 Y139.428 E0.015
G1 X123.321 Y139.282 E0.016
G1 X122.904 Y139.094 E0.015
G1 X122.506 Y138.865 E0.015
G1 X122.134 Y138.596 E0.016
G1 X121.791 Y138.293 E0.015
G1 X121.478 Y137.957 E0.015
G1 X121.201 Y137.591 E0.015
G1 X120.963 Y137.2 E0.016
G1 X120.764 Y136.788 E0.015
G1 X120.606 Y136.356 E0.015
G1 X120.493 Y135.912 E0.015
G1 X120.424 Y135.458 E0.016
G1 X120.401 Y135 E0.015
G1 X120.424 Y134.542 E0.015
G1 X120.493 Y134.088 E0.015
G1 X120.606 Y133.644 E0.016
G1 X120.764 Y133.212 E0.015
G1 X120.963 Y132.799 E0.015
G1 X121.201 Y132.409 E0.015
G1 X121.478 Y132.043 E0.016
G1 X121.791 Y131.707 E0.015
G1 X122.134 Y131.404 E0.015
G1 X122.506 Y131.136 E0.015
G1 X122.904 Y130.906 E0.016
G1 X123.322 Y130.717 E0.015
G1 X123.757 Y130.572 E0.015
G1 X124.203 Y130.469 E0.015
G1 X124.659 Y130.412 E0.016
G1 X125.117 Y130.4 E0.015
;rapid-leaky
G0 X125.107 Y130.801 F7200
;bead-skirt/brim
G1 X125.525 Y130.832 F960 E0.014
G1 X125.938 Y130.905 E0.014
G1 X126.34 Y131.018 E0.014
G1 X126.73 Y131.171 E0.014
G1 X127.102 Y131.363 E0.013
G1 X127.454 Y131.589 E0.014
G1 X127.781 Y131.851 E0.014
G1 X128.082 Y132.143 E0.014
G1 X128.351 Y132.464 E0.014
G1 X128.587 Y132.81 E0.014
G1 X128.786 Y133.177 E0.014
G1 X128.949 Y133.563 E0.014
G1 X129.073 Y133.963 E0.014
G1 X129.156 Y134.374 E0.014
G1 X129.198 Y134.791 E0.014
G1 Y135.209 E0.014
G1 X129.156 Y135.626 E0.014
G1 X129.073 Y136.037 E0.014
G1 X128.949 Y136.437 E0.013
G1 X128.786 Y136.823 E0.014
G1 X128.587 Y137.19 E0.014
G1 X128.351 Y137.536 E0.014
G1 X128.082 Y137.857 E0.014
G1 X127.781 Y138.149 E0.014
G1 X127.454 Y138.411 E0.014
G1 X127.102 Y138.637 E0.014
G1 X126.73 Y138.828 E0.014
G1 X126.34 Y138.982 E0.014
G1 X125.938 Y139.095 E0.014
G1 X125.525 Y139.168 E0.014
G1 X125.107 Y139.199 E0.014
G1 X124.689 Y139.189 E0.014
G1 X124.273 Y139.136 E0.013
G1 X123.865 Y139.043 E0.014
G1 X123.468 Y138.909 E0.014
G1 X123.087 Y138.737 E0.014
G1 X122.723 Y138.528 E0.014
G1 X122.384 Y138.283 E0.014
G1 X122.07 Y138.006 E0.014
G1 X121.785 Y137.7 E0.014
G1 X121.532 Y137.366 E0.014
G1 X121.314 Y137.009 E0.014
G1 X121.133 Y136.632 E0.014
G1 X120.989 Y136.238 E0.014
G1 X120.886 Y135.833 E0.014
G1 X120.823 Y135.418 E0.014
G1 X120.802 Y135 E0.013
G1 X120.823 Y134.582 E0.014
G1 X120.886 Y134.167 E0.014
G1 X120.989 Y133.762 E0.014
G1 X121.133 Y133.368 E0.014
G1 X121.314 Y132.991 E0.014
G1 X121.533 Y132.634 E0.014
G1 X121.785 Y132.3 E0.014
G1 X122.07 Y131.994 E0.014
G1 X122.384 Y131.717 E0.014
G1 X122.723 Y131.472 E0.014
G1 X123.087 Y131.262 E0.014
G1 X123.468 Y131.09 E0.014
G1 X123.865 Y130.957 E0.013
G1 X124.273 Y130.864 E0.014
G1 X124.689 Y130.811 E0.014
G1 X125.107 Y130.801 E0.014
G1 F2100 E-0.5
;rapid-dry
G0 X125.097 Y131.201 F7200
G1 F2100 E0.5
;bead-perimeter_outer
G1 X125.475 Y131.23 F720 E0.013
G1 X125.848 Y131.295 E0.012
G1 X126.212 Y131.398 E0.013
G1 X126.566 Y131.536 E0.013
G1 X126.902 Y131.709 E0.012
G1 X127.22 Y131.915 E0.013
G1 X127.517 Y132.151 E0.012
G1 X127.788 Y132.415 E0.013
G1 X128.031 Y132.706 E0.013
G1 X128.245 Y133.018 E0.012
G1 X128.426 Y133.351 E0.013
G1 X128.573 Y133.701 E0.012
G1 X128.685 Y134.063 E0.013
G1 X128.76 Y134.434 E0.013
G1 X128.798 Y134.811 E0.012
G1 Y135.189 E0.013
G1 X128.76 Y135.566 E0.012
G1 X128.685 Y135.937 E0.013
G1 X128.573 Y136.299 E0.013
G1 X128.426 Y136.649 E0.012
G1 X128.245 Y136.982 E0.013
G1 X128.031 Y137.294 E0.012
G1 X127.788 Y137.585 E0.013
G1 X127.517 Y137.849 E0.013
G1 X127.22 Y138.085 E0.012
G1 X126.902 Y138.291 E0.013
G1 X126.566 Y138.464 E0.012
G1 X126.212 Y138.602 E0.013
G1 X125.848 Y138.705 E0.013
G1 X125.475 Y138.77 E0.012
G1 X125.097 Y138.799 E0.013
G1 X124.719 Y138.789 E0.012
G1 X124.343 Y138.742 E0.013
G1 X123.973 Y138.657 E0.013
G1 X123.614 Y138.537 E0.012
G1 X123.269 Y138.381 E0.013
G1 X122.941 Y138.192 E0.012
G1 X122.634 Y137.971 E0.013
G1 X122.35 Y137.72 E0.013
G1 X122.091 Y137.442 E0.012
G1 X121.864 Y137.14 E0.013
G1 X121.666 Y136.817 E0.012
G1 X121.501 Y136.476 E0.013
G1 X121.371 Y136.12 E0.013
G1 X121.278 Y135.753 E0.012
G1 X121.221 Y135.378 E0.013
G1 X121.202 Y135 E0.012
G1 X121.221 Y134.622 E0.013
G1 X121.278 Y134.247 E0.013
G1 X121.371 Y133.88 E0.012
G1 X121.501 Y133.524 E0.013
G1 X121.666 Y133.183 E0.012
G1 X121.864 Y132.86 E0.013
G1 X122.091 Y132.558 E0.013
G1 X122.35 Y132.28 E0.012
G1 X122.634 Y132.029 E0.013
G1 X122.941 Y131.808 E0.012
G1 X123.269 Y131.618 E0.013
G1 X123.614 Y131.462 E0.013
G1 X123.973 Y131.343 E0.012
G1 X124.343 Y131.258 E0.013
G1 X124.719 Y131.211 E0.012
G1 X125.097 Y131.201 E0.013
;rapid-leaky
G0 X125.088 Y131.562 F7200
;bead-perimeter_inner
G1 X125.43 Y131.587 F960 E0.011
G1 X125.768 Y131.647 E0.012
G1 X126.097 Y131.739 E0.011
G1 X126.417 Y131.865 E0.012
G1 X126.722 Y132.022 E0.011
G1 X127.01 Y132.207 E0.011
G1 X127.278 Y132.422 E0.012
G1 X127.524 Y132.66 E0.011
G1 X127.744 Y132.924 E0.012
G1 X127.938 Y133.206 E0.011
G1 X128.101 Y133.507 E0.011
G1 X128.234 Y133.824 E0.012
G1 X128.336 Y134.152 E0.011
G1 X128.404 Y134.488 E0.012
G1 X128.438 Y134.829 E0.011
G1 Y135.171 E0.011
G1 X128.404 Y135.512 E0.012
G1 X128.336 Y135.848 E0.011
G1 X128.234 Y136.176 E0.012
G1 X128.101 Y136.493 E0.011
G1 X127.938 Y136.794 E0.011
G1 X127.744 Y137.076 E0.012
G1 X127.524 Y137.34 E0.011
G1 X127.278 Y137.578 E0.012
G1 X127.01 Y137.793 E0.011
G1 X126.722 Y137.979 E0.012
G1 X126.417 Y138.135 E0.011
G1 X126.097 Y138.261 E0.011
G1 X125.768 Y138.353 E0.012
G1 X125.43 Y138.413 E0.011
G1 X125.088 Y138.438 E0.012
G1 X124.746 Y138.43 E0.011
G1 X124.406 Y138.387 E0.011
G1 X124.071 Y138.31 E0.012
G1 X123.746 Y138.201 E0.011
G1 X123.434 Y138.06 E0.012
G1 X123.136 Y137.889 E0.011
G1 X122.859 Y137.689 E0.011
G1 X122.601 Y137.461 E0.012
G1 X122.368 Y137.21 E0.011
G1 X122.161 Y136.937 E0.012
G1 X121.982 Y136.645 E0.011
G1 X121.834 Y136.336 E0.011
G1 X121.716 Y136.014 E0.012
G1 X121.632 Y135.682 E0.011
G1 X121.58 Y135.341 E0.012
G1 X121.563 Y135.001 E0.011
G1 X121.58 Y134.658 E0.011
G1 X121.632 Y134.318 E0.012
G1 X121.716 Y133.986 E0.011
G1 X121.834 Y133.664 E0.012
G1 X121.982 Y133.355 E0.011
G1 X122.161 Y133.063 E0.011
G1 X122.368 Y132.789 E0.012
G1 X122.601 Y132.539 E0.011
G1 X122.859 Y132.311 E0.012
G1 X123.137 Y132.111 E0.011
G1 X123.434 Y131.939 E0.011
G1 X123.745 Y131.798 E0.012
G1 X124.07 Y131.69 E0.011
G1 X124.406 Y131.613 E0.012
G1 X124.746 Y131.57 E0.011
G1 X125.088 Y131.562 E0.011
G1 F2100 E-0.5
;rapid-dry
G0 X124.931 Y133.151 F7200
G1 F2100 E0.5
;bead-perimeter_outer
G1 X124.65 Y133.183 F720 E0.01
G1 X124.377 Y133.258 E0.009
G1 X124.118 Y133.374 E0.01
G1 X123.874 Y133.534 E0.009
G1 X123.669 Y133.717 E0.01
G1 X123.489 Y133.936 E0.009
G1 X123.344 Y134.179 E0.009
G1 X123.236 Y134.45 E0.01
G1 X123.174 Y134.717 E0.009
G1 X123.151 Y135 E0.01
G1 X123.174 Y135.283 E0.009
G1 X123.238 Y135.559 E0.01
G1 X123.344 Y135.821 E0.009
G1 X123.489 Y136.064 E0.009
G1 X123.669 Y136.283 E0.01
G1 X123.88 Y136.471 E0.009
G1 X124.118 Y136.626 E0.01
G1 X124.377 Y136.742 E0.009
G1 X124.65 Y136.817 E0.009
G1 X124.932 Y136.849 E0.01
G1 X125.224 Y136.837 E0.01
G1 X125.493 Y136.784 E0.009
G1 X125.759 Y136.689 E0.009
G1 X126.008 Y136.553 E0.01
G1 X126.234 Y136.382 E0.009
G1 X126.435 Y136.171 E0.01
G1 X126.593 Y135.945 E0.009
G1 X126.719 Y135.692 E0.009
G1 X126.804 Y135.422 E0.01
G1 X126.848 Y135.141 E0.009
G1 X126.847 Y134.85 E0.01
G1 X126.804 Y134.578 E0.009
G1 X126.719 Y134.308 E0.009
G1 X126.593 Y134.054 E0.01
G1 X126.424 Y133.816 E0.01
G1 X126.233 Y133.618 E0.009
G1 X126.008 Y133.447 E0.009
G1 X125.759 Y133.311 E0.01
G1 X125.493 Y133.216 E0.009
G1 X125.215 Y133.162 E0.009
G1 X124.931 Y133.151 E0.01
;rapid-leaky
G0 X124.918 Y132.79 F7200
;bead-perimeter_inner
G1 X124.581 Y132.829 F960 E0.011
G1 X124.255 Y132.918 E0.011
G1 X123.945 Y133.057 E0.012
G1 X123.654 Y133.248 E0.011
G1 X123.409 Y133.467 E0.011
G1 X123.194 Y133.728 E0.011
G1 X123.02 Y134.019 E0.012
G1 X122.891 Y134.342 E0.011
G1 X122.817 Y134.662 E0.011
G1 X122.79 Y135 E0.011
G1 X122.817 Y135.338 E0.012
G1 X122.893 Y135.668 E0.011
G1 X123.021 Y135.982 E0.011
G1 X123.194 Y136.272 E0.011
G1 X123.409 Y136.533 E0.012
G1 X123.661 Y136.758 E0.011
G1 X123.946 Y136.943 E0.011
G1 X124.255 Y137.082 E0.012
G1 X124.581 Y137.171 E0.011
G1 X124.919 Y137.21 E0.011
G1 X125.266 Y137.196 E0.012
G1 X125.589 Y137.132 E0.011
G1 X125.907 Y137.018 E0.011
G1 X126.204 Y136.856 E0.011
G1 X126.474 Y136.651 E0.011
G1 X126.714 Y136.4 E0.012
G1 X126.904 Y136.13 E0.011
G1 X127.054 Y135.827 E0.011
G1 X127.156 Y135.504 E0.011
G1 X127.208 Y135.168 E0.012
G1 X127.207 Y134.821 E0.011
G1 X127.156 Y134.496 E0.011
G1 X127.054 Y134.173 E0.011
G1 X126.903 Y133.869 E0.012
G1 X126.702 Y133.585 E0.011
G1 X126.473 Y133.348 E0.011
G1 X126.204 Y133.144 E0.011
G1 X125.907 Y132.982 E0.012
G1 X125.589 Y132.867 E0.011
G1 X125.257 Y132.803 E0.011
G1 X124.918 Y132.79 E0.012
G1 F2100 E-0.5
;rapid-dry
G0 X125.069 Y121.151 F7200
G1 F2100 E0.5
;bead-perimeter_outer
G1 X124.785 Y121.162 F720 E0.009
G1 X124.5 Y121.218 E0.01
G1 X124.234 Y121.314 E0.009
G1 X123.992 Y121.447 E0.009
G1 X123.767 Y121.618 E0.01
G1 X123.57 Y121.822 E0.009
G1 X123.407 Y122.054 E0.01
G1 X123.281 Y122.308 E0.009
G1 X123.196 Y122.578 E0.009
G1 X123.152 Y122.859 E0.01
G1 X123.153 Y123.149 E0.009
G1 X123.196 Y123.422 E0.01
G1 X123.281 Y123.692 E0.009
G1 X123.411 Y123.952 E0.01
G1 X123.57 Y124.178 E0.009
G1 X123.767 Y124.382 E0.009
G1 X123.992 Y124.553 E0.01
G1 X124.241 Y124.689 E0.009
G1 X124.507 Y124.784 E0.01
G1 X124.785 Y124.838 E0.009
G1 X125.069 Y124.849 E0.009
G1 X125.35 Y124.817 E0.01
G1 X125.623 Y124.742 E0.009
G1 X125.882 Y124.626 E0.01
G1 X126.12 Y124.471 E0.009
G1 X126.331 Y124.283 E0.01
G1 X126.511 Y124.064 E0.009
G1 X126.659 Y123.815 E0.01
G1 X126.764 Y123.551 E0.009
G1 X126.826 Y123.283 E0.009
G1 X126.849 Y123 E0.01
G1 X126.826 Y122.717 E0.009
G1 X126.762 Y122.441 E0.01
G1 X126.656 Y122.178 E0.009
G1 X126.507 Y121.93 E0.01
G1 X126.331 Y121.717 E0.009
G1 X126.12 Y121.529 E0.009
G1 X125.882 Y121.374 E0.01
G1 X125.623 Y121.258 E0.009
G1 X125.35 Y121.183 E0.009
G1 X125.069 Y121.151 E0.01
;rapid-leaky
G0 X125.082 Y120.79 F7200
;bead-perimeter_inner
G1 X124.742 Y120.803 F960 E0.011
G1 X124.404 Y120.87 E0.012
G1 X124.086 Y120.985 E0.011
G1 X123.795 Y121.144 E0.011
G1 X123.526 Y121.349 E0.011
G1 X123.292 Y121.592 E0.011
G1 X123.096 Y121.87 E0.012
G1 X122.946 Y122.173 E0.011
G1 X122.844 Y122.496 E0.011
G1 X122.792 Y122.832 E0.012
