;role palma
;Printer name: Prusa i3 MK3
;TIME:1210
;Print time: 20m:10s
;Extruder 1 material used: 772mm
;Extruder 1 material name: 
;Extruder 1 filament diameter: 1.75mm
;Extruder 1 nozzle diameter: 0.4mm
;Extruder 1 offset x: 0mm
;Extruder 1 offset y: 0mm
;Extruder 1 offset z: 0mm
;Extruder 1 max temp: 200
;Bed temp: 70
;Layer count: 33
;Width: 250mm
;Depth: 210mm
;Height: 210mm
;Center x: 125mm
;Center y: 105mm
;Center z: 0mm
;Count of bodies: 17
;Fusion version: 2.0.19440
G21
M115 U3.0.10 ;tell printer latest fw version
G28 W ;home all without mesh bed level
;--------------------------------
;Selected Profile: PLA Direct Drive
;--------------------------------
;Selected Printer: Prusa, i3 MK3
;--------------------------------
T0
M140 S70
M104 S200 T0
M190 S70
M109 S200 T0
G80 ;mesh bed leveling
G92 E0
G90
M83
G0 X10 Y10 Z10 F7200
G92 E0
;--------------------------------
;Part 1
;LAYER_COUNT:33
;LAYER:1
M107
;rapid-leaky
G0 X20 Y20.5 Z0.2 F7200
;bead-prime
G1 X120 F720 E8.315
G1 F2100 E-0.5
;rapid-dry
G0 X117.102 Y44.688 F7200
G1 F2100 E0.5
;bead-skirt/brim
G1 X117.793 Y44.78 F960 E0.023
G1 X118.434 Y44.93 E0.022
G1 X119.023 Y45.124 E0.021
G1 X119.513 Y45.328 E0.017
G1 X120.08 Y45.617 E0.022
G1 X120.501 Y45.885 E0.016
G1 X120.887 Y45.64 E0.015
G1 X121.449 Y45.343 E0.021
G1 X122.067 Y45.087 E0.023
G1 X122.723 Y44.886 E0.023
G1 X123.545 Y44.725 E0.027
G1 X124.267 Y44.666 E0.025
G1 X125.102 Y44.688 E0.027
G1 X125.793 Y44.78 E0.023
G1 X126.434 Y44.93 E0.022
G1 X127.023 Y45.124 E0.021
G1 X127.513 Y45.328 E0.018
G1 X128.08 Y45.617 E0.021
G1 X128.671 Y45.993 E0.023
G1 X129.32 Y46.516 E0.028
G1 X129.81 Y47 E0.023
G1 X130.252 Y47.533 E0.023
G1 X130.714 Y48.227 E0.028
G1 X131.045 Y48.864 E0.023
G1 X131.35 Y49.647 E0.028
G1 X131.53 Y50.316 E0.023
G1 X131.642 Y50.971 E0.022
G1 X131.693 Y51.646 E0.023
G1 X131.67 Y52.537 E0.03
G1 X131.521 Y53.455 E0.031
G1 X131.325 Y54.148 E0.024
G1 X131.077 Y54.784 E0.022
G1 X130.756 Y55.424 E0.024
G1 X130.271 Y56.165 E0.03
G1 X129.785 Y56.75 E0.025
G1 X129.143 Y57.361 E0.029
G1 X128.575 Y57.793 E0.024
G1 X127.991 Y58.155 E0.023
G1 X127.377 Y58.458 E0.023
G1 X126.71 Y58.711 E0.023
G1 X125.855 Y58.932 E0.03
G1 X125.098 Y59.036 E0.025
G1 X124.213 Y59.053 E0.03
G1 X123.5 Y58.989 E0.023
G1 X122.822 Y58.86 E0.023
G1 X122.134 Y58.659 E0.024
G1 X121.322 Y58.32 E0.029
G1 X120.692 Y57.969 E0.024
G1 X120.503 Y57.838 E0.008
G1 X119.991 Y58.155 E0.02
G1 X119.377 Y58.458 E0.023
G1 X118.71 Y58.711 E0.024
G1 X117.855 Y58.932 E0.029
G1 X117.098 Y59.036 E0.025
G1 X116.213 Y59.053 E0.03
G1 X115.5 Y58.989 E0.024
G1 X114.822 Y58.86 E0.023
G1 X114.134 Y58.659 E0.023
G1 X113.322 Y58.32 E0.03
G1 X112.692 Y57.969 E0.024
G1 X112.122 Y57.574 E0.023
G1 X111.601 Y57.132 E0.022
G1 X111.135 Y56.655 E0.023
G1 X110.77 Y56.207 E0.019
G1 X110.502 Y55.825 E0.015
G1 X110.04 Y56.458 E0.026
G1 X109.534 Y57.007 E0.025
G1 X108.899 Y57.559 E0.028
G1 X108.329 Y57.955 E0.023
G1 X107.732 Y58.292 E0.023
G1 X106.969 Y58.623 E0.028
G1 X106.278 Y58.837 E0.024
G1 X105.45 Y58.997 E0.028
G1 X104.737 Y59.055 E0.024
G1 X103.902 Y59.035 E0.028
G1 X103.207 Y58.942 E0.023
G1 X102.501 Y58.777 E0.024
G1 X101.558 Y58.429 E0.033
G1 X100.92 Y58.104 E0.024
G1 X100.363 Y57.75 E0.022
G1 X100 Y57.47 E0.015
G1 X99.575 Y57.793 E0.018
G1 X98.991 Y58.155 E0.023
G1 X98.377 Y58.458 E0.023
G1 X97.709 Y58.712 E0.024
G1 X96.854 Y58.931 E0.029
G1 X96.099 Y59.036 E0.025
G1 X95.213 Y59.053 E0.03
G1 X94.5 Y58.989 E0.024
G1 X93.822 Y58.86 E0.023
G1 X93.134 Y58.659 E0.023
G1 X92.322 Y58.32 E0.03
G1 X91.692 Y57.969 E0.024
G1 X91.122 Y57.574 E0.023
G1 X90.602 Y57.132 E0.022
G1 X90.135 Y56.655 E0.023
G1 X89.77 Y56.207 E0.019
G1 X89.397 Y55.674 E0.021
G1 X89.059 Y55.072 E0.023
G1 X88.783 Y54.448 E0.023
G1 X88.564 Y53.788 E0.023
G1 X88.408 Y53.088 E0.024
G1 X88.309 Y52.216 E0.029
G1 X88.312 Y51.45 E0.026
G1 X88.419 Y50.571 E0.029
G1 X88.58 Y49.885 E0.024
G1 X88.799 Y49.232 E0.023
G1 X89.097 Y48.569 E0.024
G1 X89.55 Y47.807 E0.029
G1 X89.984 Y47.238 E0.024
G1 X90.448 Y46.734 E0.023
G1 X90.947 Y46.289 E0.022
G1 X91.443 Y45.921 E0.021
G1 X91.887 Y45.64 E0.017
G1 X92.449 Y45.343 E0.021
G1 X93.067 Y45.087 E0.022
G1 X93.723 Y44.886 E0.023
G1 X94.545 Y44.725 E0.028
G1 X95.267 Y44.666 E0.024
G1 X96.103 Y44.688 E0.028
G1 X96.791 Y44.78 E0.023
G1 X97.432 Y44.93 E0.022
G1 X98.023 Y45.124 E0.021
G1 X98.513 Y45.328 E0.017
G1 X99.08 Y45.617 E0.022
G1 X99.671 Y45.993 E0.023
G1 X99.996 Y46.254 E0.014
G1 X100.429 Y45.926 E0.018
G1 X101.003 Y45.571 E0.022
G1 X101.622 Y45.262 E0.023
G1 X102.269 Y45.019 E0.023
G1 X102.832 Y44.865 E0.02
G1 X103.249 Y44.771 E0.014
G1 X104.106 Y44.674 E0.029
G1 X104.819 Y44.67 E0.023
G1 X105.5 Y44.734 E0.023
G1 X106.173 Y44.859 E0.023
G1 X106.866 Y45.062 E0.024
G1 X107.683 Y45.403 E0.029
G1 X108.312 Y45.756 E0.024
G1 X108.874 Y46.145 E0.023
G1 X109.418 Y46.605 E0.024
G1 X110.027 Y47.247 E0.029
G1 X110.502 Y47.889 E0.027
G1 X110.984 Y47.238 E0.027
G1 X111.448 Y46.734 E0.022
G1 X111.947 Y46.289 E0.023
G1 X112.443 Y45.921 E0.02
G1 X112.887 Y45.64 E0.018
G1 X113.448 Y45.343 E0.021
G1 X114.067 Y45.087 E0.022
G1 X114.724 Y44.886 E0.023
G1 X115.545 Y44.725 E0.028
G1 X116.267 Y44.666 E0.024
G1 X117.102 Y44.688 E0.028
;rapid-leaky
G0 X117.07 Y45.087 F7200
;bead-skirt/brim
G1 X117.721 Y45.174 F960 E0.021
G1 X118.325 Y45.316 E0.021
G1 X118.883 Y45.499 E0.02
G1 X119.345 Y45.691 E0.016
G1 X119.882 Y45.964 E0.02
G1 X120.505 Y46.373 E0.025
G1 X120.67 Y46.251 E0.007
G1 X121.088 Y45.986 E0.016
G1 X121.619 Y45.705 E0.02
G1 X122.202 Y45.463 E0.021
G1 X122.821 Y45.274 E0.022
G1 X123.6 Y45.122 E0.026
G1 X124.279 Y45.066 E0.023
G1 X125.07 Y45.087 E0.026
G1 X125.721 Y45.174 E0.022
G1 X126.325 Y45.316 E0.021
G1 X126.883 Y45.499 E0.019
G1 X127.345 Y45.691 E0.017
G1 X127.882 Y45.964 E0.02
G1 X128.437 Y46.318 E0.022
G1 X129.053 Y46.814 E0.026
G1 X129.514 Y47.271 E0.022
G1 X129.931 Y47.772 E0.021
G1 X130.369 Y48.43 E0.027
G1 X130.68 Y49.029 E0.022
G1 X130.97 Y49.772 E0.027
G1 X131.139 Y50.402 E0.021
G1 X131.244 Y51.02 E0.021
G1 X131.292 Y51.656 E0.021
G1 X131.271 Y52.499 E0.028
G1 X131.13 Y53.368 E0.03
G1 X130.945 Y54.02 E0.022
G1 X130.711 Y54.621 E0.022
G1 X130.409 Y55.224 E0.022
G1 X129.948 Y55.927 E0.028
G1 X129.492 Y56.476 E0.024
G1 X128.883 Y57.056 E0.028
G1 X128.348 Y57.463 E0.022
G1 X127.796 Y57.805 E0.022
G1 X127.217 Y58.091 E0.021
G1 X126.589 Y58.329 E0.023
G1 X125.777 Y58.538 E0.027
G1 X125.067 Y58.636 E0.024
G1 X124.227 Y58.653 E0.028
G1 X123.555 Y58.592 E0.023
G1 X122.915 Y58.471 E0.021
G1 X122.267 Y58.281 E0.023
G1 X121.497 Y57.959 E0.028
G1 X120.904 Y57.629 E0.022
G1 X120.499 Y57.349 E0.017
G1 X120.348 Y57.463 E0.006
G1 X119.796 Y57.805 E0.021
G1 X119.217 Y58.091 E0.022
G1 X118.589 Y58.33 E0.022
G1 X117.777 Y58.538 E0.028
G1 X117.067 Y58.636 E0.024
G1 X116.227 Y58.653 E0.028
G1 X115.555 Y58.592 E0.022
G1 X114.915 Y58.471 E0.022
G1 X114.268 Y58.281 E0.022
G1 X113.497 Y57.959 E0.028
G1 X112.904 Y57.629 E0.023
G1 X112.366 Y57.257 E0.022
G1 X111.874 Y56.839 E0.021
G1 X111.433 Y56.388 E0.021
G1 X111.089 Y55.966 E0.018
G1 X110.736 Y55.461 E0.021
G1 X110.501 Y55.043 E0.016
G1 X110.227 Y55.524 E0.018
G1 X109.731 Y56.204 E0.028
G1 X109.255 Y56.719 E0.023
G1 X108.653 Y57.243 E0.027
G1 X108.116 Y57.616 E0.022
G1 X107.554 Y57.933 E0.021
G1 X106.83 Y58.247 E0.026
G1 X106.181 Y58.448 E0.023
G1 X105.396 Y58.6 E0.026
G1 X104.725 Y58.654 E0.023
G1 X103.934 Y58.636 E0.026
G1 X103.279 Y58.548 E0.022
G1 X102.616 Y58.393 E0.023
G1 X101.718 Y58.062 E0.032
G1 X101.118 Y57.757 E0.022
G1 X100.593 Y57.422 E0.021
G1 X100.08 Y57.026 E0.021
G1 X99.998 Y56.947 E0.004
G1 X99.883 Y57.056 E0.005
G1 X99.348 Y57.463 E0.023
G1 X98.796 Y57.805 E0.021
G1 X98.217 Y58.091 E0.022
G1 X97.588 Y58.33 E0.022
G1 X96.776 Y58.538 E0.028
G1 X96.068 Y58.636 E0.024
G1 X95.227 Y58.653 E0.028
G1 X94.555 Y58.592 E0.022
G1 X93.915 Y58.471 E0.022
G1 X93.268 Y58.281 E0.022
G1 X92.497 Y57.959 E0.028
G1 X91.904 Y57.629 E0.023
G1 X91.366 Y57.257 E0.021
G1 X90.875 Y56.839 E0.022
G1 X90.433 Y56.388 E0.021
G1 X90.089 Y55.966 E0.018
G1 X89.736 Y55.461 E0.021
G1 X89.418 Y54.893 E0.021
G1 X89.157 Y54.303 E0.022
G1 X88.95 Y53.681 E0.021
G1 X88.803 Y53.022 E0.023
G1 X88.709 Y52.194 E0.028
G1 X88.712 Y51.475 E0.024
G1 X88.813 Y50.641 E0.027
G1 X88.965 Y49.994 E0.023
G1 X89.172 Y49.378 E0.021
G1 X89.452 Y48.754 E0.023
G1 X89.882 Y48.032 E0.028
G1 X90.291 Y47.496 E0.022
G1 X90.729 Y47.019 E0.022
G1 X91.2 Y46.6 E0.021
G1 X91.669 Y46.251 E0.019
G1 X92.088 Y45.986 E0.017
G1 X92.619 Y45.705 E0.02
G1 X93.202 Y45.464 E0.021
G1 X93.821 Y45.274 E0.021
G1 X94.6 Y45.122 E0.027
G1 X95.279 Y45.066 E0.022
G1 X96.071 Y45.087 E0.027
G1 X96.719 Y45.174 E0.021
G1 X97.324 Y45.315 E0.021
G1 X97.883 Y45.499 E0.02
G1 X98.345 Y45.691 E0.016
G1 X98.882 Y45.964 E0.02
G1 X99.437 Y46.318 E0.022
G1 X100.003 Y46.773 E0.024
G1 X100.12 Y46.662 E0.006
G1 X100.655 Y46.256 E0.022
G1 X101.198 Y45.921 E0.021
G1 X101.782 Y45.63 E0.022
G1 X102.393 Y45.4 E0.022
G1 X102.929 Y45.253 E0.018
G1 X103.315 Y45.166 E0.013
G1 X104.13 Y45.074 E0.028
G1 X104.802 Y45.07 E0.022
G1 X105.445 Y45.13 E0.021
G1 X106.08 Y45.249 E0.022
G1 X106.733 Y45.44 E0.023
G1 X107.508 Y45.763 E0.028
G1 X108.1 Y46.096 E0.022
G1 X108.63 Y46.463 E0.022
G1 X109.143 Y46.896 E0.022
G1 X109.721 Y47.505 E0.028
G1 X110.149 Y48.078 E0.024
G1 X110.498 Y48.677 E0.023
G1 X110.882 Y48.032 E0.025
G1 X111.291 Y47.496 E0.022
G1 X111.729 Y47.019 E0.022
G1 X112.199 Y46.6 E0.021
G1 X112.67 Y46.251 E0.019
G1 X113.088 Y45.986 E0.016
G1 X113.619 Y45.705 E0.02
G1 X114.202 Y45.463 E0.021
G1 X114.821 Y45.274 E0.022
G1 X115.6 Y45.122 E0.026
G1 X116.279 Y45.066 E0.023
G1 X117.07 Y45.087 E0.026
;rapid-leaky
G0 X117.038 Y45.486 F7200
;bead-skirt/brim
G1 X117.648 Y45.568 F960 E0.021
G1 X118.217 Y45.701 E0.019
G1 X118.744 Y45.874 E0.019
G1 X119.177 Y46.055 E0.015
G1 X119.683 Y46.312 E0.019
G1 X120.204 Y46.644 E0.021
G1 X120.495 Y46.878 E0.012
G1 X120.896 Y46.581 E0.017
G1 X121.289 Y46.332 E0.015
G1 X121.79 Y46.067 E0.019
G1 X122.338 Y45.84 E0.02
G1 X122.918 Y45.663 E0.02
G1 X123.655 Y45.519 E0.025
G1 X124.29 Y45.467 E0.021
G1 X125.038 Y45.486 E0.025
G1 X125.648 Y45.568 E0.021
G1 X126.217 Y45.701 E0.019
G1 X126.743 Y45.874 E0.018
G1 X127.177 Y46.055 E0.016
G1 X127.683 Y46.312 E0.019
G1 X128.204 Y46.644 E0.02
G1 X128.787 Y47.113 E0.025
G1 X129.219 Y47.541 E0.021
G1 X129.609 Y48.011 E0.02
G1 X130.024 Y48.634 E0.025
G1 X130.315 Y49.195 E0.021
G1 X130.589 Y49.897 E0.025
G1 X130.748 Y50.488 E0.02
G1 X130.847 Y51.069 E0.02
G1 X130.892 Y51.666 E0.02
G1 X130.872 Y52.462 E0.026
G1 X130.738 Y53.281 E0.028
G1 X130.566 Y53.893 E0.021
G1 X130.345 Y54.458 E0.02
G1 X130.061 Y55.024 E0.021
G1 X129.626 Y55.689 E0.027
G1 X129.2 Y56.203 E0.022
G1 X128.624 Y56.751 E0.026
G1 X128.121 Y57.133 E0.021
G1 X127.602 Y57.455 E0.021
G1 X127.057 Y57.724 E0.02
G1 X126.468 Y57.948 E0.021
G1 X125.7 Y58.145 E0.026
G1 X125.036 Y58.237 E0.022
G1 X124.241 Y58.253 E0.027
G1 X123.611 Y58.196 E0.021
G1 X123.009 Y58.081 E0.02
G1 X122.401 Y57.904 E0.021
G1 X121.672 Y57.599 E0.027
G1 X121.116 Y57.289 E0.021
G1 X120.61 Y56.939 E0.02
G1 X120.5 Y56.845 E0.005
G1 X120.121 Y57.133 E0.016
G1 X119.602 Y57.455 E0.02
G1 X119.057 Y57.724 E0.02
G1 X118.467 Y57.948 E0.021
G1 X117.7 Y58.145 E0.027
G1 X117.035 Y58.237 E0.022
G1 X116.241 Y58.253 E0.027
G1 X115.611 Y58.196 E0.021
G1 X115.009 Y58.081 E0.02
G1 X114.401 Y57.904 E0.021
G1 X113.672 Y57.599 E0.026
G1 X113.116 Y57.289 E0.021
G1 X112.61 Y56.939 E0.021
G1 X112.147 Y56.546 E0.02
G1 X111.732 Y56.121 E0.02
G1 X111.408 Y55.724 E0.017
G1 X111.075 Y55.248 E0.019
G1 X110.776 Y54.714 E0.021
G1 X110.5 Y54.067 E0.023
G1 X110.456 Y54.198 E0.005
G1 X110.204 Y54.757 E0.02
G1 X109.891 Y55.306 E0.021
G1 X109.421 Y55.95 E0.027
G1 X108.976 Y56.432 E0.021
G1 X108.406 Y56.927 E0.025
G1 X107.903 Y57.277 E0.021
G1 X107.376 Y57.574 E0.02
G1 X106.69 Y57.871 E0.025
G1 X106.083 Y58.059 E0.021
G1 X105.342 Y58.203 E0.025
G1 X104.714 Y58.254 E0.021
G1 X103.965 Y58.236 E0.025
G1 X103.352 Y58.154 E0.021
G1 X102.731 Y58.009 E0.021
G1 X101.879 Y57.695 E0.03
G1 X101.317 Y57.409 E0.021
G1 X100.823 Y57.094 E0.019
G1 X100.341 Y56.723 E0.021
G1 X99.999 Y56.393 E0.015
G1 X99.624 Y56.751 E0.018
G1 X99.121 Y57.133 E0.021
G1 X98.602 Y57.455 E0.02
G1 X98.057 Y57.724 E0.02
G1 X97.467 Y57.948 E0.021
G1 X96.699 Y58.145 E0.027
G1 X96.036 Y58.237 E0.022
G1 X95.241 Y58.253 E0.026
G1 X94.611 Y58.196 E0.021
G1 X94.009 Y58.081 E0.021
G1 X93.401 Y57.904 E0.021
G1 X92.672 Y57.599 E0.026
G1 X92.116 Y57.289 E0.021
G1 X91.61 Y56.939 E0.021
G1 X91.148 Y56.546 E0.02
G1 X90.732 Y56.121 E0.02
G1 X90.408 Y55.724 E0.017
G1 X90.075 Y55.248 E0.019
G1 X89.776 Y54.714 E0.02
G1 X89.53 Y54.159 E0.021
G1 X89.336 Y53.574 E0.02
G1 X89.198 Y52.955 E0.021
G1 X89.109 Y52.172 E0.026
G1 X89.112 Y51.5 E0.023
G1 X89.208 Y50.711 E0.026
G1 X89.35 Y50.103 E0.021
G1 X89.544 Y49.524 E0.02
G1 X89.808 Y48.939 E0.022
G1 X90.214 Y48.256 E0.026
G1 X90.598 Y47.753 E0.021
G1 X91.01 Y47.305 E0.02
G1 X91.452 Y46.91 E0.02
G1 X91.896 Y46.582 E0.018
G1 X92.289 Y46.332 E0.016
G1 X92.79 Y46.067 E0.019
G1 X93.338 Y45.84 E0.019
G1 X93.918 Y45.663 E0.021
G1 X94.655 Y45.519 E0.025
G1 X95.29 Y45.467 E0.021
G1 X96.039 Y45.486 E0.025
G1 X96.647 Y45.568 E0.02
G1 X97.216 Y45.701 E0.019
G1 X97.743 Y45.874 E0.019
G1 X98.177 Y46.054 E0.016
G1 X98.683 Y46.312 E0.018
G1 X99.204 Y46.644 E0.021
G1 X99.786 Y47.113 E0.025
G1 X100.002 Y47.326 E0.01
G1 X100.379 Y46.968 E0.017
G1 X100.882 Y46.587 E0.021
G1 X101.392 Y46.27 E0.02
G1 X101.942 Y45.997 E0.021
G1 X102.516 Y45.781 E0.02
G1 X103.026 Y45.641 E0.018
G1 X103.382 Y45.561 E0.012
G1 X104.154 Y45.474 E0.026
G1 X104.784 Y45.47 E0.021
G1 X105.389 Y45.527 E0.02
G1 X105.987 Y45.638 E0.02
G1 X106.599 Y45.817 E0.021
G1 X107.332 Y46.124 E0.027
G1 X107.888 Y46.435 E0.021
G1 X108.387 Y46.781 E0.02
G1 X108.868 Y47.187 E0.021
G1 X109.414 Y47.764 E0.026
G1 X109.815 Y48.299 E0.023
G1 X110.214 Y48.983 E0.026
G1 X110.501 Y49.655 E0.024
G1 X110.544 Y49.524 E0.005
G1 X110.808 Y48.94 E0.021
G1 X111.214 Y48.256 E0.027
G1 X111.598 Y47.753 E0.021
G1 X112.01 Y47.305 E0.02
G1 X112.452 Y46.91 E0.02
G1 X112.896 Y46.581 E0.018
G1 X113.289 Y46.332 E0.015
G1 X113.789 Y46.067 E0.019
G1 X114.338 Y45.84 E0.02
G1 X114.918 Y45.663 E0.02
G1 X115.655 Y45.519 E0.025
G1 X116.29 Y45.467 E0.021
G1 X117.038 Y45.486 E0.025
;rapid-leaky
G0 X117.007 Y45.885 F7200
;bead-skirt/brim
G1 X117.576 Y45.962 F960 E0.019
G1 X118.109 Y46.086 E0.019
G1 X118.604 Y46.249 E0.017
G1 X119.009 Y46.418 E0.015
G1 X119.484 Y46.66 E0.017
G1 X119.97 Y46.969 E0.019
G1 X120.504 Y47.399 E0.023
G1 X120.705 Y47.221 E0.009
G1 X121.122 Y46.912 E0.017
G1 X121.49 Y46.679 E0.015
G1 X121.96 Y46.43 E0.018
G1 X122.473 Y46.217 E0.018
G1 X123.015 Y46.051 E0.019
G1 X123.71 Y45.915 E0.023
G1 X124.301 Y45.867 E0.02
G1 X125.007 Y45.885 E0.024
G1 X125.576 Y45.962 E0.019
G1 X126.109 Y46.086 E0.018
G1 X126.604 Y46.249 E0.017
G1 X127.009 Y46.418 E0.015
G1 X127.484 Y46.66 E0.018
G1 X127.97 Y46.969 E0.019
G1 X128.52 Y47.412 E0.023
G1 X128.924 Y47.812 E0.019
G1 X129.288 Y48.251 E0.019
G1 X129.679 Y48.838 E0.024
G1 X129.951 Y49.36 E0.019
G1 X130.208 Y50.022 E0.024
G1 X130.356 Y50.574 E0.019
G1 X130.449 Y51.118 E0.018
G1 X130.491 Y51.676 E0.019
G1 X130.473 Y52.425 E0.025
G1 X130.347 Y53.194 E0.026
G1 X130.186 Y53.766 E0.019
G1 X129.979 Y54.296 E0.019
G1 X129.714 Y54.824 E0.02
G1 X129.304 Y55.451 E0.025
G1 X128.907 Y55.929 E0.021
G1 X128.364 Y56.446 E0.024
G1 X127.894 Y56.804 E0.02
G1 X127.408 Y57.105 E0.019
G1 X126.897 Y57.357 E0.019
G1 X126.346 Y57.566 E0.02
G1 X125.622 Y57.752 E0.025
G1 X125.004 Y57.837 E0.02
G1 X124.255 Y57.852 E0.025
G1 X123.666 Y57.799 E0.02
G1 X123.103 Y57.692 E0.019
G1 X122.535 Y57.526 E0.02
G1 X121.847 Y57.239 E0.024
G1 X121.327 Y56.949 E0.02
G1 X120.854 Y56.621 E0.019
G1 X120.498 Y56.319 E0.016
G1 X120.364 Y56.446 E0.006
G1 X119.894 Y56.804 E0.02
G1 X119.408 Y57.105 E0.019
G1 X118.897 Y57.357 E0.019
G1 X118.346 Y57.566 E0.019
G1 X117.622 Y57.752 E0.025
G1 X117.004 Y57.837 E0.021
G1 X116.255 Y57.852 E0.025
G1 X115.666 Y57.799 E0.019
G1 X115.103 Y57.692 E0.02
G1 X114.535 Y57.526 E0.019
G1 X113.847 Y57.239 E0.025
G1 X113.327 Y56.949 E0.02
G1 X112.854 Y56.621 E0.019
G1 X112.42 Y56.253 E0.019
G1 X112.03 Y55.854 E0.018
G1 X111.728 Y55.483 E0.016
G1 X111.414 Y55.035 E0.019
G1 X111.134 Y54.535 E0.019
G1 X110.904 Y54.015 E0.019
G1 X110.722 Y53.468 E0.019
G1 X110.593 Y52.889 E0.019
G1 X110.51 Y52.15 E0.025
G1 X110.512 Y51.525 E0.021
G1 X110.602 Y50.781 E0.025
G1 X110.735 Y50.213 E0.019
G1 X110.917 Y49.67 E0.019
G1 X111.163 Y49.125 E0.02
G1 X111.547 Y48.48 E0.025
G1 X111.905 Y48.01 E0.02
G1 X112.291 Y47.59 E0.019
G1 X112.705 Y47.221 E0.018
G1 X113.122 Y46.911 E0.018
G1 X113.49 Y46.678 E0.014
G1 X113.96 Y46.43 E0.018
G1 X114.473 Y46.217 E0.018
G1 X115.015 Y46.051 E0.019
G1 X115.71 Y45.915 E0.024
G1 X116.301 Y45.867 E0.019
G1 X117.007 Y45.885 E0.024
;rapid-leaky
G0 X116.975 Y46.285 F7200
;bead-skirt/brim
G1 X117.504 Y46.356 F960 E0.018
G1 X118 Y46.472 E0.016
G1 X118.464 Y46.624 E0.017
G1 X118.841 Y46.781 E0.013
G1 X119.286 Y47.008 E0.017
G1 X119.737 Y47.295 E0.018
G1 X120.253 Y47.71 E0.022
G1 X120.499 Y47.954 E0.011
G1 X120.957 Y47.532 E0.021
G1 X121.349 Y47.242 E0.016
G1 X121.691 Y47.025 E0.014
G1 X122.13 Y46.792 E0.016
G1 X122.609 Y46.594 E0.017
G1 X123.112 Y46.44 E0.018
G1 X123.765 Y46.312 E0.022
G1 X124.312 Y46.268 E0.018
G1 X124.975 Y46.285 E0.022
G1 X125.504 Y46.356 E0.018
G1 X126 Y46.472 E0.017
G1 X126.464 Y46.624 E0.016
G1 X126.841 Y46.781 E0.014
G1 X127.286 Y47.008 E0.016
G1 X127.737 Y47.295 E0.018
G1 X128.253 Y47.71 E0.022
G1 X128.628 Y48.082 E0.018
G1 X128.967 Y48.49 E0.018
G1 X129.334 Y49.042 E0.022
G1 X129.586 Y49.526 E0.018
G1 X129.828 Y50.147 E0.022
G1 X129.965 Y50.659 E0.018
G1 X130.052 Y51.166 E0.017
G1 X130.091 Y51.686 E0.017
G1 X130.074 Y52.387 E0.023
G1 X129.956 Y53.107 E0.025
G1 X129.806 Y53.638 E0.018
G1 X129.613 Y54.133 E0.018
G1 X129.367 Y54.624 E0.018
G1 X128.982 Y55.213 E0.023
G1 X128.614 Y55.656 E0.019
G1 X128.104 Y56.141 E0.024
G1 X127.667 Y56.474 E0.018
G1 X127.214 Y56.754 E0.018
G1 X126.737 Y56.989 E0.017
G1 X126.225 Y57.184 E0.019
G1 X125.545 Y57.359 E0.023
G1 X124.973 Y57.438 E0.019
G1 X124.269 Y57.452 E0.024
G1 X123.722 Y57.402 E0.018
G1 X123.196 Y57.303 E0.018
G1 X122.668 Y57.148 E0.018
G1 X122.022 Y56.878 E0.023
G1 X121.539 Y56.609 E0.019
G1 X121.098 Y56.304 E0.018
G1 X120.694 Y55.96 E0.017
G1 X120.501 Y55.763 E0.009
G1 X120.104 Y56.141 E0.019
G1 X119.667 Y56.474 E0.018
G1 X119.214 Y56.754 E0.018
G1 X118.737 Y56.989 E0.017
G1 X118.225 Y57.184 E0.018
G1 X117.545 Y57.359 E0.024
G1 X116.973 Y57.438 E0.019
G1 X116.269 Y57.452 E0.023
G1 X115.722 Y57.402 E0.019
G1 X115.196 Y57.303 E0.018
G1 X114.668 Y57.148 E0.018
G1 X114.022 Y56.878 E0.023
G1 X113.539 Y56.609 E0.019
G1 X113.098 Y56.304 E0.017
G1 X112.693 Y55.96 E0.018
G1 X112.329 Y55.587 E0.017
G1 X112.047 Y55.242 E0.015
G1 X111.754 Y54.822 E0.017
G1 X111.492 Y54.356 E0.018
G1 X111.277 Y53.87 E0.018
G1 X111.108 Y53.361 E0.018
G1 X110.988 Y52.823 E0.018
G1 X110.91 Y52.129 E0.023
G1 X110.911 Y51.55 E0.019
G1 X110.997 Y50.851 E0.024
G1 X111.12 Y50.322 E0.018
G1 X111.29 Y49.816 E0.018
G1 X111.518 Y49.31 E0.018
G1 X111.879 Y48.704 E0.023
G1 X112.212 Y48.267 E0.019
G1 X112.572 Y47.875 E0.017
G1 X112.957 Y47.532 E0.018
G1 X113.349 Y47.242 E0.016
G1 X113.691 Y47.025 E0.013
G1 X114.13 Y46.792 E0.017
G1 X114.608 Y46.594 E0.017
G1 X115.112 Y46.44 E0.018
G1 X115.765 Y46.312 E0.022
G1 X116.312 Y46.268 E0.018
G1 X116.975 Y46.285 E0.022
;rapid-leaky
G0 X116.943 Y46.684 F7200
;bead-skirt/brim
G1 X117.431 Y46.75 F960 E0.016
G1 X117.892 Y46.857 E0.016
G1 X118.325 Y47 E0.015
G1 X118.673 Y47.145 E0.013
G1 X119.087 Y47.355 E0.015
G1 X119.503 Y47.62 E0.017
G1 X119.986 Y48.009 E0.02
G1 X120.333 Y48.353 E0.017
G1 X120.498 Y48.551 E0.008
G1 X120.853 Y48.161 E0.018
G1 X121.21 Y47.842 E0.016
G1 X121.575 Y47.572 E0.015
G1 X121.892 Y47.371 E0.012
G1 X122.301 Y47.154 E0.016
G1 X122.744 Y46.971 E0.016
G1 X123.21 Y46.828 E0.016
G1 X123.819 Y46.709 E0.02
G1 X124.323 Y46.668 E0.017
G1 X124.943 Y46.684 E0.021
G1 X125.431 Y46.75 E0.016
G1 X125.892 Y46.857 E0.016
G1 X126.325 Y47 E0.015
G1 X126.673 Y47.145 E0.013
G1 X127.087 Y47.355 E0.015
G1 X127.503 Y47.62 E0.017
G1 X127.986 Y48.009 E0.02
G1 X128.333 Y48.353 E0.016
G1 X128.646 Y48.729 E0.017
G1 X128.989 Y49.245 E0.02
G1 X129.221 Y49.691 E0.017
G1 X129.447 Y50.271 E0.021
G1 X129.574 Y50.745 E0.016
G1 X129.655 Y51.215 E0.016
G1 X129.691 Y51.696 E0.016
G1 X129.674 Y52.35 E0.022
G1 X129.565 Y53.021 E0.022
G1 X129.427 Y53.511 E0.017
G1 X129.247 Y53.97 E0.017
G1 X129.02 Y54.424 E0.017
G1 X128.659 Y54.975 E0.021
G1 X128.321 Y55.382 E0.018
G1 X127.844 Y55.836 E0.022
G1 X127.44 Y56.144 E0.017
G1 X127.02 Y56.404 E0.016
G1 X126.577 Y56.622 E0.017
G1 X126.104 Y56.802 E0.017
G1 X125.467 Y56.966 E0.021
G1 X124.941 Y57.039 E0.018
G1 X124.283 Y57.052 E0.022
G1 X123.777 Y57.006 E0.017
G1 X123.29 Y56.913 E0.016
G1 X122.802 Y56.771 E0.017
G1 X122.197 Y56.518 E0.022
G1 X121.751 Y56.27 E0.017
G1 X121.342 Y55.986 E0.017
G1 X120.967 Y55.667 E0.016
G1 X120.627 Y55.321 E0.016
G1 X120.501 Y55.166 E0.007
G1 X120.321 Y55.382 E0.009
G1 X119.844 Y55.836 E0.022
G1 X119.44 Y56.144 E0.017
G1 X119.02 Y56.404 E0.016
G1 X118.577 Y56.622 E0.017
G1 X118.104 Y56.802 E0.017
G1 X117.467 Y56.966 E0.021
G1 X116.941 Y57.039 E0.018
G1 X116.283 Y57.052 E0.022
G1 X115.777 Y57.006 E0.017
G1 X115.29 Y56.913 E0.016
G1 X114.802 Y56.771 E0.017
G1 X114.197 Y56.518 E0.022
G1 X113.751 Y56.27 E0.017
G1 X113.342 Y55.986 E0.017
G1 X112.966 Y55.667 E0.016
G1 X112.627 Y55.321 E0.016
G1 X112.366 Y55 E0.014
G1 X112.093 Y54.61 E0.016
G1 X111.85 Y54.177 E0.016
G1 X111.651 Y53.726 E0.017
G1 X111.494 Y53.254 E0.016
G1 X111.383 Y52.757 E0.017
G1 X111.31 Y52.107 E0.022
G1 X111.311 Y51.575 E0.018
G1 X111.391 Y50.921 E0.021
G1 X111.506 Y50.432 E0.017
G1 X111.663 Y49.962 E0.017
G1 X111.874 Y49.495 E0.017
G1 X112.211 Y48.928 E0.022
G1 X112.519 Y48.524 E0.017
G1 X112.853 Y48.161 E0.016
G1 X113.21 Y47.842 E0.016
G1 X113.575 Y47.572 E0.015
G1 X113.892 Y47.371 E0.012
G1 X114.301 Y47.154 E0.016
G1 X114.744 Y46.971 E0.016
G1 X115.21 Y46.828 E0.016
G1 X115.819 Y46.709 E0.021
G1 X116.323 Y46.668 E0.016
G1 X116.943 Y46.684 E0.021
;rapid-leaky
G0 X116.911 Y47.083 F7200
;bead-skirt/brim
G1 X117.359 Y47.143 F960 E0.015
G1 X117.784 Y47.243 E0.015
G1 X118.185 Y47.375 E0.014
G1 X118.505 Y47.508 E0.011
G1 X118.888 Y47.703 E0.015
G1 X119.269 Y47.946 E0.015
G1 X119.719 Y48.308 E0.019
G1 X120.038 Y48.623 E0.015
G1 X120.324 Y48.969 E0.015
G1 X120.497 Y49.229 E0.01
G1 X120.826 Y48.781 E0.018
G1 X121.134 Y48.446 E0.016
G1 X121.463 Y48.153 E0.014
G1 X121.802 Y47.902 E0.014
G1 X122.093 Y47.717 E0.012
G1 X122.471 Y47.517 E0.014
G1 X122.879 Y47.348 E0.015
G1 X123.307 Y47.217 E0.015
G1 X123.874 Y47.106 E0.019
G1 X124.334 Y47.069 E0.015
G1 X124.911 Y47.083 E0.019
G1 X125.359 Y47.143 E0.015
G1 X125.784 Y47.243 E0.015
G1 X126.185 Y47.375 E0.014
G1 X126.505 Y47.508 E0.011
G1 X126.888 Y47.703 E0.015
G1 X127.269 Y47.946 E0.015
G1 X127.719 Y48.308 E0.019
G1 X128.038 Y48.623 E0.015
G1 X128.324 Y48.969 E0.015
G1 X128.644 Y49.449 E0.019
G1 X128.856 Y49.856 E0.015
G1 X129.066 Y50.396 E0.02
G1 X129.183 Y50.831 E0.015
G1 X129.257 Y51.264 E0.014
G1 X129.29 Y51.706 E0.015
G1 X129.275 Y52.313 E0.02
G1 X129.174 Y52.934 E0.021
G1 X129.047 Y53.384 E0.016
G1 X128.882 Y53.807 E0.015
G1 X128.672 Y54.225 E0.015
G1 X128.337 Y54.737 E0.021
G1 X128.029 Y55.109 E0.016
G1 X127.584 Y55.531 E0.02
G1 X127.213 Y55.814 E0.016
G1 X126.826 Y56.054 E0.015
G1 X126.417 Y56.255 E0.015
G1 X125.982 Y56.42 E0.015
G1 X125.39 Y56.573 E0.021
G1 X124.91 Y56.639 E0.016
G1 X124.298 Y56.651 E0.02
G1 X123.833 Y56.609 E0.016
G1 X123.383 Y56.524 E0.015
G1 X122.935 Y56.393 E0.015
G1 X122.372 Y56.157 E0.021
G1 X121.963 Y55.93 E0.015
G1 X121.586 Y55.669 E0.016
G1 X121.24 Y55.374 E0.015
G1 X120.926 Y55.054 E0.015
G1 X120.685 Y54.759 E0.012
G1 X120.498 Y54.491 E0.011
G1 X120.337 Y54.737 E0.01
G1 X120.029 Y55.109 E0.016
G1 X119.584 Y55.531 E0.02
G1 X119.213 Y55.814 E0.016
G1 X118.826 Y56.054 E0.015
G1 X118.417 Y56.255 E0.015
G1 X117.982 Y56.42 E0.016
G1 X117.39 Y56.573 E0.02
G1 X116.91 Y56.639 E0.016
G1 X116.298 Y56.651 E0.02
G1 X115.833 Y56.609 E0.016
G1 X115.383 Y56.524 E0.015
G1 X114.935 Y56.393 E0.016
G1 X114.372 Y56.157 E0.02
G1 X113.963 Y55.93 E0.016
G1 X113.586 Y55.669 E0.015
G1 X113.24 Y55.374 E0.015
G1 X112.926 Y55.054 E0.015
G1 X112.686 Y54.759 E0.013
G1 X112.432 Y54.396 E0.014
G1 X112.208 Y53.998 E0.015
G1 X112.025 Y53.582 E0.016
G1 X111.88 Y53.147 E0.015
G1 X111.778 Y52.691 E0.015
G1 X111.71 Y52.085 E0.021
G1 X111.711 Y51.6 E0.016
G1 X111.786 Y50.991 E0.02
G1 X111.891 Y50.541 E0.016
G1 X112.036 Y50.109 E0.015
G1 X112.229 Y49.68 E0.015
G1 X112.543 Y49.152 E0.021
G1 X112.826 Y48.781 E0.015
G1 X113.134 Y48.446 E0.015
G1 X113.463 Y48.153 E0.015
G1 X113.802 Y47.902 E0.014
G1 X114.093 Y47.717 E0.012
G1 X114.471 Y47.517 E0.014
G1 X114.879 Y47.348 E0.015
G1 X115.307 Y47.217 E0.014
G1 X115.874 Y47.106 E0.02
G1 X116.334 Y47.069 E0.015
G1 X116.911 Y47.083 E0.019
;rapid-leaky
G0 X116.879 Y47.483 F7200
;bead-skirt/brim
G1 X117.287 Y47.537 F960 E0.014
G1 X117.676 Y47.628 E0.013
G1 X118.046 Y47.75 E0.013
G1 X118.338 Y47.872 E0.011
G1 X118.69 Y48.051 E0.013
G1 X119.036 Y48.271 E0.013
G1 X119.452 Y48.606 E0.018
G1 X119.742 Y48.894 E0.014
G1 X120.003 Y49.208 E0.013
G1 X120.299 Y49.653 E0.018
G1 X120.502 Y50.049 E0.015
G1 X120.585 Y49.865 E0.007
G1 X120.875 Y49.377 E0.018
G1 X121.133 Y49.038 E0.015
G1 X121.415 Y48.732 E0.013
G1 X121.715 Y48.463 E0.014
G1 X122.028 Y48.232 E0.013
G1 X122.294 Y48.063 E0.01
G1 X122.642 Y47.879 E0.013
G1 X123.015 Y47.725 E0.014
G1 X123.404 Y47.606 E0.013
G1 X123.929 Y47.503 E0.018
G1 X124.345 Y47.469 E0.014
G1 X124.879 Y47.483 E0.018
G1 X125.287 Y47.537 E0.013
G1 X125.676 Y47.628 E0.014
G1 X126.046 Y47.75 E0.013
G1 X126.338 Y47.872 E0.01
G1 X126.69 Y48.051 E0.013
G1 X127.036 Y48.271 E0.014
G1 X127.452 Y48.606 E0.018
G1 X127.742 Y48.894 E0.013
G1 X128.003 Y49.208 E0.014
G1 X128.299 Y49.653 E0.018
G1 X128.491 Y50.022 E0.014
G1 X128.686 Y50.521 E0.017
G1 X128.792 Y50.917 E0.014
G1 X128.86 Y51.313 E0.013
G1 X128.89 Y51.716 E0.014
G1 X128.876 Y52.275 E0.018
G1 X128.783 Y52.847 E0.02
G1 X128.667 Y53.256 E0.014
G1 X128.516 Y53.645 E0.014
G1 X128.325 Y54.025 E0.014
G1 X128.015 Y54.499 E0.019
G1 X127.736 Y54.835 E0.014
G1 X127.325 Y55.226 E0.019
G1 X126.986 Y55.484 E0.014
G1 X126.631 Y55.704 E0.014
G1 X126.258 Y55.888 E0.014
G1 X125.861 Y56.039 E0.014
G1 X125.313 Y56.18 E0.019
G1 X124.879 Y56.24 E0.015
G1 X124.312 Y56.251 E0.018
G1 X123.888 Y56.213 E0.015
G1 X123.477 Y56.134 E0.013
G1 X123.069 Y56.015 E0.015
G1 X122.547 Y55.797 E0.018
G1 X122.175 Y55.59 E0.015
G1 X121.83 Y55.351 E0.014
G1 X121.513 Y55.081 E0.013
G1 X121.225 Y54.787 E0.014
G1 X121.005 Y54.517 E0.012
G1 X120.771 Y54.184 E0.013
G1 X120.567 Y53.819 E0.014
G1 X120.502 Y53.672 E0.005
G1 X120.325 Y54.025 E0.014
G1 X120.015 Y54.499 E0.018
G1 X119.736 Y54.835 E0.015
G1 X119.325 Y55.226 E0.019
G1 X118.986 Y55.484 E0.014
G1 X118.631 Y55.704 E0.014
G1 X118.258 Y55.888 E0.014
G1 X117.861 Y56.039 E0.014
G1 X117.313 Y56.18 E0.019
G1 X116.879 Y56.24 E0.014
G1 X116.312 Y56.251 E0.019
G1 X115.888 Y56.213 E0.014
G1 X115.477 Y56.134 E0.014
G1 X115.069 Y56.015 E0.014
G1 X114.547 Y55.797 E0.019
G1 X114.175 Y55.59 E0.014
G1 X113.83 Y55.351 E0.014
G1 X113.513 Y55.081 E0.014
G1 X113.225 Y54.787 E0.014
G1 X113.005 Y54.518 E0.011
G1 X112.771 Y54.184 E0.014
G1 X112.567 Y53.819 E0.014
G1 X112.398 Y53.438 E0.014
G1 X112.266 Y53.04 E0.014
G1 X112.173 Y52.625 E0.014
G1 X112.11 Y52.063 E0.019
G1 X112.111 Y51.625 E0.014
G1 X112.18 Y51.061 E0.019
G1 X112.276 Y50.65 E0.014
G1 X112.409 Y50.255 E0.014
G1 X112.585 Y49.865 E0.014
G1 X112.875 Y49.377 E0.019
G1 X113.133 Y49.038 E0.014
G1 X113.415 Y48.732 E0.014
G1 X113.715 Y48.463 E0.013
G1 X114.028 Y48.232 E0.013
G1 X114.294 Y48.063 E0.011
G1 X114.642 Y47.879 E0.013
G1 X115.015 Y47.725 E0.013
G1 X115.404 Y47.606 E0.014
G1 X115.929 Y47.503 E0.018
G1 X116.345 Y47.469 E0.014
G1 X116.879 Y47.483 E0.017
;rapid-leaky
G0 X116.848 Y47.882 F7200
;bead-skirt/brim
G1 X117.214 Y47.931 F960 E0.013
G1 X117.567 Y48.014 E0.012
G1 X117.906 Y48.125 E0.012
G1 X118.17 Y48.235 E0.009
G1 X118.491 Y48.398 E0.012
G1 X118.802 Y48.597 E0.012
G1 X119.185 Y48.905 E0.017
G1 X119.447 Y49.164 E0.012
G1 X119.682 Y49.447 E0.012
G1 X119.954 Y49.856 E0.017
G1 X120.126 Y50.187 E0.012
G1 X120.305 Y50.646 E0.016
G1 X120.401 Y51.002 E0.013
G1 X120.462 Y51.362 E0.012
G1 X120.49 Y51.726 E0.012
G1 X120.477 Y52.238 E0.017
G1 X120.392 Y52.76 E0.017
G1 X120.288 Y53.129 E0.013
G1 X120.15 Y53.482 E0.013
G1 X119.978 Y53.825 E0.013
G1 X119.692 Y54.261 E0.017
G1 X119.443 Y54.561 E0.013
G1 X119.065 Y54.921 E0.017
G1 X118.759 Y55.154 E0.013
G1 X118.437 Y55.353 E0.013
G1 X118.098 Y55.521 E0.012
G1 X117.74 Y55.657 E0.013
G1 X117.235 Y55.787 E0.017
G1 X116.847 Y55.84 E0.013
G1 X116.326 Y55.851 E0.018
G1 X115.944 Y55.816 E0.012
G1 X115.571 Y55.745 E0.013
G1 X115.203 Y55.638 E0.013
G1 X114.722 Y55.437 E0.017
G1 X114.386 Y55.25 E0.013
G1 X114.074 Y55.033 E0.013
G1 X113.786 Y54.788 E0.012
G1 X113.523 Y54.52 E0.013
G1 X113.324 Y54.276 E0.01
G1 X113.11 Y53.971 E0.012
G1 X112.925 Y53.64 E0.013
G1 X112.772 Y53.293 E0.013
G1 X112.652 Y52.933 E0.012
G1 X112.568 Y52.558 E0.013
G1 X112.51 Y52.041 E0.017
G1 X112.511 Y51.65 E0.013
G1 X112.574 Y51.131 E0.018
G1 X112.661 Y50.76 E0.012
G1 X112.782 Y50.401 E0.013
G1 X112.94 Y50.05 E0.013
G1 X113.207 Y49.601 E0.017
G1 X113.44 Y49.295 E0.013
G1 X113.696 Y49.017 E0.013
G1 X113.968 Y48.774 E0.012
G1 X114.254 Y48.562 E0.012
G1 X114.495 Y48.41 E0.009
G1 X114.812 Y48.242 E0.012
G1 X115.15 Y48.102 E0.012
G1 X115.501 Y47.994 E0.012
G1 X115.984 Y47.9 E0.017
G1 X116.356 Y47.869 E0.012
G1 X116.848 Y47.882 E0.017
;rapid-leaky
G0 X116.816 Y48.281 F7200
;bead-skirt/brim
G1 X117.142 Y48.325 F960 E0.01
G1 X117.459 Y48.399 E0.011
G1 X117.767 Y48.5 E0.011
G1 X118.002 Y48.598 E0.009
G1 X118.292 Y48.746 E0.01
G1 X118.569 Y48.922 E0.011
G1 X118.918 Y49.204 E0.015
G1 X119.152 Y49.435 E0.011
G1 X119.361 Y49.686 E0.011
G1 X119.609 Y50.06 E0.015
G1 X119.761 Y50.352 E0.011
G1 X119.924 Y50.771 E0.015
G1 X120.01 Y51.088 E0.011
G1 X120.065 Y51.411 E0.011
G1 X120.089 Y51.736 E0.011
G1 X120.078 Y52.201 E0.015
G1 X120.001 Y52.673 E0.016
G1 X119.908 Y53.002 E0.011
G1 X119.784 Y53.319 E0.012
G1 X119.631 Y53.625 E0.011
G1 X119.37 Y54.023 E0.016
G1 X119.15 Y54.288 E0.011
G1 X118.805 Y54.616 E0.016
G1 X118.533 Y54.824 E0.011
G1 X118.243 Y55.003 E0.012
G1 X117.938 Y55.154 E0.011
G1 X117.619 Y55.275 E0.011
G1 X117.158 Y55.394 E0.016
G1 X116.816 Y55.441 E0.012
G1 X116.34 Y55.45 E0.016
G1 X115.999 Y55.419 E0.011
G1 X115.664 Y55.356 E0.011
G1 X115.336 Y55.26 E0.012
G1 X114.897 Y55.076 E0.016
G1 X114.598 Y54.91 E0.011
G1 X114.318 Y54.716 E0.011
G1 X114.059 Y54.495 E0.012
G1 X113.822 Y54.253 E0.011
G1 X113.643 Y54.035 E0.009
G1 X113.449 Y53.758 E0.011
G1 X113.283 Y53.461 E0.012
G1 X113.145 Y53.149 E0.011
G1 X113.038 Y52.826 E0.011
G1 X112.963 Y52.492 E0.012
G1 X112.91 Y52.019 E0.016
G1 X112.911 Y51.675 E0.011
G1 X112.969 Y51.201 E0.016
G1 X113.046 Y50.869 E0.011
G1 X113.155 Y50.547 E0.012
G1 X113.295 Y50.235 E0.011
G1 X113.539 Y49.825 E0.016
G1 X113.747 Y49.552 E0.011
G1 X113.977 Y49.302 E0.012
G1 X114.221 Y49.085 E0.01
G1 X114.481 Y48.892 E0.011
G1 X114.696 Y48.756 E0.009
G1 X114.983 Y48.604 E0.01
G1 X115.285 Y48.479 E0.011
G1 X115.598 Y48.383 E0.011
G1 X116.039 Y48.297 E0.015
G1 X116.367 Y48.27 E0.011
G1 X116.816 Y48.281 E0.015
;rapid-leaky
G0 X120.94 Y50.05 F7200
;bead-skirt/brim
G1 X121.207 Y49.601 F960 E0.017
G1 X121.44 Y49.295 E0.013
G1 X121.696 Y49.017 E0.013
G1 X121.968 Y48.774 E0.012
G1 X122.254 Y48.562 E0.012
G1 X122.495 Y48.41 E0.009
G1 X122.812 Y48.241 E0.012
G1 X123.15 Y48.102 E0.012
G1 X123.501 Y47.994 E0.013
G1 X123.984 Y47.9 E0.016
G1 X124.356 Y47.869 E0.012
G1 X124.848 Y47.882 E0.017
G1 X125.214 Y47.931 E0.012
G1 X125.567 Y48.014 E0.012
G1 X125.906 Y48.125 E0.012
G1 X126.17 Y48.235 E0.009
G1 X126.491 Y48.398 E0.012
G1 X126.802 Y48.597 E0.013
G1 X127.185 Y48.905 E0.016
G1 X127.447 Y49.164 E0.012
G1 X127.682 Y49.447 E0.013
G1 X127.954 Y49.856 E0.016
G1 X128.126 Y50.187 E0.012
G1 X128.305 Y50.646 E0.017
G1 X128.401 Y51.002 E0.012
G1 X128.462 Y51.362 E0.012
G1 X128.49 Y51.726 E0.012
G1 X128.477 Y52.238 E0.017
G1 X128.392 Y52.76 E0.018
G1 X128.288 Y53.129 E0.013
G1 X128.15 Y53.482 E0.012
G1 X127.978 Y53.825 E0.013
G1 X127.692 Y54.261 E0.017
G1 X127.443 Y54.561 E0.013
G1 X127.065 Y54.921 E0.018
G1 X126.759 Y55.154 E0.012
G1 X126.437 Y55.353 E0.013
G1 X126.098 Y55.521 E0.013
G1 X125.74 Y55.657 E0.012
G1 X125.235 Y55.787 E0.018
G1 X124.847 Y55.84 E0.013
G1 X124.326 Y55.851 E0.017
G1 X123.944 Y55.816 E0.013
G1 X123.571 Y55.745 E0.012
G1 X123.203 Y55.638 E0.013
G1 X122.722 Y55.437 E0.018
G1 X122.386 Y55.25 E0.012
G1 X122.074 Y55.033 E0.013
G1 X121.786 Y54.788 E0.012
G1 X121.523 Y54.52 E0.013
G1 X121.324 Y54.276 E0.01
G1 X121.11 Y53.971 E0.013
G1 X120.925 Y53.64 E0.012
G1 X120.772 Y53.293 E0.013
G1 X120.652 Y52.933 E0.013
G1 X120.568 Y52.558 E0.012
G1 X120.51 Y52.041 E0.018
G1 X120.511 Y51.65 E0.013
G1 X120.574 Y51.131 E0.017
G1 X120.661 Y50.76 E0.013
G1 X120.782 Y50.401 E0.012
G1 X120.94 Y50.05 E0.013
;rapid-leaky
G0 X121.295 Y50.235 F7200
;bead-skirt/brim
G1 X121.539 Y49.825 F960 E0.016
G1 X121.747 Y49.552 E0.012
G1 X121.977 Y49.302 E0.011
G1 X122.221 Y49.085 E0.011
G1 X122.481 Y48.892 E0.01
G1 X122.696 Y48.756 E0.009
G1 X122.983 Y48.604 E0.011
G1 X123.285 Y48.479 E0.011
G1 X123.598 Y48.383 E0.01
G1 X124.039 Y48.297 E0.015
G1 X124.367 Y48.27 E0.011
G1 X124.816 Y48.281 E0.015
G1 X125.142 Y48.325 E0.011
G1 X125.459 Y48.399 E0.011
G1 X125.767 Y48.5 E0.011
G1 X126.002 Y48.598 E0.008
G1 X126.292 Y48.746 E0.011
G1 X126.569 Y48.922 E0.011
G1 X126.918 Y49.204 E0.015
G1 X127.152 Y49.435 E0.011
G1 X127.361 Y49.686 E0.011
G1 X127.609 Y50.06 E0.015
G1 X127.761 Y50.352 E0.011
G1 X127.924 Y50.771 E0.015
G1 X128.01 Y51.088 E0.011
G1 X128.065 Y51.411 E0.01
G1 X128.089 Y51.736 E0.011
G1 X128.078 Y52.201 E0.016
G1 X128.001 Y52.673 E0.016
G1 X127.908 Y53.002 E0.011
G1 X127.784 Y53.319 E0.011
G1 X127.631 Y53.625 E0.012
G1 X127.37 Y54.023 E0.016
G1 X127.15 Y54.288 E0.011
G1 X126.805 Y54.616 E0.016
G1 X126.532 Y54.824 E0.011
G1 X126.243 Y55.003 E0.012
G1 X125.938 Y55.154 E0.011
G1 X125.619 Y55.275 E0.011
G1 X125.158 Y55.394 E0.016
G1 X124.816 Y55.441 E0.012
G1 X124.34 Y55.45 E0.015
G1 X123.999 Y55.419 E0.012
G1 X123.664 Y55.356 E0.011
G1 X123.336 Y55.26 E0.011
G1 X122.897 Y55.076 E0.016
G1 X122.598 Y54.91 E0.012
G1 X122.318 Y54.716 E0.011
G1 X122.059 Y54.495 E0.011
G1 X121.822 Y54.253 E0.012
G1 X121.643 Y54.035 E0.009
G1 X121.449 Y53.758 E0.011
G1 X121.283 Y53.461 E0.012
G1 X121.145 Y53.149 E0.011
G1 X121.038 Y52.826 E0.011
G1 X120.963 Y52.492 E0.012
G1 X120.91 Y52.019 E0.015
G1 X120.911 Y51.675 E0.012
G1 X120.969 Y51.201 E0.016
G1 X121.046 Y50.869 E0.011
G1 X121.155 Y50.547 E0.011
G1 X121.295 Y50.235 E0.012
;rapid-leaky
G0 X110.435 Y51.011 F7200
;bead-skirt/brim
G1 X110.49 Y51.595 F960 E0.019
G1 X110.489 Y52.173 E0.02
G1 X110.428 Y52.761 E0.019
G1 X110.273 Y53.486 E0.025
G1 X110.083 Y54.052 E0.02
G1 X109.847 Y54.575 E0.019
G1 X109.554 Y55.089 E0.019
G1 X109.112 Y55.695 E0.025
G1 X108.697 Y56.144 E0.021
G1 X108.16 Y56.611 E0.023
G1 X107.691 Y56.938 E0.019
G1 X107.197 Y57.216 E0.019
G1 X106.551 Y57.496 E0.024
G1 X105.986 Y57.671 E0.019
G1 X105.287 Y57.806 E0.024
G1 X104.702 Y57.853 E0.02
G1 X103.996 Y57.837 E0.023
G1 X103.424 Y57.76 E0.019
G1 X102.846 Y57.625 E0.02
G1 X102.039 Y57.328 E0.029
G1 X101.516 Y57.061 E0.019
G1 X101.053 Y56.766 E0.018
G1 X100.603 Y56.42 E0.019
G1 X100.09 Y55.925 E0.024
G1 X100 Y55.817 E0.005
G1 X99.907 Y55.929 E0.005
G1 X99.364 Y56.446 E0.024
G1 X98.894 Y56.804 E0.02
G1 X98.408 Y57.105 E0.019
G1 X97.897 Y57.357 E0.019
G1 X97.346 Y57.566 E0.02
G1 X96.621 Y57.752 E0.025
G1 X96.005 Y57.837 E0.02
G1 X95.255 Y57.852 E0.025
G1 X94.666 Y57.799 E0.02
G1 X94.102 Y57.692 E0.019
G1 X93.535 Y57.526 E0.02
G1 X92.847 Y57.239 E0.024
G1 X92.327 Y56.949 E0.02
G1 X91.854 Y56.621 E0.019
G1 X91.421 Y56.253 E0.019
G1 X91.03 Y55.854 E0.019
G1 X90.728 Y55.483 E0.016
G1 X90.414 Y55.035 E0.018
G1 X90.134 Y54.535 E0.019
G1 X89.904 Y54.015 E0.019
G1 X89.722 Y53.467 E0.019
G1 X89.593 Y52.889 E0.02
G1 X89.51 Y52.15 E0.025
G1 X89.512 Y51.525 E0.02
G1 X89.602 Y50.781 E0.025
G1 X89.735 Y50.213 E0.02
G1 X89.917 Y49.67 E0.019
G1 X90.163 Y49.124 E0.02
G1 X90.547 Y48.48 E0.025
G1 X90.905 Y48.01 E0.019
G1 X91.291 Y47.59 E0.019
G1 X91.705 Y47.221 E0.019
G1 X92.122 Y46.912 E0.017
G1 X92.49 Y46.679 E0.014
G1 X92.96 Y46.43 E0.018
G1 X93.473 Y46.217 E0.019
G1 X94.015 Y46.051 E0.018
G1 X94.71 Y45.915 E0.024
G1 X95.301 Y45.867 E0.02
G1 X96.007 Y45.886 E0.023
G1 X96.575 Y45.962 E0.019
G1 X97.108 Y46.086 E0.018
G1 X97.604 Y46.249 E0.018
G1 X98.009 Y46.418 E0.014
G1 X98.484 Y46.66 E0.018
G1 X98.97 Y46.969 E0.019
G1 X99.52 Y47.412 E0.024
G1 X100 Y47.904 E0.023
G1 X100.093 Y47.792 E0.004
G1 X100.638 Y47.273 E0.026
G1 X101.108 Y46.917 E0.019
G1 X101.587 Y46.62 E0.019
G1 X102.102 Y46.364 E0.019
G1 X102.64 Y46.162 E0.019
G1 X103.123 Y46.03 E0.017
G1 X103.448 Y45.956 E0.011
G1 X104.177 Y45.874 E0.024
G1 X104.767 Y45.87 E0.02
G1 X105.334 Y45.923 E0.019
G1 X105.894 Y46.028 E0.019
G1 X106.465 Y46.195 E0.02
G1 X107.157 Y46.484 E0.024
G1 X107.676 Y46.775 E0.02
G1 X108.143 Y47.099 E0.019
G1 X108.593 Y47.479 E0.02
G1 X109.108 Y48.022 E0.025
G1 X109.481 Y48.521 E0.02
G1 X109.857 Y49.166 E0.025
G1 X110.097 Y49.707 E0.02
G1 X110.285 Y50.278 E0.02
G1 X110.435 Y51.011 E0.025
;rapid-leaky
G0 X110.039 Y51.07 F7200
;bead-skirt/brim
G1 X110.09 Y51.613 F960 E0.018
G1 X110.089 Y52.152 E0.018
G1 X110.032 Y52.698 E0.018
G1 X109.886 Y53.38 E0.023
G1 X109.71 Y53.906 E0.019
G1 X109.49 Y54.394 E0.018
G1 X109.218 Y54.871 E0.018
G1 X108.802 Y55.441 E0.023
G1 X108.418 Y55.857 E0.019
G1 X107.914 Y56.295 E0.022
G1 X107.478 Y56.599 E0.018
G1 X107.019 Y56.857 E0.017
G1 X106.412 Y57.12 E0.022
G1 X105.889 Y57.282 E0.019
G1 X105.233 Y57.409 E0.022
G1 X104.691 Y57.453 E0.018
G1 X104.028 Y57.438 E0.022
G1 X103.496 Y57.366 E0.018
G1 X102.962 Y57.241 E0.018
G1 X102.2 Y56.96 E0.027
G1 X101.714 Y56.713 E0.018
G1 X101.283 Y56.439 E0.017
G1 X100.865 Y56.116 E0.018
G1 X100.383 Y55.652 E0.022
G1 X100.001 Y55.184 E0.02
G1 X99.614 Y55.656 E0.021
G1 X99.104 Y56.141 E0.023
G1 X98.667 Y56.474 E0.018
G1 X98.214 Y56.754 E0.018
G1 X97.737 Y56.989 E0.018
G1 X97.224 Y57.184 E0.018
G1 X96.544 Y57.359 E0.023
G1 X95.973 Y57.438 E0.019
G1 X95.269 Y57.452 E0.024
G1 X94.722 Y57.402 E0.018
G1 X94.196 Y57.303 E0.018
G1 X93.668 Y57.148 E0.018
G1 X93.022 Y56.878 E0.023
G1 X92.539 Y56.609 E0.019
G1 X92.098 Y56.304 E0.018
G1 X91.694 Y55.96 E0.017
G1 X91.329 Y55.587 E0.018
G1 X91.047 Y55.242 E0.015
G1 X90.754 Y54.822 E0.017
G1 X90.492 Y54.356 E0.017
G1 X90.277 Y53.871 E0.018
G1 X90.108 Y53.361 E0.018
G1 X89.988 Y52.823 E0.018
G1 X89.91 Y52.129 E0.023
G1 X89.911 Y51.55 E0.02
G1 X89.997 Y50.851 E0.023
G1 X90.12 Y50.322 E0.018
G1 X90.29 Y49.816 E0.018
G1 X90.518 Y49.309 E0.018
G1 X90.879 Y48.704 E0.024
G1 X91.212 Y48.267 E0.018
G1 X91.572 Y47.875 E0.018
G1 X91.957 Y47.532 E0.017
G1 X92.349 Y47.242 E0.016
G1 X92.691 Y47.025 E0.014
G1 X93.131 Y46.792 E0.016
G1 X93.609 Y46.594 E0.017
G1 X94.112 Y46.44 E0.018
G1 X94.765 Y46.312 E0.022
G1 X95.312 Y46.268 E0.018
G1 X95.975 Y46.285 E0.022
G1 X96.502 Y46.356 E0.018
G1 X97 Y46.472 E0.017
G1 X97.464 Y46.624 E0.016
G1 X97.841 Y46.781 E0.014
G1 X98.286 Y47.008 E0.016
G1 X98.737 Y47.295 E0.018
G1 X99.253 Y47.71 E0.022
G1 X99.628 Y48.082 E0.018
G1 X99.999 Y48.539 E0.019
G1 X100.386 Y48.065 E0.021
G1 X100.898 Y47.578 E0.023
G1 X101.335 Y47.247 E0.019
G1 X101.782 Y46.97 E0.017
G1 X102.262 Y46.731 E0.018
G1 X102.763 Y46.543 E0.018
G1 X103.515 Y46.351 E0.025
G1 X104.201 Y46.274 E0.023
G1 X104.749 Y46.27 E0.019
G1 X105.278 Y46.32 E0.017
G1 X105.801 Y46.417 E0.018
G1 X106.332 Y46.573 E0.018
G1 X106.981 Y46.844 E0.024
G1 X107.463 Y47.114 E0.018
G1 X107.9 Y47.417 E0.018
G1 X108.318 Y47.77 E0.018
G1 X108.802 Y48.28 E0.023
G1 X109.147 Y48.742 E0.02
G1 X109.5 Y49.348 E0.023
G1 X109.723 Y49.852 E0.018
G1 X109.898 Y50.381 E0.019
G1 X110.039 Y51.07 E0.023
;rapid-leaky
G0 X109.643 Y51.129 F7200
;bead-skirt/brim
G1 X109.69 Y51.631 F960 E0.017
G1 X109.689 Y52.131 E0.017
G1 X109.636 Y52.636 E0.017
G1 X109.5 Y53.274 E0.021
G1 X109.337 Y53.76 E0.017
G1 X109.133 Y54.212 E0.017
G1 X108.882 Y54.653 E0.017
G1 X108.493 Y55.186 E0.022
G1 X108.139 Y55.569 E0.017
G1 X107.668 Y55.979 E0.021
G1 X107.265 Y56.259 E0.016
G1 X106.841 Y56.498 E0.016
G1 X106.273 Y56.744 E0.021
G1 X105.791 Y56.894 E0.017
G1 X105.179 Y57.012 E0.02
G1 X104.679 Y57.053 E0.017
G1 X104.059 Y57.038 E0.021
G1 X103.569 Y56.973 E0.016
G1 X103.077 Y56.857 E0.017
G1 X102.36 Y56.593 E0.025
G1 X101.913 Y56.366 E0.017
G1 X101.513 Y56.111 E0.016
G1 X101.126 Y55.813 E0.016
G1 X100.677 Y55.379 E0.021
G1 X100.354 Y54.993 E0.016
G1 X100 Y54.455 E0.022
G1 X99.659 Y54.975 E0.021
G1 X99.321 Y55.382 E0.017
G1 X98.844 Y55.836 E0.022
G1 X98.44 Y56.144 E0.017
G1 X98.02 Y56.404 E0.016
G1 X97.577 Y56.622 E0.017
G1 X97.103 Y56.802 E0.017
G1 X96.466 Y56.966 E0.022
G1 X95.942 Y57.039 E0.017
G1 X95.283 Y57.052 E0.022
G1 X94.777 Y57.006 E0.017
G1 X94.29 Y56.913 E0.017
G1 X93.802 Y56.771 E0.016
G1 X93.197 Y56.518 E0.022
G1 X92.751 Y56.27 E0.017
G1 X92.342 Y55.986 E0.017
G1 X91.967 Y55.667 E0.016
G1 X91.627 Y55.321 E0.016
G1 X91.366 Y55 E0.014
G1 X91.093 Y54.609 E0.016
G1 X90.85 Y54.177 E0.016
G1 X90.651 Y53.726 E0.017
G1 X90.494 Y53.254 E0.016
G1 X90.383 Y52.757 E0.017
G1 X90.31 Y52.107 E0.022
G1 X90.311 Y51.575 E0.018
G1 X90.391 Y50.921 E0.022
G1 X90.506 Y50.432 E0.016
G1 X90.663 Y49.962 E0.017
G1 X90.874 Y49.494 E0.017
G1 X91.211 Y48.928 E0.022
G1 X91.519 Y48.524 E0.017
G1 X91.853 Y48.161 E0.016
G1 X92.21 Y47.842 E0.016
G1 X92.575 Y47.572 E0.015
G1 X92.892 Y47.371 E0.013
G1 X93.301 Y47.154 E0.015
G1 X93.744 Y46.971 E0.016
G1 X94.21 Y46.828 E0.016
G1 X94.819 Y46.709 E0.021
G1 X95.323 Y46.668 E0.017
G1 X95.943 Y46.684 E0.02
G1 X96.43 Y46.75 E0.017
G1 X96.892 Y46.857 E0.015
G1 X97.325 Y47 E0.016
G1 X97.673 Y47.145 E0.012
G1 X98.087 Y47.355 E0.016
G1 X98.503 Y47.62 E0.016
G1 X98.986 Y48.009 E0.021
G1 X99.333 Y48.353 E0.016
G1 X99.646 Y48.729 E0.016
G1 X100.003 Y49.273 E0.022
G1 X100.066 Y49.154 E0.004
G1 X100.35 Y48.735 E0.017
G1 X100.679 Y48.339 E0.017
G1 X101.157 Y47.883 E0.022
G1 X101.561 Y47.577 E0.017
G1 X101.977 Y47.32 E0.016
G1 X102.421 Y47.098 E0.017
G1 X102.887 Y46.924 E0.016
G1 X103.316 Y46.806 E0.015
G1 X103.582 Y46.746 E0.009
G1 X104.225 Y46.674 E0.022
G1 X104.732 Y46.67 E0.016
G1 X105.223 Y46.717 E0.017
G1 X105.708 Y46.807 E0.016
G1 X106.198 Y46.95 E0.017
G1 X106.806 Y47.204 E0.022
G1 X107.251 Y47.454 E0.017
G1 X107.656 Y47.735 E0.017
G1 X108.043 Y48.061 E0.016
G1 X108.495 Y48.539 E0.022
G1 X108.813 Y48.963 E0.018
G1 X109.144 Y49.53 E0.022
G1 X109.349 Y49.996 E0.017
G1 X109.511 Y50.484 E0.017
G1 X109.643 Y51.129 E0.022
;rapid-leaky
G0 X109.247 Y51.188 F7200
;bead-skirt/brim
G1 X109.29 Y51.65 F960 E0.015
G1 X109.289 Y52.109 E0.015
G1 X109.241 Y52.573 E0.016
G1 X109.113 Y53.168 E0.02
G1 X108.964 Y53.613 E0.016
G1 X108.776 Y54.031 E0.015
G1 X108.545 Y54.436 E0.015
G1 X108.183 Y54.932 E0.021
G1 X107.86 Y55.282 E0.016
G1 X107.422 Y55.663 E0.019
G1 X107.052 Y55.92 E0.015
G1 X106.663 Y56.139 E0.015
G1 X106.134 Y56.369 E0.019
G1 X105.694 Y56.505 E0.015
G1 X105.124 Y56.615 E0.02
G1 X104.668 Y56.652 E0.015
G1 X104.09 Y56.639 E0.019
G1 X103.641 Y56.579 E0.015
G1 X103.192 Y56.473 E0.016
G1 X102.52 Y56.226 E0.023
G1 X102.112 Y56.018 E0.016
G1 X101.743 Y55.783 E0.014
G1 X101.388 Y55.51 E0.015
G1 X100.97 Y55.106 E0.019
G1 X100.675 Y54.754 E0.016
G1 X100.355 Y54.272 E0.019
G1 X100.144 Y53.864 E0.015
G1 X100.002 Y53.499 E0.013
G1 X99.882 Y53.807 E0.011
G1 X99.672 Y54.225 E0.016
G1 X99.337 Y54.737 E0.02
G1 X99.029 Y55.109 E0.016
G1 X98.584 Y55.531 E0.021
G1 X98.213 Y55.814 E0.015
G1 X97.826 Y56.054 E0.015
G1 X97.418 Y56.255 E0.015
G1 X96.982 Y56.421 E0.016
G1 X96.389 Y56.573 E0.02
G1 X95.91 Y56.639 E0.016
G1 X95.298 Y56.651 E0.021
G1 X94.833 Y56.609 E0.015
G1 X94.383 Y56.524 E0.015
G1 X93.935 Y56.393 E0.016
G1 X93.372 Y56.157 E0.02
G1 X92.963 Y55.93 E0.016
G1 X92.586 Y55.669 E0.015
G1 X92.24 Y55.374 E0.015
G1 X91.926 Y55.054 E0.015
G1 X91.685 Y54.759 E0.013
G1 X91.432 Y54.396 E0.014
G1 X91.208 Y53.998 E0.016
G1 X91.025 Y53.582 E0.015
G1 X90.88 Y53.147 E0.015
G1 X90.778 Y52.691 E0.016
G1 X90.71 Y52.085 E0.02
G1 X90.711 Y51.6 E0.016
G1 X90.786 Y50.991 E0.02
G1 X90.891 Y50.541 E0.016
G1 X91.036 Y50.109 E0.015
G1 X91.229 Y49.679 E0.016
G1 X91.543 Y49.152 E0.02
G1 X91.826 Y48.781 E0.016
G1 X92.134 Y48.446 E0.015
G1 X92.463 Y48.153 E0.014
G1 X92.802 Y47.902 E0.014
G1 X93.093 Y47.717 E0.012
G1 X93.471 Y47.517 E0.014
G1 X93.879 Y47.348 E0.015
G1 X94.307 Y47.217 E0.015
G1 X94.874 Y47.106 E0.019
G1 X95.334 Y47.069 E0.015
G1 X95.912 Y47.083 E0.019
G1 X96.358 Y47.143 E0.015
G1 X96.783 Y47.243 E0.015
G1 X97.185 Y47.375 E0.014
G1 X97.506 Y47.508 E0.012
G1 X97.888 Y47.703 E0.014
G1 X98.269 Y47.946 E0.015
G1 X98.719 Y48.308 E0.019
G1 X99.038 Y48.623 E0.015
G1 X99.324 Y48.969 E0.015
G1 X99.644 Y49.449 E0.019
G1 X99.856 Y49.856 E0.015
G1 X99.998 Y50.222 E0.013
G1 X100.124 Y49.899 E0.012
G1 X100.409 Y49.361 E0.02
G1 X100.67 Y48.976 E0.016
G1 X100.971 Y48.612 E0.015
G1 X101.417 Y48.189 E0.021
G1 X101.788 Y47.907 E0.015
G1 X102.172 Y47.67 E0.015
G1 X102.581 Y47.466 E0.015
G1 X103.01 Y47.305 E0.016
G1 X103.648 Y47.141 E0.022
G1 X104.249 Y47.073 E0.02
G1 X104.714 Y47.071 E0.015
G1 X105.167 Y47.113 E0.015
G1 X105.615 Y47.197 E0.015
G1 X106.065 Y47.328 E0.016
G1 X106.63 Y47.564 E0.02
G1 X107.039 Y47.793 E0.016
G1 X107.413 Y48.053 E0.015
G1 X107.768 Y48.353 E0.016
G1 X108.189 Y48.797 E0.02
G1 X108.479 Y49.185 E0.016
G1 X108.787 Y49.712 E0.02
G1 X108.976 Y50.14 E0.016
G1 X109.124 Y50.588 E0.016
G1 X109.247 Y51.188 E0.02
;rapid-leaky
G0 X108.851 Y51.247 F7200
;bead-skirt/brim
G1 X108.89 Y51.668 F960 E0.014
G1 X108.889 Y52.088 E0.014
G1 X108.845 Y52.511 E0.014
G1 X108.727 Y53.062 E0.019
G1 X108.591 Y53.467 E0.014
G1 X108.419 Y53.849 E0.014
G1 X108.209 Y54.218 E0.014
G1 X107.874 Y54.677 E0.019
G1 X107.581 Y54.995 E0.015
G1 X107.175 Y55.347 E0.017
G1 X106.839 Y55.581 E0.014
G1 X106.485 Y55.781 E0.014
G1 X105.995 Y55.993 E0.017
G1 X105.596 Y56.116 E0.014
G1 X105.07 Y56.218 E0.018
G1 X104.656 Y56.252 E0.014
G1 X104.122 Y56.239 E0.018
G1 X103.713 Y56.185 E0.013
G1 X103.307 Y56.09 E0.014
G1 X102.681 Y55.859 E0.022
G1 X102.31 Y55.67 E0.014
G1 X101.973 Y55.455 E0.013
G1 X101.65 Y55.206 E0.014
G1 X101.263 Y54.833 E0.018
G1 X100.996 Y54.514 E0.014
G1 X100.7 Y54.068 E0.018
G1 X100.509 Y53.699 E0.013
G1 X100.315 Y53.2 E0.018
G1 X100.208 Y52.806 E0.014
G1 X100.14 Y52.409 E0.013
G1 X100.111 Y52.015 E0.013
G1 X100.112 Y51.685 E0.011
G1 X100.145 Y51.278 E0.014
G1 X100.219 Y50.867 E0.014
G1 X100.333 Y50.465 E0.014
G1 X100.488 Y50.066 E0.014
G1 X100.753 Y49.567 E0.019
G1 X100.99 Y49.216 E0.014
G1 X101.264 Y48.886 E0.014
G1 X101.676 Y48.494 E0.019
G1 X102.015 Y48.238 E0.014
G1 X102.367 Y48.019 E0.014
G1 X102.741 Y47.833 E0.014
G1 X103.133 Y47.686 E0.014
G1 X103.51 Y47.582 E0.013
G1 X103.715 Y47.536 E0.007
G1 X104.273 Y47.473 E0.018
G1 X104.697 Y47.471 E0.014
G1 X105.112 Y47.51 E0.014
G1 X105.522 Y47.586 E0.014
G1 X105.931 Y47.706 E0.014
G1 X106.455 Y47.925 E0.019
G1 X106.827 Y48.133 E0.014
G1 X107.169 Y48.37 E0.014
G1 X107.493 Y48.644 E0.014
G1 X107.883 Y49.055 E0.019
G1 X108.145 Y49.406 E0.015
G1 X108.43 Y49.894 E0.019
G1 X108.602 Y50.284 E0.014
G1 X108.737 Y50.691 E0.014
G1 X108.851 Y51.247 E0.019
;rapid-leaky
G0 X108.454 Y51.306 F7200
;bead-skirt/brim
G1 X108.49 Y51.686 F960 E0.013
G1 X108.489 Y52.067 E0.012
G1 X108.449 Y52.448 E0.013
G1 X108.341 Y52.957 E0.017
G1 X108.218 Y53.321 E0.013
G1 X108.062 Y53.667 E0.013
G1 X107.873 Y54 E0.012
G1 X107.564 Y54.423 E0.018
G1 X107.302 Y54.707 E0.013
G1 X106.929 Y55.031 E0.016
G1 X106.626 Y55.242 E0.012
G1 X106.306 Y55.422 E0.013
G1 X105.856 Y55.618 E0.016
G1 X105.499 Y55.728 E0.012
G1 X105.016 Y55.821 E0.017
G1 X104.644 Y55.852 E0.012
G1 X104.153 Y55.84 E0.017
G1 X103.786 Y55.791 E0.012
G1 X103.422 Y55.706 E0.012
G1 X102.841 Y55.492 E0.021
G1 X102.509 Y55.323 E0.012
G1 X102.203 Y55.128 E0.012
G1 X101.911 Y54.903 E0.013
G1 X101.556 Y54.56 E0.016
G1 X101.317 Y54.274 E0.012
G1 X101.045 Y53.865 E0.017
G1 X100.874 Y53.534 E0.012
G1 X100.695 Y53.075 E0.017
G1 X100.599 Y52.72 E0.012
G1 X100.538 Y52.36 E0.012
G1 X100.511 Y52.001 E0.012
G1 X100.512 Y51.702 E0.01
G1 X100.542 Y51.33 E0.012
G1 X100.61 Y50.957 E0.013
G1 X100.712 Y50.592 E0.012
G1 X100.853 Y50.233 E0.013
G1 X101.096 Y49.773 E0.018
G1 X101.311 Y49.456 E0.012
G1 X101.557 Y49.16 E0.013
G1 X101.936 Y48.799 E0.018
G1 X102.241 Y48.568 E0.012
G1 X102.562 Y48.369 E0.013
G1 X102.901 Y48.2 E0.012
G1 X103.257 Y48.067 E0.013
G1 X103.607 Y47.971 E0.012
G1 X103.781 Y47.931 E0.006
G1 X104.296 Y47.873 E0.017
G1 X104.679 Y47.871 E0.013
G1 X105.056 Y47.906 E0.013
G1 X105.429 Y47.976 E0.012
G1 X105.797 Y48.083 E0.013
G1 X106.279 Y48.285 E0.017
G1 X106.614 Y48.473 E0.013
G1 X106.925 Y48.688 E0.013
G1 X107.218 Y48.935 E0.012
G1 X107.576 Y49.314 E0.018
G1 X107.811 Y49.627 E0.013
G1 X108.073 Y50.077 E0.017
G1 X108.229 Y50.428 E0.013
G1 X108.35 Y50.794 E0.013
G1 X108.454 Y51.306 E0.017
;rapid-leaky
G0 X108.058 Y51.365 F7200
;bead-skirt/brim
G1 X108.09 Y51.704 F960 E0.011
G1 X108.089 Y52.046 E0.012
G1 X108.054 Y52.385 E0.011
G1 X107.954 Y52.851 E0.016
G1 X107.845 Y53.175 E0.011
G1 X107.705 Y53.486 E0.012
G1 X107.536 Y53.783 E0.011
G1 X107.255 Y54.168 E0.016
G1 X107.023 Y54.42 E0.011
G1 X106.683 Y54.715 E0.015
G1 X106.413 Y54.903 E0.011
G1 X106.128 Y55.063 E0.011
G1 X105.717 Y55.242 E0.015
G1 X105.402 Y55.339 E0.011
G1 X104.961 Y55.424 E0.015
G1 X104.633 Y55.451 E0.011
G1 X104.184 Y55.441 E0.015
G1 X103.858 Y55.397 E0.011
G1 X103.537 Y55.322 E0.011
G1 X103.002 Y55.125 E0.019
G1 X102.708 Y54.975 E0.011
G1 X102.433 Y54.8 E0.011
G1 X102.173 Y54.6 E0.01
G1 X101.849 Y54.287 E0.015
G1 X101.638 Y54.035 E0.011
G1 X101.39 Y53.662 E0.015
G1 X101.239 Y53.369 E0.011
G1 X101.076 Y52.95 E0.015
G1 X100.99 Y52.634 E0.011
G1 X100.935 Y52.311 E0.011
G1 X100.911 Y51.987 E0.011
G1 X100.912 Y51.72 E0.009
G1 X100.939 Y51.382 E0.011
G1 X101 Y51.047 E0.011
G1 X101.092 Y50.719 E0.012
G1 X101.217 Y50.4 E0.011
G1 X101.439 Y49.98 E0.016
G1 X101.631 Y49.697 E0.011
G1 X101.85 Y49.433 E0.012
G1 X102.195 Y49.104 E0.015
G1 X102.468 Y48.898 E0.012
G1 X102.757 Y48.719 E0.011
G1 X103.061 Y48.567 E0.011
G1 X103.38 Y48.448 E0.012
G1 X103.704 Y48.359 E0.011
G1 X103.848 Y48.326 E0.005
G1 X104.32 Y48.273 E0.016
G1 X104.662 Y48.271 E0.011
G1 X105.001 Y48.303 E0.011
G1 X105.336 Y48.365 E0.012
G1 X105.664 Y48.461 E0.011
G1 X106.104 Y48.645 E0.016
G1 X106.402 Y48.812 E0.011
G1 X106.682 Y49.006 E0.012
G1 X106.943 Y49.226 E0.011
G1 X107.27 Y49.572 E0.016
G1 X107.477 Y49.848 E0.011
G1 X107.716 Y50.259 E0.016
G1 X107.855 Y50.572 E0.011
G1 X107.963 Y50.897 E0.012
G1 X108.058 Y51.365 E0.016
;rapid-leaky
G0 X99.89 Y51.716 F7200
;bead-skirt/brim
G1 X99.876 Y52.275 F960 E0.018
G1 X99.783 Y52.847 E0.02
G1 X99.667 Y53.256 E0.014
G1 X99.516 Y53.645 E0.014
G1 X99.325 Y54.025 E0.014
G1 X99.015 Y54.499 E0.019
G1 X98.736 Y54.835 E0.014
G1 X98.325 Y55.226 E0.019
G1 X97.986 Y55.484 E0.014
G1 X97.631 Y55.704 E0.014
G1 X97.258 Y55.888 E0.014
G1 X96.861 Y56.039 E0.014
G1 X96.312 Y56.18 E0.019
G1 X95.879 Y56.24 E0.014
G1 X95.312 Y56.251 E0.019
G1 X94.888 Y56.213 E0.014
G1 X94.477 Y56.134 E0.014
G1 X94.069 Y56.015 E0.014
G1 X93.547 Y55.797 E0.019
G1 X93.175 Y55.59 E0.014
G1 X92.83 Y55.351 E0.014
G1 X92.513 Y55.081 E0.014
G1 X92.225 Y54.787 E0.014
G1 X92.005 Y54.517 E0.011
G1 X91.771 Y54.183 E0.014
G1 X91.567 Y53.819 E0.014
G1 X91.398 Y53.438 E0.014
G1 X91.266 Y53.04 E0.014
G1 X91.173 Y52.624 E0.014
G1 X91.11 Y52.063 E0.019
G1 X91.111 Y51.625 E0.014
G1 X91.18 Y51.061 E0.019
G1 X91.276 Y50.65 E0.014
G1 X91.409 Y50.255 E0.014
G1 X91.585 Y49.864 E0.014
G1 X91.875 Y49.377 E0.019
G1 X92.133 Y49.038 E0.014
G1 X92.415 Y48.732 E0.014
G1 X92.715 Y48.463 E0.014
G1 X93.028 Y48.232 E0.013
G1 X93.294 Y48.063 E0.01
G1 X93.642 Y47.879 E0.013
G1 X94.015 Y47.725 E0.013
G1 X94.404 Y47.606 E0.014
G1 X94.929 Y47.503 E0.018
G1 X95.345 Y47.469 E0.014
G1 X95.88 Y47.483 E0.018
G1 X96.286 Y47.537 E0.013
G1 X96.675 Y47.628 E0.013
G1 X97.046 Y47.75 E0.013
G1 X97.338 Y47.871 E0.011
G1 X97.69 Y48.051 E0.013
G1 X98.036 Y48.271 E0.014
G1 X98.452 Y48.606 E0.017
G1 X98.742 Y48.894 E0.014
G1 X99.003 Y49.208 E0.014
G1 X99.299 Y49.653 E0.017
G1 X99.491 Y50.022 E0.014
G1 X99.686 Y50.521 E0.018
G1 X99.792 Y50.917 E0.014
G1 X99.86 Y51.313 E0.013
G1 X99.89 Y51.716 E0.014
;rapid-leaky
G0 X99.49 Y51.726 F7200
;bead-skirt/brim
G1 X99.477 Y52.238 F960 E0.017
G1 X99.392 Y52.76 E0.017
G1 X99.288 Y53.129 E0.013
G1 X99.15 Y53.482 E0.013
G1 X98.978 Y53.825 E0.012
G1 X98.692 Y54.261 E0.018
G1 X98.443 Y54.561 E0.013
G1 X98.065 Y54.921 E0.017
G1 X97.759 Y55.154 E0.013
G1 X97.437 Y55.353 E0.012
G1 X97.098 Y55.521 E0.013
G1 X96.74 Y55.657 E0.013
G1 X96.234 Y55.787 E0.017
G1 X95.847 Y55.84 E0.013
G1 X95.326 Y55.851 E0.017
G1 X94.944 Y55.816 E0.013
G1 X94.571 Y55.745 E0.013
G1 X94.203 Y55.638 E0.012
G1 X93.722 Y55.437 E0.018
G1 X93.386 Y55.25 E0.013
G1 X93.074 Y55.033 E0.012
G1 X92.786 Y54.788 E0.013
G1 X92.523 Y54.52 E0.012
G1 X92.324 Y54.276 E0.011
G1 X92.11 Y53.97 E0.012
G1 X91.925 Y53.64 E0.013
G1 X91.772 Y53.293 E0.012
G1 X91.652 Y52.933 E0.013
G1 X91.568 Y52.558 E0.013
G1 X91.51 Y52.041 E0.017
G1 X91.511 Y51.65 E0.013
G1 X91.574 Y51.131 E0.017
G1 X91.661 Y50.76 E0.013
G1 X91.782 Y50.401 E0.013
G1 X91.94 Y50.049 E0.013
G1 X92.207 Y49.601 E0.017
G1 X92.44 Y49.295 E0.013
G1 X92.696 Y49.017 E0.012
G1 X92.968 Y48.774 E0.012
G1 X93.254 Y48.562 E0.012
G1 X93.495 Y48.41 E0.01
G1 X93.812 Y48.241 E0.012
G1 X94.15 Y48.102 E0.012
G1 X94.501 Y47.994 E0.012
G1 X94.984 Y47.9 E0.016
G1 X95.356 Y47.869 E0.013
G1 X95.848 Y47.882 E0.016
G1 X96.213 Y47.931 E0.012
G1 X96.567 Y48.014 E0.013
G1 X96.906 Y48.125 E0.011
G1 X97.17 Y48.235 E0.01
G1 X97.491 Y48.398 E0.012
G1 X97.802 Y48.597 E0.012
G1 X98.185 Y48.905 E0.017
G1 X98.447 Y49.164 E0.012
G1 X98.682 Y49.447 E0.012
G1 X98.954 Y49.856 E0.016
G1 X99.126 Y50.187 E0.013
G1 X99.305 Y50.646 E0.016
G1 X99.401 Y51.002 E0.012
G1 X99.462 Y51.362 E0.013
G1 X99.49 Y51.726 E0.012
;rapid-leaky
G0 X99.089 Y51.736 F7200
;bead-skirt/brim
G1 X99.078 Y52.201 F960 E0.015
G1 X99.001 Y52.673 E0.016
G1 X98.908 Y53.002 E0.011
G1 X98.784 Y53.319 E0.012
G1 X98.631 Y53.625 E0.011
G1 X98.37 Y54.023 E0.016
G1 X98.15 Y54.288 E0.011
G1 X97.805 Y54.616 E0.016
G1 X97.533 Y54.824 E0.012
G1 X97.243 Y55.003 E0.011
G1 X96.938 Y55.154 E0.011
G1 X96.619 Y55.275 E0.012
G1 X96.157 Y55.394 E0.016
G1 X95.816 Y55.441 E0.011
G1 X95.34 Y55.45 E0.016
G1 X94.999 Y55.419 E0.011
G1 X94.664 Y55.356 E0.012
G1 X94.336 Y55.26 E0.011
G1 X93.896 Y55.076 E0.016
G1 X93.598 Y54.91 E0.011
G1 X93.318 Y54.716 E0.011
G1 X93.059 Y54.495 E0.012
G1 X92.822 Y54.253 E0.011
G1 X92.643 Y54.035 E0.009
G1 X92.449 Y53.757 E0.012
G1 X92.283 Y53.461 E0.011
G1 X92.145 Y53.149 E0.011
G1 X92.038 Y52.826 E0.012
G1 X91.963 Y52.492 E0.011
G1 X91.91 Y52.019 E0.016
G1 X91.911 Y51.675 E0.011
G1 X91.969 Y51.201 E0.016
G1 X92.046 Y50.869 E0.012
G1 X92.155 Y50.547 E0.011
G1 X92.295 Y50.235 E0.011
G1 X92.539 Y49.825 E0.016
G1 X92.747 Y49.552 E0.011
G1 X92.977 Y49.302 E0.012
G1 X93.221 Y49.085 E0.011
G1 X93.481 Y48.892 E0.01
G1 X93.696 Y48.756 E0.009
G1 X93.983 Y48.604 E0.011
G1 X94.285 Y48.479 E0.011
G1 X94.598 Y48.383 E0.01
G1 X95.039 Y48.297 E0.015
G1 X95.367 Y48.27 E0.011
G1 X95.816 Y48.281 E0.015
G1 X96.141 Y48.325 E0.011
G1 X96.459 Y48.399 E0.011
G1 X96.767 Y48.5 E0.011
G1 X97.002 Y48.598 E0.008
G1 X97.292 Y48.746 E0.011
G1 X97.569 Y48.922 E0.011
G1 X97.918 Y49.204 E0.015
G1 X98.152 Y49.435 E0.011
G1 X98.361 Y49.686 E0.011
G1 X98.609 Y50.06 E0.015
G1 X98.761 Y50.352 E0.011
G1 X98.924 Y50.771 E0.015
G1 X99.01 Y51.088 E0.011
G1 X99.065 Y51.411 E0.01
G1 X99.089 Y51.736 E0.011
;rapid-leaky
G0 X96.098 Y106.405 F7200
;bead-skirt/brim
G1 X96.791 Y106.498 F960 E0.023
G1 X97.438 Y106.649 E0.023
G1 X98.028 Y106.845 E0.02
G1 X98.512 Y107.047 E0.018
G1 X99.08 Y107.336 E0.021
G1 X99.637 Y107.69 E0.022
G1 X100 Y107.97 E0.015
G1 X100.122 Y107.867 E0.005
G1 X100.697 Y107.466 E0.024
G1 X101.432 Y107.068 E0.028
G1 X102.062 Y106.808 E0.022
G1 X102.722 Y106.603 E0.023
G1 X103.55 Y106.443 E0.028
G1 X104.263 Y106.385 E0.024
G1 X105.098 Y106.405 E0.028
G1 X105.791 Y106.498 E0.023
G1 X106.438 Y106.649 E0.022
G1 X107.028 Y106.845 E0.021
G1 X107.512 Y107.047 E0.017
G1 X108.08 Y107.336 E0.021
G1 X108.637 Y107.69 E0.022
G1 X109.182 Y108.11 E0.023
G1 X109.793 Y108.7 E0.029
G1 X110.25 Y109.25 E0.023
G1 X110.496 Y109.619 E0.015
G1 X110.77 Y109.234 E0.016
G1 X111.026 Y108.906 E0.014
G1 X111.601 Y108.308 E0.027
G1 X112.122 Y107.866 E0.023
G1 X112.697 Y107.466 E0.023
G1 X113.432 Y107.068 E0.028
G1 X114.062 Y106.808 E0.023
G1 X114.722 Y106.603 E0.023
G1 X115.55 Y106.443 E0.028
G1 X116.263 Y106.385 E0.024
G1 X117.098 Y106.405 E0.027
G1 X117.793 Y106.498 E0.024
G1 X118.439 Y106.649 E0.022
G1 X119.028 Y106.845 E0.02
G1 X119.513 Y107.047 E0.018
G1 X120.08 Y107.336 E0.021
G1 X120.5 Y107.603 E0.017
G1 X120.697 Y107.466 E0.008
G1 X121.432 Y107.068 E0.027
G1 X122.062 Y106.808 E0.023
G1 X122.722 Y106.604 E0.023
G1 X123.55 Y106.443 E0.028
G1 X124.263 Y106.385 E0.024
G1 X125.098 Y106.405 E0.028
G1 X125.793 Y106.498 E0.023
G1 X126.439 Y106.649 E0.022
G1 X127.028 Y106.845 E0.021
G1 X127.513 Y107.047 E0.017
G1 X128.08 Y107.336 E0.021
G1 X128.637 Y107.69 E0.022
G1 X129.182 Y108.11 E0.023
G1 X129.793 Y108.7 E0.028
G1 X130.25 Y109.25 E0.024
G1 X130.714 Y109.945 E0.028
G1 X131.046 Y110.586 E0.024
G1 X131.35 Y111.365 E0.028
G1 X131.53 Y112.033 E0.023
G1 X131.642 Y112.689 E0.022
G1 X131.69 Y113.325 E0.021
G1 X131.687 Y113.874 E0.018
G1 X131.635 Y114.524 E0.022
G1 X131.512 Y115.202 E0.023
G1 X131.326 Y115.865 E0.023
G1 X131.076 Y116.505 E0.023
G1 X130.755 Y117.142 E0.023
G1 X130.272 Y117.882 E0.03
G1 X129.807 Y118.442 E0.024
G1 X129.295 Y118.948 E0.024
G1 X128.603 Y119.494 E0.029
G1 X127.995 Y119.871 E0.024
G1 X127.376 Y120.178 E0.023
G1 X126.733 Y120.42 E0.023
G1 X126.054 Y120.606 E0.023
G1 X125.145 Y120.752 E0.031
G1 X124.211 Y120.773 E0.031
G1 X123.5 Y120.706 E0.024
G1 X122.79 Y120.574 E0.024
G1 X121.941 Y120.307 E0.029
G1 X121.287 Y120.02 E0.024
G1 X120.688 Y119.684 E0.023
G1 X120.503 Y119.556 E0.008
G1 X119.995 Y119.871 E0.019
G1 X119.377 Y120.178 E0.023
G1 X118.733 Y120.42 E0.023
G1 X118.054 Y120.606 E0.024
G1 X117.145 Y120.752 E0.03
G1 X116.211 Y120.773 E0.031
G1 X115.5 Y120.706 E0.024
G1 X114.79 Y120.574 E0.024
G1 X113.941 Y120.307 E0.03
G1 X113.287 Y120.02 E0.023
G1 X112.688 Y119.684 E0.023
G1 X112.126 Y119.295 E0.023
G1 X111.582 Y118.835 E0.024
G1 X110.973 Y118.193 E0.029
G1 X110.495 Y117.541 E0.027
G1 X110.272 Y117.882 E0.014
G1 X109.808 Y118.442 E0.024
G1 X109.295 Y118.948 E0.024
G1 X108.603 Y119.494 E0.029
G1 X107.995 Y119.871 E0.024
G1 X107.377 Y120.178 E0.023
G1 X106.733 Y120.42 E0.023
G1 X106.054 Y120.606 E0.023
G1 X105.145 Y120.752 E0.031
G1 X104.211 Y120.773 E0.031
G1 X103.5 Y120.706 E0.024
G1 X102.79 Y120.574 E0.024
G1 X101.941 Y120.307 E0.029
G1 X101.287 Y120.02 E0.024
G1 X100.688 Y119.684 E0.023
G1 X100.126 Y119.295 E0.023
G1 X99.996 Y119.184 E0.005
G1 X99.603 Y119.494 E0.017
G1 X98.995 Y119.871 E0.024
G1 X98.376 Y120.178 E0.023
G1 X97.733 Y120.42 E0.022
G1 X97.054 Y120.606 E0.024
G1 X96.145 Y120.752 E0.031
G1 X95.211 Y120.773 E0.031
G1 X94.5 Y120.706 E0.023
G1 X93.79 Y120.574 E0.024
G1 X92.941 Y120.307 E0.03
G1 X92.287 Y120.02 E0.024
G1 X91.688 Y119.684 E0.023
G1 X91.126 Y119.295 E0.022
G1 X90.582 Y118.835 E0.024
G1 X89.973 Y118.193 E0.029
G1 X89.536 Y117.609 E0.025
G1 X89.168 Y117.001 E0.023
G1 X88.795 Y116.202 E0.03
G1 X88.564 Y115.505 E0.024
G1 X88.408 Y114.808 E0.024
G1 X88.309 Y113.935 E0.029
G1 X88.312 Y113.203 E0.024
G1 X88.385 Y112.491 E0.024
G1 X88.568 Y111.637 E0.029
G1 X88.799 Y110.95 E0.024
G1 X89.082 Y110.32 E0.023
G1 X89.424 Y109.72 E0.023
G1 X89.77 Y109.233 E0.02
G1 X90.026 Y108.906 E0.014
G1 X90.601 Y108.308 E0.028
G1 X91.122 Y107.867 E0.022
G1 X91.697 Y107.466 E0.024
G1 X92.432 Y107.068 E0.027
G1 X93.062 Y106.808 E0.023
G1 X93.722 Y106.603 E0.023
G1 X94.55 Y106.443 E0.028
G1 X95.263 Y106.385 E0.024
G1 X96.098 Y106.405 E0.028
;rapid-leaky
G0 X96.067 Y106.804 F7200
;bead-skirt/brim
G1 X96.719 Y106.892 F960 E0.022
G1 X97.329 Y107.034 E0.02
G1 X97.888 Y107.22 E0.02
G1 X98.345 Y107.41 E0.016
G1 X98.882 Y107.683 E0.02
G1 X99.407 Y108.018 E0.021
G1 X99.92 Y108.414 E0.022
G1 X100.002 Y108.492 E0.004
G1 X100.366 Y108.184 E0.015
G1 X100.907 Y107.807 E0.022
G1 X101.604 Y107.43 E0.027
G1 X102.198 Y107.184 E0.021
G1 X102.819 Y106.992 E0.022
G1 X103.604 Y106.84 E0.026
G1 X104.275 Y106.786 E0.023
G1 X105.067 Y106.804 E0.026
G1 X105.719 Y106.892 E0.022
G1 X106.329 Y107.034 E0.021
G1 X106.888 Y107.22 E0.019
G1 X107.345 Y107.41 E0.017
G1 X107.882 Y107.683 E0.02
G1 X108.407 Y108.018 E0.021
G1 X108.92 Y108.414 E0.021
G1 X109.499 Y108.972 E0.027
G1 X109.929 Y109.489 E0.022
G1 X110.369 Y110.149 E0.027
G1 X110.498 Y110.398 E0.009
G1 X110.762 Y109.936 E0.018
G1 X111.091 Y109.473 E0.018
G1 X111.328 Y109.168 E0.013
G1 X111.875 Y108.6 E0.027
G1 X112.366 Y108.184 E0.021
G1 X112.907 Y107.807 E0.022
G1 X113.604 Y107.43 E0.026
G1 X114.198 Y107.184 E0.022
G1 X114.819 Y106.992 E0.021
G1 X115.604 Y106.84 E0.027
G1 X116.275 Y106.786 E0.022
G1 X117.066 Y106.804 E0.027
G1 X117.721 Y106.892 E0.021
G1 X118.33 Y107.035 E0.021
G1 X118.888 Y107.22 E0.02
G1 X119.345 Y107.41 E0.016
G1 X119.882 Y107.683 E0.02
G1 X120.501 Y108.09 E0.025
G1 X120.908 Y107.807 E0.016
G1 X121.604 Y107.43 E0.027
G1 X122.198 Y107.184 E0.021
G1 X122.819 Y106.992 E0.022
G1 X123.604 Y106.84 E0.026
G1 X124.275 Y106.786 E0.023
G1 X125.066 Y106.804 E0.026
G1 X125.721 Y106.892 E0.022
G1 X126.33 Y107.035 E0.021
G1 X126.888 Y107.22 E0.019
G1 X127.345 Y107.41 E0.017
G1 X127.882 Y107.683 E0.02
G1 X128.407 Y108.018 E0.021
G1 X128.92 Y108.414 E0.021
G1 X129.499 Y108.972 E0.027
G1 X129.929 Y109.489 E0.022
G1 X130.369 Y110.149 E0.027
G1 X130.681 Y110.751 E0.022
G1 X130.969 Y111.49 E0.027
G1 X131.138 Y112.119 E0.021
G1 X131.244 Y112.738 E0.021
G1 X131.29 Y113.34 E0.02
G1 X131.287 Y113.857 E0.017
G1 X131.237 Y114.473 E0.021
G1 X131.122 Y115.112 E0.022
G1 X130.946 Y115.738 E0.021
G1 X130.71 Y116.342 E0.022
G1 X130.408 Y116.942 E0.022
G1 X129.95 Y117.644 E0.028
G1 X129.512 Y118.171 E0.023
G1 X129.029 Y118.648 E0.022
G1 X128.373 Y119.166 E0.028
G1 X127.8 Y119.521 E0.023
G1 X127.217 Y119.81 E0.021
G1 X126.609 Y120.039 E0.022
G1 X125.969 Y120.215 E0.022
G1 X125.109 Y120.353 E0.029
G1 X124.225 Y120.372 E0.029
G1 X123.555 Y120.31 E0.023
G1 X122.887 Y120.185 E0.022
G1 X122.082 Y119.932 E0.028
G1 X121.466 Y119.662 E0.023
G1 X120.9 Y119.344 E0.021
G1 X120.499 Y119.067 E0.017
G1 X120.373 Y119.166 E0.005
G1 X119.8 Y119.521 E0.022
G1 X119.217 Y119.81 E0.022
G1 X118.609 Y120.039 E0.022
G1 X117.969 Y120.215 E0.022
G1 X117.109 Y120.353 E0.029
G1 X116.225 Y120.372 E0.029
G1 X115.555 Y120.31 E0.022
G1 X114.887 Y120.185 E0.023
G1 X114.082 Y119.932 E0.028
G1 X113.466 Y119.662 E0.022
G1 X112.9 Y119.344 E0.022
G1 X112.37 Y118.977 E0.022
G1 X111.857 Y118.544 E0.022
G1 X111.279 Y117.935 E0.028
G1 X110.868 Y117.385 E0.023
G1 X110.498 Y116.763 E0.024
G1 X110.408 Y116.942 E0.006
G1 X109.95 Y117.644 E0.028
G1 X109.512 Y118.171 E0.023
G1 X109.029 Y118.648 E0.023
G1 X108.373 Y119.166 E0.027
G1 X107.8 Y119.521 E0.023
G1 X107.217 Y119.81 E0.021
G1 X106.609 Y120.039 E0.022
G1 X105.969 Y120.215 E0.022
G1 X105.109 Y120.353 E0.029
G1 X104.225 Y120.372 E0.029
G1 X103.555 Y120.31 E0.023
G1 X102.887 Y120.185 E0.022
G1 X102.082 Y119.932 E0.029
G1 X101.466 Y119.662 E0.022
G1 X100.9 Y119.344 E0.022
G1 X100.37 Y118.977 E0.021
G1 X100.004 Y118.668 E0.016
G1 X99.373 Y119.166 E0.027
G1 X98.8 Y119.521 E0.022
G1 X98.217 Y119.81 E0.022
G1 X97.609 Y120.039 E0.021
G1 X96.969 Y120.215 E0.022
G1 X96.109 Y120.353 E0.029
G1 X95.225 Y120.372 E0.03
G1 X94.555 Y120.31 E0.022
G1 X93.887 Y120.185 E0.023
G1 X93.082 Y119.932 E0.028
G1 X92.466 Y119.662 E0.022
G1 X91.9 Y119.344 E0.022
G1 X91.37 Y118.977 E0.021
G1 X90.857 Y118.544 E0.023
G1 X90.279 Y117.935 E0.027
G1 X89.868 Y117.385 E0.023
G1 X89.521 Y116.812 E0.023
G1 X89.167 Y116.054 E0.027
G1 X88.95 Y115.399 E0.023
G1 X88.803 Y114.742 E0.023
G1 X88.709 Y113.913 E0.027
G1 X88.712 Y113.224 E0.023
G1 X88.781 Y112.554 E0.023
G1 X88.954 Y111.743 E0.027
G1 X89.172 Y111.096 E0.023
G1 X89.439 Y110.502 E0.022
G1 X89.762 Y109.936 E0.021
G1 X90.091 Y109.472 E0.019
G1 X90.328 Y109.168 E0.013
G1 X90.875 Y108.6 E0.026
G1 X91.366 Y108.184 E0.022
G1 X91.907 Y107.807 E0.022
G1 X92.604 Y107.43 E0.026
G1 X93.198 Y107.184 E0.021
G1 X93.819 Y106.992 E0.022
G1 X94.604 Y106.84 E0.027
G1 X95.275 Y106.786 E0.022
G1 X96.067 Y106.804 E0.026
;rapid-leaky
G0 X96.036 Y107.204 F7200
;bead-skirt/brim
G1 X96.647 Y107.286 F960 E0.021
G1 X97.22 Y107.42 E0.02
G1 X97.748 Y107.595 E0.018
G1 X98.177 Y107.773 E0.015
G1 X98.683 Y108.031 E0.019
G1 X99.177 Y108.346 E0.02
G1 X99.659 Y108.717 E0.02
G1 X100 Y109.046 E0.016
G1 X100.149 Y108.892 E0.007
G1 X100.61 Y108.502 E0.02
G1 X101.117 Y108.149 E0.021
G1 X101.777 Y107.792 E0.025
G1 X102.334 Y107.561 E0.02
G1 X102.917 Y107.381 E0.02
G1 X103.658 Y107.237 E0.025
G1 X104.286 Y107.186 E0.021
G1 X105.036 Y107.204 E0.025
G1 X105.647 Y107.286 E0.02
G1 X106.22 Y107.42 E0.02
G1 X106.748 Y107.595 E0.019
G1 X107.177 Y107.773 E0.015
G1 X107.683 Y108.031 E0.019
G1 X108.177 Y108.346 E0.019
G1 X108.659 Y108.717 E0.021
G1 X109.206 Y109.245 E0.025
G1 X109.608 Y109.729 E0.021
G1 X110.024 Y110.352 E0.025
G1 X110.316 Y110.916 E0.021
G1 X110.498 Y111.381 E0.016
G1 X110.544 Y111.242 E0.005
G1 X110.796 Y110.683 E0.021
G1 X111.099 Y110.151 E0.02
G1 X111.631 Y109.431 E0.03
G1 X112.149 Y108.892 E0.025
G1 X112.61 Y108.502 E0.02
G1 X113.117 Y108.149 E0.02
G1 X113.777 Y107.792 E0.025
G1 X114.334 Y107.561 E0.02
G1 X114.917 Y107.381 E0.021
G1 X115.658 Y107.237 E0.025
G1 X116.286 Y107.186 E0.021
G1 X117.035 Y107.204 E0.025
G1 X117.648 Y107.286 E0.02
G1 X118.221 Y107.42 E0.02
G1 X118.748 Y107.595 E0.018
G1 X119.177 Y107.774 E0.016
G1 X119.683 Y108.031 E0.019
G1 X120.177 Y108.346 E0.019
G1 X120.5 Y108.595 E0.014
G1 X120.61 Y108.502 E0.004
G1 X121.118 Y108.148 E0.021
G1 X121.777 Y107.792 E0.025
G1 X122.334 Y107.561 E0.02
G1 X122.917 Y107.381 E0.02
G1 X123.658 Y107.237 E0.025
G1 X124.286 Y107.186 E0.021
G1 X125.035 Y107.204 E0.025
G1 X125.648 Y107.286 E0.021
G1 X126.221 Y107.42 E0.019
G1 X126.748 Y107.595 E0.019
G1 X127.177 Y107.773 E0.015
G1 X127.683 Y108.031 E0.019
G1 X128.177 Y108.346 E0.02
G1 X128.659 Y108.717 E0.02
G1 X129.206 Y109.245 E0.025
G1 X129.608 Y109.729 E0.021
G1 X130.024 Y110.352 E0.025
G1 X130.316 Y110.916 E0.021
G1 X130.589 Y111.615 E0.025
G1 X130.747 Y112.205 E0.02
G1 X130.847 Y112.787 E0.02
G1 X130.889 Y113.354 E0.019
G1 X130.888 Y113.84 E0.016
G1 X130.84 Y114.421 E0.02
G1 X130.732 Y115.022 E0.02
G1 X130.566 Y115.611 E0.02
G1 X130.344 Y116.179 E0.021
G1 X130.061 Y116.742 E0.02
G1 X129.627 Y117.407 E0.027
G1 X129.217 Y117.901 E0.021
G1 X128.764 Y118.348 E0.021
G1 X128.144 Y118.838 E0.027
G1 X127.606 Y119.171 E0.021
G1 X127.057 Y119.443 E0.02
G1 X126.485 Y119.658 E0.02
G1 X125.885 Y119.823 E0.021
G1 X125.072 Y119.954 E0.028
G1 X124.24 Y119.972 E0.027
G1 X123.611 Y119.913 E0.021
G1 X122.984 Y119.796 E0.021
G1 X122.223 Y119.557 E0.027
G1 X121.645 Y119.303 E0.021
G1 X121.112 Y119.005 E0.02
G1 X120.613 Y118.659 E0.02
G1 X120.496 Y118.56 E0.006
G1 X120.143 Y118.838 E0.015
G1 X119.606 Y119.171 E0.021
G1 X119.057 Y119.443 E0.02
G1 X118.485 Y119.658 E0.02
G1 X117.885 Y119.823 E0.021
G1 X117.072 Y119.954 E0.027
G1 X116.24 Y119.972 E0.028
G1 X115.611 Y119.913 E0.021
G1 X114.984 Y119.796 E0.021
G1 X114.223 Y119.557 E0.027
G1 X113.645 Y119.303 E0.021
G1 X113.112 Y119.005 E0.02
G1 X112.613 Y118.659 E0.02
G1 X112.132 Y118.253 E0.021
G1 X111.586 Y117.676 E0.027
G1 X111.2 Y117.161 E0.021
G1 X110.874 Y116.623 E0.021
G1 X110.539 Y115.906 E0.026
G1 X110.499 Y115.783 E0.005
G1 X110.344 Y116.179 E0.014
G1 X110.061 Y116.742 E0.021
G1 X109.627 Y117.407 E0.026
G1 X109.217 Y117.901 E0.021
G1 X108.764 Y118.348 E0.022
G1 X108.143 Y118.838 E0.026
G1 X107.606 Y119.171 E0.021
G1 X107.057 Y119.443 E0.02
G1 X106.485 Y119.658 E0.021
G1 X105.885 Y119.823 E0.02
G1 X105.072 Y119.954 E0.028
G1 X104.24 Y119.972 E0.027
G1 X103.611 Y119.913 E0.021
G1 X102.984 Y119.796 E0.022
G1 X102.223 Y119.557 E0.026
G1 X101.644 Y119.303 E0.021
G1 X101.112 Y119.005 E0.02
G1 X100.613 Y118.659 E0.021
G1 X100.132 Y118.253 E0.021
G1 X100.001 Y118.114 E0.006
G1 X99.764 Y118.348 E0.011
G1 X99.143 Y118.838 E0.026
G1 X98.606 Y119.171 E0.021
G1 X98.057 Y119.443 E0.021
G1 X97.485 Y119.658 E0.02
G1 X96.885 Y119.823 E0.021
G1 X96.072 Y119.954 E0.027
G1 X95.24 Y119.972 E0.028
G1 X94.611 Y119.913 E0.021
G1 X93.984 Y119.796 E0.021
G1 X93.223 Y119.557 E0.027
G1 X92.645 Y119.303 E0.021
G1 X92.112 Y119.005 E0.02
G1 X91.613 Y118.659 E0.02
G1 X91.132 Y118.253 E0.021
G1 X90.586 Y117.676 E0.026
G1 X90.2 Y117.161 E0.022
G1 X89.874 Y116.623 E0.021
G1 X89.539 Y115.906 E0.026
G1 X89.336 Y115.292 E0.022
G1 X89.198 Y114.675 E0.021
G1 X89.109 Y113.891 E0.026
G1 X89.112 Y113.246 E0.021
G1 X89.177 Y112.617 E0.021
G1 X89.341 Y111.848 E0.026
G1 X89.544 Y111.242 E0.022
G1 X89.796 Y110.683 E0.02
G1 X90.099 Y110.151 E0.02
G1 X90.631 Y109.431 E0.03
G1 X91.149 Y108.892 E0.025
G1 X91.61 Y108.502 E0.02
G1 X92.117 Y108.149 E0.021
G1 X92.777 Y107.792 E0.025
G1 X93.334 Y107.561 E0.02
G1 X93.917 Y107.381 E0.02
G1 X94.658 Y107.237 E0.025
G1 X95.286 Y107.186 E0.021
G1 X96.036 Y107.204 E0.025
;rapid-leaky
G0 X96.004 Y107.603 F7200
;bead-skirt/brim
G1 X96.575 Y107.68 F960 E0.019
G1 X97.112 Y107.805 E0.019
G1 X97.608 Y107.97 E0.017
G1 X98.009 Y108.137 E0.014
G1 X98.484 Y108.379 E0.018
G1 X98.947 Y108.674 E0.018
G1 X99.397 Y109.02 E0.019
G1 X99.912 Y109.517 E0.024
G1 X100 Y109.623 E0.005
G1 X100.423 Y109.184 E0.02
G1 X100.854 Y108.819 E0.019
G1 X101.328 Y108.49 E0.019
G1 X101.949 Y108.153 E0.023
G1 X102.469 Y107.938 E0.019
G1 X103.014 Y107.769 E0.019
G1 X103.713 Y107.634 E0.024
G1 X104.298 Y107.587 E0.019
G1 X105.004 Y107.603 E0.024
G1 X105.575 Y107.68 E0.019
G1 X106.112 Y107.805 E0.018
G1 X106.608 Y107.97 E0.018
G1 X107.009 Y108.137 E0.014
G1 X107.484 Y108.379 E0.018
G1 X107.947 Y108.674 E0.018
G1 X108.397 Y109.02 E0.019
G1 X108.912 Y109.517 E0.024
G1 X109.287 Y109.968 E0.019
G1 X109.679 Y110.556 E0.024
G1 X109.951 Y111.081 E0.02
G1 X110.208 Y111.74 E0.023
G1 X110.356 Y112.29 E0.019
G1 X110.45 Y112.836 E0.018
G1 X110.489 Y113.368 E0.018
G1 X110.488 Y113.823 E0.015
G1 X110.443 Y114.369 E0.018
G1 X110.342 Y114.932 E0.02
G1 X110.186 Y115.484 E0.019
G1 X109.979 Y116.016 E0.019
G1 X109.714 Y116.542 E0.019
G1 X109.305 Y117.169 E0.025
G1 X108.922 Y117.63 E0.02
G1 X108.499 Y118.048 E0.02
G1 X107.914 Y118.51 E0.025
G1 X107.411 Y118.821 E0.019
G1 X106.897 Y119.076 E0.019
G1 X106.362 Y119.278 E0.019
G1 X105.8 Y119.432 E0.02
G1 X105.036 Y119.554 E0.025
G1 X104.254 Y119.572 E0.026
G1 X103.666 Y119.517 E0.02
G1 X103.081 Y119.407 E0.02
G1 X102.363 Y119.182 E0.025
G1 X101.823 Y118.945 E0.02
G1 X101.324 Y118.665 E0.019
G1 X100.857 Y118.341 E0.018
G1 X100.407 Y117.961 E0.02
G1 X100.002 Y117.534 E0.02
G1 X99.922 Y117.63 E0.004
G1 X99.499 Y118.048 E0.02
G1 X98.914 Y118.51 E0.024
G1 X98.411 Y118.821 E0.02
G1 X97.897 Y119.076 E0.019
G1 X97.362 Y119.278 E0.019
G1 X96.8 Y119.432 E0.02
G1 X96.036 Y119.554 E0.025
G1 X95.254 Y119.572 E0.026
G1 X94.666 Y119.517 E0.02
G1 X94.081 Y119.407 E0.02
G1 X93.363 Y119.182 E0.025
G1 X92.823 Y118.945 E0.019
G1 X92.324 Y118.665 E0.019
G1 X91.857 Y118.341 E0.019
G1 X91.407 Y117.961 E0.02
G1 X90.892 Y117.418 E0.025
G1 X90.532 Y116.937 E0.02
G1 X90.228 Y116.434 E0.019
G1 X89.912 Y115.758 E0.025
G1 X89.722 Y115.185 E0.02
G1 X89.593 Y114.609 E0.02
G1 X89.51 Y113.869 E0.025
G1 X89.511 Y113.267 E0.02
G1 X89.572 Y112.679 E0.019
G1 X89.727 Y111.954 E0.025
G1 X89.917 Y111.388 E0.02
G1 X90.153 Y110.865 E0.019
G1 X90.437 Y110.366 E0.019
G1 X90.933 Y109.693 E0.028
G1 X91.423 Y109.184 E0.023
G1 X91.854 Y108.819 E0.019
G1 X92.328 Y108.49 E0.019
G1 X92.949 Y108.153 E0.024
G1 X93.469 Y107.938 E0.019
G1 X94.014 Y107.769 E0.018
G1 X94.713 Y107.634 E0.024
G1 X95.298 Y107.587 E0.02
G1 X96.004 Y107.603 E0.023
;rapid-leaky
G0 X95.973 Y108.002 F7200
;bead-skirt/brim
G1 X96.502 Y108.074 F960 E0.018
G1 X97.003 Y108.19 E0.017
G1 X97.467 Y108.345 E0.016
G1 X97.841 Y108.5 E0.014
G1 X98.286 Y108.727 E0.016
G1 X98.717 Y109.001 E0.017
G1 X99.135 Y109.324 E0.018
G1 X99.619 Y109.79 E0.022
G1 X100.002 Y110.262 E0.02
G1 X100.236 Y109.955 E0.013
G1 X100.698 Y109.476 E0.022
G1 X101.098 Y109.137 E0.018
G1 X101.538 Y108.831 E0.018
G1 X102.121 Y108.515 E0.022
G1 X102.605 Y108.314 E0.017
G1 X103.111 Y108.158 E0.018
G1 X103.767 Y108.031 E0.022
G1 X104.309 Y107.987 E0.018
G1 X104.973 Y108.002 E0.022
G1 X105.502 Y108.074 E0.018
G1 X106.003 Y108.19 E0.017
G1 X106.468 Y108.345 E0.016
G1 X106.841 Y108.5 E0.014
G1 X107.286 Y108.727 E0.016
G1 X107.717 Y109.001 E0.017
G1 X108.135 Y109.324 E0.018
G1 X108.619 Y109.79 E0.022
G1 X108.966 Y110.208 E0.018
G1 X109.334 Y110.76 E0.022
G1 X109.586 Y111.246 E0.019
G1 X109.827 Y111.865 E0.022
G1 X109.965 Y112.376 E0.017
G1 X110.052 Y112.885 E0.018
G1 X110.089 Y113.382 E0.016
G1 X110.088 Y113.806 E0.014
G1 X110.046 Y114.317 E0.017
G1 X109.951 Y114.843 E0.018
G1 X109.807 Y115.356 E0.018
G1 X109.613 Y115.853 E0.018
G1 X109.367 Y116.342 E0.018
G1 X108.982 Y116.931 E0.023
G1 X108.627 Y117.359 E0.019
G1 X108.234 Y117.747 E0.018
G1 X107.684 Y118.182 E0.023
G1 X107.216 Y118.471 E0.019
G1 X106.737 Y118.709 E0.017
G1 X106.238 Y118.897 E0.018
G1 X105.715 Y119.04 E0.018
G1 X105 Y119.155 E0.024
G1 X104.268 Y119.171 E0.025
G1 X103.722 Y119.12 E0.018
G1 X103.178 Y119.018 E0.018
G1 X102.504 Y118.807 E0.024
G1 X102.002 Y118.586 E0.018
G1 X101.537 Y118.326 E0.018
G1 X101.1 Y118.023 E0.017
G1 X100.682 Y117.67 E0.019
G1 X100.198 Y117.16 E0.023
G1 X100.003 Y116.899 E0.011
G1 X99.627 Y117.359 E0.02
G1 X99.234 Y117.747 E0.018
G1 X98.684 Y118.182 E0.023
G1 X98.216 Y118.471 E0.019
G1 X97.737 Y118.709 E0.017
G1 X97.238 Y118.897 E0.018
G1 X96.715 Y119.04 E0.018
G1 X96 Y119.155 E0.024
G1 X95.268 Y119.171 E0.025
G1 X94.722 Y119.12 E0.018
G1 X94.178 Y119.018 E0.018
G1 X93.504 Y118.807 E0.024
G1 X93.002 Y118.587 E0.018
G1 X92.537 Y118.326 E0.018
G1 X92.1 Y118.023 E0.017
G1 X91.682 Y117.67 E0.019
G1 X91.198 Y117.16 E0.023
G1 X90.864 Y116.713 E0.019
G1 X90.581 Y116.246 E0.018
G1 X90.284 Y115.61 E0.023
G1 X90.108 Y115.078 E0.019
G1 X89.988 Y114.543 E0.018
G1 X89.91 Y113.847 E0.023
G1 X89.911 Y113.288 E0.019
G1 X89.968 Y112.742 E0.018
G1 X90.114 Y112.06 E0.023
G1 X90.29 Y111.534 E0.019
G1 X90.51 Y111.046 E0.017
G1 X90.775 Y110.582 E0.018
G1 X91.053 Y110.19 E0.016
G1 X91.236 Y109.955 E0.01
G1 X91.697 Y109.476 E0.022
G1 X92.098 Y109.137 E0.018
G1 X92.538 Y108.831 E0.018
G1 X93.121 Y108.515 E0.022
G1 X93.605 Y108.314 E0.017
G1 X94.111 Y108.158 E0.018
G1 X94.767 Y108.031 E0.022
G1 X95.309 Y107.987 E0.018
G1 X95.973 Y108.002 E0.022
;rapid-leaky
G0 X95.941 Y108.402 F7200
;bead-skirt/brim
G1 X96.43 Y108.467 F960 E0.016
G1 X96.894 Y108.576 E0.016
G1 X97.327 Y108.72 E0.015
G1 X97.673 Y108.864 E0.013
G1 X98.087 Y109.074 E0.015
G1 X98.487 Y109.329 E0.016
G1 X98.874 Y109.627 E0.016
G1 X99.325 Y110.062 E0.021
G1 X99.645 Y110.447 E0.017
G1 X100.003 Y110.989 E0.021
G1 X100.112 Y110.797 E0.008
G1 X100.539 Y110.218 E0.024
G1 X100.972 Y109.768 E0.021
G1 X101.342 Y109.454 E0.016
G1 X101.748 Y109.172 E0.016
G1 X102.293 Y108.877 E0.021
G1 X102.741 Y108.691 E0.016
G1 X103.209 Y108.546 E0.016
G1 X103.821 Y108.428 E0.021
G1 X104.321 Y108.387 E0.017
G1 X104.941 Y108.402 E0.02
G1 X105.43 Y108.467 E0.017
G1 X105.894 Y108.576 E0.015
G1 X106.328 Y108.72 E0.016
G1 X106.673 Y108.864 E0.012
G1 X107.087 Y109.074 E0.016
G1 X107.487 Y109.329 E0.015
G1 X107.874 Y109.627 E0.017
G1 X108.325 Y110.062 E0.02
G1 X108.645 Y110.447 E0.017
G1 X108.989 Y110.963 E0.021
G1 X109.221 Y111.411 E0.016
G1 X109.447 Y111.99 E0.021
G1 X109.574 Y112.462 E0.016
G1 X109.655 Y112.934 E0.016
G1 X109.689 Y113.396 E0.016
G1 X109.688 Y113.789 E0.013
G1 X109.649 Y114.265 E0.016
G1 X109.561 Y114.753 E0.016
G1 X109.427 Y115.229 E0.017
G1 X109.247 Y115.69 E0.016
G1 X109.019 Y116.142 E0.017
G1 X108.66 Y116.693 E0.022
G1 X108.332 Y117.088 E0.017
G1 X107.969 Y117.447 E0.017
G1 X107.454 Y117.854 E0.022
G1 X107.022 Y118.121 E0.017
G1 X106.577 Y118.341 E0.016
G1 X106.114 Y118.516 E0.017
G1 X105.63 Y118.649 E0.016
G1 X104.963 Y118.756 E0.023
G1 X104.283 Y118.771 E0.022
G1 X103.777 Y118.723 E0.017
G1 X103.275 Y118.63 E0.017
G1 X102.645 Y118.432 E0.022
G1 X102.18 Y118.228 E0.017
G1 X101.749 Y117.986 E0.017
G1 X101.344 Y117.705 E0.016
G1 X100.957 Y117.379 E0.017
G1 X100.505 Y116.901 E0.022
G1 X100.196 Y116.489 E0.017
G1 X100.002 Y116.169 E0.012
G1 X99.66 Y116.693 E0.021
G1 X99.332 Y117.088 E0.017
G1 X98.969 Y117.447 E0.017
G1 X98.454 Y117.854 E0.022
G1 X98.022 Y118.121 E0.017
G1 X97.577 Y118.342 E0.016
G1 X97.114 Y118.516 E0.017
G1 X96.63 Y118.649 E0.016
G1 X95.963 Y118.756 E0.023
G1 X95.283 Y118.771 E0.023
G1 X94.777 Y118.723 E0.016
G1 X94.275 Y118.63 E0.017
G1 X93.645 Y118.432 E0.022
G1 X93.18 Y118.228 E0.017
G1 X92.749 Y117.986 E0.017
G1 X92.344 Y117.705 E0.016
G1 X91.957 Y117.379 E0.017
G1 X91.505 Y116.901 E0.022
G1 X91.196 Y116.489 E0.017
G1 X90.934 Y116.057 E0.017
G1 X90.656 Y115.462 E0.022
G1 X90.494 Y114.972 E0.017
G1 X90.383 Y114.476 E0.017
G1 X90.31 Y113.826 E0.021
G1 X90.311 Y113.309 E0.018
G1 X90.364 Y112.804 E0.017
G1 X90.5 Y112.166 E0.021
G1 X90.663 Y111.68 E0.017
G1 X90.867 Y111.228 E0.017
G1 X91.112 Y110.797 E0.016
G1 X91.539 Y110.218 E0.024
G1 X91.972 Y109.768 E0.021
G1 X92.342 Y109.454 E0.016
G1 X92.748 Y109.172 E0.017
G1 X93.293 Y108.877 E0.02
G1 X93.741 Y108.691 E0.016
G1 X94.209 Y108.546 E0.017
G1 X94.821 Y108.428 E0.02
G1 X95.321 Y108.387 E0.017
G1 X95.941 Y108.402 E0.021
;rapid-leaky
G0 X95.91 Y108.801 F7200
;bead-skirt/brim
G1 X96.358 Y108.861 F960 E0.015
G1 X96.786 Y108.961 E0.014
G1 X97.187 Y109.095 E0.014
G1 X97.505 Y109.227 E0.012
G1 X97.888 Y109.422 E0.014
G1 X98.257 Y109.657 E0.015
G1 X98.612 Y109.93 E0.015
G1 X99.032 Y110.335 E0.019
G1 X99.324 Y110.687 E0.015
G1 X99.644 Y111.167 E0.019
G1 X99.856 Y111.576 E0.016
G1 X99.998 Y111.94 E0.013
G1 X100.224 Y111.409 E0.019
G1 X100.45 Y111.012 E0.015
G1 X100.841 Y110.48 E0.022
G1 X101.246 Y110.06 E0.019
G1 X101.586 Y109.772 E0.015
G1 X101.958 Y109.513 E0.015
G1 X102.465 Y109.238 E0.019
G1 X102.877 Y109.068 E0.015
G1 X103.306 Y108.935 E0.015
G1 X103.876 Y108.825 E0.02
G1 X104.332 Y108.788 E0.015
G1 X104.91 Y108.801 E0.019
G1 X105.358 Y108.861 E0.015
G1 X105.786 Y108.961 E0.015
G1 X106.187 Y109.095 E0.014
G1 X106.505 Y109.227 E0.011
G1 X106.888 Y109.422 E0.014
G1 X107.257 Y109.657 E0.015
G1 X107.612 Y109.93 E0.015
G1 X108.032 Y110.335 E0.019
G1 X108.324 Y110.687 E0.016
G1 X108.644 Y111.167 E0.019
G1 X108.856 Y111.576 E0.015
G1 X109.066 Y112.115 E0.019
G1 X109.183 Y112.548 E0.015
G1 X109.257 Y112.982 E0.015
G1 X109.289 Y113.41 E0.014
G1 X109.288 Y113.772 E0.012
G1 X109.252 Y114.213 E0.015
G1 X109.171 Y114.663 E0.015
G1 X109.047 Y115.102 E0.015
G1 X108.881 Y115.527 E0.015
G1 X108.672 Y115.943 E0.016
G1 X108.338 Y116.455 E0.02
G1 X108.037 Y116.818 E0.016
G1 X107.703 Y117.147 E0.016
G1 X107.224 Y117.525 E0.02
G1 X106.827 Y117.771 E0.015
G1 X106.417 Y117.974 E0.016
G1 X105.991 Y118.135 E0.015
G1 X105.545 Y118.257 E0.015
G1 X104.927 Y118.357 E0.021
G1 X104.297 Y118.37 E0.021
G1 X103.833 Y118.327 E0.015
G1 X103.372 Y118.241 E0.016
G1 X102.786 Y118.057 E0.02
G1 X102.359 Y117.87 E0.016
G1 X101.961 Y117.647 E0.015
G1 X101.588 Y117.388 E0.015
G1 X101.232 Y117.087 E0.016
G1 X100.811 Y116.643 E0.02
G1 X100.528 Y116.265 E0.016
G1 X100.288 Y115.868 E0.015
G1 X99.999 Y115.225 E0.024
G1 X99.881 Y115.527 E0.01
G1 X99.672 Y115.943 E0.016
G1 X99.338 Y116.455 E0.02
G1 X99.037 Y116.818 E0.016
G1 X98.703 Y117.147 E0.015
G1 X98.224 Y117.525 E0.021
G1 X97.827 Y117.771 E0.015
G1 X97.417 Y117.974 E0.016
G1 X96.991 Y118.135 E0.015
G1 X96.545 Y118.257 E0.015
G1 X95.927 Y118.357 E0.021
G1 X95.297 Y118.37 E0.021
G1 X94.833 Y118.327 E0.015
G1 X94.372 Y118.241 E0.016
G1 X93.786 Y118.057 E0.02
G1 X93.359 Y117.87 E0.016
G1 X92.961 Y117.647 E0.015
G1 X92.587 Y117.388 E0.015
G1 X92.232 Y117.088 E0.016
G1 X91.811 Y116.643 E0.02
G1 X91.528 Y116.265 E0.016
G1 X91.288 Y115.868 E0.015
G1 X91.029 Y115.314 E0.02
G1 X90.88 Y114.865 E0.016
G1 X90.778 Y114.41 E0.016
G1 X90.71 Y113.804 E0.02
G1 X90.711 Y113.331 E0.016
G1 X90.759 Y112.867 E0.015
G1 X90.887 Y112.272 E0.021
G1 X91.036 Y111.827 E0.015
G1 X91.224 Y111.409 E0.015
G1 X91.45 Y111.012 E0.016
G1 X91.695 Y110.668 E0.014
G1 X91.841 Y110.48 E0.008
G1 X92.246 Y110.06 E0.019
G1 X92.586 Y109.772 E0.015
G1 X92.958 Y109.513 E0.015
G1 X93.465 Y109.238 E0.019
G1 X93.877 Y109.068 E0.015
G1 X94.306 Y108.935 E0.015
G1 X94.876 Y108.825 E0.019
G1 X95.332 Y108.788 E0.015
G1 X95.91 Y108.801 E0.02
;rapid-leaky
G0 X95.879 Y109.201 F7200
;bead-skirt/brim
G1 X96.286 Y109.255 F960 E0.013
G1 X96.677 Y109.347 E0.014
G1 X97.047 Y109.47 E0.013
G1 X97.338 Y109.59 E0.01
G1 X97.69 Y109.77 E0.013
G1 X98.027 Y109.985 E0.013
G1 X98.35 Y110.234 E0.014
G1 X98.738 Y110.608 E0.018
G1 X99.003 Y110.926 E0.014
G1 X99.299 Y111.371 E0.017
G1 X99.491 Y111.741 E0.014
G1 X99.686 Y112.24 E0.018
G1 X99.792 Y112.634 E0.014
G1 X99.86 Y113.031 E0.013
G1 X99.889 Y113.425 E0.013
G1 X99.888 Y113.755 E0.011
G1 X99.855 Y114.162 E0.014
G1 X99.781 Y114.573 E0.014
G1 X99.667 Y114.975 E0.014
G1 X99.515 Y115.364 E0.014
G1 X99.325 Y115.743 E0.014
G1 X99.015 Y116.218 E0.018
G1 X98.742 Y116.547 E0.015
G1 X98.438 Y116.847 E0.014
G1 X97.994 Y117.197 E0.019
G1 X97.633 Y117.421 E0.014
G1 X97.258 Y117.607 E0.014
G1 X96.867 Y117.754 E0.014
G1 X96.46 Y117.866 E0.014
G1 X95.891 Y117.957 E0.019
G1 X95.311 Y117.97 E0.019
G1 X94.888 Y117.93 E0.014
G1 X94.469 Y117.852 E0.014
G1 X93.926 Y117.682 E0.019
G1 X93.538 Y117.511 E0.014
G1 X93.173 Y117.307 E0.014
G1 X92.831 Y117.07 E0.014
G1 X92.507 Y116.796 E0.014
G1 X92.117 Y116.385 E0.019
G1 X91.86 Y116.041 E0.014
G1 X91.641 Y115.679 E0.015
G1 X91.401 Y115.166 E0.018
G1 X91.266 Y114.758 E0.015
G1 X91.173 Y114.344 E0.014
G1 X91.11 Y113.782 E0.019
G1 X91.111 Y113.352 E0.014
G1 X91.155 Y112.93 E0.014
G1 X91.273 Y112.377 E0.019
G1 X91.409 Y111.973 E0.014
G1 X91.581 Y111.591 E0.014
G1 X91.788 Y111.228 E0.014
G1 X92.144 Y110.743 E0.02
G1 X92.52 Y110.352 E0.018
G1 X92.83 Y110.089 E0.013
G1 X93.168 Y109.854 E0.014
G1 X93.638 Y109.6 E0.018
G1 X94.013 Y109.444 E0.013
G1 X94.404 Y109.324 E0.014
G1 X94.93 Y109.222 E0.018
G1 X95.344 Y109.188 E0.014
G1 X95.879 Y109.201 E0.017
;rapid-leaky
G0 X95.847 Y109.6 F7200
;bead-skirt/brim
G1 X96.213 Y109.649 F960 E0.013
G1 X96.568 Y109.732 E0.012
G1 X96.907 Y109.845 E0.012
G1 X97.17 Y109.954 E0.009
G1 X97.491 Y110.117 E0.012
G1 X97.797 Y110.312 E0.012
G1 X98.089 Y110.537 E0.012
G1 X98.444 Y110.88 E0.017
G1 X98.682 Y111.166 E0.012
G1 X98.954 Y111.574 E0.017
G1 X99.126 Y111.906 E0.012
G1 X99.305 Y112.365 E0.016
G1 X99.401 Y112.72 E0.013
G1 X99.462 Y113.08 E0.012
G1 X99.489 Y113.439 E0.012
G1 X99.488 Y113.738 E0.01
G1 X99.458 Y114.11 E0.012
G1 X99.39 Y114.483 E0.013
G1 X99.288 Y114.848 E0.012
G1 X99.15 Y115.201 E0.013
G1 X98.978 Y115.543 E0.013
G1 X98.693 Y115.98 E0.017
G1 X98.447 Y116.276 E0.013
G1 X98.173 Y116.546 E0.013
G1 X97.764 Y116.869 E0.017
G1 X97.438 Y117.071 E0.013
G1 X97.098 Y117.24 E0.012
G1 X96.743 Y117.373 E0.013
G1 X96.375 Y117.474 E0.013
G1 X95.854 Y117.558 E0.017
G1 X95.326 Y117.57 E0.018
G1 X94.944 Y117.534 E0.012
G1 X94.566 Y117.463 E0.013
G1 X94.067 Y117.307 E0.018
G1 X93.716 Y117.153 E0.012
G1 X93.386 Y116.967 E0.013
G1 X93.075 Y116.752 E0.013
G1 X92.782 Y116.505 E0.012
G1 X92.424 Y116.126 E0.018
G1 X92.192 Y115.817 E0.013
G1 X91.994 Y115.49 E0.012
G1 X91.773 Y115.018 E0.018
G1 X91.652 Y114.651 E0.012
G1 X91.568 Y114.277 E0.013
G1 X91.51 Y113.76 E0.017
G1 X91.511 Y113.373 E0.013
G1 X91.551 Y112.992 E0.013
G1 X91.659 Y112.483 E0.017
G1 X91.782 Y112.119 E0.013
G1 X91.938 Y111.773 E0.013
G1 X92.125 Y111.443 E0.012
G1 X92.446 Y111.005 E0.018
G1 X92.794 Y110.644 E0.017
G1 X93.074 Y110.407 E0.012
G1 X93.378 Y110.195 E0.013
G1 X93.81 Y109.962 E0.016
G1 X94.149 Y109.821 E0.012
G1 X94.501 Y109.712 E0.012
G1 X94.984 Y109.619 E0.017
G1 X95.356 Y109.588 E0.012
G1 X95.847 Y109.6 E0.017
;rapid-leaky
G0 X95.816 Y109.999 F7200
;bead-skirt/brim
G1 X96.141 Y110.043 F960 E0.011
G1 X96.459 Y110.117 E0.01
G1 X96.767 Y110.22 E0.011
G1 X97.002 Y110.317 E0.009
G1 X97.292 Y110.465 E0.01
G1 X97.567 Y110.64 E0.011
G1 X97.827 Y110.84 E0.011
G1 X98.151 Y111.153 E0.015
G1 X98.361 Y111.405 E0.011
G1 X98.609 Y111.778 E0.015
G1 X98.761 Y112.071 E0.011
G1 X98.924 Y112.49 E0.015
G1 X99.01 Y112.806 E0.011
G1 X99.065 Y113.129 E0.011
G1 X99.089 Y113.453 E0.011
G1 X99.088 Y113.721 E0.008
G1 X99.061 Y114.058 E0.012
G1 X99 Y114.393 E0.011
G1 X98.908 Y114.721 E0.011
G1 X98.784 Y115.038 E0.012
G1 X98.631 Y115.343 E0.011
G1 X98.37 Y115.742 E0.016
G1 X98.152 Y116.005 E0.011
G1 X97.908 Y116.246 E0.012
G1 X97.534 Y116.541 E0.015
G1 X97.243 Y116.721 E0.012
G1 X96.938 Y116.873 E0.011
G1 X96.62 Y116.992 E0.011
G1 X96.29 Y117.083 E0.012
G1 X95.818 Y117.159 E0.016
G1 X95.34 Y117.169 E0.016
G1 X94.999 Y117.137 E0.011
G1 X94.663 Y117.074 E0.011
G1 X94.208 Y116.932 E0.016
G1 X93.895 Y116.794 E0.012
G1 X93.598 Y116.628 E0.011
G1 X93.318 Y116.434 E0.011
G1 X93.058 Y116.214 E0.012
G1 X92.73 Y115.868 E0.015
G1 X92.524 Y115.593 E0.012
G1 X92.347 Y115.301 E0.011
G1 X92.146 Y114.87 E0.016
G1 X92.038 Y114.544 E0.012
G1 X91.963 Y114.211 E0.011
G1 X91.91 Y113.738 E0.016
G1 X91.911 Y113.394 E0.011
G1 X91.946 Y113.055 E0.011
G1 X92.046 Y112.589 E0.016
G1 X92.155 Y112.265 E0.012
G1 X92.295 Y111.954 E0.011
G1 X92.463 Y111.658 E0.011
G1 X92.749 Y111.268 E0.016
G1 X93.068 Y110.936 E0.016
G1 X93.318 Y110.724 E0.011
G1 X93.588 Y110.536 E0.011
G1 X93.982 Y110.323 E0.014
G1 X94.285 Y110.198 E0.011
G1 X94.598 Y110.101 E0.011
G1 X95.039 Y110.016 E0.015
G1 X95.367 Y109.989 E0.011
G1 X95.816 Y109.999 E0.015
;rapid-leaky
G0 X100.409 Y111.973 F7200
;bead-skirt/brim
G1 X100.581 Y111.591 F960 E0.014
G1 X100.788 Y111.228 E0.014
G1 X101.144 Y110.743 E0.02
G1 X101.52 Y110.352 E0.018
G1 X101.83 Y110.089 E0.014
G1 X102.168 Y109.854 E0.013
G1 X102.638 Y109.6 E0.018
G1 X103.013 Y109.444 E0.013
G1 X103.404 Y109.324 E0.014
G1 X103.93 Y109.222 E0.018
G1 X104.344 Y109.188 E0.014
G1 X104.879 Y109.201 E0.018
G1 X105.286 Y109.255 E0.013
G1 X105.677 Y109.347 E0.014
G1 X106.047 Y109.47 E0.013
G1 X106.338 Y109.59 E0.01
G1 X106.69 Y109.77 E0.013
G1 X107.027 Y109.985 E0.013
G1 X107.35 Y110.234 E0.014
G1 X107.738 Y110.608 E0.018
G1 X108.003 Y110.926 E0.014
G1 X108.299 Y111.371 E0.017
G1 X108.491 Y111.741 E0.014
G1 X108.686 Y112.24 E0.018
G1 X108.792 Y112.634 E0.014
G1 X108.86 Y113.031 E0.013
G1 X108.889 Y113.425 E0.013
G1 X108.888 Y113.755 E0.011
G1 X108.855 Y114.162 E0.014
G1 X108.781 Y114.573 E0.014
G1 X108.667 Y114.975 E0.014
G1 X108.515 Y115.364 E0.013
G1 X108.325 Y115.743 E0.015
G1 X108.015 Y116.218 E0.018
G1 X107.742 Y116.547 E0.015
G1 X107.438 Y116.847 E0.014
G1 X106.994 Y117.197 E0.019
G1 X106.633 Y117.421 E0.014
G1 X106.258 Y117.607 E0.014
G1 X105.867 Y117.754 E0.014
G1 X105.46 Y117.866 E0.014
G1 X104.891 Y117.957 E0.019
G1 X104.311 Y117.97 E0.019
G1 X103.888 Y117.93 E0.014
G1 X103.469 Y117.852 E0.014
G1 X102.926 Y117.682 E0.019
G1 X102.537 Y117.511 E0.014
G1 X102.173 Y117.307 E0.014
G1 X101.831 Y117.07 E0.014
G1 X101.507 Y116.796 E0.014
G1 X101.117 Y116.385 E0.019
G1 X100.86 Y116.041 E0.014
G1 X100.641 Y115.679 E0.015
G1 X100.401 Y115.166 E0.018
G1 X100.266 Y114.758 E0.015
G1 X100.173 Y114.344 E0.014
G1 X100.11 Y113.782 E0.019
G1 X100.111 Y113.352 E0.014
G1 X100.155 Y112.93 E0.014
G1 X100.273 Y112.378 E0.019
G1 X100.409 Y111.973 E0.014
;rapid-leaky
G0 X100.782 Y112.119 F7200
;bead-skirt/brim
G1 X100.938 Y111.773 F960 E0.013
G1 X101.125 Y111.443 E0.012
G1 X101.446 Y111.005 E0.018
G1 X101.794 Y110.644 E0.017
G1 X102.074 Y110.407 E0.012
G1 X102.378 Y110.195 E0.012
G1 X102.81 Y109.962 E0.017
G1 X103.149 Y109.821 E0.012
G1 X103.501 Y109.712 E0.012
G1 X103.984 Y109.619 E0.017
G1 X104.356 Y109.588 E0.012
G1 X104.847 Y109.6 E0.016
G1 X105.213 Y109.649 E0.013
G1 X105.568 Y109.732 E0.012
G1 X105.907 Y109.845 E0.012
G1 X106.17 Y109.954 E0.009
G1 X106.491 Y110.117 E0.012
G1 X106.797 Y110.312 E0.012
G1 X107.089 Y110.537 E0.012
G1 X107.444 Y110.88 E0.017
G1 X107.682 Y111.166 E0.012
G1 X107.954 Y111.574 E0.017
G1 X108.126 Y111.906 E0.012
G1 X108.305 Y112.365 E0.016
G1 X108.401 Y112.72 E0.013
G1 X108.462 Y113.08 E0.012
G1 X108.489 Y113.439 E0.012
G1 X108.488 Y113.738 E0.01
G1 X108.458 Y114.11 E0.012
G1 X108.39 Y114.483 E0.013
G1 X108.288 Y114.848 E0.012
G1 X108.15 Y115.201 E0.013
G1 X107.978 Y115.543 E0.013
G1 X107.693 Y115.98 E0.017
G1 X107.447 Y116.276 E0.013
G1 X107.173 Y116.546 E0.013
G1 X106.764 Y116.869 E0.017
G1 X106.438 Y117.071 E0.013
G1 X106.098 Y117.24 E0.012
G1 X105.743 Y117.373 E0.013
G1 X105.375 Y117.474 E0.013
G1 X104.854 Y117.558 E0.017
G1 X104.326 Y117.57 E0.018
G1 X103.944 Y117.534 E0.012
G1 X103.566 Y117.463 E0.013
G1 X103.067 Y117.307 E0.018
G1 X102.716 Y117.153 E0.012
G1 X102.386 Y116.967 E0.013
G1 X102.075 Y116.752 E0.013
G1 X101.782 Y116.505 E0.012
G1 X101.424 Y116.126 E0.018
G1 X101.192 Y115.817 E0.013
G1 X100.994 Y115.49 E0.012
G1 X100.773 Y115.018 E0.018
G1 X100.652 Y114.651 E0.012
G1 X100.568 Y114.277 E0.013
G1 X100.51 Y113.76 E0.017
G1 X100.511 Y113.373 E0.013
G1 X100.551 Y112.992 E0.013
G1 X100.659 Y112.483 E0.017
G1 X100.782 Y112.119 E0.013
;rapid-leaky
G0 X101.155 Y112.265 F7200
;bead-skirt/brim
G1 X101.295 Y111.954 F960 E0.012
G1 X101.463 Y111.658 E0.011
G1 X101.749 Y111.268 E0.016
G1 X102.068 Y110.936 E0.015
G1 X102.318 Y110.724 E0.011
G1 X102.588 Y110.536 E0.011
G1 X102.982 Y110.323 E0.015
G1 X103.285 Y110.198 E0.011
G1 X103.598 Y110.101 E0.011
G1 X104.039 Y110.016 E0.015
G1 X104.367 Y109.989 E0.011
G1 X104.816 Y109.999 E0.015
G1 X105.141 Y110.043 E0.011
G1 X105.459 Y110.117 E0.01
G1 X105.767 Y110.22 E0.011
G1 X106.002 Y110.317 E0.009
G1 X106.292 Y110.465 E0.01
G1 X106.567 Y110.64 E0.011
G1 X106.827 Y110.84 E0.011
G1 X107.151 Y111.153 E0.015
G1 X107.361 Y111.405 E0.011
G1 X107.609 Y111.778 E0.015
G1 X107.761 Y112.071 E0.011
G1 X107.924 Y112.49 E0.015
G1 X108.01 Y112.806 E0.011
G1 X108.065 Y113.129 E0.011
G1 X108.089 Y113.453 E0.011
G1 X108.088 Y113.721 E0.008
G1 X108.061 Y114.058 E0.012
G1 X108 Y114.393 E0.011
G1 X107.908 Y114.721 E0.011
G1 X107.784 Y115.039 E0.012
G1 X107.631 Y115.343 E0.011
G1 X107.37 Y115.742 E0.016
G1 X107.152 Y116.005 E0.011
G1 X106.908 Y116.246 E0.012
G1 X106.534 Y116.541 E0.015
G1 X106.243 Y116.721 E0.012
G1 X105.938 Y116.873 E0.011
G1 X105.62 Y116.992 E0.012
G1 X105.29 Y117.083 E0.011
G1 X104.818 Y117.159 E0.016
G1 X104.34 Y117.169 E0.016
G1 X103.999 Y117.137 E0.011
G1 X103.663 Y117.074 E0.011
G1 X103.208 Y116.932 E0.016
G1 X102.895 Y116.794 E0.012
G1 X102.598 Y116.628 E0.011
G1 X102.318 Y116.434 E0.011
G1 X102.058 Y116.214 E0.012
G1 X101.73 Y115.868 E0.015
G1 X101.524 Y115.593 E0.012
G1 X101.347 Y115.301 E0.011
G1 X101.146 Y114.87 E0.016
G1 X101.038 Y114.544 E0.012
G1 X100.963 Y114.211 E0.011
G1 X100.91 Y113.738 E0.016
G1 X100.911 Y113.394 E0.011
G1 X100.946 Y113.055 E0.011
G1 X101.046 Y112.589 E0.016
G1 X101.155 Y112.265 E0.012
;rapid-leaky
G0 X110.511 Y113.267 F7200
;bead-skirt/brim
G1 X110.572 Y112.679 F960 E0.019
G1 X110.727 Y111.954 E0.025
G1 X110.917 Y111.388 E0.02
G1 X111.153 Y110.865 E0.019
G1 X111.437 Y110.366 E0.019
G1 X111.732 Y109.951 E0.017
G1 X111.933 Y109.693 E0.011
G1 X112.423 Y109.184 E0.023
G1 X112.854 Y108.819 E0.019
G1 X113.328 Y108.49 E0.019
G1 X113.949 Y108.153 E0.024
G1 X114.469 Y107.938 E0.019
G1 X115.014 Y107.769 E0.019
G1 X115.713 Y107.634 E0.023
G1 X116.298 Y107.587 E0.02
G1 X117.004 Y107.603 E0.023
G1 X117.576 Y107.68 E0.019
G1 X118.113 Y107.805 E0.019
G1 X118.608 Y107.97 E0.017
G1 X119.009 Y108.137 E0.015
G1 X119.484 Y108.379 E0.017
G1 X119.947 Y108.674 E0.019
G1 X120.397 Y109.02 E0.018
G1 X120.5 Y109.119 E0.005
G1 X120.854 Y108.819 E0.016
G1 X121.328 Y108.49 E0.019
G1 X121.949 Y108.153 E0.023
G1 X122.469 Y107.938 E0.019
G1 X123.014 Y107.769 E0.019
G1 X123.713 Y107.634 E0.024
G1 X124.298 Y107.587 E0.019
G1 X125.004 Y107.603 E0.024
G1 X125.576 Y107.68 E0.019
G1 X126.113 Y107.805 E0.018
G1 X126.608 Y107.97 E0.018
G1 X127.009 Y108.137 E0.014
G1 X127.484 Y108.379 E0.018
G1 X127.947 Y108.674 E0.018
G1 X128.397 Y109.02 E0.019
G1 X128.912 Y109.517 E0.024
G1 X129.287 Y109.968 E0.019
G1 X129.679 Y110.556 E0.024
G1 X129.951 Y111.081 E0.019
G1 X130.208 Y111.74 E0.024
G1 X130.356 Y112.291 E0.019
G1 X130.45 Y112.836 E0.018
G1 X130.489 Y113.368 E0.018
G1 X130.488 Y113.823 E0.015
G1 X130.443 Y114.369 E0.018
G1 X130.342 Y114.932 E0.019
G1 X130.186 Y115.484 E0.019
G1 X129.979 Y116.016 E0.019
G1 X129.714 Y116.542 E0.02
G1 X129.305 Y117.169 E0.025
G1 X128.922 Y117.63 E0.02
G1 X128.499 Y118.048 E0.02
G1 X127.914 Y118.51 E0.024
G1 X127.411 Y118.821 E0.02
G1 X126.897 Y119.076 E0.019
G1 X126.362 Y119.278 E0.019
G1 X125.8 Y119.432 E0.02
G1 X125.036 Y119.554 E0.025
G1 X124.254 Y119.572 E0.026
G1 X123.666 Y119.517 E0.02
G1 X123.081 Y119.407 E0.02
G1 X122.363 Y119.182 E0.025
G1 X121.823 Y118.945 E0.019
G1 X121.324 Y118.665 E0.019
G1 X120.857 Y118.341 E0.019
G1 X120.504 Y118.043 E0.016
G1 X119.914 Y118.51 E0.025
G1 X119.411 Y118.821 E0.019
G1 X118.897 Y119.076 E0.02
G1 X118.362 Y119.278 E0.019
G1 X117.8 Y119.432 E0.019
G1 X117.036 Y119.554 E0.026
G1 X116.254 Y119.572 E0.026
G1 X115.666 Y119.517 E0.019
G1 X115.081 Y119.407 E0.02
G1 X114.363 Y119.182 E0.025
G1 X113.823 Y118.945 E0.02
G1 X113.324 Y118.665 E0.019
G1 X112.857 Y118.341 E0.019
G1 X112.407 Y117.961 E0.019
G1 X111.892 Y117.418 E0.025
G1 X111.532 Y116.937 E0.02
G1 X111.228 Y116.434 E0.02
G1 X110.912 Y115.758 E0.025
G1 X110.722 Y115.185 E0.02
G1 X110.593 Y114.609 E0.019
G1 X110.51 Y113.869 E0.025
G1 X110.511 Y113.267 E0.02
;rapid-leaky
G0 X110.911 Y113.288 F7200
;bead-skirt/brim
G1 X110.968 Y112.742 F960 E0.018
G1 X111.114 Y112.06 E0.023
G1 X111.29 Y111.534 E0.019
G1 X111.51 Y111.046 E0.018
G1 X111.775 Y110.582 E0.018
G1 X112.236 Y109.955 E0.025
G1 X112.698 Y109.476 E0.023
G1 X113.098 Y109.137 E0.017
G1 X113.538 Y108.831 E0.018
G1 X114.121 Y108.515 E0.022
G1 X114.605 Y108.314 E0.017
G1 X115.111 Y108.158 E0.018
G1 X115.767 Y108.031 E0.022
G1 X116.309 Y107.987 E0.018
G1 X116.972 Y108.002 E0.022
G1 X117.504 Y108.074 E0.018
G1 X118.004 Y108.191 E0.017
G1 X118.468 Y108.345 E0.016
G1 X118.841 Y108.5 E0.014
G1 X119.286 Y108.727 E0.016
G1 X119.717 Y109.001 E0.018
G1 X120.135 Y109.324 E0.017
G1 X120.503 Y109.678 E0.017
G1 X120.697 Y109.476 E0.009
G1 X121.098 Y109.137 E0.018
G1 X121.538 Y108.831 E0.018
G1 X122.121 Y108.515 E0.022
G1 X122.605 Y108.314 E0.017
G1 X123.111 Y108.158 E0.018
G1 X123.767 Y108.031 E0.022
G1 X124.309 Y107.987 E0.018
G1 X124.972 Y108.002 E0.022
G1 X125.504 Y108.074 E0.018
G1 X126.004 Y108.191 E0.017
G1 X126.468 Y108.345 E0.016
G1 X126.841 Y108.5 E0.014
G1 X127.286 Y108.727 E0.016
G1 X127.717 Y109.001 E0.017
G1 X128.135 Y109.324 E0.018
G1 X128.619 Y109.79 E0.022
G1 X128.966 Y110.208 E0.018
G1 X129.334 Y110.76 E0.022
G1 X129.586 Y111.246 E0.019
G1 X129.827 Y111.865 E0.022
G1 X129.965 Y112.376 E0.017
G1 X130.052 Y112.885 E0.017
G1 X130.089 Y113.382 E0.017
G1 X130.088 Y113.806 E0.014
G1 X130.046 Y114.317 E0.017
G1 X129.951 Y114.843 E0.018
G1 X129.807 Y115.356 E0.018
G1 X129.613 Y115.853 E0.017
G1 X129.367 Y116.342 E0.019
G1 X128.982 Y116.931 E0.023
G1 X128.627 Y117.359 E0.019
G1 X128.234 Y117.747 E0.018
G1 X127.684 Y118.182 E0.023
G1 X127.216 Y118.471 E0.019
G1 X126.737 Y118.709 E0.017
G1 X126.238 Y118.897 E0.018
G1 X125.715 Y119.04 E0.018
G1 X125 Y119.155 E0.024
G1 X124.268 Y119.171 E0.025
G1 X123.722 Y119.12 E0.018
G1 X123.178 Y119.018 E0.018
G1 X122.504 Y118.807 E0.024
G1 X122.002 Y118.586 E0.018
G1 X121.537 Y118.326 E0.018
G1 X121.1 Y118.023 E0.017
G1 X120.682 Y117.67 E0.019
G1 X120.503 Y117.481 E0.008
G1 X120.234 Y117.747 E0.013
G1 X119.684 Y118.182 E0.023
G1 X119.216 Y118.471 E0.018
G1 X118.737 Y118.709 E0.018
G1 X118.238 Y118.897 E0.018
G1 X117.715 Y119.04 E0.018
G1 X117 Y119.155 E0.024
G1 X116.268 Y119.171 E0.024
G1 X115.722 Y119.12 E0.019
G1 X115.178 Y119.018 E0.018
G1 X114.504 Y118.807 E0.024
G1 X114.002 Y118.587 E0.018
G1 X113.537 Y118.326 E0.018
G1 X113.1 Y118.023 E0.017
G1 X112.682 Y117.67 E0.018
G1 X112.198 Y117.16 E0.024
G1 X111.864 Y116.713 E0.018
G1 X111.581 Y116.246 E0.018
G1 X111.284 Y115.61 E0.024
G1 X111.108 Y115.078 E0.018
G1 X110.988 Y114.543 E0.019
G1 X110.91 Y113.847 E0.023
G1 X110.911 Y113.288 E0.019
;rapid-leaky
G0 X111.311 Y113.309 F7200
;bead-skirt/brim
G1 X111.364 Y112.804 F960 E0.016
G1 X111.5 Y112.166 E0.022
G1 X111.663 Y111.68 E0.017
G1 X111.867 Y111.228 E0.017
G1 X112.112 Y110.797 E0.016
G1 X112.374 Y110.429 E0.015
G1 X112.538 Y110.218 E0.009
G1 X112.972 Y109.768 E0.021
G1 X113.342 Y109.454 E0.016
G1 X113.748 Y109.172 E0.016
G1 X114.293 Y108.877 E0.021
G1 X114.741 Y108.691 E0.016
G1 X115.209 Y108.546 E0.017
G1 X115.821 Y108.428 E0.02
G1 X116.321 Y108.387 E0.017
G1 X116.941 Y108.402 E0.021
G1 X117.431 Y108.467 E0.016
G1 X117.895 Y108.576 E0.016
G1 X118.327 Y108.72 E0.015
G1 X118.673 Y108.864 E0.012
G1 X119.087 Y109.074 E0.016
G1 X119.487 Y109.329 E0.016
G1 X119.874 Y109.627 E0.016
G1 X120.325 Y110.062 E0.021
G1 X120.498 Y110.27 E0.009
G1 X120.972 Y109.768 E0.023
G1 X121.342 Y109.454 E0.016
G1 X121.748 Y109.172 E0.016
G1 X122.293 Y108.877 E0.021
G1 X122.741 Y108.691 E0.016
G1 X123.209 Y108.546 E0.016
G1 X123.821 Y108.428 E0.021
G1 X124.321 Y108.387 E0.017
G1 X124.941 Y108.402 E0.02
G1 X125.431 Y108.467 E0.017
G1 X125.895 Y108.576 E0.016
G1 X126.327 Y108.72 E0.015
G1 X126.673 Y108.864 E0.012
G1 X127.087 Y109.074 E0.016
G1 X127.487 Y109.329 E0.016
G1 X127.874 Y109.627 E0.016
G1 X128.325 Y110.062 E0.021
G1 X128.645 Y110.447 E0.016
G1 X128.989 Y110.963 E0.021
G1 X129.221 Y111.411 E0.017
G1 X129.447 Y111.99 E0.02
G1 X129.574 Y112.462 E0.017
G1 X129.655 Y112.933 E0.016
G1 X129.689 Y113.396 E0.015
G1 X129.688 Y113.789 E0.013
G1 X129.649 Y114.265 E0.016
G1 X129.561 Y114.753 E0.016
G1 X129.427 Y115.229 E0.017
G1 X129.247 Y115.69 E0.016
G1 X129.019 Y116.142 E0.017
G1 X128.66 Y116.693 E0.022
G1 X128.332 Y117.088 E0.017
G1 X127.968 Y117.447 E0.017
G1 X127.454 Y117.853 E0.022
G1 X127.022 Y118.121 E0.017
G1 X126.577 Y118.342 E0.016
G1 X126.114 Y118.516 E0.017
G1 X125.63 Y118.649 E0.016
G1 X124.963 Y118.756 E0.023
G1 X124.283 Y118.771 E0.023
G1 X123.777 Y118.723 E0.016
G1 X123.275 Y118.63 E0.017
G1 X122.645 Y118.432 E0.022
G1 X122.18 Y118.228 E0.017
G1 X121.749 Y117.986 E0.017
G1 X121.344 Y117.705 E0.016
G1 X120.957 Y117.379 E0.017
G1 X120.496 Y116.89 E0.022
G1 X120.332 Y117.088 E0.009
G1 X119.968 Y117.447 E0.017
G1 X119.454 Y117.854 E0.022
G1 X119.022 Y118.121 E0.017
G1 X118.577 Y118.342 E0.016
G1 X118.114 Y118.516 E0.017
G1 X117.63 Y118.649 E0.016
G1 X116.963 Y118.756 E0.023
G1 X116.283 Y118.771 E0.022
G1 X115.777 Y118.723 E0.017
G1 X115.275 Y118.63 E0.017
G1 X114.645 Y118.432 E0.022
G1 X114.18 Y118.228 E0.017
G1 X113.749 Y117.986 E0.016
G1 X113.344 Y117.705 E0.017
G1 X112.957 Y117.379 E0.017
G1 X112.505 Y116.901 E0.022
G1 X112.196 Y116.489 E0.017
G1 X111.934 Y116.057 E0.017
G1 X111.656 Y115.462 E0.021
G1 X111.494 Y114.972 E0.018
G1 X111.383 Y114.476 E0.016
G1 X111.31 Y113.826 E0.022
G1 X111.311 Y113.309 E0.017
;rapid-leaky
G0 X111.711 Y113.331 F7200
;bead-skirt/brim
G1 X111.759 Y112.867 F960 E0.016
G1 X111.887 Y112.272 E0.02
G1 X112.036 Y111.827 E0.016
G1 X112.224 Y111.409 E0.015
G1 X112.45 Y111.012 E0.015
G1 X112.841 Y110.48 E0.022
G1 X113.246 Y110.06 E0.02
G1 X113.586 Y109.772 E0.014
G1 X113.958 Y109.513 E0.015
G1 X114.465 Y109.238 E0.02
G1 X114.877 Y109.068 E0.014
G1 X115.306 Y108.935 E0.015
G1 X115.876 Y108.825 E0.02
G1 X116.332 Y108.788 E0.015
G1 X116.91 Y108.801 E0.019
G1 X117.359 Y108.861 E0.015
G1 X117.786 Y108.961 E0.015
G1 X118.187 Y109.095 E0.014
G1 X118.506 Y109.227 E0.011
G1 X118.888 Y109.422 E0.015
G1 X119.257 Y109.657 E0.014
G1 X119.612 Y109.93 E0.015
G1 X120.032 Y110.335 E0.019
G1 X120.324 Y110.687 E0.016
G1 X120.497 Y110.946 E0.01
G1 X120.841 Y110.48 E0.019
G1 X121.246 Y110.06 E0.02
G1 X121.586 Y109.772 E0.015
G1 X121.958 Y109.513 E0.015
G1 X122.465 Y109.238 E0.019
G1 X122.877 Y109.068 E0.015
G1 X123.306 Y108.935 E0.015
G1 X123.876 Y108.825 E0.019
G1 X124.332 Y108.788 E0.015
G1 X124.91 Y108.801 E0.019
G1 X125.359 Y108.861 E0.015
G1 X125.786 Y108.961 E0.015
G1 X126.187 Y109.095 E0.014
G1 X126.505 Y109.227 E0.011
G1 X126.888 Y109.422 E0.015
G1 X127.257 Y109.657 E0.014
G1 X127.612 Y109.93 E0.015
G1 X128.032 Y110.335 E0.02
G1 X128.324 Y110.687 E0.015
