;suport muschi 4
;Printer name: Prusa i3 MK3
;TIME:784
;Print time: 13m:4s
;Extruder 1 material used: 493mm
;Extruder 1 material name: 
;Extruder 1 filament diameter: 1.75mm
;Extruder 1 nozzle diameter: 0.4mm
;Extruder 1 offset x: 0mm
;Extruder 1 offset y: 0mm
;Extruder 1 offset z: 0mm
;Extruder 1 max temp: 200
;Bed temp: 70
;Layer count: 59
;Width: 250mm
;Depth: 210mm
;Height: 210mm
;Center x: 125mm
;Center y: 105mm
;Center z: 0mm
;Count of bodies: 1
;Fusion version: 2.0.19440
G21
M115 U3.0.10 ;tell printer latest fw version
G28 W ;home all without mesh bed level
;--------------------------------
;Selected Profile: PLA Direct Drive
;--------------------------------
;Selected Printer: Prusa, i3 MK3
;--------------------------------
T0
M140 S70
M104 S200 T0
M190 S70
M109 S200 T0
G80 ;mesh bed leveling
G92 E0
G90
M83
G0 X10 Y10 Z10 F7200
G92 E0
;--------------------------------
;Part 1
;LAYER_COUNT:59
;LAYER:1
M107
;rapid-leaky
G0 X20 Y20.5 Z0.2 F7200
;bead-prime
G1 X120 F720 E8.315
G1 F2100 E-0.5
;rapid-dry
G0 X124.133 Y91.226 F7200
G1 F2100 E0.5
;bead-skirt/brim
G1 X125 Y91.198 F960 E0.029
G1 X125.867 Y91.226 E0.029
G1 X126.728 Y91.307 E0.029
G1 X127.585 Y91.442 E0.028
G1 X128.432 Y91.631 E0.029
G1 X129.265 Y91.873 E0.029
G1 X130.082 Y92.168 E0.029
G1 X130.877 Y92.512 E0.029
G1 X131.65 Y92.906 E0.029
G1 X132.396 Y93.347 E0.028
G1 X133.112 Y93.834 E0.029
G1 X133.797 Y94.366 E0.029
G1 X134.447 Y94.938 E0.029
G1 X135.062 Y95.553 E0.029
G1 X135.634 Y96.203 E0.029
G1 X136.166 Y96.888 E0.028
G1 X136.653 Y97.604 E0.029
G1 X137.094 Y98.35 E0.029
G1 X137.488 Y99.123 E0.029
G1 X137.832 Y99.918 E0.029
G1 X138.127 Y100.735 E0.029
G1 X138.369 Y101.568 E0.029
G1 X138.558 Y102.415 E0.028
G1 X138.693 Y103.272 E0.029
G1 X138.774 Y104.133 E0.029
G1 X138.802 Y105 E0.029
G1 X138.774 Y105.867 E0.029
G1 X138.693 Y106.728 E0.028
G1 X138.554 Y107.612 E0.03
G1 X138.309 Y108.639 E0.035
G1 X138.126 Y109.266 E0.022
G1 X137.832 Y110.082 E0.029
G1 X137.488 Y110.877 E0.029
G1 X137.094 Y111.65 E0.029
G1 X136.653 Y112.396 E0.028
G1 X136.166 Y113.112 E0.029
G1 X135.634 Y113.797 E0.029
G1 X135.062 Y114.447 E0.029
G1 X134.447 Y115.062 E0.029
G1 X133.797 Y115.634 E0.029
G1 X133.112 Y116.166 E0.028
G1 X132.396 Y116.653 E0.029
G1 X131.65 Y117.094 E0.029
G1 X130.877 Y117.488 E0.029
G1 X130.082 Y117.832 E0.029
G1 X129.265 Y118.127 E0.029
G1 X128.432 Y118.369 E0.028
G1 X127.585 Y118.558 E0.029
G1 X126.728 Y118.693 E0.029
G1 X125.867 Y118.774 E0.029
G1 X125 Y118.802 E0.029
G1 X124.133 Y118.774 E0.029
G1 X123.272 Y118.693 E0.028
G1 X122.415 Y118.558 E0.029
G1 X121.568 Y118.369 E0.029
G1 X120.735 Y118.127 E0.029
G1 X119.918 Y117.832 E0.029
G1 X119.123 Y117.488 E0.029
G1 X118.35 Y117.094 E0.029
G1 X117.604 Y116.653 E0.028
G1 X116.888 Y116.166 E0.029
G1 X116.203 Y115.634 E0.029
G1 X115.553 Y115.062 E0.029
G1 X114.938 Y114.447 E0.029
G1 X114.366 Y113.797 E0.029
G1 X113.834 Y113.112 E0.028
G1 X113.347 Y112.396 E0.029
G1 X112.906 Y111.65 E0.029
G1 X112.512 Y110.877 E0.029
G1 X112.168 Y110.082 E0.029
G1 X111.873 Y109.265 E0.029
G1 X111.631 Y108.432 E0.028
G1 X111.442 Y107.585 E0.029
G1 X111.307 Y106.728 E0.029
G1 X111.226 Y105.867 E0.029
G1 X111.198 Y105 E0.029
G1 X111.226 Y104.133 E0.029
G1 X111.307 Y103.272 E0.028
G1 X111.442 Y102.415 E0.029
G1 X111.631 Y101.568 E0.029
G1 X111.873 Y100.735 E0.029
G1 X112.168 Y99.918 E0.029
G1 X112.512 Y99.123 E0.029
G1 X112.906 Y98.35 E0.029
G1 X113.347 Y97.604 E0.028
G1 X113.834 Y96.888 E0.029
G1 X114.366 Y96.203 E0.029
G1 X114.938 Y95.553 E0.029
G1 X115.553 Y94.938 E0.029
G1 X116.203 Y94.366 E0.028
G1 X116.888 Y93.834 E0.029
G1 X117.604 Y93.347 E0.029
G1 X118.35 Y92.906 E0.029
G1 X119.123 Y92.512 E0.029
G1 X119.918 Y92.168 E0.029
G1 X120.735 Y91.873 E0.029
G1 X121.568 Y91.631 E0.028
G1 X122.415 Y91.442 E0.029
G1 X123.272 Y91.307 E0.029
G1 X124.133 Y91.226 E0.029
;rapid-leaky
G0 X124.158 Y91.625 F7200
;bead-skirt/brim
G1 X125 Y91.598 F960 E0.028
G1 X125.842 Y91.625 E0.028
G1 X126.678 Y91.704 E0.028
G1 X127.51 Y91.835 E0.028
G1 X128.332 Y92.019 E0.028
G1 X129.141 Y92.254 E0.028
G1 X129.935 Y92.54 E0.028
G1 X130.706 Y92.874 E0.028
G1 X131.457 Y93.256 E0.028
G1 X132.181 Y93.685 E0.028
G1 X132.877 Y94.158 E0.028
G1 X133.542 Y94.674 E0.028
G1 X134.173 Y95.23 E0.028
G1 X134.77 Y95.827 E0.028
G1 X135.326 Y96.458 E0.028
G1 X135.842 Y97.123 E0.028
G1 X136.315 Y97.819 E0.028
G1 X136.744 Y98.543 E0.028
G1 X137.126 Y99.294 E0.028
G1 X137.46 Y100.066 E0.028
G1 X137.746 Y100.859 E0.028
G1 X137.981 Y101.668 E0.028
G1 X138.165 Y102.49 E0.028
G1 X138.296 Y103.322 E0.028
G1 X138.375 Y104.158 E0.028
G1 X138.402 Y105 E0.028
G1 X138.375 Y105.842 E0.028
G1 X138.296 Y106.678 E0.028
G1 X138.161 Y107.534 E0.029
G1 X137.922 Y108.536 E0.034
G1 X137.746 Y109.142 E0.021
G1 X137.46 Y109.934 E0.028
G1 X137.126 Y110.706 E0.028
G1 X136.744 Y111.457 E0.028
G1 X136.315 Y112.181 E0.028
G1 X135.842 Y112.877 E0.028
G1 X135.326 Y113.542 E0.028
G1 X134.77 Y114.173 E0.028
G1 X134.173 Y114.77 E0.028
G1 X133.542 Y115.326 E0.028
G1 X132.877 Y115.842 E0.028
G1 X132.181 Y116.315 E0.028
G1 X131.457 Y116.744 E0.028
G1 X130.706 Y117.126 E0.028
G1 X129.935 Y117.46 E0.028
G1 X129.141 Y117.746 E0.028
G1 X128.332 Y117.981 E0.028
G1 X127.511 Y118.165 E0.028
G1 X126.678 Y118.296 E0.028
G1 X125.842 Y118.375 E0.028
G1 X125 Y118.402 E0.028
G1 X124.158 Y118.375 E0.028
G1 X123.322 Y118.296 E0.028
G1 X122.49 Y118.165 E0.028
G1 X121.668 Y117.981 E0.028
G1 X120.859 Y117.746 E0.028
G1 X120.066 Y117.46 E0.028
G1 X119.294 Y117.126 E0.028
G1 X118.543 Y116.744 E0.028
G1 X117.819 Y116.315 E0.028
G1 X117.123 Y115.842 E0.028
G1 X116.458 Y115.326 E0.028
G1 X115.827 Y114.77 E0.028
G1 X115.23 Y114.173 E0.028
G1 X114.674 Y113.542 E0.028
G1 X114.158 Y112.877 E0.028
G1 X113.685 Y112.181 E0.028
G1 X113.256 Y111.457 E0.028
G1 X112.874 Y110.706 E0.028
G1 X112.54 Y109.935 E0.028
G1 X112.254 Y109.141 E0.028
G1 X112.019 Y108.332 E0.028
G1 X111.835 Y107.51 E0.028
G1 X111.704 Y106.678 E0.028
G1 X111.625 Y105.842 E0.028
G1 X111.598 Y105 E0.028
G1 X111.625 Y104.158 E0.028
G1 X111.704 Y103.322 E0.028
G1 X111.835 Y102.49 E0.028
G1 X112.019 Y101.668 E0.028
G1 X112.254 Y100.859 E0.028
G1 X112.54 Y100.066 E0.028
G1 X112.874 Y99.294 E0.028
G1 X113.256 Y98.543 E0.028
G1 X113.685 Y97.819 E0.028
G1 X114.158 Y97.123 E0.028
G1 X114.674 Y96.458 E0.028
G1 X115.23 Y95.827 E0.028
G1 X115.827 Y95.23 E0.028
G1 X116.458 Y94.674 E0.028
G1 X117.123 Y94.158 E0.028
G1 X117.819 Y93.685 E0.028
G1 X118.543 Y93.256 E0.028
G1 X119.294 Y92.874 E0.028
G1 X120.066 Y92.54 E0.028
G1 X120.859 Y92.254 E0.028
G1 X121.668 Y92.019 E0.028
G1 X122.49 Y91.835 E0.028
G1 X123.322 Y91.704 E0.028
G1 X124.158 Y91.625 E0.028
;rapid-leaky
G0 X124.183 Y92.024 F7200
;bead-skirt/brim
G1 X125 Y91.998 F960 E0.027
G1 X125.817 Y92.024 E0.027
G1 X126.628 Y92.101 E0.028
G1 X127.436 Y92.229 E0.027
G1 X128.233 Y92.407 E0.027
G1 X129.018 Y92.634 E0.027
G1 X129.787 Y92.912 E0.027
G1 X130.536 Y93.236 E0.027
G1 X131.265 Y93.607 E0.028
G1 X131.967 Y94.023 E0.027
G1 X132.642 Y94.482 E0.027
G1 X133.287 Y94.982 E0.027
G1 X133.899 Y95.522 E0.027
G1 X134.478 Y96.101 E0.027
G1 X135.018 Y96.713 E0.028
G1 X135.518 Y97.358 E0.027
G1 X135.977 Y98.033 E0.027
G1 X136.393 Y98.736 E0.027
G1 X136.764 Y99.464 E0.027
G1 X137.088 Y100.213 E0.027
G1 X137.366 Y100.982 E0.028
G1 X137.593 Y101.767 E0.027
G1 X137.771 Y102.564 E0.027
G1 X137.899 Y103.372 E0.027
G1 X137.975 Y104.183 E0.027
G1 X138.002 Y105 E0.027
G1 X137.976 Y105.817 E0.028
G1 X137.899 Y106.628 E0.027
G1 X137.768 Y107.456 E0.028
G1 X137.535 Y108.434 E0.033
G1 X137.365 Y109.018 E0.02
G1 X137.088 Y109.787 E0.027
G1 X136.764 Y110.536 E0.028
G1 X136.393 Y111.265 E0.027
G1 X135.977 Y111.967 E0.027
G1 X135.518 Y112.642 E0.027
G1 X135.018 Y113.287 E0.027
G1 X134.478 Y113.899 E0.027
G1 X133.899 Y114.478 E0.028
G1 X133.287 Y115.018 E0.027
G1 X132.642 Y115.518 E0.027
G1 X131.967 Y115.977 E0.027
G1 X131.265 Y116.393 E0.027
G1 X130.536 Y116.764 E0.027
G1 X129.787 Y117.088 E0.027
G1 X129.018 Y117.366 E0.028
G1 X128.233 Y117.593 E0.027
G1 X127.436 Y117.771 E0.027
G1 X126.628 Y117.899 E0.027
G1 X125.817 Y117.976 E0.027
G1 X125 Y118.002 E0.028
G1 X124.183 Y117.976 E0.027
G1 X123.372 Y117.899 E0.027
G1 X122.564 Y117.771 E0.027
G1 X121.767 Y117.593 E0.027
G1 X120.982 Y117.366 E0.027
G1 X120.213 Y117.088 E0.028
G1 X119.464 Y116.764 E0.027
G1 X118.735 Y116.393 E0.027
G1 X118.033 Y115.977 E0.027
G1 X117.358 Y115.518 E0.027
G1 X116.713 Y115.018 E0.027
G1 X116.101 Y114.478 E0.027
G1 X115.522 Y113.899 E0.028
G1 X114.982 Y113.287 E0.027
G1 X114.482 Y112.642 E0.027
G1 X114.023 Y111.967 E0.027
G1 X113.607 Y111.265 E0.027
G1 X113.236 Y110.536 E0.027
G1 X112.912 Y109.787 E0.028
G1 X112.634 Y109.018 E0.027
G1 X112.407 Y108.233 E0.027
G1 X112.229 Y107.435 E0.027
G1 X112.101 Y106.628 E0.027
G1 X112.024 Y105.817 E0.027
G1 X111.998 Y105 E0.028
G1 X112.024 Y104.183 E0.027
G1 X112.101 Y103.372 E0.027
G1 X112.229 Y102.565 E0.027
G1 X112.407 Y101.767 E0.027
G1 X112.634 Y100.982 E0.027
G1 X112.912 Y100.213 E0.028
G1 X113.236 Y99.464 E0.027
G1 X113.607 Y98.735 E0.027
G1 X114.023 Y98.033 E0.027
G1 X114.482 Y97.358 E0.027
G1 X114.982 Y96.713 E0.027
G1 X115.522 Y96.101 E0.028
G1 X116.101 Y95.522 E0.027
G1 X116.713 Y94.982 E0.027
G1 X117.358 Y94.482 E0.027
G1 X118.033 Y94.023 E0.027
G1 X118.735 Y93.607 E0.027
G1 X119.464 Y93.236 E0.028
G1 X120.213 Y92.912 E0.027
G1 X120.982 Y92.634 E0.027
G1 X121.767 Y92.407 E0.027
G1 X122.565 Y92.229 E0.027
G1 X123.372 Y92.101 E0.028
G1 X124.183 Y92.024 E0.027
;rapid-leaky
G0 X124.208 Y92.424 F7200
;bead-skirt/brim
G1 X125 Y92.399 F960 E0.026
G1 X125.792 Y92.424 E0.026
G1 X126.578 Y92.498 E0.027
G1 X127.361 Y92.622 E0.026
G1 X128.133 Y92.794 E0.026
G1 X128.894 Y93.015 E0.027
G1 X129.64 Y93.284 E0.026
G1 X130.366 Y93.598 E0.026
G1 X131.072 Y93.958 E0.027
G1 X131.752 Y94.361 E0.026
G1 X132.407 Y94.805 E0.026
G1 X133.032 Y95.291 E0.027
G1 X133.625 Y95.814 E0.026
G1 X134.187 Y96.375 E0.026
G1 X134.709 Y96.968 E0.027
G1 X135.195 Y97.593 E0.026
G1 X135.639 Y98.248 E0.026
G1 X136.042 Y98.928 E0.027
G1 X136.402 Y99.634 E0.026
G1 X136.716 Y100.36 E0.026
G1 X136.985 Y101.106 E0.027
G1 X137.206 Y101.867 E0.026
G1 X137.378 Y102.639 E0.026
G1 X137.502 Y103.422 E0.027
G1 X137.576 Y104.208 E0.026
G1 X137.601 Y105 E0.026
G1 X137.576 Y105.792 E0.027
G1 X137.502 Y106.578 E0.026
G1 X137.376 Y107.379 E0.027
G1 X137.148 Y108.332 E0.032
G1 X136.985 Y108.895 E0.02
G1 X136.716 Y109.64 E0.026
G1 X136.402 Y110.366 E0.027
G1 X136.042 Y111.072 E0.026
G1 X135.639 Y111.752 E0.026
G1 X135.195 Y112.407 E0.027
G1 X134.709 Y113.032 E0.026
G1 X134.187 Y113.625 E0.026
G1 X133.625 Y114.187 E0.027
G1 X133.032 Y114.709 E0.026
G1 X132.407 Y115.195 E0.026
G1 X131.752 Y115.639 E0.026
G1 X131.072 Y116.042 E0.027
G1 X130.365 Y116.402 E0.026
G1 X129.64 Y116.716 E0.026
G1 X128.894 Y116.985 E0.027
G1 X128.133 Y117.206 E0.026
G1 X127.361 Y117.378 E0.026
G1 X126.578 Y117.502 E0.027
G1 X125.792 Y117.576 E0.026
G1 X125 Y117.601 E0.026
G1 X124.208 Y117.576 E0.027
G1 X123.422 Y117.502 E0.026
G1 X122.639 Y117.378 E0.026
G1 X121.867 Y117.206 E0.027
G1 X121.106 Y116.985 E0.026
G1 X120.36 Y116.716 E0.026
G1 X119.635 Y116.402 E0.027
G1 X118.928 Y116.042 E0.026
G1 X118.248 Y115.639 E0.026
G1 X117.593 Y115.195 E0.027
G1 X116.968 Y114.709 E0.026
G1 X116.375 Y114.187 E0.026
G1 X115.813 Y113.625 E0.027
G1 X115.291 Y113.032 E0.026
G1 X114.805 Y112.407 E0.026
G1 X114.361 Y111.752 E0.027
G1 X113.958 Y111.072 E0.026
G1 X113.598 Y110.366 E0.026
G1 X113.284 Y109.64 E0.027
G1 X113.015 Y108.894 E0.026
G1 X112.794 Y108.133 E0.026
G1 X112.622 Y107.361 E0.027
G1 X112.498 Y106.578 E0.026
G1 X112.424 Y105.792 E0.026
G1 X112.399 Y105 E0.027
G1 X112.424 Y104.208 E0.026
G1 X112.498 Y103.422 E0.026
G1 X112.622 Y102.639 E0.027
G1 X112.794 Y101.867 E0.026
G1 X113.015 Y101.106 E0.026
G1 X113.284 Y100.36 E0.027
G1 X113.598 Y99.634 E0.026
G1 X113.958 Y98.928 E0.026
G1 X114.361 Y98.248 E0.027
G1 X114.805 Y97.593 E0.026
G1 X115.291 Y96.968 E0.026
G1 X115.813 Y96.375 E0.027
G1 X116.375 Y95.813 E0.026
G1 X116.968 Y95.291 E0.026
G1 X117.593 Y94.805 E0.027
G1 X118.248 Y94.361 E0.026
G1 X118.928 Y93.958 E0.026
G1 X119.634 Y93.598 E0.027
G1 X120.361 Y93.284 E0.026
G1 X121.106 Y93.015 E0.026
G1 X121.867 Y92.794 E0.027
G1 X122.639 Y92.622 E0.026
G1 X123.422 Y92.498 E0.026
G1 X124.208 Y92.424 E0.027
;rapid-leaky
G0 X124.233 Y92.823 F7200
;bead-skirt/brim
G1 X125 Y92.799 F960 E0.025
G1 X125.767 Y92.823 E0.026
G1 X126.528 Y92.895 E0.025
G1 X127.286 Y93.015 E0.026
G1 X128.034 Y93.182 E0.025
G1 X128.77 Y93.396 E0.026
G1 X129.492 Y93.656 E0.025
G1 X130.195 Y93.96 E0.026
G1 X130.879 Y94.308 E0.025
G1 X131.538 Y94.699 E0.026
G1 X132.172 Y95.129 E0.025
G1 X132.777 Y95.599 E0.026
G1 X133.352 Y96.105 E0.025
G1 X133.895 Y96.648 E0.026
G1 X134.401 Y97.223 E0.025
G1 X134.871 Y97.828 E0.026
G1 X135.301 Y98.462 E0.025
G1 X135.692 Y99.121 E0.025
G1 X136.04 Y99.805 E0.026
G1 X136.344 Y100.508 E0.025
G1 X136.604 Y101.23 E0.026
G1 X136.818 Y101.966 E0.025
G1 X136.985 Y102.714 E0.026
G1 X137.105 Y103.472 E0.025
G1 X137.177 Y104.234 E0.026
G1 X137.201 Y105 E0.025
G1 X137.177 Y105.767 E0.026
G1 X137.105 Y106.528 E0.025
G1 X136.983 Y107.301 E0.026
G1 X136.762 Y108.23 E0.032
G1 X136.604 Y108.771 E0.019
G1 X136.344 Y109.492 E0.025
G1 X136.04 Y110.195 E0.026
G1 X135.692 Y110.879 E0.025
G1 X135.301 Y111.538 E0.026
G1 X134.871 Y112.172 E0.025
G1 X134.401 Y112.777 E0.026
G1 X133.895 Y113.352 E0.025
G1 X133.352 Y113.895 E0.026
G1 X132.777 Y114.401 E0.025
G1 X132.172 Y114.871 E0.026
G1 X131.538 Y115.301 E0.025
G1 X130.879 Y115.692 E0.026
G1 X130.195 Y116.04 E0.025
G1 X129.492 Y116.344 E0.026
G1 X128.77 Y116.604 E0.025
G1 X128.034 Y116.818 E0.026
G1 X127.286 Y116.985 E0.025
G1 X126.528 Y117.105 E0.026
G1 X125.767 Y117.177 E0.025
G1 X125 Y117.201 E0.026
G1 X124.234 Y117.177 E0.025
G1 X123.472 Y117.105 E0.026
G1 X122.714 Y116.985 E0.025
G1 X121.966 Y116.818 E0.026
G1 X121.23 Y116.604 E0.025
G1 X120.508 Y116.344 E0.026
G1 X119.805 Y116.04 E0.025
G1 X119.121 Y115.692 E0.026
G1 X118.462 Y115.301 E0.025
G1 X117.828 Y114.871 E0.026
G1 X117.223 Y114.401 E0.025
G1 X116.649 Y113.895 E0.026
G1 X116.105 Y113.352 E0.025
G1 X115.599 Y112.777 E0.026
G1 X115.129 Y112.172 E0.025
G1 X114.699 Y111.538 E0.026
G1 X114.308 Y110.879 E0.025
G1 X113.96 Y110.195 E0.026
G1 X113.656 Y109.492 E0.025
G1 X113.396 Y108.77 E0.026
G1 X113.182 Y108.034 E0.025
G1 X113.015 Y107.286 E0.026
G1 X112.895 Y106.528 E0.025
G1 X112.823 Y105.767 E0.026
G1 X112.799 Y105 E0.025
G1 X112.823 Y104.233 E0.026
G1 X112.895 Y103.472 E0.025
G1 X113.015 Y102.714 E0.026
G1 X113.182 Y101.966 E0.025
G1 X113.396 Y101.23 E0.026
G1 X113.656 Y100.508 E0.025
G1 X113.96 Y99.805 E0.026
G1 X114.308 Y99.121 E0.025
G1 X114.699 Y98.462 E0.026
G1 X115.129 Y97.828 E0.025
G1 X115.599 Y97.223 E0.026
G1 X116.105 Y96.649 E0.025
G1 X116.648 Y96.105 E0.026
G1 X117.223 Y95.599 E0.025
G1 X117.828 Y95.129 E0.026
G1 X118.462 Y94.699 E0.025
G1 X119.121 Y94.308 E0.025
G1 X119.805 Y93.96 E0.026
G1 X120.508 Y93.656 E0.025
G1 X121.23 Y93.396 E0.026
G1 X121.966 Y93.182 E0.025
G1 X122.714 Y93.015 E0.026
G1 X123.472 Y92.895 E0.025
G1 X124.233 Y92.823 E0.026
;rapid-leaky
G0 X124.259 Y93.223 F7200
;bead-skirt/brim
G1 X125 Y93.199 F960 E0.025
G1 X125.741 Y93.223 E0.024
G1 X126.478 Y93.292 E0.025
G1 X127.211 Y93.408 E0.025
G1 X127.935 Y93.57 E0.024
G1 X128.647 Y93.776 E0.025
G1 X129.345 Y94.028 E0.025
G1 X130.025 Y94.323 E0.024
G1 X130.686 Y94.659 E0.025
G1 X131.323 Y95.037 E0.025
G1 X131.936 Y95.453 E0.024
G1 X132.522 Y95.907 E0.025
G1 X133.078 Y96.397 E0.024
G1 X133.603 Y96.922 E0.025
G1 X134.093 Y97.478 E0.025
G1 X134.547 Y98.064 E0.024
G1 X134.963 Y98.677 E0.025
G1 X135.341 Y99.314 E0.025
G1 X135.677 Y99.975 E0.024
G1 X135.972 Y100.655 E0.025
G1 X136.224 Y101.353 E0.025
G1 X136.43 Y102.065 E0.024
G1 X136.592 Y102.789 E0.025
G1 X136.708 Y103.522 E0.025
G1 X136.777 Y104.259 E0.024
G1 X136.801 Y105 E0.025
G1 X136.777 Y105.741 E0.025
G1 X136.708 Y106.478 E0.024
G1 X136.59 Y107.223 E0.025
G1 X136.375 Y108.127 E0.031
G1 X136.224 Y108.647 E0.018
G1 X135.972 Y109.345 E0.025
G1 X135.677 Y110.025 E0.025
G1 X135.341 Y110.686 E0.024
G1 X134.963 Y111.323 E0.025
G1 X134.547 Y111.936 E0.025
G1 X134.093 Y112.522 E0.024
G1 X133.603 Y113.078 E0.025
G1 X133.078 Y113.603 E0.025
G1 X132.522 Y114.093 E0.024
G1 X131.936 Y114.547 E0.025
G1 X131.323 Y114.963 E0.025
G1 X130.686 Y115.341 E0.024
G1 X130.025 Y115.677 E0.025
G1 X129.345 Y115.972 E0.025
G1 X128.647 Y116.224 E0.024
G1 X127.935 Y116.43 E0.025
G1 X127.211 Y116.592 E0.025
G1 X126.478 Y116.708 E0.024
G1 X125.741 Y116.777 E0.025
G1 X125 Y116.801 E0.024
G1 X124.259 Y116.777 E0.025
G1 X123.522 Y116.708 E0.025
G1 X122.789 Y116.592 E0.024
G1 X122.065 Y116.43 E0.025
G1 X121.353 Y116.224 E0.025
G1 X120.655 Y115.972 E0.024
G1 X119.975 Y115.677 E0.025
G1 X119.314 Y115.341 E0.025
G1 X118.677 Y114.963 E0.024
G1 X118.064 Y114.547 E0.025
G1 X117.478 Y114.093 E0.025
G1 X116.922 Y113.603 E0.024
G1 X116.397 Y113.078 E0.025
G1 X115.907 Y112.522 E0.025
G1 X115.453 Y111.936 E0.024
G1 X115.037 Y111.323 E0.025
G1 X114.659 Y110.686 E0.025
G1 X114.323 Y110.025 E0.024
G1 X114.028 Y109.345 E0.025
G1 X113.776 Y108.647 E0.025
G1 X113.57 Y107.935 E0.024
G1 X113.408 Y107.211 E0.025
G1 X113.292 Y106.478 E0.025
G1 X113.223 Y105.741 E0.024
G1 X113.199 Y105 E0.025
G1 X113.223 Y104.259 E0.025
G1 X113.292 Y103.522 E0.024
G1 X113.408 Y102.789 E0.025
G1 X113.57 Y102.065 E0.025
G1 X113.776 Y101.353 E0.024
G1 X114.028 Y100.655 E0.025
G1 X114.323 Y99.975 E0.025
G1 X114.659 Y99.314 E0.024
G1 X115.037 Y98.677 E0.025
G1 X115.453 Y98.064 E0.024
G1 X115.907 Y97.478 E0.025
G1 X116.397 Y96.922 E0.025
G1 X116.922 Y96.397 E0.024
G1 X117.478 Y95.907 E0.025
G1 X118.064 Y95.453 E0.025
G1 X118.677 Y95.037 E0.024
G1 X119.314 Y94.659 E0.025
G1 X119.975 Y94.323 E0.025
G1 X120.655 Y94.028 E0.024
G1 X121.353 Y93.776 E0.025
G1 X122.065 Y93.57 E0.025
G1 X122.789 Y93.408 E0.024
G1 X123.522 Y93.292 E0.025
G1 X124.259 Y93.223 E0.025
;rapid-leaky
G0 X124.284 Y93.622 F7200
;bead-skirt/brim
G1 X125 Y93.599 F960 E0.023
G1 X125.716 Y93.622 E0.024
G1 X126.428 Y93.689 E0.024
G1 X127.136 Y93.801 E0.024
G1 X127.835 Y93.957 E0.024
G1 X128.523 Y94.157 E0.024
G1 X129.197 Y94.4 E0.023
G1 X129.854 Y94.685 E0.024
G1 X130.493 Y95.01 E0.024
G1 X131.109 Y95.375 E0.024
G1 X131.701 Y95.777 E0.024
G1 X132.267 Y96.216 E0.024
G1 X132.804 Y96.689 E0.023
G1 X133.311 Y97.196 E0.024
G1 X133.784 Y97.733 E0.024
G1 X134.223 Y98.299 E0.024
G1 X134.625 Y98.891 E0.024
G1 X134.99 Y99.507 E0.023
G1 X135.315 Y100.146 E0.024
G1 X135.6 Y100.803 E0.024
G1 X135.843 Y101.477 E0.024
G1 X136.043 Y102.165 E0.024
G1 X136.199 Y102.864 E0.024
G1 X136.311 Y103.572 E0.023
G1 X136.378 Y104.284 E0.024
G1 X136.401 Y105 E0.024
G1 X136.378 Y105.716 E0.024
G1 X136.311 Y106.428 E0.024
G1 X136.197 Y107.146 E0.024
G1 X135.988 Y108.025 E0.03
G1 X135.843 Y108.523 E0.017
G1 X135.6 Y109.197 E0.024
G1 X135.315 Y109.854 E0.024
G1 X134.99 Y110.493 E0.024
G1 X134.625 Y111.109 E0.023
G1 X134.223 Y111.701 E0.024
G1 X133.784 Y112.267 E0.024
G1 X133.311 Y112.804 E0.024
G1 X132.804 Y113.311 E0.024
G1 X132.267 Y113.784 E0.024
G1 X131.701 Y114.223 E0.023
G1 X131.109 Y114.625 E0.024
G1 X130.493 Y114.99 E0.024
G1 X129.854 Y115.315 E0.024
G1 X129.197 Y115.6 E0.024
G1 X128.523 Y115.843 E0.023
G1 X127.835 Y116.043 E0.024
G1 X127.136 Y116.199 E0.024
G1 X126.428 Y116.311 E0.024
G1 X125.716 Y116.378 E0.024
G1 X125 Y116.401 E0.024
G1 X124.284 Y116.378 E0.023
G1 X123.572 Y116.311 E0.024
G1 X122.864 Y116.199 E0.024
G1 X122.165 Y116.043 E0.024
G1 X121.477 Y115.843 E0.024
G1 X120.803 Y115.6 E0.023
G1 X120.146 Y115.315 E0.024
G1 X119.507 Y114.99 E0.024
G1 X118.891 Y114.625 E0.024
G1 X118.299 Y114.223 E0.024
G1 X117.733 Y113.784 E0.024
G1 X117.196 Y113.311 E0.023
G1 X116.689 Y112.804 E0.024
G1 X116.216 Y112.267 E0.024
G1 X115.777 Y111.701 E0.024
G1 X115.375 Y111.109 E0.024
G1 X115.01 Y110.493 E0.023
G1 X114.685 Y109.854 E0.024
G1 X114.4 Y109.197 E0.024
G1 X114.157 Y108.523 E0.024
G1 X113.957 Y107.835 E0.024
G1 X113.801 Y107.136 E0.024
G1 X113.689 Y106.428 E0.023
G1 X113.622 Y105.716 E0.024
G1 X113.599 Y105 E0.024
G1 X113.622 Y104.284 E0.024
G1 X113.689 Y103.572 E0.024
G1 X113.801 Y102.864 E0.024
G1 X113.957 Y102.165 E0.023
G1 X114.157 Y101.477 E0.024
G1 X114.4 Y100.803 E0.024
G1 X114.685 Y100.146 E0.024
G1 X115.01 Y99.507 E0.024
G1 X115.375 Y98.891 E0.023
G1 X115.777 Y98.299 E0.024
G1 X116.216 Y97.733 E0.024
G1 X116.689 Y97.196 E0.024
G1 X117.196 Y96.689 E0.024
G1 X117.733 Y96.216 E0.024
G1 X118.299 Y95.777 E0.023
G1 X118.891 Y95.375 E0.024
G1 X119.507 Y95.01 E0.024
G1 X120.146 Y94.685 E0.024
G1 X120.803 Y94.4 E0.024
G1 X121.477 Y94.157 E0.023
G1 X122.165 Y93.957 E0.024
G1 X122.864 Y93.801 E0.024
G1 X123.572 Y93.689 E0.024
G1 X124.284 Y93.622 E0.024
;rapid-leaky
G0 X124.309 Y94.021 F7200
;bead-skirt/brim
G1 X125 Y94 F960 E0.023
G1 X125.691 Y94.021 E0.023
G1 X126.378 Y94.086 E0.023
G1 X127.061 Y94.194 E0.023
G1 X127.736 Y94.345 E0.023
G1 X128.399 Y94.537 E0.023
G1 X129.05 Y94.772 E0.023
G1 X129.684 Y95.047 E0.023
G1 X130.3 Y95.36 E0.023
G1 X130.894 Y95.712 E0.023
G1 X131.466 Y96.101 E0.023
G1 X132.012 Y96.524 E0.023
G1 X132.53 Y96.981 E0.023
G1 X133.019 Y97.47 E0.023
G1 X133.476 Y97.988 E0.023
G1 X133.899 Y98.534 E0.023
G1 X134.288 Y99.106 E0.023
G1 X134.64 Y99.7 E0.022
G1 X134.953 Y100.316 E0.023
G1 X135.228 Y100.95 E0.023
G1 X135.463 Y101.601 E0.023
G1 X135.655 Y102.264 E0.023
G1 X135.806 Y102.939 E0.023
G1 X135.914 Y103.622 E0.023
G1 X135.979 Y104.309 E0.023
G1 X136.001 Y105 E0.023
G1 X135.979 Y105.691 E0.023
G1 X135.914 Y106.378 E0.023
G1 X135.805 Y107.068 E0.024
G1 X135.601 Y107.923 E0.029
G1 X135.462 Y108.399 E0.016
G1 X135.228 Y109.05 E0.023
G1 X134.953 Y109.684 E0.023
G1 X134.64 Y110.3 E0.023
G1 X134.288 Y110.894 E0.023
G1 X133.9 Y111.466 E0.023
G1 X133.476 Y112.012 E0.023
G1 X133.019 Y112.53 E0.023
G1 X132.53 Y113.019 E0.023
G1 X132.012 Y113.476 E0.023
G1 X131.466 Y113.899 E0.023
G1 X130.894 Y114.288 E0.023
G1 X130.3 Y114.64 E0.023
G1 X129.684 Y114.953 E0.023
G1 X129.05 Y115.228 E0.023
G1 X128.399 Y115.463 E0.023
G1 X127.736 Y115.655 E0.023
G1 X127.061 Y115.806 E0.023
G1 X126.378 Y115.914 E0.023
G1 X125.691 Y115.979 E0.023
G1 X125 Y116.001 E0.023
G1 X124.309 Y115.979 E0.023
G1 X123.622 Y115.914 E0.023
G1 X122.939 Y115.806 E0.023
G1 X122.264 Y115.655 E0.023
G1 X121.601 Y115.463 E0.023
G1 X120.95 Y115.228 E0.023
G1 X120.316 Y114.953 E0.023
G1 X119.7 Y114.64 E0.023
G1 X119.106 Y114.288 E0.023
G1 X118.534 Y113.899 E0.023
G1 X117.988 Y113.476 E0.023
G1 X117.47 Y113.019 E0.023
G1 X116.981 Y112.53 E0.023
G1 X116.524 Y112.012 E0.023
G1 X116.101 Y111.466 E0.023
G1 X115.712 Y110.894 E0.023
G1 X115.36 Y110.3 E0.023
G1 X115.047 Y109.684 E0.023
G1 X114.772 Y109.05 E0.023
G1 X114.537 Y108.399 E0.023
G1 X114.345 Y107.736 E0.023
G1 X114.194 Y107.061 E0.023
G1 X114.086 Y106.378 E0.023
G1 X114.021 Y105.691 E0.023
G1 X114 Y105 E0.023
G1 X114.021 Y104.309 E0.023
G1 X114.086 Y103.622 E0.023
G1 X114.194 Y102.939 E0.023
G1 X114.345 Y102.264 E0.023
G1 X114.537 Y101.601 E0.023
G1 X114.772 Y100.95 E0.023
G1 X115.047 Y100.316 E0.023
G1 X115.36 Y99.7 E0.023
G1 X115.712 Y99.106 E0.022
G1 X116.101 Y98.534 E0.023
G1 X116.524 Y97.988 E0.023
G1 X116.981 Y97.47 E0.023
G1 X117.47 Y96.981 E0.023
G1 X117.988 Y96.524 E0.023
G1 X118.534 Y96.101 E0.023
G1 X119.106 Y95.712 E0.023
G1 X119.7 Y95.36 E0.023
G1 X120.316 Y95.047 E0.023
G1 X120.95 Y94.772 E0.023
G1 X121.601 Y94.537 E0.023
G1 X122.264 Y94.345 E0.023
G1 X122.939 Y94.194 E0.023
G1 X123.622 Y94.086 E0.023
G1 X124.309 Y94.021 E0.023
;rapid-leaky
G0 X124.334 Y94.421 F7200
;bead-skirt/brim
G1 X125 Y94.4 F960 E0.022
G1 X125.666 Y94.421 E0.023
G1 X126.328 Y94.483 E0.022
G1 X126.986 Y94.587 E0.022
G1 X127.636 Y94.733 E0.022
G1 X128.276 Y94.918 E0.022
G1 X128.902 Y95.144 E0.022
G1 X129.514 Y95.409 E0.022
G1 X130.107 Y95.711 E0.023
G1 X130.68 Y96.05 E0.022
G1 X131.231 Y96.424 E0.022
G1 X131.757 Y96.832 E0.022
G1 X132.256 Y97.272 E0.022
G1 X132.728 Y97.744 E0.022
G1 X133.167 Y98.243 E0.022
G1 X133.576 Y98.769 E0.023
G1 X133.95 Y99.32 E0.022
G1 X134.289 Y99.893 E0.022
G1 X134.591 Y100.486 E0.022
G1 X134.856 Y101.098 E0.022
G1 X135.082 Y101.725 E0.022
G1 X135.267 Y102.364 E0.023
G1 X135.413 Y103.014 E0.022
G1 X135.517 Y103.672 E0.022
G1 X135.579 Y104.334 E0.022
G1 X135.6 Y105 E0.022
G1 X135.579 Y105.666 E0.022
G1 X135.517 Y106.328 E0.022
G1 X135.412 Y106.991 E0.023
G1 X135.214 Y107.82 E0.028
G1 X135.082 Y108.276 E0.016
G1 X134.856 Y108.902 E0.022
G1 X134.591 Y109.514 E0.022
G1 X134.289 Y110.107 E0.022
G1 X133.95 Y110.68 E0.022
G1 X133.576 Y111.231 E0.023
G1 X133.168 Y111.757 E0.022
G1 X132.728 Y112.256 E0.022
G1 X132.256 Y112.728 E0.022
G1 X131.757 Y113.168 E0.022
G1 X131.231 Y113.576 E0.022
G1 X130.68 Y113.95 E0.022
G1 X130.107 Y114.289 E0.023
G1 X129.514 Y114.591 E0.022
G1 X128.902 Y114.856 E0.022
G1 X128.276 Y115.082 E0.022
G1 X127.636 Y115.267 E0.022
G1 X126.986 Y115.413 E0.022
G1 X126.328 Y115.517 E0.023
G1 X125.666 Y115.579 E0.022
G1 X125 Y115.6 E0.022
G1 X124.334 Y115.579 E0.022
G1 X123.672 Y115.517 E0.022
G1 X123.014 Y115.413 E0.022
G1 X122.364 Y115.267 E0.022
G1 X121.725 Y115.082 E0.023
G1 X121.098 Y114.856 E0.022
G1 X120.486 Y114.591 E0.022
G1 X119.893 Y114.289 E0.022
G1 X119.32 Y113.95 E0.022
G1 X118.769 Y113.576 E0.022
G1 X118.243 Y113.168 E0.022
G1 X117.744 Y112.728 E0.023
G1 X117.272 Y112.256 E0.022
G1 X116.833 Y111.757 E0.022
G1 X116.424 Y111.231 E0.022
G1 X116.05 Y110.68 E0.022
G1 X115.711 Y110.107 E0.022
G1 X115.409 Y109.514 E0.022
G1 X115.144 Y108.902 E0.023
G1 X114.918 Y108.275 E0.022
G1 X114.733 Y107.636 E0.022
G1 X114.587 Y106.986 E0.022
G1 X114.483 Y106.328 E0.022
G1 X114.421 Y105.666 E0.022
G1 X114.4 Y105 E0.023
G1 X114.421 Y104.334 E0.022
G1 X114.483 Y103.672 E0.022
G1 X114.587 Y103.014 E0.022
G1 X114.733 Y102.364 E0.022
G1 X114.918 Y101.724 E0.022
G1 X115.144 Y101.098 E0.022
G1 X115.409 Y100.486 E0.023
G1 X115.711 Y99.893 E0.022
G1 X116.05 Y99.32 E0.022
G1 X116.424 Y98.769 E0.022
G1 X116.832 Y98.243 E0.022
G1 X117.272 Y97.744 E0.022
G1 X117.744 Y97.272 E0.022
G1 X118.243 Y96.833 E0.023
G1 X118.769 Y96.424 E0.022
G1 X119.32 Y96.05 E0.022
G1 X119.893 Y95.711 E0.022
G1 X120.486 Y95.409 E0.022
G1 X121.098 Y95.144 E0.022
G1 X121.725 Y94.918 E0.023
G1 X122.364 Y94.733 E0.022
G1 X123.014 Y94.587 E0.022
G1 X123.672 Y94.483 E0.022
G1 X124.334 Y94.421 E0.022
;rapid-leaky
G0 X124.359 Y94.82 F7200
;bead-skirt/brim
G1 X125 Y94.8 F960 E0.021
G1 X125.641 Y94.82 E0.022
G1 X126.278 Y94.88 E0.021
G1 X126.911 Y94.98 E0.021
G1 X127.537 Y95.12 E0.022
G1 X128.152 Y95.299 E0.021
G1 X128.755 Y95.516 E0.021
G1 X129.343 Y95.771 E0.022
G1 X129.914 Y96.062 E0.021
G1 X130.465 Y96.388 E0.021
G1 X130.996 Y96.748 E0.022
G1 X131.502 Y97.141 E0.021
G1 X131.982 Y97.564 E0.021
G1 X132.436 Y98.018 E0.022
G1 X132.859 Y98.498 E0.021
G1 X133.252 Y99.004 E0.021
G1 X133.612 Y99.535 E0.021
G1 X133.938 Y100.086 E0.022
G1 X134.229 Y100.657 E0.021
G1 X134.484 Y101.245 E0.021
G1 X134.701 Y101.848 E0.022
G1 X134.88 Y102.463 E0.021
G1 X135.02 Y103.089 E0.021
G1 X135.12 Y103.722 E0.022
G1 X135.18 Y104.359 E0.021
G1 X135.2 Y105 E0.021
G1 X135.18 Y105.641 E0.022
G1 X135.12 Y106.278 E0.021
G1 X135.019 Y106.913 E0.021
G1 X134.827 Y107.718 E0.028
G1 X134.701 Y108.152 E0.015
G1 X134.484 Y108.755 E0.021
G1 X134.229 Y109.343 E0.021
G1 X133.938 Y109.914 E0.022
G1 X133.612 Y110.465 E0.021
G1 X133.252 Y110.996 E0.021
G1 X132.859 Y111.502 E0.022
G1 X132.436 Y111.982 E0.021
G1 X131.982 Y112.436 E0.021
G1 X131.502 Y112.859 E0.022
G1 X130.996 Y113.252 E0.021
G1 X130.465 Y113.612 E0.021
G1 X129.914 Y113.938 E0.022
G1 X129.343 Y114.229 E0.021
G1 X128.755 Y114.484 E0.021
G1 X128.152 Y114.701 E0.021
G1 X127.537 Y114.88 E0.022
G1 X126.911 Y115.02 E0.021
G1 X126.278 Y115.12 E0.021
G1 X125.641 Y115.18 E0.022
G1 X125 Y115.2 E0.021
G1 X124.359 Y115.18 E0.021
G1 X123.722 Y115.12 E0.022
G1 X123.089 Y115.02 E0.021
G1 X122.463 Y114.88 E0.021
G1 X121.848 Y114.701 E0.022
G1 X121.245 Y114.484 E0.021
G1 X120.657 Y114.229 E0.021
G1 X120.086 Y113.938 E0.022
G1 X119.535 Y113.612 E0.021
G1 X119.004 Y113.252 E0.021
G1 X118.498 Y112.859 E0.021
G1 X118.018 Y112.436 E0.022
G1 X117.564 Y111.982 E0.021
G1 X117.141 Y111.502 E0.021
G1 X116.748 Y110.996 E0.022
G1 X116.388 Y110.465 E0.021
G1 X116.062 Y109.914 E0.021
G1 X115.771 Y109.343 E0.022
G1 X115.516 Y108.755 E0.021
G1 X115.299 Y108.152 E0.021
G1 X115.12 Y107.537 E0.022
G1 X114.98 Y106.911 E0.021
G1 X114.88 Y106.278 E0.021
G1 X114.82 Y105.641 E0.022
G1 X114.8 Y105 E0.021
G1 X114.82 Y104.359 E0.021
G1 X114.88 Y103.722 E0.021
G1 X114.98 Y103.089 E0.022
G1 X115.12 Y102.463 E0.021
G1 X115.299 Y101.848 E0.021
G1 X115.516 Y101.245 E0.022
G1 X115.771 Y100.657 E0.021
G1 X116.062 Y100.086 E0.021
G1 X116.388 Y99.535 E0.022
G1 X116.748 Y99.004 E0.021
G1 X117.141 Y98.498 E0.021
G1 X117.564 Y98.018 E0.022
G1 X118.018 Y97.564 E0.021
G1 X118.498 Y97.141 E0.021
G1 X119.004 Y96.748 E0.022
G1 X119.535 Y96.388 E0.021
G1 X120.086 Y96.062 E0.021
G1 X120.657 Y95.771 E0.021
G1 X121.245 Y95.516 E0.022
G1 X121.848 Y95.299 E0.021
G1 X122.463 Y95.12 E0.021
G1 X123.089 Y94.98 E0.022
G1 X123.722 Y94.88 E0.021
G1 X124.359 Y94.82 E0.021
G1 F2100 E-0.5
;rapid-dry
G0 X125.615 Y95.22 F7200
G1 F2100 E0.5
;bead-perimeter_outer
G1 X126.228 Y95.278 F720 E0.021
G1 X126.837 Y95.374 E0.02
G1 X127.437 Y95.508 E0.021
G1 X128.028 Y95.679 E0.02
G1 X128.607 Y95.888 E0.021
G1 X129.173 Y96.133 E0.02
G1 X129.722 Y96.412 E0.021
G1 X130.251 Y96.726 E0.02
G1 X130.76 Y97.072 E0.021
G1 X131.246 Y97.449 E0.02
G1 X131.708 Y97.856 E0.021
G1 X132.144 Y98.292 E0.02
G1 X132.551 Y98.753 E0.021
G1 X132.928 Y99.24 E0.02
G1 X133.274 Y99.749 E0.02
G1 X133.588 Y100.278 E0.021
G1 X133.867 Y100.827 E0.02
G1 X134.112 Y101.393 E0.021
G1 X134.321 Y101.972 E0.02
G1 X134.492 Y102.563 E0.021
G1 X134.626 Y103.163 E0.02
G1 X134.722 Y103.772 E0.021
G1 X134.78 Y104.385 E0.02
G1 X134.8 Y105 E0.021
G1 X134.78 Y105.615 E0.02
G1 X134.722 Y106.228 E0.021
G1 X134.626 Y106.837 E0.02
G1 X134.492 Y107.437 E0.021
G1 X134.321 Y108.028 E0.02
G1 X134.112 Y108.607 E0.021
G1 X133.867 Y109.173 E0.02
G1 X133.588 Y109.722 E0.021
G1 X133.274 Y110.251 E0.02
G1 X132.928 Y110.76 E0.021
G1 X132.551 Y111.246 E0.02
G1 X132.144 Y111.708 E0.02
G1 X131.573 Y112.264 E0.027
G1 X131.247 Y112.551 E0.014
G1 X130.76 Y112.928 E0.021
G1 X130.251 Y113.274 E0.02
G1 X129.722 Y113.588 E0.021
G1 X129.173 Y113.867 E0.02
G1 X128.607 Y114.112 E0.021
G1 X128.028 Y114.321 E0.02
G1 X127.437 Y114.492 E0.021
G1 X126.837 Y114.626 E0.02
G1 X126.228 Y114.722 E0.021
G1 X125.615 Y114.78 E0.02
G1 X125 Y114.8 E0.021
G1 X124.385 Y114.78 E0.02
G1 X123.772 Y114.722 E0.021
G1 X123.163 Y114.626 E0.02
G1 X122.563 Y114.492 E0.021
G1 X121.972 Y114.321 E0.02
G1 X121.393 Y114.112 E0.021
G1 X120.827 Y113.867 E0.02
G1 X120.278 Y113.588 E0.021
G1 X119.749 Y113.274 E0.02
G1 X119.24 Y112.928 E0.02
G1 X118.754 Y112.551 E0.021
G1 X118.292 Y112.144 E0.02
G1 X117.856 Y111.708 E0.021
G1 X117.449 Y111.247 E0.02
G1 X117.072 Y110.76 E0.021
G1 X116.726 Y110.251 E0.02
G1 X116.412 Y109.722 E0.021
G1 X116.133 Y109.173 E0.02
G1 X115.826 Y108.437 E0.027
G1 X115.679 Y108.028 E0.014
G1 X115.508 Y107.437 E0.021
G1 X115.374 Y106.837 E0.02
G1 X115.278 Y106.228 E0.021
G1 X115.22 Y105.615 E0.02
G1 X115.2 Y105 E0.021
G1 X115.22 Y104.385 E0.02
G1 X115.278 Y103.772 E0.021
G1 X115.374 Y103.163 E0.02
G1 X115.508 Y102.563 E0.02
G1 X115.679 Y101.972 E0.021
G1 X115.888 Y101.393 E0.02
G1 X116.133 Y100.827 E0.021
G1 X116.504 Y100.123 E0.026
G1 X116.726 Y99.749 E0.015
G1 X117.072 Y99.24 E0.02
G1 X117.449 Y98.754 E0.021
G1 X117.856 Y98.292 E0.02
G1 X118.292 Y97.856 E0.021
G1 X118.753 Y97.449 E0.02
G1 X119.24 Y97.072 E0.021
G1 X119.749 Y96.726 E0.02
G1 X120.278 Y96.412 E0.021
G1 X120.827 Y96.133 E0.02
G1 X121.393 Y95.888 E0.021
G1 X121.972 Y95.679 E0.02
G1 X122.563 Y95.508 E0.021
G1 X123.163 Y95.374 E0.02
G1 X123.772 Y95.278 E0.021
G1 X124.385 Y95.22 E0.02
G1 X125 Y95.2 E0.02
G1 X125.615 Y95.22 E0.021
;rapid-leaky
G0 X125.593 Y95.579 F7200
;bead-perimeter_inner
G1 X126.183 Y95.635 F960 E0.02
G1 X126.769 Y95.727 E0.019
G1 X127.348 Y95.857 E0.02
G1 X127.917 Y96.022 E0.02
G1 X128.475 Y96.223 E0.02
G1 X129.019 Y96.459 E0.019
G1 X129.548 Y96.728 E0.02
G1 X130.058 Y97.03 E0.02
G1 X130.549 Y97.363 E0.019
G1 X131.017 Y97.727 E0.02
G1 X131.462 Y98.118 E0.02
G1 X131.882 Y98.539 E0.02
G1 X132.273 Y98.983 E0.019
G1 X132.637 Y99.451 E0.02
G1 X132.97 Y99.942 E0.02
G1 X133.272 Y100.452 E0.02
G1 X133.541 Y100.981 E0.019
G1 X133.777 Y101.526 E0.02
G1 X133.978 Y102.083 E0.02
G1 X134.143 Y102.652 E0.019
G1 X134.273 Y103.231 E0.02
G1 X134.365 Y103.817 E0.02
G1 X134.421 Y104.407 E0.02
G1 X134.44 Y105 E0.019
G1 X134.421 Y105.593 E0.02
G1 X134.365 Y106.183 E0.02
G1 X134.273 Y106.769 E0.02
G1 X134.096 Y107.511 E0.025
G1 X133.978 Y107.917 E0.014
G1 X133.777 Y108.475 E0.02
G1 X133.541 Y109.019 E0.019
G1 X133.272 Y109.548 E0.02
G1 X132.97 Y110.058 E0.02
G1 X132.637 Y110.549 E0.02
G1 X132.273 Y111.017 E0.019
G1 X131.882 Y111.462 E0.02
G1 X131.461 Y111.882 E0.02
G1 X131.017 Y112.273 E0.019
G1 X130.549 Y112.637 E0.02
G1 X130.058 Y112.97 E0.02
G1 X129.548 Y113.272 E0.02
G1 X129.019 Y113.541 E0.019
G1 X128.474 Y113.777 E0.02
G1 X127.917 Y113.978 E0.02
G1 X127.348 Y114.143 E0.02
G1 X126.769 Y114.273 E0.019
G1 X126.183 Y114.365 E0.02
G1 X125.593 Y114.421 E0.02
G1 X125 Y114.44 E0.019
G1 X124.407 Y114.421 E0.02
G1 X123.817 Y114.365 E0.02
G1 X123.231 Y114.273 E0.02
G1 X122.652 Y114.143 E0.019
G1 X122.083 Y113.978 E0.02
G1 X121.525 Y113.777 E0.02
G1 X120.981 Y113.541 E0.019
G1 X120.452 Y113.272 E0.02
G1 X119.942 Y112.97 E0.02
G1 X119.451 Y112.637 E0.02
G1 X118.983 Y112.273 E0.019
G1 X118.538 Y111.882 E0.02
G1 X118.118 Y111.461 E0.02
G1 X117.727 Y111.017 E0.02
G1 X117.363 Y110.549 E0.019
G1 X117.03 Y110.058 E0.02
G1 X116.728 Y109.548 E0.02
G1 X116.459 Y109.019 E0.019
G1 X116.223 Y108.474 E0.02
G1 X116.022 Y107.917 E0.02
G1 X115.857 Y107.348 E0.02
G1 X115.727 Y106.769 E0.019
G1 X115.635 Y106.183 E0.02
G1 X115.579 Y105.593 E0.02
G1 X115.56 Y105 E0.02
G1 X115.579 Y104.407 E0.019
G1 X115.635 Y103.817 E0.02
G1 X115.727 Y103.231 E0.02
G1 X115.857 Y102.652 E0.019
G1 X116.022 Y102.083 E0.02
G1 X116.223 Y101.525 E0.02
G1 X116.459 Y100.981 E0.02
G1 X116.728 Y100.452 E0.019
G1 X117.03 Y99.942 E0.02
G1 X117.363 Y99.451 E0.02
G1 X117.727 Y98.983 E0.019
G1 X118.118 Y98.538 E0.02
G1 X118.539 Y98.118 E0.02
G1 X118.983 Y97.727 E0.02
G1 X119.451 Y97.363 E0.019
G1 X119.942 Y97.03 E0.02
G1 X120.452 Y96.728 E0.02
G1 X120.981 Y96.459 E0.02
G1 X121.526 Y96.223 E0.019
G1 X122.083 Y96.022 E0.02
G1 X122.652 Y95.857 E0.02
G1 X123.231 Y95.727 E0.019
G1 X123.817 Y95.635 E0.02
G1 X124.407 Y95.579 E0.02
G1 X125 Y95.56 E0.02
G1 X125.593 Y95.579 E0.019
G1 F2100 E-0.5
;rapid-dry
G0 X125.156 Y102.705 F7200
G1 F2100 E0.5
;bead-perimeter_outer
G1 X124.834 Y102.706 F720 E0.011
G1 X124.532 Y102.748 E0.01
G1 X124.23 Y102.832 E0.011
G1 X123.942 Y102.957 E0.01
G1 X123.673 Y103.12 E0.011
G1 X123.43 Y103.319 E0.01
G1 X123.215 Y103.549 E0.01
G1 X123.035 Y103.805 E0.011
G1 X122.89 Y104.083 E0.01
G1 X122.783 Y104.388 E0.011
G1 X122.721 Y104.687 E0.01
G1 X122.7 Y105 E0.011
G1 X122.721 Y105.313 E0.01
G1 X122.785 Y105.621 E0.011
G1 X122.894 Y105.925 E0.01
G1 X123.035 Y106.195 E0.01
G1 X123.216 Y106.452 E0.011
G1 X123.437 Y106.688 E0.011
G1 X123.673 Y106.88 E0.01
G1 X123.942 Y107.043 E0.01
G1 X124.239 Y107.171 E0.011
G1 X124.533 Y107.252 E0.01
G1 X124.844 Y107.295 E0.011
G1 X125.166 Y107.294 E0.01
G1 X125.468 Y107.252 E0.01
G1 X125.77 Y107.168 E0.011
G1 X126.058 Y107.043 E0.01
G1 X126.327 Y106.88 E0.011
G1 X126.57 Y106.681 E0.01
G1 X126.785 Y106.451 E0.011
G1 X126.965 Y106.195 E0.01
G1 X127.11 Y105.917 E0.01
G1 X127.217 Y105.612 E0.011
G1 X127.279 Y105.313 E0.01
G1 X127.3 Y105 E0.011
G1 X127.279 Y104.687 E0.01
G1 X127.215 Y104.379 E0.011
G1 X127.106 Y104.075 E0.01
G1 X126.965 Y103.805 E0.011
G1 X126.784 Y103.548 E0.01
G1 X126.563 Y103.312 E0.011
G1 X126.327 Y103.12 E0.01
G1 X126.058 Y102.957 E0.01
G1 X125.761 Y102.829 E0.011
G1 X125.467 Y102.748 E0.01
G1 X125.156 Y102.705 E0.011
;rapid-leaky
G0 X125.18 Y102.345 F7200
;bead-perimeter_inner
G1 X124.809 Y102.346 F960 E0.012
G1 X124.459 Y102.394 E0.012
G1 X124.11 Y102.492 E0.012
G1 X123.776 Y102.637 E0.012
G1 X123.465 Y102.826 E0.012
G1 X123.184 Y103.055 E0.012
G1 X122.935 Y103.321 E0.012
G1 X122.727 Y103.617 E0.012
G1 X122.559 Y103.94 E0.012
G1 X122.435 Y104.292 E0.013
G1 X122.364 Y104.638 E0.012
G1 X122.339 Y105 E0.012
G1 X122.364 Y105.362 E0.012
G1 X122.438 Y105.719 E0.012
G1 X122.564 Y106.07 E0.012
G1 X122.727 Y106.383 E0.012
G1 X122.936 Y106.68 E0.012
G1 X123.192 Y106.952 E0.012
G1 X123.465 Y107.175 E0.012
G1 X123.777 Y107.364 E0.012
G1 X124.12 Y107.511 E0.013
G1 X124.46 Y107.606 E0.011
G1 X124.82 Y107.655 E0.013
G1 X125.191 Y107.654 E0.012
G1 X125.541 Y107.606 E0.012
G1 X125.89 Y107.508 E0.012
G1 X126.224 Y107.363 E0.012
G1 X126.535 Y107.174 E0.012
G1 X126.816 Y106.945 E0.012
G1 X127.065 Y106.679 E0.012
G1 X127.273 Y106.383 E0.012
G1 X127.441 Y106.06 E0.012
G1 X127.565 Y105.708 E0.013
G1 X127.636 Y105.362 E0.011
G1 X127.661 Y105 E0.012
G1 X127.636 Y104.638 E0.013
G1 X127.562 Y104.281 E0.012
G1 X127.436 Y103.93 E0.012
G1 X127.273 Y103.617 E0.012
G1 X127.064 Y103.32 E0.012
G1 X126.808 Y103.048 E0.012
G1 X126.535 Y102.825 E0.012
G1 X126.223 Y102.636 E0.012
G1 X125.88 Y102.489 E0.013
G1 X125.54 Y102.394 E0.011
G1 X125.18 Y102.345 E0.012
G1 F2100 E-0.5
;rapid-dry
G0 X120.61 Y97.007 F7200
G1 F2100 E0.5
;bead-solid_infill
G1 X117.007 Y100.61 F720 E0.17
G1 X116.749 Y101.117 E0.019
G1 X116.593 Y101.477 E0.013
G1 X116.52 Y101.643 E0.006
G1 X116.51 Y101.672 E0.001
G1 X121.672 Y96.51 E0.243
G1 X122.182 Y96.326 E0.018
G1 X122.52 Y96.228 E0.011
G1 X116.228 Y102.52 E0.296
G1 X116.167 Y102.732 E0.008
G1 X116.047 Y103.266 E0.018
G1 X123.266 Y96.047 E0.339
G1 X123.291 Y96.042 E0.001
G1 X123.857 Y95.953 E0.019
G1 X123.934 Y95.945 E0.003
G1 X115.945 Y103.934 E0.376
G1 X115.899 Y104.427 E0.016
G1 X115.895 Y104.55 E0.004
G1 X124.55 Y95.895 E0.407
G1 X125 Y95.88 E0.015
G1 X125.126 Y95.884 E0.005
G1 X115.884 Y105.126 E0.434
G1 X115.899 Y105.573 E0.015
G1 X115.908 Y105.669 E0.003
G1 X125.669 Y95.908 E0.459
G1 X126.143 Y95.953 E0.016
G1 X126.183 Y95.959 E0.002
G1 X115.959 Y106.183 E0.481
G1 X116.036 Y106.672 E0.016
G1 X126.672 Y96.036 E0.5
G1 X126.709 Y96.042 E0.002
G1 X127.136 Y96.137 E0.014
G1 X116.137 Y107.136 E0.517
G1 X116.167 Y107.268 E0.005
G1 X116.258 Y107.581 E0.011
G1 X127.581 Y96.258 E0.532
G1 X127.818 Y96.326 E0.009
G1 X128.009 Y96.395 E0.006
G1 X116.395 Y108.01 E0.547
G1 X116.52 Y108.356 E0.012
G1 X116.549 Y108.422 E0.002
G1 X128.422 Y96.549 E0.559
G1 X128.816 Y96.72 E0.014
G1 X116.72 Y108.816 E0.569
G1 X116.749 Y108.883 E0.003
G1 X116.907 Y109.195 E0.011
G1 X122.251 Y103.851 E0.252
G1 X122.126 Y104.206 E0.012
G1 X122.046 Y104.594 E0.013
G1 X122.044 Y104.623 E0.001
G1 X117.107 Y109.56 E0.232
G1 X117.3 Y109.886 E0.013
G1 X117.319 Y109.914 E0.001
G1 X122.032 Y105.201 E0.222
G1 X122.046 Y105.406 E0.007
G1 X122.106 Y105.693 E0.009
G1 X117.548 Y110.251 E0.215
G1 X117.622 Y110.361 E0.004
G1 X117.789 Y110.575 E0.009
G1 X122.243 Y106.122 E0.21
G1 X122.27 Y106.199 E0.002
G1 X122.428 Y106.502 E0.012
G1 X118.041 Y110.889 E0.206
G1 X118.268 Y111.148 E0.012
G1 X118.306 Y111.19 E0.001
G1 X122.657 Y106.839 E0.205
G1 X122.687 Y106.883 E0.002
G1 X122.926 Y107.136 E0.011
G1 X118.586 Y111.476 E0.205
G1 X118.758 Y111.648 E0.008
G1 X118.875 Y111.752 E0.005
G1 X123.231 Y107.396 E0.205
G1 X123.28 Y107.437 E0.002
G1 X123.455 Y107.543 E0.007
G1 X123.576 Y107.617 E0.004
G1 X119.176 Y112.017 E0.207
G1 X119.187 Y112.027 E0.001
G1 X119.494 Y112.265 E0.013
G1 X123.965 Y107.793 E0.21
G1 X124.013 Y107.814 E0.002
G1 X124.395 Y107.92 E0.013
G1 X124.404 Y107.921
G1 X119.823 Y112.502 E0.216
G1 X120.114 Y112.7 E0.012
G1 X120.162 Y112.728 E0.001
G1 X124.915 Y107.975 E0.224
G1 X125.214 Y107.974 E0.01
G1 X125.525 Y107.931 E0.01
G1 X120.517 Y112.939 E0.236
G1 X120.606 Y112.991 E0.003
G1 X120.871 Y113.126 E0.01
G1 X120.887 Y113.134 E0.001
G1 X126.376 Y107.646 E0.258
G1 X126.507 Y107.566 E0.005
G1 X126.72 Y107.436 E0.008
G1 X127.035 Y107.179 E0.014
G1 X127.313 Y106.881 E0.013
G1 X127.547 Y106.55 E0.014
G1 X127.629 Y106.392 E0.006
G1 X133.134 Y100.887 E0.259
G1 X132.992 Y100.606 E0.01
G1 X132.939 Y100.517 E0.004
G1 X127.929 Y105.527 E0.235
G1 X127.954 Y105.406 E0.004
G1 X127.982 Y105 E0.014
G1 X127.976 Y104.914 E0.003
G1 X132.728 Y100.162 E0.223
G1 X132.7 Y100.114 E0.002
G1 X132.504 Y99.825 E0.012
G1 X132.502 Y99.823
G1 X127.916 Y104.409 E0.216
G1 X127.871 Y104.194 E0.007
G1 X127.79 Y103.969 E0.008
G1 X132.265 Y99.494 E0.21
G1 X132.188 Y99.395 E0.005
G1 X132.026 Y99.187 E0.008
G1 X132.017 Y99.176 E0.001
G1 X127.614 Y103.579 E0.207
G1 X127.547 Y103.45 E0.005
G1 X127.394 Y103.233 E0.009
G1 X131.752 Y98.875 E0.205
G1 X131.649 Y98.758 E0.005
G1 X131.476 Y98.586 E0.008
G1 X127.134 Y102.928 E0.204
G1 X127.027 Y102.814 E0.005
G1 X126.837 Y102.659 E0.008
G1 X131.19 Y98.306 E0.205
G1 X130.889 Y98.041 E0.014
G1 X126.5 Y102.43 E0.206
G1 X126.37 Y102.351 E0.005
G1 X126.121 Y102.244 E0.009
G1 X130.575 Y97.789 E0.21
G1 X130.361 Y97.622 E0.009
G1 X130.251 Y97.548 E0.004
G1 X125.694 Y102.105 E0.214
G1 X125.605 Y102.08 E0.003
G1 X125.208 Y102.026 E0.014
G1 X129.914 Y97.319 E0.221
G1 X129.886 Y97.3 E0.001
G1 X129.56 Y97.107 E0.013
G1 X124.618 Y102.049 E0.232
G1 X124.394 Y102.08 E0.008
G1 X124.002 Y102.19 E0.013
G1 X123.843 Y102.258 E0.006
G1 X129.195 Y96.907 E0.252
G1 F2100 E-0.5
;rapid-dry
G0 X133.318 Y101.27 F7200
G1 F2100 E0.5
;bead-solid_infill
G1 X121.27 Y113.318 F720 E0.567
G1 X121.287 Y113.325
G1 X121.643 Y113.48 E0.013
G1 X121.665 Y113.487 E0.001
G1 X133.487 Y101.665 E0.556
G1 X133.516 Y101.746 E0.003
G1 X133.637 Y102.081 E0.012
G1 X122.081 Y113.637 E0.543
G1 X122.182 Y113.674 E0.004
G1 X122.514 Y113.77 E0.011
G1 X133.77 Y102.514 E0.53
G1 X133.833 Y102.732 E0.007
G1 X133.885 Y102.965 E0.008
G1 X122.965 Y113.885 E0.514
G1 X123.291 Y113.958 E0.011
G1 X123.435 Y113.981 E0.005
G1 X133.981 Y103.435 E0.496
G1 X134.047 Y103.857 E0.014
G1 X134.054 Y103.927 E0.002
G1 X123.927 Y114.054 E0.477
G1 X124.142 Y114.074 E0.007
G1 X124.427 Y114.101 E0.01
G1 X124.445 Y114.102
G1 X134.102 Y104.445 E0.454
G1 X134.119 Y104.993 E0.019
G1 X124.993 Y114.119 E0.429
G1 X125 Y114.12
G1 X125.572 Y114.101 E0.019
G1 X125.578
G1 X134.101 Y105.578 E0.401
G1 X134.047 Y106.143 E0.019
G1 X134.037 Y106.207 E0.002
G1 X126.207 Y114.037 E0.369
G1 X126.709 Y113.958 E0.016
G1 X126.893 Y113.917 E0.007
G1 X133.913 Y106.896 E0.33
G1 X133.9 Y106.954 E0.002
G1 X133.787 Y107.429 E0.016
G1 X133.721 Y107.654 E0.008
G1 X127.654 Y113.721 E0.285
G1 X127.818 Y113.674 E0.006
G1 X128.356 Y113.48 E0.019
G1 X128.542 Y113.399 E0.007
G1 X133.399 Y108.542 E0.228
G1 X133.251 Y108.883 E0.013
G1 X132.992 Y109.394 E0.019
G1 X132.815 Y109.692 E0.011
G1 X129.692 Y112.815 E0.147
G1 F2100 E-0.5
;LAYER:2
M107
;rapid-dry
G0 X122.89 Y105.917 Z0.35 F7200
G1 F2100 E0.5
;bead-perimeter_outer
G1 X123.035 Y106.195 F1800 E0.008
G1 X123.215 Y106.451 E0.008
G1 X123.43 Y106.681 E0.008
G1 X123.673 Y106.88 E0.007
G1 X123.942 Y107.043 E0.008
G1 X124.23 Y107.168 E0.008
G1 X124.532 Y107.252 E0.008
G1 X124.843 Y107.295 E0.008
G1 X125.157 E0.008
G1 X125.468 Y107.252 E0.007
G1 X125.77 Y107.168 E0.008
G1 X126.058 Y107.043 E0.008
G1 X126.327 Y106.88 E0.008
G1 X126.57 Y106.681 E0.008
G1 X126.785 Y106.451 E0.008
G1 X126.965 Y106.195 E0.007
G1 X127.11 Y105.916 E0.008
G1 X127.219 Y105.601 E0.009
G1 X127.279 Y105.313 E0.007
G1 X127.3 Y105 E0.008
G1 X127.279 Y104.687 E0.008
G1 X127.215 Y104.379 E0.007
G1 X127.11 Y104.083 E0.008
G1 X126.965 Y103.805 E0.008
G1 X126.785 Y103.549 E0.008
G1 X126.57 Y103.319 E0.008
G1 X126.327 Y103.12 E0.008
G1 X126.058 Y102.957 E0.007
G1 X125.77 Y102.832 E0.008
G1 X125.468 Y102.748 E0.008
G1 X125.157 Y102.705 E0.008
G1 X124.843 E0.008
G1 X124.532 Y102.748 E0.008
G1 X124.23 Y102.832 E0.007
G1 X123.942 Y102.957 E0.008
G1 X123.673 Y103.12 E0.008
G1 X123.43 Y103.319 E0.008
G1 X123.215 Y103.549 E0.008
G1 X123.035 Y103.805 E0.008
G1 X122.89 Y104.084 E0.007
G1 X122.781 Y104.399 E0.009
G1 X122.721 Y104.687 E0.007
G1 X122.7 Y105 E0.008
G1 X122.721 Y105.313 E0.008
G1 X122.785 Y105.621 E0.008
G1 X122.89 Y105.917 E0.007
;rapid-leaky
G0 X122.559 Y106.061 F7200
;bead-perimeter_inner
G1 X122.727 Y106.383 F2400 E0.009
G1 X122.935 Y106.679 E0.009
G1 X123.184 Y106.945 E0.01
G1 X123.465 Y107.174 E0.009
G1 X123.776 Y107.363 E0.009
G1 X124.11 Y107.508 E0.009
G1 X124.459 Y107.606 E0.009
G1 X124.819 Y107.655 E0.009
G1 X125.181 E0.009
G1 X125.541 Y107.606 E0.009
G1 X125.89 Y107.508 E0.009
G1 X126.224 Y107.363 E0.009
G1 X126.535 Y107.174 E0.009
G1 X126.816 Y106.945 E0.009
G1 X127.065 Y106.679 E0.009
G1 X127.273 Y106.383 E0.009
G1 X127.442 Y106.059 E0.009
G1 X127.567 Y105.697 E0.01
G1 X127.636 Y105.362 E0.008
G1 X127.661 Y105 E0.01
G1 X127.636 Y104.638 E0.009
G1 X127.563 Y104.282 E0.009
G1 X127.441 Y103.939 E0.009
G1 X127.273 Y103.617 E0.009
G1 X127.065 Y103.321 E0.009
G1 X126.816 Y103.055 E0.009
G1 X126.535 Y102.826 E0.009
G1 X126.224 Y102.637 E0.009
G1 X125.89 Y102.492 E0.009
G1 X125.541 Y102.394 E0.009
G1 X125.181 Y102.345 E0.009
G1 X124.819 E0.009
G1 X124.459 Y102.394 E0.009
G1 X124.11 Y102.492 E0.009
G1 X123.776 Y102.637 E0.009
G1 X123.465 Y102.826 E0.01
G1 X123.184 Y103.055 E0.009
G1 X122.935 Y103.321 E0.009
G1 X122.727 Y103.617 E0.009
G1 X122.558 Y103.941 E0.009
G1 X122.433 Y104.303 E0.009
G1 X122.364 Y104.638 E0.009
G1 X122.339 Y105 E0.009
G1 X122.364 Y105.362 E0.009
G1 X122.437 Y105.718 E0.009
G1 X122.559 Y106.061 E0.009
G1 F2100 E-0.5
;rapid-dry
G0 X116.133 Y109.173 F7200
G1 F2100 E0.5
;bead-perimeter_outer
G1 X115.888 Y108.607 F1800 E0.016
G1 X115.679 Y108.028 E0.015
G1 X115.508 Y107.437 E0.015
G1 X115.374 Y106.837 E0.016
G1 X115.278 Y106.228 E0.015
G1 X115.22 Y105.615 E0.015
G1 X115.2 Y105 E0.016
G1 X115.22 Y104.384 E0.015
G1 X115.278 Y103.772 E0.015
G1 X115.374 Y103.163 E0.016
G1 X115.508 Y102.563 E0.015
G1 X115.679 Y101.972 E0.015
G1 X115.888 Y101.393 E0.016
G1 X116.133 Y100.827 E0.015
G1 X116.412 Y100.278 E0.016
G1 X116.726 Y99.749 E0.015
G1 X117.072 Y99.24 E0.015
G1 X117.449 Y98.754 E0.016
G1 X117.856 Y98.292 E0.015
G1 X118.292 Y97.856 E0.015
G1 X118.569 Y97.611 E0.01
G1 X118.753 Y97.449 E0.006
G1 X119.24 Y97.072 E0.015
G1 X119.749 Y96.726 E0.015
G1 X120.278 Y96.412 E0.016
G1 X120.827 Y96.133 E0.015
G1 X121.393 Y95.888 E0.015
G1 X121.972 Y95.679 E0.016
G1 X122.563 Y95.508 E0.015
G1 X123.163 Y95.374 E0.016
G1 X123.772 Y95.278 E0.015
G1 X124.385 Y95.22 E0.015
G1 X125 Y95.2 E0.016
G1 X125.616 Y95.22 E0.015
G1 X126.228 Y95.278 E0.015
G1 X126.837 Y95.374 E0.016
G1 X127.437 Y95.508 E0.015
G1 X128.028 Y95.679 E0.015
G1 X128.607 Y95.888 E0.016
G1 X129.173 Y96.133 E0.015
G1 X129.722 Y96.412 E0.015
G1 X130.251 Y96.726 E0.016
G1 X130.76 Y97.072 E0.015
G1 X131.246 Y97.449 E0.016
G1 X131.708 Y97.856 E0.015
G1 X132.144 Y98.292 E0.015
G1 X132.389 Y98.569 E0.009
G1 X132.551 Y98.753 E0.007
G1 X132.928 Y99.24 E0.015
G1 X133.274 Y99.749 E0.015
G1 X133.588 Y100.278 E0.016
G1 X133.867 Y100.827 E0.015
G1 X134.112 Y101.393 E0.015
G1 X134.321 Y101.972 E0.016
G1 X134.492 Y102.563 E0.015
G1 X134.626 Y103.163 E0.015
G1 X134.722 Y103.772 E0.016
G1 X134.78 Y104.385 E0.015
G1 X134.8 Y105 E0.016
G1 X134.78 Y105.615 E0.015
G1 X134.722 Y106.228 E0.015
G1 X134.626 Y106.837 E0.016
G1 X134.492 Y107.437 E0.015
G1 X134.321 Y108.028 E0.015
G1 X134.112 Y108.607 E0.016
G1 X133.867 Y109.173 E0.015
G1 X133.588 Y109.722 E0.015
G1 X133.274 Y110.251 E0.016
G1 X132.928 Y110.76 E0.015
G1 X132.551 Y111.246 E0.015
G1 X132.144 Y111.708 E0.016
G1 X131.708 Y112.144 E0.015
G1 X131.431 Y112.389 E0.009
G1 X131.247 Y112.551 E0.007
G1 X130.76 Y112.928 E0.015
G1 X130.251 Y113.274 E0.015
G1 X129.722 Y113.588 E0.016
G1 X129.173 Y113.867 E0.015
G1 X128.607 Y114.112 E0.015
G1 X128.028 Y114.321 E0.016
G1 X127.437 Y114.492 E0.015
G1 X126.837 Y114.626 E0.015
G1 X126.228 Y114.722 E0.016
G1 X125.615 Y114.78 E0.015
G1 X125 Y114.8 E0.015
G1 X124.384 Y114.78 E0.016
G1 X123.772 Y114.723 E0.015
G1 X123.163 Y114.626 E0.016
G1 X122.563 Y114.492 E0.015
G1 X121.972 Y114.321 E0.015
G1 X121.393 Y114.112 E0.016
G1 X120.827 Y113.867 E0.015
G1 X120.278 Y113.588 E0.015
G1 X119.749 Y113.274 E0.016
G1 X119.24 Y112.928 E0.015
G1 X118.754 Y112.551 E0.015
G1 X118.292 Y112.144 E0.016
G1 X117.856 Y111.708 E0.015
G1 X117.611 Y111.431 E0.009
G1 X117.449 Y111.247 E0.006
G1 X117.072 Y110.76 E0.016
G1 X116.726 Y110.251 E0.015
G1 X116.412 Y109.722 E0.016
G1 X116.133 Y109.173 E0.015
;rapid-leaky
G0 X116.459 Y109.019 F7200
;bead-perimeter_inner
G1 X116.223 Y108.475 F2400 E0.015
G1 X116.022 Y107.917 E0.014
G1 X115.857 Y107.348 E0.015
G1 X115.727 Y106.769 E0.015
G1 X115.635 Y106.183 E0.015
G1 X115.579 Y105.593 E0.015
G1 X115.56 Y105 E0.014
G1 X115.579 Y104.407 E0.015
G1 X115.635 Y103.817 E0.015
G1 X115.727 Y103.231 E0.015
G1 X115.857 Y102.652 E0.015
G1 X116.022 Y102.083 E0.014
G1 X116.223 Y101.525 E0.015
G1 X116.459 Y100.981 E0.015
G1 X116.728 Y100.452 E0.015
G1 X117.03 Y99.942 E0.015
G1 X117.363 Y99.451 E0.014
G1 X117.727 Y98.983 E0.015
G1 X118.118 Y98.538 E0.015
G1 X118.539 Y98.118 E0.015
G1 X118.807 Y97.881 E0.009
G1 X118.983 Y97.727 E0.006
G1 X119.451 Y97.363 E0.014
G1 X119.942 Y97.03 E0.015
G1 X120.452 Y96.728 E0.015
G1 X120.981 Y96.459 E0.015
G1 X121.525 Y96.223 E0.015
G1 X122.083 Y96.022 E0.014
G1 X122.652 Y95.857 E0.015
G1 X123.231 Y95.727 E0.015
G1 X123.817 Y95.635 E0.015
G1 X124.407 Y95.579 E0.014
G1 X125 Y95.56 E0.015
G1 X125.593 Y95.579 E0.015
G1 X126.183 Y95.635 E0.015
G1 X126.769 Y95.727 E0.015
G1 X127.348 Y95.857 E0.014
G1 X127.917 Y96.022 E0.015
G1 X128.475 Y96.223 E0.015
G1 X129.019 Y96.459 E0.015
G1 X129.548 Y96.728 E0.015
G1 X130.058 Y97.03 E0.014
G1 X130.549 Y97.363 E0.015
G1 X131.017 Y97.727 E0.015
G1 X131.462 Y98.118 E0.015
G1 X131.882 Y98.539 E0.015
G1 X132.119 Y98.807 E0.009
G1 X132.273 Y98.983 E0.005
G1 X132.637 Y99.451 E0.015
G1 X132.97 Y99.942 E0.015
G1 X133.272 Y100.452 E0.015
G1 X133.541 Y100.981 E0.015
G1 X133.777 Y101.526 E0.014
G1 X133.978 Y102.083 E0.015
G1 X134.143 Y102.652 E0.015
G1 X134.273 Y103.231 E0.015
G1 X134.365 Y103.817 E0.014
G1 X134.421 Y104.407 E0.015
G1 X134.44 Y105 E0.015
G1 X134.421 Y105.593 E0.015
G1 X134.365 Y106.183 E0.015
G1 X134.273 Y106.769 E0.014
G1 X134.143 Y107.348 E0.015
G1 X133.978 Y107.917 E0.015
G1 X133.777 Y108.475 E0.015
G1 X133.541 Y109.019 E0.015
G1 X133.272 Y109.548 E0.014
G1 X132.97 Y110.058 E0.015
G1 X132.637 Y110.549 E0.015
G1 X132.273 Y111.017 E0.015
G1 X131.882 Y111.462 E0.015
G1 X131.461 Y111.882 E0.014
G1 X131.193 Y112.119 E0.009
G1 X131.017 Y112.273 E0.006
G1 X130.549 Y112.637 E0.015
G1 X130.058 Y112.97 E0.015
G1 X129.548 Y113.272 E0.015
G1 X129.019 Y113.541 E0.014
G1 X128.475 Y113.777 E0.015
G1 X127.917 Y113.978 E0.015
G1 X127.348 Y114.143 E0.015
G1 X126.769 Y114.273 E0.015
G1 X126.183 Y114.365 E0.014
G1 X125.593 Y114.421 E0.015
G1 X125 Y114.44 E0.015
G1 X124.407 Y114.421 E0.015
G1 X123.817 Y114.365 E0.014
G1 X123.231 Y114.273 E0.015
G1 X122.652 Y114.143 E0.015
G1 X122.083 Y113.978 E0.015
G1 X121.525 Y113.777 E0.015
G1 X120.981 Y113.541 E0.014
G1 X120.452 Y113.272 E0.015
G1 X119.942 Y112.97 E0.015
G1 X119.451 Y112.637 E0.015
G1 X118.983 Y112.273 E0.015
G1 X118.538 Y111.882 E0.014
G1 X118.118 Y111.461 E0.015
G1 X117.881 Y111.193 E0.009
G1 X117.727 Y111.017 E0.006
G1 X117.363 Y110.549 E0.015
G1 X117.03 Y110.058 E0.015
G1 X116.728 Y109.548 E0.014
G1 X116.459 Y109.019 E0.015
;rapid-leaky
G0 X117.007 Y109.39 F7200
;bead-solid_infill
G1 X120.61 Y112.993 F1800 E0.127
G1 X121.117 Y113.251 E0.014
G1 X121.643 Y113.479 E0.015
G1 X121.672 Y113.49 E0.001
G1 X116.51 Y108.328 E0.182
G1 X116.38 Y107.966 E0.009
G1 X116.326 Y107.818 E0.004
G1 X116.228 Y107.48 E0.009
G1 X122.52 Y113.772 E0.222
G1 X122.732 Y113.833 E0.005
G1 X123.266 Y113.953 E0.014
G1 X116.047 Y106.734 E0.255
G1 X116.042 Y106.709
G1 X115.953 Y106.143 E0.015
G1 X115.945 Y106.066 E0.002
G1 X123.934 Y114.055 E0.281
G1 X124.427 Y114.101 E0.013
G1 X124.55 Y114.105 E0.003
G1 X115.895 Y105.45 E0.305
G1 X115.88 Y105 E0.011
G1 X115.884 Y104.874 E0.004
G1 X125.126 Y114.116 E0.326
G1 X125.573 Y114.101 E0.011
G1 X125.669 Y114.092 E0.002
G1 X115.908 Y104.331 E0.344
G1 X115.916 Y104.247 E0.003
G1 X115.952 Y103.857 E0.009
G1 X115.959 Y103.817 E0.001
G1 X126.183 Y114.041 E0.361
G1 X126.672 Y113.964 E0.012
G1 X116.036 Y103.328 E0.376
G1 X116.042 Y103.291 E0.001
G1 X116.137 Y102.864 E0.01
G1 X127.136 Y113.863 E0.388
G1 X127.268 Y113.833 E0.004
G1 X127.527 Y113.758 E0.007
G1 X127.581 Y113.742 E0.001
G1 X116.258 Y102.419 E0.399
G1 X116.326 Y102.182 E0.007
G1 X116.395 Y101.991 E0.005
G1 X128.009 Y113.605 E0.409
G1 X128.357 Y113.479 E0.01
G1 X128.422 Y113.451 E0.001
G1 X116.549 Y101.578 E0.419
G1 X116.72 Y101.184 E0.011
G1 X128.816 Y113.28 E0.427
G1 X128.883 Y113.251 E0.002
G1 X129.195 Y113.093 E0.008
G1 X123.843 Y107.742 E0.189
G1 X124.002 Y107.81 E0.004
G1 X124.394 Y107.92 E0.01
G1 X124.618 Y107.95 E0.006
G1 X129.56 Y112.893 E0.174
G1 X129.886 Y112.7 E0.01
G1 X129.914 Y112.681 E0.001
G1 X125.208 Y107.974 E0.166
G1 X125.606 Y107.92 E0.01
G1 X125.694 Y107.895 E0.002
G1 X130.251 Y112.452 E0.161
G1 X130.361 Y112.378 E0.003
G1 X130.575 Y112.211 E0.007
G1 X126.121 Y107.757 E0.157
G1 X126.185 Y107.729 E0.002
G1 X126.372 Y107.648 E0.005
G1 X126.5 Y107.57 E0.004
G1 X130.89 Y111.959 E0.154
G1 X130.981 Y111.879 E0.004
G1 X131.19 Y111.694 E0.006
G1 X126.837 Y107.341 E0.154
G1 X127.035 Y107.179 E0.006
G1 X127.135 Y107.073 E0.004
G1 X131.476 Y111.414 E0.153
G1 X131.648 Y111.242 E0.006
G1 X131.752 Y111.125 E0.004
G1 X127.394 Y106.767 E0.154
G1 X127.547 Y106.55 E0.007
G1 X127.614 Y106.421 E0.003
G1 X132.017 Y110.824 E0.156
G1 X132.027 Y110.813
G1 X132.265 Y110.506 E0.01
G1 X127.79 Y106.031 E0.157
G1 X127.876 Y105.782 E0.007
G1 X127.916 Y105.591 E0.005
G1 X132.502 Y110.177 E0.162
G1 X132.7 Y109.886 E0.008
G1 X132.728 Y109.838 E0.002
G1 X127.976 Y105.086 E0.167
G1 X127.982 Y105 E0.003
G1 X127.954 Y104.594 E0.01
G1 X127.929 Y104.473 E0.003
G1 X132.939 Y109.483 E0.177
G1 X132.992 Y109.394 E0.002
G1 X133.134 Y109.113 E0.008
G1 X127.629 Y103.608 E0.194
G1 X127.547 Y103.45 E0.005
G1 X127.313 Y103.119 E0.01
G1 X127.035 Y102.821 E0.01
G1 X126.72 Y102.564 E0.01
G1 X126.376 Y102.354 E0.01
G1 X120.887 Y96.866 E0.194
G1 X120.606 Y97.008 E0.008
G1 X120.517 Y97.061 E0.002
G1 X125.525 Y102.069 E0.177
G1 X125.254 Y102.032 E0.007
G1 X125.203 Y102.025 E0.001
G1 X124.915 E0.007
G1 X120.162 Y97.272 E0.168
G1 X120.114 Y97.3 E0.001
G1 X119.823 Y97.498 E0.009
G1 X124.404 Y102.079 E0.162
G1 X124.394 Y102.08
G1 X124.002 Y102.19 E0.01
G1 X123.965 Y102.206 E0.001
G1 X119.494 Y97.735 E0.158
G1 X119.187 Y97.974 E0.009
G1 X119.176 Y97.983 E0.001
G1 X123.576 Y102.383 E0.155
G1 X123.464 Y102.452 E0.003
G1 X123.28 Y102.564 E0.006
G1 X123.231 Y102.604 E0.001
G1 X118.875 Y98.248 E0.154
G1 X118.758 Y98.352 E0.004
G1 X118.586 Y98.524 E0.006
G1 X122.925 Y102.863 E0.153
G1 X122.687 Y103.119 E0.009
G1 X122.657 Y103.161 E0.001
G1 X118.306 Y98.81 E0.154
G1 X118.041 Y99.111 E0.01
G1 X122.428 Y103.498 E0.154
G1 X122.263 Y103.814 E0.009
G1 X122.242 Y103.877 E0.002
G1 X117.789 Y99.425 E0.157
G1 X117.622 Y99.639 E0.007
G1 X117.548 Y99.749 E0.003
G1 X122.106 Y104.307 E0.161
G1 X122.046 Y104.594 E0.007
G1 X122.032 Y104.799 E0.005
G1 X117.319 Y100.086 E0.166
G1 X117.3 Y100.114 E0.001
G1 X117.136 Y100.391 E0.008
G1 X117.107 Y100.44 E0.002
G1 X122.044 Y105.377 E0.174
G1 X122.046 Y105.406 E0.001
G1 X122.092 Y105.626 E0.005
G1 X122.128 Y105.804 E0.005
G1 X122.251 Y106.149 E0.009
G1 X116.907 Y100.805 E0.188
G1 F2100 E-0.5
;rapid-dry
G0 X121.27 Y96.682 F7200
G1 F2100 E0.5
;bead-solid_infill
G1 X133.318 Y108.73 F1800 E0.425
G1 X133.479 Y108.357 E0.011
G1 X133.487 Y108.335
G1 X121.665 Y96.513 E0.417
G1 X122.081 Y96.363 E0.011
G1 X133.637 Y107.919 E0.408
G1 X133.674 Y107.818 E0.003
G1 X133.77 Y107.486 E0.008
G1 X122.514 Y96.23 E0.397
G1 X122.732 Y96.167 E0.006
G1 X122.83 Y96.145 E0.003
G1 X122.965 Y96.115 E0.003
G1 X133.885 Y107.035 E0.385
G1 X133.958 Y106.709 E0.009
G1 X133.981 Y106.565 E0.003
G1 X123.435 Y96.019 E0.372
G1 X123.857 Y95.953 E0.011
G1 X123.927 Y95.946 E0.002
G1 X134.054 Y106.073 E0.357
G1 X134.101 Y105.573 E0.012
G1 X134.102 Y105.555 E0.001
G1 X124.445 Y95.898 E0.341
G1 X124.993 Y95.881 E0.013
G1 X134.119 Y105.007 E0.322
G1 X134.12 Y105
G1 X134.101 Y104.427 E0.015
G1 Y104.422
G1 X125.578 Y95.899 E0.3
G1 X125.753 Y95.916 E0.005
G1 X126.143 Y95.952 E0.01
G1 X126.207 Y95.963 E0.001
G1 X134.037 Y103.793 E0.276
G1 X133.958 Y103.291 E0.013
G1 X133.917 Y103.107 E0.005
G1 X126.893 Y96.083 E0.248
G1 X127.268 Y96.167 E0.009
G1 X127.654 Y96.279 E0.01
G1 X133.721 Y102.346 E0.214
G1 X133.674 Y102.182 E0.005
G1 X133.48 Y101.644 E0.014
G1 X133.399 Y101.458 E0.005
G1 X128.542 Y96.601 E0.171
G1 X128.883 Y96.749 E0.009
G1 X129.394 Y97.008 E0.015
G1 X129.692 Y97.185 E0.008
G1 X132.815 Y100.308 E0.111
G1 F2100 E-0.5
;LAYER:3
M107
;rapid-dry
G0 X126.57 Y106.681 Z0.5 F7200
G1 F2100 E0.5
;bead-perimeter_outer
G1 X126.785 Y106.451 F1800 E0.007
G1 X126.965 Y106.195 E0.008
G1 X127.11 Y105.916 E0.008
G1 X127.221 Y105.592 E0.009
G1 X127.279 Y105.313 E0.007
G1 X127.3 Y105 E0.008
G1 X127.279 Y104.687 E0.007
G1 X127.215 Y104.379 E0.008
G1 X127.11 Y104.083 E0.008
G1 X126.965 Y103.805 E0.008
G1 X126.785 Y103.549 E0.008
G1 X126.57 Y103.319 E0.008
G1 X126.327 Y103.12 E0.007
G1 X126.057 Y102.956 E0.008
G1 X125.741 Y102.824 E0.009
G1 X125.468 Y102.748 E0.007
G1 X125.157 Y102.705 E0.008
G1 X124.843 E0.008
G1 X124.532 Y102.748 E0.007
G1 X124.23 Y102.832 E0.008
G1 X123.942 Y102.957 E0.008
G1 X123.673 Y103.12 E0.008
G1 X123.43 Y103.319 E0.008
G1 X123.215 Y103.549 E0.008
G1 X123.035 Y103.805 E0.007
G1 X122.89 Y104.084 E0.008
G1 X122.779 Y104.408 E0.009
G1 X122.721 Y104.687 E0.007
G1 X122.7 Y105 E0.008
G1 X122.721 Y105.313 E0.008
G1 X122.785 Y105.621 E0.007
G1 X122.89 Y105.917 E0.008
G1 X123.035 Y106.195 E0.008
G1 X123.215 Y106.451 E0.008
G1 X123.43 Y106.681 E0.008
G1 X123.673 Y106.88 E0.008
G1 X123.943 Y107.044 E0.007
G1 X124.259 Y107.176 E0.009
G1 X124.532 Y107.252 E0.007
G1 X124.843 Y107.295 E0.008
G1 X125.157 E0.008
G1 X125.468 Y107.252 E0.008
G1 X125.77 Y107.168 E0.007
G1 X126.058 Y107.043 E0.008
G1 X126.327 Y106.88 E0.008
G1 X126.57 Y106.681 E0.008
;rapid-leaky
G0 X126.816 Y106.945 F7200
;bead-perimeter_inner
G1 X127.065 Y106.679 F2400 E0.009
G1 X127.273 Y106.383 E0.009
G1 X127.442 Y106.058 E0.009
G1 X127.569 Y105.687 E0.01
G1 X127.636 Y105.362 E0.008
G1 X127.661 Y105 E0.009
G1 X127.636 Y104.638 E0.009
G1 X127.563 Y104.282 E0.009
G1 X127.441 Y103.939 E0.009
G1 X127.273 Y103.617 E0.009
G1 X127.065 Y103.321 E0.009
G1 X126.816 Y103.055 E0.01
G1 X126.535 Y102.826 E0.009
G1 X126.221 Y102.635 E0.009
G1 X125.859 Y102.483 E0.01
G1 X125.541 Y102.394 E0.008
G1 X125.181 Y102.345 E0.009
G1 X124.819 E0.009
G1 X124.459 Y102.394 E0.009
G1 X124.11 Y102.492 E0.009
G1 X123.776 Y102.637 E0.009
G1 X123.465 Y102.826 E0.009
G1 X123.184 Y103.055 E0.009
G1 X122.935 Y103.321 E0.009
G1 X122.727 Y103.617 E0.009
G1 X122.558 Y103.942 E0.009
G1 X122.431 Y104.313 E0.01
G1 X122.364 Y104.638 E0.009
G1 X122.339 Y105 E0.009
G1 X122.364 Y105.362 E0.009
G1 X122.437 Y105.718 E0.009
G1 X122.559 Y106.061 E0.009
G1 X122.727 Y106.383 E0.009
G1 X122.935 Y106.679 E0.009
G1 X123.184 Y106.945 E0.009
G1 X123.465 Y107.174 E0.009
G1 X123.779 Y107.365 E0.009
G1 X124.141 Y107.517 E0.01
G1 X124.459 Y107.606 E0.008
G1 X124.819 Y107.655 E0.009
G1 X125.181 E0.009
G1 X125.541 Y107.606 E0.009
G1 X125.89 Y107.508 E0.009
G1 X126.224 Y107.363 E0.009
G1 X126.535 Y107.174 E0.01
G1 X126.816 Y106.945 E0.009
G1 F2100 E-0.5
;rapid-dry
G0 X131.708 Y112.144 F7200
G1 F2100 E0.5
;bead-perimeter_outer
G1 X131.293 Y112.51 F1800 E0.013
G1 X130.76 Y112.928 E0.017
G1 X130.251 Y113.274 E0.016
G1 X129.722 Y113.588 E0.015
G1 X129.173 Y113.867 E0.015
G1 X128.607 Y114.112 E0.016
G1 X128.028 Y114.321 E0.015
G1 X127.497 Y114.475 E0.014
G1 X126.836 Y114.627 E0.017
G1 X126.228 Y114.722 E0.015
G1 X125.615 Y114.78 E0.016
G1 X125 Y114.8 E0.015
G1 X124.385 Y114.78 E0.015
G1 X123.833 Y114.728 E0.014
G1 X123.163 Y114.626 E0.017
G1 X122.563 Y114.492 E0.015
G1 X121.972 Y114.321 E0.016
G1 X121.393 Y114.112 E0.015
G1 X120.827 Y113.867 E0.015
G1 X120.278 Y113.588 E0.016
G1 X119.749 Y113.274 E0.015
G1 X119.24 Y112.928 E0.015
G1 X118.754 Y112.551 E0.016
G1 X118.292 Y112.144 E0.015
G1 X117.856 Y111.708 E0.016
G1 X117.49 Y111.293 E0.013
G1 X117.072 Y110.76 E0.017
G1 X116.726 Y110.251 E0.016
G1 X116.412 Y109.722 E0.015
G1 X116.133 Y109.173 E0.015
G1 X115.888 Y108.607 E0.016
G1 X115.679 Y108.028 E0.015
G1 X115.525 Y107.497 E0.014
G1 X115.373 Y106.836 E0.017
G1 X115.278 Y106.228 E0.015
G1 X115.22 Y105.615 E0.015
G1 X115.2 Y105 E0.016
G1 X115.22 Y104.385 E0.015
G1 X115.272 Y103.833 E0.014
G1 X115.374 Y103.163 E0.017
G1 X115.508 Y102.563 E0.015
G1 X115.679 Y101.972 E0.016
G1 X115.888 Y101.393 E0.015
G1 X116.133 Y100.827 E0.015
G1 X116.412 Y100.278 E0.016
G1 X116.726 Y99.749 E0.015
G1 X117.072 Y99.24 E0.015
G1 X117.449 Y98.754 E0.016
G1 X117.856 Y98.292 E0.015
G1 X118.292 Y97.856 E0.015
G1 X118.707 Y97.49 E0.014
G1 X119.24 Y97.072 E0.017
G1 X119.749 Y96.726 E0.016
G1 X120.278 Y96.412 E0.015
G1 X120.827 Y96.133 E0.015
G1 X121.393 Y95.888 E0.016
G1 X121.972 Y95.679 E0.015
G1 X122.503 Y95.525 E0.014
G1 X123.164 Y95.373 E0.017
G1 X123.772 Y95.278 E0.015
G1 X124.385 Y95.22 E0.015
G1 X125 Y95.2 E0.016
G1 X125.615 Y95.22 E0.015
G1 X126.167 Y95.272 E0.014
G1 X126.837 Y95.374 E0.017
G1 X127.437 Y95.508 E0.015
G1 X128.028 Y95.679 E0.016
G1 X128.607 Y95.888 E0.015
G1 X129.173 Y96.133 E0.015
G1 X129.722 Y96.412 E0.016
G1 X130.251 Y96.726 E0.015
G1 X130.76 Y97.072 E0.015
G1 X131.246 Y97.449 E0.016
G1 X131.708 Y97.856 E0.015
G1 X132.144 Y98.292 E0.015
G1 X132.51 Y98.707 E0.014
G1 X132.928 Y99.24 E0.017
G1 X133.274 Y99.749 E0.015
G1 X133.588 Y100.278 E0.016
G1 X133.867 Y100.827 E0.015
G1 X134.112 Y101.393 E0.016
G1 X134.3 Y101.913 E0.013
G1 X134.492 Y102.563 E0.017
G1 X134.626 Y103.163 E0.016
G1 X134.722 Y103.772 E0.015
G1 X134.78 Y104.385 E0.015
G1 X134.798 Y104.939 E0.014
G1 X134.78 Y105.616 E0.017
G1 X134.722 Y106.228 E0.015
G1 X134.626 Y106.837 E0.016
G1 X134.492 Y107.437 E0.015
G1 X134.321 Y108.028 E0.015
G1 X134.112 Y108.607 E0.016
G1 X133.867 Y109.173 E0.015
G1 X133.588 Y109.722 E0.016
G1 X133.274 Y110.251 E0.015
G1 X132.928 Y110.76 E0.015
G1 X132.551 Y111.246 E0.016
G1 X132.144 Y111.708 E0.015
G1 X131.708 Y112.144 E0.015
;rapid-leaky
G0 X131.461 Y111.882 F7200
;bead-perimeter_inner
G1 X131.063 Y112.233 F2400 E0.014
G1 X130.548 Y112.637 E0.016
G1 X130.058 Y112.97 E0.015
G1 X129.548 Y113.272 E0.014
G1 X129.019 Y113.541 E0.015
G1 X128.475 Y113.777 E0.015
G1 X127.917 Y113.978 E0.015
G1 X127.406 Y114.127 E0.013
G1 X126.768 Y114.273 E0.016
G1 X126.183 Y114.365 E0.015
G1 X125.593 Y114.421 E0.015
G1 X125 Y114.44 E0.015
G1 X124.407 Y114.421 E0.015
G1 X123.877 Y114.371 E0.013
G1 X123.229 Y114.272 E0.016
G1 X122.652 Y114.143 E0.015
G1 X122.083 Y113.978 E0.015
G1 X121.525 Y113.777 E0.015
G1 X120.981 Y113.541 E0.014
G1 X120.452 Y113.272 E0.015
G1 X119.942 Y112.97 E0.015
G1 X119.451 Y112.637 E0.015
G1 X118.983 Y112.273 E0.015
G1 X118.538 Y111.882 E0.014
G1 X118.118 Y111.461 E0.015
G1 X117.767 Y111.063 E0.013
G1 X117.363 Y110.548 E0.017
G1 X117.03 Y110.058 E0.014
G1 X116.728 Y109.548 E0.015
G1 X116.459 Y109.019 E0.015
G1 X116.223 Y108.475 E0.015
G1 X116.022 Y107.917 E0.015
G1 X115.873 Y107.406 E0.013
G1 X115.727 Y106.768 E0.016
G1 X115.635 Y106.183 E0.015
G1 X115.579 Y105.593 E0.015
G1 X115.56 Y105 E0.015
G1 X115.579 Y104.407 E0.014
G1 X115.629 Y103.877 E0.014
G1 X115.728 Y103.229 E0.016
G1 X115.857 Y102.652 E0.015
G1 X116.022 Y102.083 E0.015
G1 X116.223 Y101.525 E0.014
G1 X116.459 Y100.981 E0.015
G1 X116.728 Y100.452 E0.015
G1 X117.03 Y99.942 E0.015
G1 X117.363 Y99.451 E0.015
G1 X117.727 Y98.983 E0.014
G1 X118.118 Y98.538 E0.015
G1 X118.539 Y98.118 E0.015
G1 X118.937 Y97.767 E0.013
G1 X119.452 Y97.363 E0.017
G1 X119.942 Y97.03 E0.014
G1 X120.452 Y96.728 E0.015
G1 X120.981 Y96.459 E0.015
G1 X121.525 Y96.223 E0.015
G1 X122.083 Y96.022 E0.014
G1 X122.594 Y95.873 E0.014
G1 X123.232 Y95.727 E0.016
G1 X123.817 Y95.635 E0.015
G1 X124.407 Y95.579 E0.015
G1 X125 Y95.56 E0.014
G1 X125.593 Y95.579 E0.015
G1 X126.123 Y95.629 E0.014
G1 X126.771 Y95.728 E0.016
G1 X127.348 Y95.857 E0.015
G1 X127.917 Y96.022 E0.014
G1 X128.475 Y96.223 E0.015
G1 X129.019 Y96.459 E0.015
G1 X129.548 Y96.728 E0.015
G1 X130.058 Y97.03 E0.015
G1 X130.549 Y97.363 E0.014
G1 X131.017 Y97.727 E0.015
G1 X131.462 Y98.118 E0.015
G1 X131.882 Y98.539 E0.015
G1 X132.233 Y98.937 E0.013
G1 X132.638 Y99.452 E0.016
G1 X132.97 Y99.942 E0.015
G1 X133.272 Y100.452 E0.015
G1 X133.541 Y100.981 E0.015
G1 X133.777 Y101.526 E0.015
G1 X133.958 Y102.026 E0.013
G1 X134.144 Y102.654 E0.016
G1 X134.273 Y103.231 E0.015
G1 X134.365 Y103.817 E0.015
G1 X134.421 Y104.407 E0.014
G1 X134.438 Y104.94 E0.014
G1 X134.421 Y105.594 E0.016
G1 X134.365 Y106.183 E0.015
G1 X134.273 Y106.769 E0.015
G1 X134.143 Y107.348 E0.014
G1 X133.978 Y107.917 E0.015
G1 X133.777 Y108.475 E0.015
G1 X133.541 Y109.019 E0.015
G1 X133.272 Y109.548 E0.015
G1 X132.97 Y110.058 E0.014
G1 X132.637 Y110.549 E0.015
G1 X132.273 Y111.017 E0.015
G1 X131.882 Y111.462 E0.015
G1 X131.461 Y111.882 E0.015
;rapid-leaky
G0 X132.815 Y109.692 F7200
;bead-solid_infill
G1 X129.692 Y112.815 F1800 E0.11
G1 X129.394 Y112.992 E0.008
G1 X128.883 Y113.251 E0.015
G1 X128.542 Y113.399 E0.009
G1 X133.399 Y108.542 E0.171
G1 X133.479 Y108.357 E0.005
G1 X133.674 Y107.818 E0.015
G1 X133.721 Y107.654 E0.004
G1 X127.654 Y113.721 E0.214
G1 X127.326 Y113.817 E0.008
G1 X126.894 Y113.916 E0.011
G1 X133.917 Y106.893 E0.248
G1 X133.958 Y106.709 E0.005
G1 X134.037 Y106.207 E0.013
G1 X126.207 Y114.037 E0.276
G1 X126.143 Y114.047 E0.001
G1 X125.578 Y114.101 E0.015
G1 X134.101 Y105.578 E0.3
G1 Y105.575
G1 X134.116 Y104.997 E0.015
G1 X124.993 Y114.119 E0.322
G1 X124.445 Y114.102 E0.013
G1 X134.102 Y104.445 E0.341
G1 X134.101 Y104.427
G1 X134.054 Y103.927 E0.013
G1 X123.927 Y114.054 E0.357
G1 X123.917 Y114.053
G1 X123.436 Y113.98 E0.013
G1 X133.981 Y103.435 E0.372
G1 X133.958 Y103.291 E0.003
G1 X133.885 Y102.965 E0.009
G1 X122.965 Y113.885 E0.385
G1 X122.732 Y113.833 E0.006
G1 X122.514 Y113.77 E0.005
G1 X133.769 Y102.515 E0.397
G1 X133.654 Y102.126 E0.011
G1 X133.637 Y102.081 E0.001
G1 X122.081 Y113.637 E0.407
G1 X121.665 Y113.487 E0.012
G1 X133.487 Y101.665 E0.417
G1 X133.48 Y101.644
G1 X133.318 Y101.27 E0.01
G1 X121.27 Y113.318 E0.425
G1 F2100 E-0.5
;rapid-dry
G0 X116.907 Y109.195 F7200
G1 F2100 E0.5
;bead-solid_infill
G1 X122.251 Y103.851 F1800 E0.189
G1 X122.121 Y104.229 E0.01
G1 X122.046 Y104.594 E0.009
G1 X122.044 Y104.623 E0.001
G1 X117.107 Y109.56 E0.174
G1 X117.3 Y109.886 E0.009
G1 X117.319 Y109.914 E0.001
G1 X122.032 Y105.201 E0.167
G1 X122.046 Y105.406 E0.005
G1 X122.106 Y105.693 E0.007
G1 X117.548 Y110.251 E0.161
G1 X117.621 Y110.359 E0.003
G1 X117.79 Y110.574 E0.007
G1 X122.242 Y106.123 E0.157
G1 X122.265 Y106.189 E0.002
G1 X122.428 Y106.502 E0.008
G1 X118.041 Y110.89 E0.155
G1 X118.306 Y111.19 E0.01
G1 X122.657 Y106.839 E0.154
G1 X122.687 Y106.881 E0.001
G1 X122.925 Y107.137 E0.009
G1 X118.586 Y111.476 E0.153
G1 X118.758 Y111.648 E0.006
G1 X118.875 Y111.752 E0.004
G1 X123.231 Y107.396 E0.153
G1 X123.28 Y107.436 E0.002
G1 X123.576 Y107.617 E0.009
G1 X119.176 Y112.017 E0.155
G1 X119.187 Y112.027
G1 X119.494 Y112.265 E0.01
G1 X123.967 Y107.791 E0.158
G1 X124.036 Y107.82 E0.002
G1 X124.394 Y107.92 E0.009
G1 X124.404 Y107.921
G1 X119.823 Y112.502 E0.162
G1 X120.114 Y112.7 E0.008
G1 X120.162 Y112.728 E0.002
G1 X124.915 Y107.975 E0.168
G1 X125.203 E0.007
G1 X125.525 Y107.931 E0.008
G1 X120.517 Y112.939 E0.177
G1 X120.606 Y112.992 E0.002
G1 X120.887 Y113.134 E0.008
G1 X126.376 Y107.646 E0.194
G1 X126.538 Y107.547 E0.004
G1 X126.72 Y107.436 E0.006
G1 X127.035 Y107.179 E0.01
G1 X127.313 Y106.881 E0.01
G1 X127.547 Y106.55 E0.01
G1 X127.629 Y106.392 E0.005
G1 X133.134 Y100.887 E0.194
G1 X132.992 Y100.606 E0.008
G1 X132.939 Y100.517 E0.002
G1 X127.929 Y105.527 E0.177
G1 X127.954 Y105.406 E0.003
G1 X127.982 Y105 E0.01
G1 X127.976 Y104.914 E0.002
G1 X132.728 Y100.162 E0.168
G1 X132.7 Y100.114 E0.001
G1 X132.502 Y99.823 E0.009
G1 X127.916 Y104.409 E0.162
G1 X127.872 Y104.196 E0.005
G1 X127.791 Y103.968 E0.006
G1 X132.264 Y99.495 E0.158
G1 X132.015 Y99.178 E0.01
G1 X127.614 Y103.579 E0.155
G1 X127.547 Y103.45 E0.004
G1 X127.394 Y103.233 E0.007
G1 X131.752 Y98.875 E0.153
G1 X131.648 Y98.758 E0.004
G1 X131.476 Y98.586 E0.006
G1 X127.135 Y102.927 E0.154
G1 X127.035 Y102.821 E0.003
G1 X126.837 Y102.659 E0.007
G1 X131.19 Y98.306 E0.153
G1 X130.889 Y98.041 E0.01
G1 X126.5 Y102.43 E0.155
G1 X126.367 Y102.349 E0.004
G1 X126.251 Y102.3 E0.003
G1 X126.12 Y102.245 E0.004
G1 X130.576 Y97.789 E0.157
G1 X130.361 Y97.622 E0.007
G1 X130.251 Y97.548 E0.003
G1 X125.694 Y102.105 E0.161
G1 X125.606 Y102.08 E0.002
G1 X125.208 Y102.026 E0.01
G1 X129.914 Y97.319 E0.166
G1 X129.886 Y97.3 E0.001
G1 X129.56 Y97.107 E0.009
G1 X124.618 Y102.05 E0.175
G1 X124.394 Y102.08 E0.005
G1 X124.002 Y102.19 E0.01
G1 X123.843 Y102.258 E0.005
G1 X129.195 Y96.907 E0.188
G1 X128.883 Y96.749 E0.009
G1 X128.816 Y96.72 E0.002
G1 X116.72 Y108.816 E0.427
G1 X116.619 Y108.585 E0.006
G1 X116.549 Y108.422 E0.005
G1 X128.422 Y96.549 E0.418
G1 X128.357 Y96.52 E0.002
G1 X128.009 Y96.395 E0.009
G1 X116.395 Y108.009 E0.41
G1 X116.39 Y107.995
G1 X116.326 Y107.818 E0.005
G1 X116.258 Y107.582 E0.006
G1 X127.581 Y96.258 E0.4
G1 X127.268 Y96.167 E0.008
G1 X127.136 Y96.137 E0.003
G1 X116.139 Y107.134 E0.388
G1 X116.042 Y106.707 E0.011
G1 X116.036 Y106.672 E0.001
G1 X126.672 Y96.036 E0.375
G1 X126.181 Y95.962 E0.013
G1 X115.959 Y106.183 E0.36
G1 X115.953 Y106.143 E0.001
G1 X115.908 Y105.669 E0.012
G1 X125.669 Y95.908 E0.344
G1 X125.573 Y95.899 E0.003
G1 X125.126 Y95.884 E0.011
G1 X115.884 Y105.126 E0.326
G1 X115.88 Y105 E0.003
G1 X115.882 Y104.946 E0.002
G1 X115.895 Y104.55 E0.009
G1 X124.55 Y95.895 E0.306
G1 X124.427 Y95.899 E0.003
G1 X123.934 Y95.945 E0.012
G1 X115.945 Y103.934 E0.282
G1 X115.947 Y103.917
G1 X116.042 Y103.288 E0.016
G1 X116.047 Y103.266 E0.001
G1 X123.266 Y96.048 E0.255
G1 X122.674 Y96.183 E0.015
G1 X122.52 Y96.228 E0.004
G1 X116.228 Y102.52 E0.222
G1 X116.326 Y102.182 E0.008
G1 X116.51 Y101.672 E0.014
G1 X121.672 Y96.51 E0.182
G1 X121.643 Y96.521 E0.001
G1 X121.117 Y96.749 E0.014
G1 X120.61 Y97.007 E0.014
G1 X117.007 Y100.61 E0.127
G1 F2100 E-0.5
;LAYER:4
M106 S255
;rapid-dry
G0 X126.327 Y106.88 Z0.65 F7200
G1 F2100 E0.5
;bead-perimeter_outer
G1 X126.571 Y106.68 F1800 E0.008
G1 X126.807 Y106.419 E0.009
G1 X126.965 Y106.195 E0.007
G1 X127.111 Y105.916 E0.008
G1 X127.223 Y105.582 E0.009
G1 X127.279 Y105.313 E0.006
G1 X127.3 Y105 E0.008
G1 X127.279 Y104.687 E0.008
G1 X127.215 Y104.379 E0.008
G1 X127.11 Y104.083 E0.008
G1 X126.965 Y103.805 E0.008
G1 X126.785 Y103.549 E0.007
G1 X126.57 Y103.319 E0.008
G1 X126.327 Y103.12 E0.008
G1 X126.058 Y102.957 E0.008
G1 X125.77 Y102.832 E0.008
G1 X125.468 Y102.748 E0.008
G1 X125.155 Y102.705 E0.007
G1 X124.804 Y102.71 E0.009
G1 X124.532 Y102.748 E0.007
G1 X124.228 Y102.832 E0.008
G1 X123.907 Y102.978 E0.009
G1 X123.673 Y103.12 E0.007
G1 X123.429 Y103.32 E0.007
G1 X123.193 Y103.581 E0.009
G1 X123.035 Y103.805 E0.007
G1 X122.889 Y104.084 E0.008
G1 X122.777 Y104.418 E0.009
G1 X122.721 Y104.687 E0.007
G1 X122.7 Y105 E0.007
G1 X122.721 Y105.313 E0.008
G1 X122.785 Y105.621 E0.008
G1 X122.89 Y105.917 E0.008
G1 X123.035 Y106.195 E0.008
G1 X123.215 Y106.451 E0.007
G1 X123.43 Y106.681 E0.008
G1 X123.673 Y106.88 E0.008
G1 X123.942 Y107.043 E0.008
G1 X124.23 Y107.168 E0.008
G1 X124.532 Y107.252 E0.008
G1 X124.845 Y107.295 E0.008
G1 X125.196 Y107.29 E0.008
G1 X125.468 Y107.252 E0.007
G1 X125.772 Y107.168 E0.008
G1 X126.093 Y107.022 E0.009
G1 X126.327 Y106.88 E0.007
;rapid-leaky
G0 X126.535 Y107.174 F7200
;bead-perimeter_inner
G1 X126.82 Y106.942 F2400 E0.009
G1 X127.089 Y106.644 E0.01
G1 X127.274 Y106.383 E0.008
G1 X127.443 Y106.057 E0.009
G1 X127.572 Y105.677 E0.01
G1 X127.636 Y105.362 E0.008
G1 X127.661 Y105 E0.009
G1 X127.636 Y104.638 E0.009
G1 X127.563 Y104.282 E0.009
G1 X127.441 Y103.939 E0.009
G1 X127.273 Y103.617 E0.009
G1 X127.065 Y103.321 E0.009
G1 X126.816 Y103.055 E0.009
G1 X126.535 Y102.826 E0.009
G1 X126.224 Y102.637 E0.01
G1 X125.89 Y102.492 E0.009
G1 X125.541 Y102.394 E0.009
G1 X125.177 Y102.344 E0.009
G1 X124.776 Y102.351 E0.01
G1 X124.459 Y102.394 E0.008
G1 X124.105 Y102.493 E0.009
G1 X123.739 Y102.659 E0.01
G1 X123.465 Y102.826 E0.008
G1 X123.18 Y103.058 E0.009
G1 X122.911 Y103.356 E0.01
G1 X122.726 Y103.617 E0.008
G1 X122.557 Y103.943 E0.009
G1 X122.428 Y104.323 E0.01
G1 X122.364 Y104.638 E0.008
G1 X122.339 Y105 E0.009
G1 X122.364 Y105.362 E0.009
G1 X122.437 Y105.718 E0.01
G1 X122.559 Y106.061 E0.009
G1 X122.727 Y106.383 E0.009
G1 X122.935 Y106.679 E0.009
G1 X123.184 Y106.945 E0.009
G1 X123.465 Y107.174 E0.009
G1 X123.776 Y107.363 E0.009
G1 X124.11 Y107.508 E0.009
G1 X124.459 Y107.606 E0.009
G1 X124.823 Y107.656 E0.009
G1 X125.224 Y107.649 E0.01
G1 X125.541 Y107.606 E0.008
G1 X125.895 Y107.507 E0.009
G1 X126.261 Y107.341 E0.01
G1 X126.535 Y107.174 E0.008
G1 F2100 E-0.5
;rapid-dry
G0 X129.938 Y112.444 F7200
G1 F2100 E0.5
;bead-perimeter_outer
G1 X129.535 Y112.697 F1800 E0.012
G1 X129.12 Y112.928 E0.012
G1 X128.692 Y113.136 E0.012
G1 X128.253 Y113.32 E0.012
G1 X127.806 Y113.482 E0.012
G1 X127.35 Y113.619 E0.012
G1 X126.889 Y113.732 E0.011
G1 X126.421 Y113.82 E0.012
G1 X125.95 Y113.883 E0.012
G1 X125.272 Y113.927 E0.017
G1 X124.525 Y113.921 E0.019
G1 X124.05 Y113.883 E0.012
G1 X123.579 Y113.82 E0.011
G1 X123.111 Y113.732 E0.012
G1 X122.65 Y113.619 E0.012
G1 X122.194 Y113.482 E0.012
G1 X121.747 Y113.32 E0.012
G1 X121.309 Y113.136 E0.012
G1 X120.88 Y112.928 E0.012
G1 X120.465 Y112.697 E0.012
G1 X120.062 Y112.444 E0.011
G1 X119.672 Y112.171 E0.012
G1 X119.298 Y111.878 E0.012
G1 X118.94 Y111.564 E0.012
G1 X118.599 Y111.233 E0.012
G1 X118.277 Y110.883 E0.012
G1 X117.973 Y110.516 E0.012
G1 X117.689 Y110.135 E0.011
G1 X117.426 Y109.739 E0.012
G1 X117.185 Y109.329 E0.012
G1 X116.966 Y108.907 E0.012
G1 X116.769 Y108.473 E0.012
G1 X116.595 Y108.031 E0.012
G1 X116.447 Y107.579 E0.012
G1 X116.321 Y107.12 E0.012
G1 X116.221 Y106.655 E0.011
G1 X116.145 Y106.185 E0.012
G1 X116.094 Y105.712 E0.012
G1 X116.069 Y105.238 E0.012
G1 Y104.762 E0.012
G1 X116.094 Y104.288 E0.012
G1 X116.177 Y103.613 E0.017
G1 X116.321 Y102.881 E0.018
G1 X116.447 Y102.421 E0.012
G1 X116.595 Y101.969 E0.012
G1 X116.769 Y101.527 E0.012
G1 X116.966 Y101.093 E0.012
G1 X117.185 Y100.671 E0.012
G1 X117.426 Y100.261 E0.011
G1 X117.689 Y99.865 E0.012
G1 X117.973 Y99.484 E0.012
G1 X118.277 Y99.117 E0.012
G1 X118.599 Y98.767 E0.012
G1 X118.94 Y98.436 E0.012
G1 X119.298 Y98.122 E0.012
G1 X119.672 Y97.829 E0.012
G1 X120.062 Y97.556 E0.011
G1 X120.465 Y97.303 E0.012
G1 X120.88 Y97.072 E0.012
G1 X121.308 Y96.864 E0.012
G1 X121.747 Y96.68 E0.012
G1 X122.194 Y96.518 E0.012
G1 X122.65 Y96.381 E0.012
G1 X123.111 Y96.268 E0.011
G1 X123.579 Y96.18 E0.012
G1 X124.05 Y96.117 E0.012
G1 X124.729 Y96.073 E0.017
G1 X125.475 Y96.079 E0.019
G1 X125.95 Y96.117 E0.012
G1 X126.421 Y96.18 E0.012
G1 X126.889 Y96.268 E0.011
G1 X127.35 Y96.381 E0.012
G1 X127.806 Y96.518 E0.012
G1 X128.253 Y96.68 E0.012
G1 X128.691 Y96.864 E0.012
G1 X129.12 Y97.073 E0.012
G1 X129.535 Y97.303 E0.012
G1 X129.938 Y97.556 E0.011
G1 X130.328 Y97.829 E0.012
G1 X130.702 Y98.122 E0.012
G1 X131.06 Y98.436 E0.012
G1 X131.401 Y98.767 E0.012
G1 X131.723 Y99.117 E0.012
G1 X132.027 Y99.483 E0.012
G1 X132.31 Y99.865 E0.011
G1 X132.574 Y100.261 E0.012
G1 X132.815 Y100.671 E0.012
G1 X133.034 Y101.093 E0.012
G1 X133.231 Y101.527 E0.012
G1 X133.405 Y101.969 E0.012
G1 X133.553 Y102.421 E0.012
G1 X133.679 Y102.881 E0.012
G1 X133.779 Y103.345 E0.011
G1 X133.855 Y103.815 E0.012
G1 X133.906 Y104.288 E0.012
G1 X133.931 Y104.762 E0.012
G1 Y105.238 E0.012
G1 X133.906 Y105.712 E0.012
G1 X133.822 Y106.388 E0.017
G1 X133.679 Y107.12 E0.018
G1 X133.553 Y107.579 E0.012
G1 X133.405 Y108.031 E0.012
G1 X133.231 Y108.473 E0.012
G1 X133.034 Y108.907 E0.012
G1 X132.815 Y109.329 E0.012
G1 X132.574 Y109.739 E0.011
G1 X132.31 Y110.135 E0.012
G1 X132.027 Y110.517 E0.012
G1 X131.723 Y110.883 E0.012
G1 X131.401 Y111.233 E0.012
G1 X131.06 Y111.564 E0.012
G1 X130.702 Y111.878 E0.012
G1 X130.328 Y112.171 E0.012
G1 X129.938 Y112.444 E0.011
;rapid-leaky
G0 X129.739 Y112.144 F7200
;bead-perimeter_inner
G1 X129.352 Y112.387 F2400 E0.012
G1 X128.953 Y112.608 E0.011
G1 X128.543 Y112.808 E0.012
G1 X128.122 Y112.984 E0.011
G1 X127.693 Y113.14 E0.011
G1 X127.256 Y113.272 E0.012
G1 X126.812 Y113.381 E0.011
G1 X126.364 Y113.465 E0.012
G1 X125.912 Y113.525 E0.011
G1 X125.456 Y113.562 E0.011
G1 X125 Y113.574 E0.012
G1 X124.544 Y113.562 E0.011
G1 X124.088 Y113.525 E0.011
G1 X123.636 Y113.465 E0.012
G1 X123.188 Y113.381 E0.011
G1 X122.745 Y113.272 E0.012
G1 X122.307 Y113.14 E0.011
G1 X121.878 Y112.984 E0.011
G1 X121.457 Y112.808 E0.012
G1 X121.047 Y112.608 E0.011
G1 X120.648 Y112.387 E0.012
G1 X120.261 Y112.144 E0.011
G1 X119.887 Y111.882 E0.011
G1 X119.528 Y111.601 E0.012
G1 X119.184 Y111.299 E0.011
G1 X118.857 Y110.982 E0.011
G1 X118.548 Y110.647 E0.012
G1 X118.257 Y110.294 E0.011
G1 X117.983 Y109.927 E0.012
G1 X117.731 Y109.548 E0.011
G1 X117.5 Y109.155 E0.011
G1 X117.29 Y108.75 E0.012
G1 X117.101 Y108.333 E0.011
G1 X116.934 Y107.909 E0.012
G1 X116.792 Y107.476 E0.011
G1 X116.671 Y107.034 E0.011
G1 X116.575 Y106.588 E0.012
G1 X116.502 Y106.138 E0.011
G1 X116.453 Y105.683 E0.012
G1 X116.429 Y105.228 E0.011
G1 Y104.772 E0.011
G1 X116.453 Y104.317 E0.012
G1 X116.533 Y103.67 E0.016
G1 X116.671 Y102.966 E0.018
G1 X116.792 Y102.524 E0.011
G1 X116.934 Y102.091 E0.012
G1 X117.101 Y101.667 E0.011
G1 X117.29 Y101.251 E0.011
G1 X117.5 Y100.845 E0.012
G1 X117.731 Y100.452 E0.011
G1 X117.983 Y100.073 E0.011
G1 X118.257 Y99.706 E0.012
G1 X118.548 Y99.353 E0.011
G1 X118.857 Y99.018 E0.012
G1 X119.184 Y98.701 E0.011
G1 X119.528 Y98.399 E0.011
G1 X119.887 Y98.118 E0.012
G1 X120.261 Y97.856 E0.011
G1 X120.648 Y97.613 E0.012
G1 X121.047 Y97.392 E0.011
G1 X121.457 Y97.192 E0.011
G1 X121.878 Y97.016 E0.012
G1 X122.307 Y96.86 E0.011
G1 X122.744 Y96.728 E0.012
G1 X123.188 Y96.619 E0.011
G1 X123.636 Y96.535 E0.011
G1 X124.088 Y96.475 E0.012
G1 X124.545 Y96.438 E0.011
G1 X125 Y96.426 E0.011
G1 X125.456 Y96.438 E0.012
G1 X125.912 Y96.475 E0.011
G1 X126.364 Y96.535 E0.012
G1 X126.812 Y96.619 E0.011
G1 X127.256 Y96.728 E0.011
G1 X127.693 Y96.86 E0.012
G1 X128.122 Y97.016 E0.011
G1 X128.543 Y97.192 E0.012
G1 X128.953 Y97.392 E0.011
G1 X129.352 Y97.613 E0.011
G1 X129.739 Y97.856 E0.012
G1 X130.113 Y98.118 E0.011
G1 X130.472 Y98.399 E0.012
G1 X130.816 Y98.701 E0.011
G1 X131.143 Y99.018 E0.011
G1 X131.452 Y99.353 E0.012
G1 X131.743 Y99.706 E0.011
G1 X132.016 Y100.073 E0.011
G1 X132.269 Y100.452 E0.012
G1 X132.5 Y100.845 E0.011
G1 X132.71 Y101.25 E0.012
G1 X132.899 Y101.667 E0.011
G1 X133.066 Y102.091 E0.011
G1 X133.209 Y102.524 E0.012
G1 X133.329 Y102.966 E0.011
G1 X133.426 Y103.412 E0.012
G1 X133.498 Y103.862 E0.011
G1 X133.547 Y104.317 E0.011
G1 X133.571 Y104.772 E0.012
G1 Y105.228 E0.011
G1 X133.547 Y105.683 E0.011
G1 X133.467 Y106.33 E0.017
G1 X133.329 Y107.034 E0.018
G1 X133.209 Y107.476 E0.011
G1 X133.066 Y107.909 E0.011
G1 X132.899 Y108.333 E0.012
G1 X132.71 Y108.749 E0.011
G1 X132.5 Y109.155 E0.012
G1 X132.269 Y109.548 E0.011
G1 X132.016 Y109.927 E0.011
G1 X131.743 Y110.294 E0.012
G1 X131.452 Y110.647 E0.011
G1 X131.143 Y110.982 E0.012
G1 X130.816 Y111.299 E0.011
G1 X130.472 Y111.601 E0.011
G1 X130.113 Y111.882 E0.012
G1 X129.739 Y112.144 E0.011
G1 F2100 E-0.5
;rapid-dry
G0 X123.572 Y113.127 F7200
G1 F2100 E0.5
;bead-solid_infill
G1 X121.863 Y111.418 F1800 E0.06
G1 X122.047 Y111.507 E0.005
G1 X122.398 Y111.655 E0.01
G1 X122.756 Y111.785 E0.009
G1 X122.813 Y111.802 E0.002
G1 X124.226 Y113.215 E0.05
G1 X124.561 Y113.242 E0.008
G1 X124.583 Y113.243 E0.001
G1 Y113.242
G1 X124.825 Y113.249 E0.006
G1 X123.573 Y111.997 E0.044
G1 X123.866 Y112.055 E0.007
G1 X124.241 Y112.105 E0.01
G1 X124.248 Y112.106
G1 X125.386 Y113.243 E0.04
G1 X125.438 Y113.242 E0.001
G1 X125.878 Y113.207 E0.011
G1 X125.91 Y113.202 E0.001
G1 X124.85 Y112.142 E0.038
G1 X125 Y112.146 E0.003
G1 X125.28 Y112.139 E0.007
G1 X125.403 Y112.13 E0.003
G1 X126.405 Y113.132 E0.036
G1 X126.744 Y113.068 E0.008
G1 X126.875 Y113.036 E0.004
G1 X125.922 Y112.083 E0.033
G1 X126.137 Y112.054 E0.006
G1 X126.408 Y112.003 E0.007
G1 X127.322 Y112.917 E0.032
G1 X127.592 Y112.836 E0.007
G1 X127.75 Y112.779 E0.004
G1 X126.868 Y111.897 E0.031
G1 X126.881 Y111.894 E0.001
G1 X127.244 Y111.785 E0.009
G1 X127.301 Y111.765 E0.002
G1 X128.158 Y112.622 E0.03
G1 X128.411 Y112.516 E0.007
G1 X128.55 Y112.448 E0.003
G1 X127.711 Y111.609 E0.03
G1 X127.953 Y111.507 E0.007
G1 X128.103 Y111.435 E0.004
G1 X128.925 Y112.258 E0.029
G1 X129.19 Y112.111 E0.007
G1 X129.285 Y112.051 E0.003
G1 X128.475 Y111.242 E0.029
G1 X128.628 Y111.157 E0.004
G1 X128.83 Y111.031 E0.006
G1 X129.629 Y111.83 E0.028
G1 X129.923 Y111.625 E0.009
G1 X129.96 Y111.595 E0.001
G1 X129.167 Y110.802 E0.028
G1 X129.261 Y110.736 E0.003
G1 X129.488 Y110.558 E0.007
G1 X130.277 Y111.347 E0.028
G1 X130.578 Y111.082 E0.01
G1 X129.794 Y110.298 E0.028
G1 X129.847 Y110.251 E0.002
G1 X130.083 Y110.021 E0.008
G1 X130.866 Y110.805 E0.027
G1 X130.913 Y110.759 E0.002
G1 X131.011 Y110.653 E0.004
G1 X131.14 Y110.513 E0.004
G1 X130.356 Y109.729 E0.028
G1 X130.377 Y109.706 E0.001
G1 X130.614 Y109.421 E0.009
G1 X131.4 Y110.207 E0.028
G1 X131.491 Y110.097 E0.003
G1 X131.647 Y109.888 E0.007
G1 X130.855 Y109.096 E0.028
G1 X131.058 Y108.791 E0.009
G1 X131.079 Y108.755 E0.001
G1 X131.88 Y109.555 E0.028
G1 X131.998 Y109.378 E0.006
G1 X132.098 Y109.208 E0.005
G1 X131.286 Y108.395 E0.028
G1 X131.426 Y108.124 E0.008
G1 X131.475 Y108.019 E0.003
G1 X132.3 Y108.844 E0.029
G1 X132.422 Y108.609 E0.006
G1 X132.487 Y108.466 E0.004
G1 X131.645 Y107.623 E0.03
G1 X131.686 Y107.518 E0.003
G1 X131.793 Y107.205 E0.008
G1 X132.658 Y108.071 E0.031
G1 X132.765 Y107.8 E0.007
G1 X132.811 Y107.659 E0.004
G1 X131.922 Y106.769 E0.031
G1 X131.942 Y106.695 E0.002
G1 X132.022 Y106.325 E0.009
G1 X132.025 Y106.307 E0.001
G1 X132.945 Y107.226 E0.032
G1 X133.017 Y106.961 E0.007
G1 X133.055 Y106.77 E0.005
G1 X132.098 Y105.813 E0.034
G1 X132.124 Y105.571 E0.006
G1 X132.138 Y105.288 E0.007
G1 X133.147 Y106.297 E0.036
G1 X133.151 Y106.28
G1 X133.21 Y105.795 E0.012
G1 X132.139 Y104.723 E0.038
G1 X132.124 Y104.429 E0.007
G1 X132.089 Y104.108 E0.008
G1 X133.248 Y105.267 E0.041
G1 X133.251 Y105.219 E0.001
G1 Y104.781 E0.011
G1 X133.247 Y104.7 E0.002
G1 X131.967 Y103.42 E0.046
G1 X131.963 Y103.403
G1 X131.84 Y102.934 E0.012
G1 X131.739 Y102.626 E0.008
G1 X133.2 Y104.087 E0.052
G1 X133.18 Y103.905 E0.004
G1 X133.111 Y103.471 E0.011
G1 X133.1 Y103.422 E0.002
G1 X131.288 Y101.61 E0.063
G1 X131.251 Y101.537 E0.003
G1 X131.058 Y101.209 E0.009
G1 X130.848 Y100.893 E0.009
G1 X130.621 Y100.588 E0.01
G1 X130.441 Y100.371 E0.007
G1 X130.118 Y100.013 E0.012
G1 X129.847 Y99.749 E0.009
G1 X129.561 Y99.499 E0.01
G1 X129.261 Y99.264 E0.009
G1 X128.95 Y99.045 E0.01
G1 X128.628 Y98.843 E0.009
G1 X128.389 Y98.71 E0.007
G1 X126.58 Y96.901 E0.064
G1 X126.314 Y96.851 E0.007
G1 X125.91 Y96.798 E0.01
G1 X127.375 Y98.262 E0.052
G1 X127.245 Y98.215 E0.003
G1 X126.881 Y98.106 E0.01
G1 X126.58 Y98.033 E0.007
G1 X125.301 Y96.754 E0.045
G1 X125 Y96.746 E0.008
G1 X124.735 Y96.753 E0.007
G1 X125.894 Y97.913 E0.04
G1 X125.759 Y97.895 E0.004
G1 X125.38 Y97.864 E0.009
G1 X125.277 Y97.862 E0.003
G1 X124.203 Y96.787 E0.038
G1 X124.122 Y96.793 E0.002
G1 X123.699 Y96.849 E0.01
G1 X124.712 Y97.862 E0.036
G1 X124.62 Y97.864 E0.002
G1 X124.241 Y97.895 E0.01
G1 X124.186 Y97.902 E0.001
G1 X123.224 Y96.94 E0.034
G1 X123.148 Y96.959 E0.002
G1 X122.829 Y97.037 E0.008
G1 X122.773 Y97.054 E0.002
G1 X123.696 Y97.977 E0.032
G1 X123.49 Y98.016 E0.006
G1 X123.232 Y98.079 E0.006
G1 X122.341 Y97.188 E0.032
G1 X121.995 Y97.314 E0.009
G1 X121.929 Y97.341 E0.002
G1 X122.791 Y98.204 E0.03
G1 X122.755 Y98.215 E0.001
G1 X122.398 Y98.345 E0.01
G1 X122.376 Y98.354
G1 X121.533 Y97.511 E0.03
G1 X121.194 Y97.676 E0.009
G1 X121.154 Y97.698 E0.001
G1 X121.981 Y98.525 E0.03
G1 X121.705 Y98.659 E0.007
G1 X121.604 Y98.714 E0.003
G1 X120.791 Y97.901 E0.029
G1 X120.443 Y98.119 E0.01
G1 X121.246 Y98.922 E0.028
G1 X121.05 Y99.045 E0.006
G1 X120.905 Y99.147 E0.005
G1 X120.111 Y98.352 E0.028
G1 X120.077 Y98.375 E0.001
G1 X119.792 Y98.599 E0.009
G1 X120.581 Y99.388 E0.027
G1 X120.439 Y99.499 E0.005
G1 X120.272 Y99.645 E0.005
G1 X119.487 Y98.86 E0.028
G1 X119.401 Y98.936 E0.003
G1 X119.196 Y99.135 E0.007
G1 X119.98 Y99.918 E0.028
G1 X119.88 Y100.015 E0.003
G1 X119.703 Y100.207 E0.007
G1 X118.919 Y99.423 E0.027
G1 X118.789 Y99.564 E0.005
G1 X118.656 Y99.725 E0.005
G1 X119.442 Y100.512 E0.028
G1 X119.379 Y100.588 E0.003
G1 X119.197 Y100.832 E0.007
G1 X118.406 Y100.041 E0.028
G1 X118.245 Y100.257 E0.007
G1 X118.169 Y100.37 E0.003
G1 X118.968 Y101.169 E0.028
G1 X118.942 Y101.209 E0.002
G1 X118.757 Y101.524 E0.009
G1 X117.948 Y100.715 E0.028
G1 X117.781 Y101 E0.009
G1 X117.742 Y101.074 E0.002
G1 X118.564 Y101.897 E0.029
G1 X118.416 Y102.222 E0.009
G1 X118.39 Y102.288 E0.001
G1 X117.551 Y101.449 E0.03
G1 X117.396 Y101.792 E0.009
G1 X117.377 Y101.84 E0.002
G1 X118.237 Y102.7 E0.03
G1 X118.159 Y102.937 E0.006
G1 X118.105 Y103.134 E0.005
G1 X117.219 Y102.249 E0.032
G1 X117.098 Y102.616 E0.009
G1 X117.082 Y102.677 E0.002
G1 X117.996 Y103.591 E0.032
G1 X117.978 Y103.676 E0.002
G1 X117.932 Y103.953 E0.007
G1 X117.918 Y104.078 E0.003
G1 X116.966 Y103.127 E0.034
G1 X116.873 Y103.599 E0.012
G1 X117.868 Y104.594 E0.035
G1 X117.857 Y104.809 E0.005
G1 Y105.149 E0.009
G1 X116.803 Y104.095 E0.037
G1 X116.772 Y104.345 E0.006
G1 X116.758 Y104.616 E0.007
G1 X117.896 Y105.754 E0.04
G1 X117.917 Y105.948 E0.005
G1 X117.978 Y106.325 E0.01
G1 X117.999 Y106.423 E0.002
G1 X116.749 Y105.173 E0.044
G1 Y105.219 E0.001
G1 X116.772 Y105.657 E0.011
G1 X116.785 Y105.774 E0.003
G1 X118.2 Y107.19 E0.05
G1 X118.278 Y107.425 E0.006
G1 X118.416 Y107.778 E0.01
G1 X118.574 Y108.124 E0.009
G1 X118.578 Y108.133 E0.001
G1 X116.873 Y106.428 E0.06
G1 X116.889 Y106.529 E0.002
G1 X116.982 Y106.958 E0.011
G1 X117.036 Y107.157 E0.005
G1 X122.847 Y112.967 E0.205
G1 X122.829 Y112.963 E0.001
G1 X122.408 Y112.836 E0.011
G1 X122.003 Y112.689 E0.011
G1 X117.314 Y108 E0.165
G1 X117.396 Y108.208 E0.006
G1 X117.492 Y108.421 E0.005
G1 X117.578 Y108.61 E0.006
G1 X117.729 Y108.9 E0.008
G1 X117.78 Y109 E0.002
G1 X117.826 Y109.078 E0.003
G1 X120.919 Y112.171 E0.109
G1 F2100 E-0.5
;rapid-dry
G0 X119.906 Y100.579 F7200
G1 F2100 E0.5
;bead-sparse_infill
G1 X120.449 Y101.409 F3600 E0.025
G1 X120.679 Y102.477 E0.027
G1 X120.174 Y103.545 E0.029
G1 X118.794 Y104.613 E0.044
G1 X118.269 Y105.416 E0.024
G1 X118.275 Y105.539 E0.003
G1 X118.313 Y105.895 E0.009
G1 X118.371 Y106.25 E0.009
G1 X118.447 Y106.6 E0.009
G1 X118.542 Y106.947 E0.009
G1 X118.654 Y107.29 E0.009
G1 X118.784 Y107.622 E0.009
G1 X118.933 Y107.949 E0.009
G1 X119.1 Y108.269 E0.009
G1 X119.221 Y108.475 E0.005
G1 X119.751 Y108.886 E0.017
G1 X120.449 Y109.954 E0.032
G1 X120.456 Y109.984 E0.001
G1 X120.694 Y110.193 E0.008
G1 X120.978 Y110.415 E0.009
G1 X121.272 Y110.622 E0.009
G1 X121.575 Y110.812 E0.009
G1 X121.889 Y110.986 E0.009
G1 X122.212 Y111.143 E0.009
G1 X122.544 Y111.283 E0.009
G1 X122.881 Y111.405 E0.008
G1 X123.225 Y111.508 E0.009
G1 X123.355 Y111.54 E0.004
G1 X124.023 Y111.022 E0.021
G1 X124.722 Y109.954 E0.032
G1 X124.952 Y108.886 E0.027
G1 X124.501 Y107.934 E0.026
G1 X124.804 Y107.976 E0.008
G1 X125.248 Y107.969 E0.011
G1 X125.606 Y107.92 E0.009
G1 X126.004 Y107.808 E0.01
G1 X126.411 Y107.625 E0.011
G1 X126.72 Y107.436 E0.009
G1 X126.732 Y107.427 E0.001
G1 X126.917 Y107.818 E0.011
G1 X128.296 Y108.886 E0.043
G1 X128.994 Y109.954 E0.032
G1 X129.083 Y110.367 E0.01
G1 X129.306 Y110.193 E0.007
G1 X129.576 Y109.957 E0.009
G1 X129.833 Y109.706 E0.009
G1 X130.076 Y109.443 E0.009
G1 X130.306 Y109.165 E0.009
G1 X130.521 Y108.877 E0.009
G1 X130.719 Y108.579 E0.009
G1 X130.9 Y108.269 E0.009
G1 X131.067 Y107.949 E0.009
G1 X131.216 Y107.622 E0.009
G1 X131.311 Y107.38 E0.007
G1 X131.459 Y106.943 E0.011
G1 X131.542 Y106.642 E0.008
G1 X130.913 Y105.681 E0.029
G1 X130.684 Y104.613 E0.027
G1 X131.189 Y103.545 E0.029
G1 X131.52 Y103.289 E0.011
G1 X131.457 Y103.048 E0.006
G1 X131.346 Y102.71 E0.009
G1 X131.216 Y102.378 E0.009
G1 X131.067 Y102.051 E0.009
G1 X130.9 Y101.731 E0.009
G1 X130.719 Y101.421 E0.009
G1 X130.521 Y101.123 E0.009
G1 X130.306 Y100.835 E0.009
G1 X130.139 Y100.632 E0.006
G1 X129.829 Y100.29 E0.012
G1 X129.576 Y100.043 E0.008
G1 X129.306 Y99.807 E0.009
G1 X129.022 Y99.585 E0.009
G1 X128.728 Y99.378 E0.009
G1 X128.425 Y99.188 E0.009
G1 X128.111 Y99.014 E0.009
G1 X127.788 Y98.857 E0.009
G1 X127.456 Y98.717 E0.009
G1 X127.119 Y98.595 E0.009
G1 X126.776 Y98.492 E0.009
G1 X126.518 Y98.429 E0.007
G1 X126.917 Y99.273 E0.023
G1 X128.296 Y100.341 E0.043
G1 X128.994 Y101.409 E0.032
G1 X129.224 Y102.477 E0.028
G1 X128.719 Y103.545 E0.029
G1 X127.873 Y104.2 E0.027
G1 X127.871 Y104.196
G1 X127.735 Y103.811 E0.01
G1 X127.547 Y103.45 E0.01
G1 X127.313 Y103.119 E0.01
G1 X127.035 Y102.821 E0.01
G1 X126.72 Y102.564 E0.011
G1 X126.372 Y102.352 E0.01
G1 X125.998 Y102.19 E0.01
G1 X125.606 Y102.08 E0.01
G1 X125.196 Y102.024 E0.01
G1 X124.752 Y102.031 E0.011
G1 X124.394 Y102.08 E0.009
G1 X124.258 Y102.118 E0.004
G1 X124.722 Y101.409 E0.021
G1 X124.952 Y100.341 E0.027
G1 X124.446 Y99.273 E0.03
G1 X123.387 Y98.453 E0.033
G1 F2100 E-0.5
;rapid-dry
G0 X129.39 Y98.015 F7200
G1 F2100 E0.5
;bead-solid_infill
G1 X131.998 Y100.623 F1800 E0.092
G1 X132.109 Y100.811 E0.006
G1 X132.22 Y101 E0.005
G1 X132.283 Y101.121 E0.004
G1 X132.422 Y101.39 E0.007
G1 X132.592 Y101.766 E0.01
G1 X132.604 Y101.792 E0.001
G1 X132.606 Y101.796
G1 X128.209 Y97.399 E0.155
G1 X128.005 Y97.314 E0.006
G1 X127.592 Y97.164 E0.011
G1 X127.329 Y97.085 E0.007
G1 X132.917 Y102.673 E0.197
G1 F2100 E-0.5
;LAYER:5
;rapid-dry
G0 X122.772 Y104.439 Z0.8 F7200
G1 F2100 E0.5
;bead-perimeter_outer
G1 X122.721 Y104.687 F1708 E0.006
G1 X122.7 Y105 E0.008
G1 X122.721 Y105.313 E0.008
G1 X122.785 Y105.621 E0.008
G1 X122.89 Y105.917 E0.008
G1 X123.035 Y106.195 E0.007
G1 X123.215 Y106.451 E0.008
G1 X123.43 Y106.681 E0.008
G1 X123.673 Y106.88 E0.008
G1 X123.942 Y107.043 E0.008
G1 X124.289 Y107.185 E0.009
G1 X124.532 Y107.252 E0.006
G1 X124.843 Y107.295 E0.008
G1 X125.216 Y107.287 E0.009
G1 X125.468 Y107.252 E0.007
G1 X125.77 Y107.168 E0.008
G1 X126.058 Y107.043 E0.007
G1 X126.327 Y106.88 E0.008
G1 X126.57 Y106.681 E0.008
G1 X126.785 Y106.451 E0.008
G1 X126.965 Y106.195 E0.008
G1 X127.11 Y105.917 E0.008
G1 X127.228 Y105.561 E0.009
G1 X127.279 Y105.313 E0.006
G1 X127.3 Y105 E0.008
G1 X127.279 Y104.687 E0.008
G1 X127.215 Y104.379 E0.008
G1 X127.11 Y104.083 E0.008
G1 X126.965 Y103.805 E0.007
G1 X126.785 Y103.549 E0.008
G1 X126.57 Y103.319 E0.008
G1 X126.327 Y103.12 E0.008
G1 X126.058 Y102.957 E0.008
G1 X125.711 Y102.815 E0.009
G1 X125.468 Y102.748 E0.006
G1 X125.157 Y102.705 E0.008
G1 X124.784 Y102.713 E0.01
G1 X124.532 Y102.748 E0.006
G1 X124.23 Y102.832 E0.008
G1 X123.942 Y102.957 E0.008
G1 X123.673 Y103.12 E0.007
G1 X123.43 Y103.319 E0.008
G1 X123.215 Y103.549 E0.008
G1 X123.035 Y103.805 E0.008
G1 X122.89 Y104.083 E0.008
G1 X122.772 Y104.439 E0.009
;rapid-leaky
G0 X122.42 Y104.365 F7200
;bead-perimeter_inner
G1 X122.364 Y104.638 F2277 E0.007
G1 X122.339 Y105 E0.009
G1 X122.364 Y105.362 E0.009
G1 X122.437 Y105.718 E0.009
G1 X122.559 Y106.061 E0.009
G1 X122.727 Y106.383 E0.009
G1 X122.935 Y106.679 E0.009
G1 X123.184 Y106.945 E0.009
G1 X123.465 Y107.174 E0.01
G1 X123.776 Y107.363 E0.009
G1 X124.192 Y107.531 E0.011
G1 X124.459 Y107.606 E0.007
G1 X124.819 Y107.655 E0.009
G1 X125.264 Y107.644 E0.011
G1 X125.541 Y107.605 E0.007
G1 X125.89 Y107.508 E0.009
G1 X126.224 Y107.363 E0.009
G1 X126.535 Y107.174 E0.009
G1 X126.816 Y106.945 E0.009
G1 X127.065 Y106.679 E0.009
G1 X127.273 Y106.383 E0.009
G1 X127.441 Y106.061 E0.009
G1 X127.58 Y105.635 E0.011
G1 X127.636 Y105.362 E0.007
G1 X127.661 Y105 E0.009
G1 X127.636 Y104.638 E0.01
G1 X127.563 Y104.282 E0.009
G1 X127.441 Y103.939 E0.009
G1 X127.273 Y103.617 E0.009
G1 X127.065 Y103.321 E0.009
G1 X126.816 Y103.055 E0.009
G1 X126.535 Y102.826 E0.009
G1 X126.224 Y102.637 E0.009
G1 X125.808 Y102.469 E0.011
G1 X125.541 Y102.394 E0.007
G1 X125.181 Y102.345 E0.009
G1 X124.736 Y102.356 E0.011
G1 X124.459 Y102.395 E0.007
G1 X124.11 Y102.492 E0.009
G1 X123.776 Y102.637 E0.009
G1 X123.465 Y102.826 E0.009
G1 X123.184 Y103.055 E0.009
G1 X122.935 Y103.321 E0.01
G1 X122.727 Y103.617 E0.009
G1 X122.559 Y103.939 E0.009
G1 X122.42 Y104.365 E0.011
G1 F2100 E-0.5
;rapid-dry
G0 X116.821 Y103.003 F7200
G1 F2100 E0.5
;bead-perimeter_outer
G1 X116.94 Y102.57 F1708 E0.011
G1 X117.081 Y102.144 E0.011
G1 X117.243 Y101.727 E0.011
G1 X117.429 Y101.319 E0.012
G1 X117.636 Y100.921 E0.011
G1 X117.864 Y100.534 E0.011
G1 X118.111 Y100.161 E0.011
G1 X118.378 Y99.802 E0.011
G1 X118.665 Y99.456 E0.011
G1 X118.968 Y99.127 E0.012
G1 X119.29 Y98.814 E0.011
G1 X119.627 Y98.519 E0.011
G1 X119.979 Y98.243 E0.011
G1 X120.347 Y97.985 E0.011
G1 X120.726 Y97.747 E0.012
G1 X121.118 Y97.53 E0.011
G1 X121.522 Y97.333 E0.011
G1 X121.935 Y97.159 E0.011
G1 X122.785 Y96.878 E0.022
G1 X123.22 Y96.772 E0.012
G1 X123.661 Y96.689 E0.011
G1 X124.105 Y96.629 E0.011
G1 X124.553 Y96.593 E0.011
G1 X125 Y96.581 E0.011
G1 X125.447 Y96.593 E0.011
G1 X125.895 Y96.629 E0.012
G1 X126.339 Y96.689 E0.011
G1 X126.78 Y96.772 E0.011
G1 X127.645 Y97.007 E0.022
G1 X128.065 Y97.159 E0.012
G1 X128.478 Y97.333 E0.011
G1 X128.882 Y97.53 E0.011
G1 X129.274 Y97.747 E0.011
G1 X129.653 Y97.985 E0.011
G1 X130.021 Y98.243 E0.012
G1 X130.373 Y98.519 E0.011
G1 X130.71 Y98.814 E0.011
G1 X131.032 Y99.127 E0.011
G1 X131.622 Y99.802 E0.022
G1 X131.888 Y100.161 E0.012
G1 X132.136 Y100.534 E0.011
G1 X132.364 Y100.921 E0.011
G1 X132.571 Y101.319 E0.011
G1 X132.757 Y101.727 E0.011
G1 X132.919 Y102.144 E0.011
G1 X133.061 Y102.57 E0.012
G1 X133.179 Y103.003 E0.011
G1 X133.273 Y103.44 E0.011
G1 X133.344 Y103.882 E0.011
G1 X133.392 Y104.329 E0.011
G1 X133.416 Y104.776 E0.012
G1 Y105.224 E0.011
G1 X133.392 Y105.671 E0.011
G1 X133.344 Y106.118 E0.011
G1 X133.273 Y106.56 E0.011
G1 X133.179 Y106.997 E0.011
G1 X133.061 Y107.43 E0.012
G1 X132.919 Y107.856 E0.011
G1 X132.757 Y108.273 E0.011
G1 X132.571 Y108.681 E0.011
G1 X132.364 Y109.079 E0.011
G1 X132.136 Y109.466 E0.012
G1 X131.888 Y109.839 E0.011
G1 X131.335 Y110.545 E0.022
G1 X131.032 Y110.873 E0.011
G1 X130.71 Y111.186 E0.011
G1 X130.373 Y111.481 E0.012
G1 X130.021 Y111.757 E0.011
G1 X129.653 Y112.015 E0.011
G1 X129.274 Y112.253 E0.011
G1 X128.882 Y112.471 E0.011
G1 X128.478 Y112.667 E0.012
G1 X128.065 Y112.841 E0.011
G1 X127.215 Y113.122 E0.022
G1 X126.78 Y113.228 E0.011
G1 X126.339 Y113.311 E0.011
G1 X125.895 Y113.371 E0.012
G1 X125.447 Y113.407 E0.011
G1 X125 Y113.419 E0.011
G1 X124.553 Y113.407 E0.011
G1 X124.105 Y113.371 E0.011
G1 X123.661 Y113.311 E0.012
G1 X123.22 Y113.228 E0.011
G1 X122.355 Y112.993 E0.022
G1 X121.935 Y112.841 E0.011
G1 X121.522 Y112.667 E0.011
G1 X121.118 Y112.471 E0.012
G1 X120.726 Y112.253 E0.011
G1 X120.347 Y112.015 E0.011
G1 X119.979 Y111.757 E0.011
G1 X119.627 Y111.481 E0.011
G1 X119.29 Y111.186 E0.011
G1 X118.968 Y110.873 E0.012
G1 X118.378 Y110.198 E0.022
G1 X118.111 Y109.839 E0.011
G1 X117.864 Y109.466 E0.011
G1 X117.636 Y109.079 E0.012
G1 X117.429 Y108.681 E0.011
G1 X117.243 Y108.273 E0.011
G1 X117.081 Y107.856 E0.011
G1 X116.939 Y107.43 E0.011
G1 X116.821 Y106.997 E0.011
G1 X116.727 Y106.56 E0.012
G1 X116.656 Y106.118 E0.011
G1 X116.608 Y105.671 E0.011
G1 X116.584 Y105.224 E0.011
G1 Y104.776 E0.011
G1 X116.608 Y104.329 E0.012
G1 X116.656 Y103.882 E0.011
G1 X116.727 Y103.44 E0.011
G1 X116.821 Y103.003 E0.011
;rapid-leaky
G0 X117.171 Y103.088 F7200
;bead-perimeter_inner
G1 X117.284 Y102.674 F2277 E0.011
G1 X117.42 Y102.266 E0.011
G1 X117.575 Y101.866 E0.01
G1 X117.753 Y101.476 E0.011
G1 X117.951 Y101.096 E0.011
G1 X118.169 Y100.725 E0.01
G1 X118.405 Y100.368 E0.011
G1 X118.662 Y100.024 E0.011
G1 X118.936 Y99.693 E0.01
G1 X119.226 Y99.378 E0.011
G1 X119.534 Y99.079 E0.011
G1 X119.856 Y98.796 E0.011
G1 X120.194 Y98.532 E0.01
G1 X120.546 Y98.285 E0.011
G1 X120.909 Y98.058 E0.011
G1 X121.285 Y97.849 E0.01
G1 X121.67 Y97.661 E0.011
G1 X122.066 Y97.495 E0.011
G1 X122.882 Y97.225 E0.021
G1 X123.296 Y97.124 E0.011
G1 X123.718 Y97.044 E0.011
G1 X124.144 Y96.987 E0.01
G1 X124.572 Y96.952 E0.011
G1 X125 Y96.941 E0.011
G1 X125.428 Y96.952 E0.01
G1 X125.856 Y96.987 E0.011
G1 X126.282 Y97.044 E0.011
G1 X126.704 Y97.124 E0.01
G1 X127.533 Y97.35 E0.022
G1 X127.934 Y97.495 E0.011
G1 X128.33 Y97.661 E0.01
G1 X128.715 Y97.849 E0.011
G1 X129.091 Y98.058 E0.011
G1 X129.454 Y98.285 E0.01
G1 X129.806 Y98.532 E0.011
G1 X130.144 Y98.796 E0.011
G1 X130.466 Y99.079 E0.01
G1 X130.774 Y99.378 E0.011
G1 X131.34 Y100.026 E0.022
G1 X131.594 Y100.368 E0.01
G1 X131.831 Y100.725 E0.011
G1 X132.049 Y101.096 E0.011
G1 X132.247 Y101.476 E0.01
G1 X132.425 Y101.867 E0.011
G1 X132.58 Y102.266 E0.011
G1 X132.716 Y102.674 E0.011
G1 X132.829 Y103.088 E0.01
G1 X132.919 Y103.506 E0.011
G1 X132.987 Y103.93 E0.011
G1 X133.033 Y104.358 E0.01
G1 X133.056 Y104.786 E0.011
G1 Y105.214 E0.011
G1 X133.033 Y105.642 E0.01
G1 X132.987 Y106.07 E0.011
G1 X132.919 Y106.494 E0.011
G1 X132.829 Y106.912 E0.011
G1 X132.716 Y107.326 E0.01
G1 X132.58 Y107.734 E0.011
G1 X132.425 Y108.134 E0.011
G1 X132.247 Y108.524 E0.01
G1 X132.049 Y108.904 E0.011
G1 X131.831 Y109.275 E0.011
G1 X131.593 Y109.632 E0.01
G1 X131.063 Y110.309 E0.022
G1 X130.774 Y110.622 E0.011
G1 X130.466 Y110.921 E0.01
G1 X130.144 Y111.204 E0.011
G1 X129.806 Y111.468 E0.011
G1 X129.454 Y111.715 E0.01
G1 X129.091 Y111.943 E0.011
G1 X128.715 Y112.151 E0.011
G1 X128.33 Y112.339 E0.01
G1 X127.934 Y112.505 E0.011
G1 X127.118 Y112.775 E0.022
G1 X126.704 Y112.876 E0.01
G1 X126.282 Y112.956 E0.011
G1 X125.856 Y113.013 E0.011
G1 X125.428 Y113.048 E0.01
G1 X125 Y113.059 E0.011
G1 X124.572 Y113.048 E0.011
G1 X124.144 Y113.013 E0.01
G1 X123.718 Y112.956 E0.011
G1 X123.296 Y112.876 E0.011
G1 X122.467 Y112.65 E0.021
G1 X122.066 Y112.505 E0.011
G1 X121.67 Y112.339 E0.011
G1 X121.285 Y112.151 E0.01
G1 X120.909 Y111.943 E0.011
G1 X120.546 Y111.715 E0.011
G1 X120.194 Y111.468 E0.011
G1 X119.856 Y111.204 E0.01
G1 X119.534 Y110.921 E0.011
G1 X119.002 Y110.379 E0.019
G1 X118.66 Y109.974 E0.013
G1 X118.405 Y109.632 E0.011
G1 X118.169 Y109.275 E0.01
G1 X117.951 Y108.904 E0.011
G1 X117.753 Y108.524 E0.011
G1 X117.575 Y108.134 E0.011
G1 X117.42 Y107.734 E0.01
G1 X117.284 Y107.326 E0.011
G1 X117.171 Y106.912 E0.011
G1 X117.081 Y106.494 E0.01
G1 X117.013 Y106.07 E0.011
G1 X116.967 Y105.642 E0.011
G1 X116.944 Y105.214 E0.01
G1 Y104.786 E0.011
G1 X116.967 Y104.358 E0.011
G1 X117.013 Y103.93 E0.011
G1 X117.081 Y103.506 E0.01
G1 X117.171 Y103.088 E0.011
G1 F2100 E-0.5
;rapid-dry
G0 X118.466 Y105.125 F7200
G1 F2100 E0.5
;bead-sparse_infill
G1 X118.853 Y104.613 F3416 E0.016
G1 X120.487 Y103.545 E0.049
G1 X120.841 Y102.477 E0.028
G1 X120.5 Y101.409 E0.028
G1 X120.017 Y100.771 E0.02
G1 X120.08 Y100.695 E0.002
G1 X120.315 Y100.441 E0.009
G1 X120.567 Y100.197 E0.008
G1 X120.828 Y99.968 E0.009
G1 X121.102 Y99.753 E0.009
G1 X121.357 Y99.574 E0.008
G1 X121.684 Y99.366 E0.009
G1 X121.986 Y99.199 E0.009
G1 X122.298 Y99.047 E0.009
G1 X122.62 Y98.912 E0.008
G1 X122.948 Y98.794 E0.009
G1 X123.28 Y98.693 E0.009
G1 X123.617 Y98.611 E0.008
G1 X123.719 Y98.592 E0.003
G1 X124.76 Y99.273 E0.031
G1 X125.114 Y100.341 E0.028
G1 X124.773 Y101.409 E0.028
G1 X124.23 Y102.126 E0.022
G1 X124.002 Y102.19 E0.006
G1 X123.628 Y102.352 E0.01
G1 X123.28 Y102.564 E0.011
G1 X122.965 Y102.821 E0.01
G1 X122.687 Y103.119 E0.01
G1 X122.453 Y103.45 E0.01
G1 X122.441 Y103.473 E0.001
G1 X122.331 Y103.545 E0.003
G1 X121.977 Y104.613 E0.028
G1 X122.033 Y104.789 E0.005
G1 X122.018 Y105 E0.005
G1 X122.046 Y105.406 E0.01
G1 X122.128 Y105.804 E0.01
G1 X122.265 Y106.189 E0.01
G1 X122.453 Y106.55 E0.01
G1 X122.687 Y106.881 E0.011
G1 X122.965 Y107.179 E0.01
G1 X123.28 Y107.436 E0.01
G1 X123.632 Y107.65 E0.01
G1 X124.089 Y107.835 E0.013
G1 X124.394 Y107.92 E0.007
G1 X124.801 Y107.976 E0.011
G1 X124.812 Y107.975
G1 X125.114 Y108.886 E0.024
G1 X124.773 Y109.954 E0.028
G1 X123.964 Y111.022 E0.033
G1 X123.461 Y111.351 E0.015
G1 X123.617 Y111.389 E0.004
G1 X123.96 Y111.453 E0.009
G1 X124.305 Y111.5 E0.009
G1 X124.651 Y111.527 E0.008
G1 X125 Y111.537 E0.009
G1 X125.349 Y111.527 E0.009
G1 X125.695 Y111.5 E0.008
G1 X126.04 Y111.453 E0.009
G1 X126.383 Y111.389 E0.009
G1 X126.72 Y111.307 E0.008
G1 X127.053 Y111.206 E0.009
