;suport muschi 3
;Printer name: Prusa i3 MK3
;TIME:1697
;Print time: 28m:17s
;Extruder 1 material used: 1247mm
;Extruder 1 material name: 
;Extruder 1 filament diameter: 1.75mm
;Extruder 1 nozzle diameter: 0.4mm
;Extruder 1 offset x: 0mm
;Extruder 1 offset y: 0mm
;Extruder 1 offset z: 0mm
;Extruder 1 max temp: 200
;Bed temp: 70
;Layer count: 100
;Width: 250mm
;Depth: 210mm
;Height: 210mm
;Center x: 125mm
;Center y: 105mm
;Center z: 0mm
;Count of bodies: 1
;Fusion version: 2.0.19440
G21
M115 U3.0.10 ;tell printer latest fw version
G28 W ;home all without mesh bed level
;--------------------------------
;Selected Profile: PLA Direct Drive
;--------------------------------
;Selected Printer: Prusa, i3 MK3
;--------------------------------
T0
M140 S70
M104 S200 T0
M190 S70
M109 S200 T0
G80 ;mesh bed leveling
G92 E0
G90
M83
G0 X10 Y10 Z10 F7200
G92 E0
;--------------------------------
;Part 1
;LAYER_COUNT:100
;LAYER:1
M107
;rapid-leaky
G0 X20 Y20.5 Z0.2 F7200
;bead-prime
G1 X120 F720 E8.315
G1 F2100 E-0.5
;rapid-dry
G0 X124.133 Y85.476 F7200
G1 F2100 E0.5
;bead-skirt/brim
G1 X125 Y85.448 F960 E0.029
G1 X125.875 Y85.476 E0.029
G1 X126.782 Y85.565 E0.03
G1 X127.586 Y85.692 E0.027
G1 X128.432 Y85.881 E0.029
G1 X129.265 Y86.123 E0.029
G1 X130.082 Y86.418 E0.029
G1 X130.877 Y86.762 E0.029
G1 X131.65 Y87.156 E0.029
G1 X132.396 Y87.597 E0.028
G1 X133.112 Y88.084 E0.029
G1 X133.797 Y88.616 E0.029
G1 X134.447 Y89.188 E0.029
G1 X135.067 Y89.808 E0.029
G1 X135.669 Y90.496 E0.03
G1 X136.166 Y91.138 E0.027
G1 X136.653 Y91.854 E0.029
G1 X137.094 Y92.6 E0.029
G1 X137.488 Y93.373 E0.029
G1 X137.832 Y94.168 E0.029
G1 X138.127 Y94.985 E0.029
G1 X138.369 Y95.818 E0.029
G1 X138.558 Y96.665 E0.028
G1 X138.693 Y97.522 E0.029
G1 X138.774 Y98.383 E0.029
G1 X138.8 Y99.19 E0.027
G1 Y124.55 E0.843
G1 X111.2 E0.918
G1 Y99.189 E0.844
G1 X111.226 Y98.375 E0.027
G1 X111.315 Y97.468 E0.03
G1 X111.442 Y96.664 E0.027
G1 X111.631 Y95.818 E0.029
G1 X111.873 Y94.985 E0.029
G1 X112.168 Y94.168 E0.029
G1 X112.512 Y93.373 E0.029
G1 X112.906 Y92.6 E0.029
G1 X113.347 Y91.854 E0.028
G1 X113.834 Y91.138 E0.029
G1 X114.366 Y90.453 E0.029
G1 X114.943 Y89.797 E0.029
G1 X115.594 Y89.152 E0.031
G1 X116.203 Y88.615 E0.027
G1 X116.888 Y88.084 E0.028
G1 X117.604 Y87.597 E0.029
G1 X118.356 Y87.152 E0.029
G1 X119.174 Y86.74 E0.031
G1 X119.919 Y86.417 E0.027
G1 X120.735 Y86.123 E0.029
G1 X121.568 Y85.881 E0.028
G1 X122.415 Y85.692 E0.029
G1 X123.272 Y85.557 E0.029
G1 X124.133 Y85.476 E0.029
;rapid-leaky
G0 X124.158 Y85.875 F7200
;bead-skirt/brim
G1 X125 Y85.848 F960 E0.028
G1 X125.849 Y85.875 E0.028
G1 X126.731 Y85.962 E0.03
G1 X127.511 Y86.086 E0.026
G1 X128.332 Y86.269 E0.028
G1 X129.141 Y86.504 E0.028
G1 X129.934 Y86.79 E0.028
G1 X130.706 Y87.124 E0.028
G1 X131.457 Y87.506 E0.028
G1 X132.181 Y87.935 E0.028
G1 X132.877 Y88.408 E0.028
G1 X133.542 Y88.924 E0.028
G1 X134.173 Y89.48 E0.028
G1 X134.775 Y90.082 E0.028
G1 X135.36 Y90.751 E0.03
G1 X135.843 Y91.373 E0.026
G1 X136.315 Y92.069 E0.028
G1 X136.744 Y92.793 E0.028
G1 X137.126 Y93.544 E0.028
G1 X137.46 Y94.316 E0.028
G1 X137.746 Y95.109 E0.028
G1 X137.981 Y95.918 E0.028
G1 X138.165 Y96.74 E0.028
G1 X138.296 Y97.572 E0.028
G1 X138.375 Y98.408 E0.028
G1 X138.4 Y99.196 E0.026
G1 Y124.15 E0.83
G1 X111.6 E0.891
G1 Y99.196 E0.83
G1 X111.625 Y98.401 E0.027
G1 X111.712 Y97.519 E0.029
G1 X111.836 Y96.739 E0.027
G1 X112.019 Y95.918 E0.028
G1 X112.254 Y95.109 E0.028
G1 X112.54 Y94.315 E0.028
G1 X112.874 Y93.544 E0.028
G1 X113.256 Y92.793 E0.028
G1 X113.685 Y92.069 E0.028
G1 X114.158 Y91.373 E0.028
G1 X114.674 Y90.708 E0.028
G1 X115.235 Y90.071 E0.028
G1 X115.867 Y89.444 E0.03
G1 X116.458 Y88.924 E0.026
G1 X117.123 Y88.408 E0.028
G1 X117.819 Y87.935 E0.028
G1 X118.548 Y87.503 E0.028
G1 X119.343 Y87.102 E0.03
G1 X120.066 Y86.789 E0.026
G1 X120.859 Y86.504 E0.028
G1 X121.668 Y86.269 E0.028
G1 X122.49 Y86.085 E0.028
G1 X123.322 Y85.954 E0.028
G1 X124.158 Y85.875 E0.028
;rapid-leaky
G0 X124.183 Y86.274 F7200
;bead-skirt/brim
G1 X125 Y86.248 F960 E0.027
G1 X125.823 Y86.275 E0.027
G1 X126.681 Y86.359 E0.029
G1 X127.436 Y86.479 E0.025
G1 X128.233 Y86.657 E0.028
G1 X129.018 Y86.884 E0.027
G1 X129.787 Y87.162 E0.027
G1 X130.536 Y87.486 E0.027
G1 X131.265 Y87.857 E0.027
G1 X131.967 Y88.273 E0.027
G1 X132.642 Y88.732 E0.028
G1 X133.287 Y89.232 E0.027
G1 X133.899 Y89.772 E0.027
G1 X134.483 Y90.355 E0.027
G1 X135.051 Y91.005 E0.029
G1 X135.519 Y91.608 E0.025
G1 X135.977 Y92.283 E0.028
G1 X136.393 Y92.985 E0.027
G1 X136.764 Y93.714 E0.027
G1 X137.088 Y94.463 E0.027
G1 X137.366 Y95.232 E0.027
G1 X137.593 Y96.017 E0.027
G1 X137.771 Y96.814 E0.028
G1 X137.899 Y97.622 E0.027
G1 X137.976 Y98.433 E0.027
G1 X138 Y99.202 E0.025
G1 Y123.75 E0.817
G1 X112 E0.865
G1 Y99.202 E0.816
G1 X112.025 Y98.427 E0.026
G1 X112.109 Y97.569 E0.029
G1 X112.229 Y96.814 E0.025
G1 X112.407 Y96.017 E0.027
G1 X112.634 Y95.232 E0.027
G1 X112.912 Y94.463 E0.028
G1 X113.236 Y93.714 E0.027
G1 X113.607 Y92.985 E0.027
G1 X114.023 Y92.283 E0.027
G1 X114.482 Y91.608 E0.027
G1 X114.982 Y90.963 E0.027
G1 X115.526 Y90.346 E0.028
G1 X116.141 Y89.736 E0.028
G1 X116.713 Y89.232 E0.026
G1 X117.358 Y88.732 E0.027
G1 X118.033 Y88.273 E0.027
G1 X118.74 Y87.854 E0.027
G1 X119.513 Y87.465 E0.029
G1 X120.214 Y87.161 E0.026
G1 X120.982 Y86.884 E0.027
G1 X121.767 Y86.657 E0.027
G1 X122.565 Y86.479 E0.027
G1 X123.372 Y86.351 E0.027
G1 X124.183 Y86.274 E0.027
;rapid-leaky
G0 X124.208 Y86.674 F7200
;bead-skirt/brim
G1 X125 Y86.649 F960 E0.027
G1 X125.797 Y86.674 E0.026
G1 X126.63 Y86.756 E0.028
G1 X127.361 Y86.872 E0.025
G1 X128.134 Y87.044 E0.026
G1 X128.894 Y87.265 E0.026
G1 X129.64 Y87.534 E0.027
G1 X130.366 Y87.848 E0.026
G1 X131.072 Y88.208 E0.027
G1 X131.752 Y88.611 E0.026
G1 X132.407 Y89.055 E0.026
G1 X133.032 Y89.541 E0.026
G1 X133.625 Y90.063 E0.027
G1 X134.19 Y90.628 E0.026
G1 X134.742 Y91.259 E0.028
G1 X135.195 Y91.844 E0.025
G1 X135.639 Y92.498 E0.026
G1 X136.042 Y93.178 E0.026
G1 X136.402 Y93.884 E0.027
G1 X136.716 Y94.611 E0.026
G1 X136.985 Y95.356 E0.026
G1 X137.206 Y96.117 E0.027
G1 X137.378 Y96.889 E0.026
G1 X137.502 Y97.672 E0.026
G1 X137.576 Y98.458 E0.027
G1 X137.6 Y99.209 E0.025
G1 Y123.35 E0.803
G1 X112.4 E0.838
G1 Y99.209 E0.803
G1 X112.424 Y98.453 E0.025
G1 X112.506 Y97.62 E0.028
G1 X112.622 Y96.889 E0.024
G1 X112.794 Y96.116 E0.027
G1 X113.015 Y95.356 E0.026
G1 X113.284 Y94.61 E0.026
G1 X113.598 Y93.884 E0.027
G1 X113.958 Y93.178 E0.026
G1 X114.361 Y92.498 E0.026
G1 X114.805 Y91.843 E0.027
G1 X115.291 Y91.218 E0.026
G1 X115.817 Y90.621 E0.026
G1 X116.414 Y90.029 E0.028
G1 X116.968 Y89.541 E0.025
G1 X117.593 Y89.055 E0.026
G1 X118.248 Y88.611 E0.027
G1 X118.933 Y88.205 E0.026
G1 X119.683 Y87.827 E0.028
G1 X120.361 Y87.533 E0.025
G1 X121.106 Y87.265 E0.026
G1 X121.867 Y87.044 E0.026
G1 X122.639 Y86.872 E0.027
G1 X123.422 Y86.748 E0.026
G1 X124.208 Y86.674 E0.026
;rapid-leaky
G0 X124.233 Y87.073 F7200
;bead-skirt/brim
G1 X125 Y87.049 F960 E0.026
G1 X125.771 Y87.073 E0.025
G1 X126.579 Y87.153 E0.027
G1 X127.286 Y87.265 E0.024
G1 X128.034 Y87.432 E0.026
G1 X128.77 Y87.646 E0.025
G1 X129.492 Y87.906 E0.026
G1 X130.195 Y88.21 E0.025
G1 X130.879 Y88.558 E0.026
G1 X131.538 Y88.949 E0.025
G1 X132.172 Y89.379 E0.026
G1 X132.777 Y89.849 E0.025
G1 X133.352 Y90.355 E0.026
G1 X133.898 Y90.902 E0.025
G1 X134.433 Y91.514 E0.027
G1 X134.871 Y92.079 E0.024
G1 X135.301 Y92.712 E0.026
G1 X135.692 Y93.371 E0.025
G1 X136.04 Y94.055 E0.026
G1 X136.344 Y94.758 E0.025
G1 X136.604 Y95.48 E0.026
G1 X136.818 Y96.216 E0.025
G1 X136.985 Y96.964 E0.026
G1 X137.105 Y97.722 E0.025
G1 X137.177 Y98.483 E0.026
G1 X137.2 Y99.215 E0.024
G1 Y122.95 E0.789
G1 X112.8 E0.812
G1 Y99.215 E0.789
G1 X112.823 Y98.479 E0.025
G1 X112.903 Y97.671 E0.027
G1 X113.015 Y96.964 E0.024
G1 X113.182 Y96.216 E0.025
G1 X113.396 Y95.48 E0.026
G1 X113.656 Y94.758 E0.025
G1 X113.96 Y94.055 E0.026
G1 X114.308 Y93.371 E0.025
G1 X114.699 Y92.712 E0.026
G1 X115.129 Y92.078 E0.025
G1 X115.599 Y91.473 E0.026
G1 X116.108 Y90.895 E0.025
G1 X116.687 Y90.321 E0.027
G1 X117.223 Y89.849 E0.024
G1 X117.828 Y89.379 E0.026
G1 X118.462 Y88.949 E0.025
G1 X119.125 Y88.556 E0.026
G1 X119.852 Y88.189 E0.027
G1 X120.509 Y87.906 E0.024
G1 X121.23 Y87.646 E0.025
G1 X121.966 Y87.432 E0.026
G1 X122.714 Y87.265 E0.025
G1 X123.472 Y87.145 E0.026
G1 X124.233 Y87.073 E0.025
;rapid-leaky
G0 X124.259 Y87.473 F7200
;bead-skirt/brim
G1 X125 Y87.449 F960 E0.025
G1 X125.745 Y87.473 E0.024
G1 X126.528 Y87.55 E0.027
G1 X127.211 Y87.658 E0.023
G1 X127.935 Y87.82 E0.024
G1 X128.647 Y88.026 E0.025
G1 X129.345 Y88.278 E0.025
G1 X130.025 Y88.573 E0.024
G1 X130.686 Y88.909 E0.025
G1 X131.323 Y89.287 E0.025
G1 X131.936 Y89.703 E0.024
G1 X132.522 Y90.157 E0.025
G1 X133.078 Y90.647 E0.025
G1 X133.606 Y91.175 E0.024
G1 X134.124 Y91.768 E0.027
G1 X134.547 Y92.314 E0.023
G1 X134.963 Y92.927 E0.024
G1 X135.341 Y93.564 E0.025
G1 X135.678 Y94.225 E0.024
G1 X135.972 Y94.905 E0.025
G1 X136.224 Y95.603 E0.025
G1 X136.43 Y96.315 E0.024
G1 X136.592 Y97.039 E0.025
G1 X136.708 Y97.772 E0.025
G1 X136.777 Y98.509 E0.024
G1 X136.8 Y99.221 E0.024
G1 Y122.55 E0.776
G1 X113.2 E0.785
G1 Y99.221 E0.776
G1 X113.223 Y98.505 E0.024
G1 X113.3 Y97.722 E0.026
G1 X113.408 Y97.039 E0.023
G1 X113.57 Y96.315 E0.025
G1 X113.776 Y95.603 E0.024
G1 X114.028 Y94.905 E0.025
G1 X114.323 Y94.225 E0.025
G1 X114.659 Y93.564 E0.024
G1 X115.037 Y92.927 E0.025
G1 X115.453 Y92.314 E0.025
G1 X115.907 Y91.728 E0.024
G1 X116.4 Y91.17 E0.025
G1 X116.96 Y90.613 E0.026
G1 X117.478 Y90.157 E0.023
G1 X118.064 Y89.703 E0.025
G1 X118.677 Y89.287 E0.024
G1 X119.317 Y88.907 E0.025
G1 X120.022 Y88.552 E0.026
G1 X120.656 Y88.278 E0.023
G1 X121.353 Y88.026 E0.025
G1 X122.065 Y87.82 E0.025
G1 X122.789 Y87.658 E0.024
G1 X123.522 Y87.542 E0.025
G1 X124.259 Y87.473 E0.025
;rapid-leaky
G0 X124.284 Y87.872 F7200
;bead-skirt/brim
G1 X125 Y87.849 F960 E0.024
G1 X125.719 Y87.872 E0.023
G1 X126.477 Y87.947 E0.026
G1 X127.136 Y88.051 E0.022
G1 X127.835 Y88.207 E0.024
G1 X128.523 Y88.407 E0.024
G1 X129.197 Y88.65 E0.023
G1 X129.854 Y88.935 E0.024
G1 X130.493 Y89.26 E0.024
G1 X131.109 Y89.625 E0.024
G1 X131.701 Y90.027 E0.024
G1 X132.267 Y90.466 E0.024
G1 X132.804 Y90.939 E0.023
G1 X133.313 Y91.448 E0.024
G1 X133.815 Y92.023 E0.026
G1 X134.223 Y92.549 E0.022
G1 X134.625 Y93.141 E0.024
G1 X134.99 Y93.757 E0.023
G1 X135.315 Y94.396 E0.024
G1 X135.6 Y95.053 E0.024
G1 X135.843 Y95.727 E0.024
G1 X136.043 Y96.415 E0.024
G1 X136.199 Y97.114 E0.024
G1 X136.311 Y97.822 E0.023
G1 X136.378 Y98.534 E0.024
G1 X136.4 Y99.228 E0.023
G1 Y122.15 E0.763
G1 X113.6 E0.758
G1 Y99.228 E0.762
G1 X113.622 Y98.531 E0.024
G1 X113.697 Y97.773 E0.025
G1 X113.801 Y97.114 E0.022
G1 X113.957 Y96.415 E0.024
G1 X114.157 Y95.727 E0.024
G1 X114.4 Y95.053 E0.024
G1 X114.685 Y94.396 E0.023
G1 X115.01 Y93.757 E0.024
G1 X115.375 Y93.141 E0.024
G1 X115.777 Y92.549 E0.024
G1 X116.216 Y91.983 E0.024
G1 X116.691 Y91.444 E0.024
G1 X117.234 Y90.906 E0.025
G1 X117.733 Y90.466 E0.022
G1 X118.299 Y90.027 E0.024
G1 X118.891 Y89.625 E0.024
G1 X119.509 Y89.258 E0.024
G1 X120.191 Y88.914 E0.025
G1 X120.803 Y88.65 E0.022
G1 X121.477 Y88.407 E0.024
G1 X122.165 Y88.207 E0.024
G1 X122.864 Y88.051 E0.024
G1 X123.572 Y87.939 E0.024
G1 X124.284 Y87.872 E0.023
;rapid-leaky
G0 X124.309 Y88.271 F7200
;bead-skirt/brim
G1 X125 Y88.25 F960 E0.023
G1 X125.693 Y88.272 E0.023
G1 X126.426 Y88.344 E0.025
G1 X127.061 Y88.444 E0.021
G1 X127.736 Y88.595 E0.023
G1 X128.399 Y88.787 E0.023
G1 X129.05 Y89.022 E0.023
G1 X129.684 Y89.297 E0.023
G1 X130.3 Y89.61 E0.023
G1 X130.894 Y89.962 E0.023
G1 X131.466 Y90.351 E0.023
G1 X132.012 Y90.774 E0.023
G1 X132.53 Y91.231 E0.023
G1 X133.021 Y91.722 E0.023
G1 X133.506 Y92.277 E0.025
G1 X133.9 Y92.784 E0.021
G1 X134.288 Y93.356 E0.023
G1 X134.64 Y93.95 E0.023
G1 X134.953 Y94.566 E0.023
G1 X135.228 Y95.2 E0.023
G1 X135.463 Y95.851 E0.023
G1 X135.655 Y96.514 E0.023
G1 X135.806 Y97.189 E0.023
G1 X135.914 Y97.872 E0.023
G1 X135.979 Y98.559 E0.023
G1 X136 Y99.234 E0.022
G1 Y121.75 E0.749
G1 X114 E0.732
G1 Y99.234 E0.749
G1 X114.022 Y98.557 E0.022
G1 X114.094 Y97.824 E0.025
G1 X114.194 Y97.189 E0.021
G1 X114.345 Y96.514 E0.023
G1 X114.537 Y95.851 E0.023
G1 X114.772 Y95.2 E0.023
G1 X115.047 Y94.566 E0.023
G1 X115.36 Y93.95 E0.023
G1 X115.712 Y93.356 E0.023
G1 X116.101 Y92.784 E0.023
G1 X116.524 Y92.238 E0.023
G1 X116.982 Y91.719 E0.023
G1 X117.507 Y91.198 E0.025
G1 X117.988 Y90.774 E0.021
G1 X118.534 Y90.351 E0.023
G1 X119.106 Y89.962 E0.023
G1 X119.701 Y89.609 E0.023
G1 X120.361 Y89.277 E0.025
G1 X120.951 Y89.022 E0.021
G1 X121.601 Y88.787 E0.023
G1 X122.264 Y88.595 E0.023
G1 X122.939 Y88.444 E0.023
G1 X123.622 Y88.336 E0.023
G1 X124.309 Y88.271 E0.023
;rapid-leaky
G0 X124.334 Y88.671 F7200
;bead-skirt/brim
G1 X125 Y88.65 F960 E0.022
G1 X125.667 Y88.671 E0.022
G1 X126.375 Y88.741 E0.024
G1 X126.986 Y88.837 E0.021
G1 X127.636 Y88.983 E0.022
G1 X128.276 Y89.168 E0.022
G1 X128.902 Y89.394 E0.022
G1 X129.514 Y89.659 E0.022
G1 X130.107 Y89.961 E0.022
G1 X130.68 Y90.3 E0.023
G1 X131.231 Y90.674 E0.022
G1 X131.757 Y91.083 E0.022
G1 X132.256 Y91.522 E0.022
G1 X132.729 Y91.995 E0.022
G1 X133.197 Y92.531 E0.024
G1 X133.576 Y93.019 E0.02
G1 X133.95 Y93.57 E0.023
G1 X134.289 Y94.143 E0.022
G1 X134.591 Y94.736 E0.022
G1 X134.856 Y95.348 E0.022
G1 X135.082 Y95.974 E0.022
G1 X135.267 Y96.614 E0.022
G1 X135.413 Y97.264 E0.022
G1 X135.517 Y97.922 E0.023
G1 X135.579 Y98.584 E0.022
G1 X135.6 Y99.24 E0.022
G1 Y121.35 E0.735
G1 X114.4 E0.705
G1 Y99.24 E0.735
G1 X114.421 Y98.583 E0.022
G1 X114.491 Y97.875 E0.024
G1 X114.587 Y97.264 E0.021
G1 X114.733 Y96.614 E0.022
G1 X114.918 Y95.975 E0.022
G1 X115.144 Y95.348 E0.022
G1 X115.409 Y94.736 E0.022
G1 X115.711 Y94.143 E0.022
G1 X116.05 Y93.57 E0.022
G1 X116.424 Y93.019 E0.023
G1 X116.833 Y92.493 E0.022
G1 X117.273 Y91.993 E0.022
G1 X117.78 Y91.49 E0.024
G1 X118.243 Y91.082 E0.02
G1 X118.769 Y90.674 E0.022
G1 X119.32 Y90.3 E0.023
G1 X119.894 Y89.96 E0.022
G1 X120.531 Y89.639 E0.023
G1 X121.098 Y89.394 E0.021
G1 X121.725 Y89.168 E0.022
G1 X122.364 Y88.983 E0.022
G1 X123.014 Y88.837 E0.022
G1 X123.672 Y88.733 E0.023
G1 X124.334 Y88.671 E0.022
;rapid-leaky
G0 X124.359 Y89.07 F7200
;bead-skirt/brim
G1 X125 Y89.05 F960 E0.021
G1 X125.641 Y89.07 E0.021
G1 X126.324 Y89.138 E0.023
G1 X126.911 Y89.23 E0.02
G1 X127.537 Y89.37 E0.021
G1 X128.152 Y89.549 E0.022
G1 X128.755 Y89.766 E0.021
G1 X129.343 Y90.021 E0.021
G1 X129.914 Y90.312 E0.022
G1 X130.465 Y90.638 E0.021
G1 X130.996 Y90.998 E0.021
G1 X131.502 Y91.391 E0.021
G1 X131.982 Y91.814 E0.022
G1 X132.436 Y92.268 E0.021
G1 X132.888 Y92.786 E0.023
G1 X133.252 Y93.254 E0.02
G1 X133.612 Y93.785 E0.021
G1 X133.938 Y94.336 E0.021
G1 X134.229 Y94.907 E0.022
G1 X134.484 Y95.495 E0.021
G1 X134.701 Y96.098 E0.021
G1 X134.88 Y96.713 E0.022
G1 X135.02 Y97.339 E0.021
G1 X135.12 Y97.972 E0.021
G1 X135.18 Y98.609 E0.022
G1 X135.2 Y99.247 E0.021
G1 Y120.95 E0.722
G1 X114.8 E0.678
G1 Y99.247 E0.722
G1 X114.82 Y98.609 E0.021
G1 X114.888 Y97.926 E0.023
G1 X114.98 Y97.339 E0.02
G1 X115.12 Y96.713 E0.021
G1 X115.299 Y96.098 E0.021
G1 X115.516 Y95.495 E0.022
G1 X115.771 Y94.907 E0.021
G1 X116.062 Y94.336 E0.021
G1 X116.388 Y93.785 E0.022
G1 X116.748 Y93.254 E0.021
G1 X117.141 Y92.748 E0.021
G1 X117.564 Y92.268 E0.022
G1 X118.053 Y91.783 E0.022
G1 X118.498 Y91.391 E0.02
G1 X119.004 Y90.998 E0.021
G1 X119.535 Y90.638 E0.022
G1 X120.086 Y90.311 E0.021
G1 X120.7 Y90.002 E0.023
G1 X121.245 Y89.766 E0.02
G1 X121.848 Y89.549 E0.021
G1 X122.463 Y89.37 E0.021
G1 X123.089 Y89.23 E0.022
G1 X123.722 Y89.13 E0.021
G1 X124.359 Y89.07 E0.021
G1 F2100 E-0.5
;rapid-dry
G0 X122.884 Y99.856 F7200
G1 F2100 E0.5
;bead-perimeter_outer
G1 X122.99 Y100.145 F720 E0.011
G1 X123.134 Y100.416 E0.01
G1 X123.315 Y100.666 E0.01
G1 X123.545 Y100.899 E0.011
G1 X123.77 Y101.074 E0.009
G1 X124.035 Y101.228 E0.011
G1 X124.32 Y101.343 E0.01
G1 X124.618 Y101.417 E0.01
G1 X124.923 Y101.449 E0.01
G1 X125.23 Y101.438 E0.01
G1 X125.533 Y101.386 E0.011
G1 X125.824 Y101.29 E0.01
G1 X126.1 Y101.156 E0.01
G1 X126.354 Y100.984 E0.01
G1 X126.583 Y100.778 E0.01
G1 X126.78 Y100.544 E0.011
G1 X126.944 Y100.282 E0.01
G1 X127.074 Y99.982 E0.011
G1 X127.152 Y99.708 E0.009
G1 X127.195 Y99.404 E0.01
G1 Y99.096 E0.011
G1 X127.152 Y98.792 E0.01
G1 X127.067 Y98.498 E0.01
G1 X126.943 Y98.216 E0.01
G1 X126.767 Y97.939 E0.011
G1 X126.583 Y97.722 E0.01
G1 X126.354 Y97.516 E0.01
G1 X126.1 Y97.344 E0.01
G1 X125.824 Y97.21 E0.01
G1 X125.533 Y97.114 E0.011
G1 X125.229 Y97.061 E0.01
G1 X124.901 Y97.053 E0.011
G1 X124.618 Y97.083 E0.009
G1 X124.319 Y97.158 E0.01
G1 X124.016 Y97.282 E0.011
G1 X123.77 Y97.426 E0.01
G1 X123.528 Y97.615 E0.01
G1 X123.315 Y97.835 E0.01
G1 X123.134 Y98.084 E0.011
G1 X122.99 Y98.355 E0.01
G1 X122.884 Y98.645 E0.01
G1 X122.819 Y98.966 E0.011
G1 X122.8 Y99.25 E0.009
G1 X122.82 Y99.556 E0.011
G1 X122.884 Y99.856 E0.01
;rapid-leaky
G0 X122.537 Y99.956 F7200
;bead-perimeter_inner
G1 X122.66 Y100.292 F960 E0.012
G1 X122.828 Y100.607 E0.012
G1 X123.04 Y100.899 E0.012
G1 X123.305 Y101.168 E0.012
G1 X123.568 Y101.373 E0.011
G1 X123.877 Y101.553 E0.012
G1 X124.209 Y101.686 E0.012
G1 X124.555 Y101.773 E0.012
G1 X124.911 Y101.81 E0.012
G1 X125.267 Y101.797 E0.012
G1 X125.62 Y101.736 E0.012
G1 X125.96 Y101.624 E0.011
G1 X126.281 Y101.468 E0.012
G1 X126.577 Y101.268 E0.012
G1 X126.843 Y101.029 E0.012
G1 X127.072 Y100.756 E0.012
G1 X127.263 Y100.45 E0.012
G1 X127.413 Y100.103 E0.012
G1 X127.505 Y99.783 E0.012
G1 X127.555 Y99.429 E0.011
G1 Y99.071 E0.012
G1 X127.505 Y98.717 E0.012
G1 X127.407 Y98.374 E0.012
G1 X127.261 Y98.046 E0.012
G1 X127.057 Y97.726 E0.013
G1 X126.842 Y97.47 E0.011
G1 X126.577 Y97.232 E0.012
G1 X126.281 Y97.032 E0.012
G1 X125.96 Y96.876 E0.011
G1 X125.62 Y96.764 E0.012
G1 X125.265 Y96.702 E0.012
G1 X124.887 Y96.692 E0.013
G1 X124.555 Y96.727 E0.011
G1 X124.206 Y96.815 E0.012
G1 X123.856 Y96.959 E0.012
G1 X123.567 Y97.127 E0.012
G1 X123.287 Y97.347 E0.011
G1 X123.038 Y97.603 E0.012
G1 X122.828 Y97.893 E0.012
G1 X122.66 Y98.208 E0.012
G1 X122.536 Y98.547 E0.012
G1 X122.462 Y98.918 E0.013
G1 X122.439 Y99.25 E0.011
G1 X122.463 Y99.606 E0.012
G1 X122.537 Y99.956 E0.012
G1 F2100 E-0.5
;rapid-dry
G0 X115.2 Y99.253 F7200
G1 F2100 E0.5
;bead-perimeter_outer
G1 X115.22 Y98.635 F720 E0.02
G1 X115.284 Y97.976 E0.022
G1 X115.374 Y97.413 E0.019
G1 X115.508 Y96.813 E0.021
G1 X115.679 Y96.222 E0.02
G1 X115.888 Y95.643 E0.021
G1 X116.133 Y95.077 E0.02
G1 X116.412 Y94.528 E0.02
G1 X116.726 Y93.999 E0.021
G1 X117.072 Y93.49 E0.02
G1 X117.449 Y93.004 E0.021
G1 X117.856 Y92.542 E0.02
G1 X118.327 Y92.075 E0.022
G1 X118.754 Y91.699 E0.019
G1 X119.24 Y91.322 E0.021
G1 X119.749 Y90.976 E0.02
G1 X120.278 Y90.663 E0.021
G1 X120.87 Y90.364 E0.022
G1 X121.393 Y90.138 E0.019
G1 X121.972 Y89.929 E0.02
G1 X122.563 Y89.758 E0.021
G1 X123.163 Y89.624 E0.02
G1 X123.772 Y89.528 E0.021
G1 X124.385 Y89.47 E0.02
G1 X125 Y89.45 E0.021
G1 X125.615 Y89.47 E0.02
G1 X126.274 Y89.534 E0.022
G1 X126.837 Y89.624 E0.019
G1 X127.437 Y89.758 E0.02
G1 X128.028 Y89.929 E0.021
G1 X128.607 Y90.138 E0.02
G1 X129.173 Y90.383 E0.021
G1 X129.722 Y90.662 E0.02
G1 X130.251 Y90.976 E0.021
G1 X130.76 Y91.322 E0.02
G1 X131.246 Y91.699 E0.021
G1 X131.708 Y92.106 E0.02
G1 X132.144 Y92.542 E0.021
G1 X132.58 Y93.04 E0.022
G1 X132.928 Y93.49 E0.019
G1 X133.274 Y93.999 E0.02
G1 X133.588 Y94.528 E0.021
G1 X133.867 Y95.077 E0.02
G1 X134.112 Y95.643 E0.021
G1 X134.321 Y96.222 E0.02
G1 X134.492 Y96.813 E0.021
G1 X134.626 Y97.413 E0.02
G1 X134.722 Y98.022 E0.021
G1 X134.78 Y98.635 E0.02
G1 X134.8 Y99.253 E0.021
G1 Y120.55 E0.708
G1 X115.2 E0.652
G1 Y99.253 E0.708
;rapid-leaky
G0 X115.56 Y99.259 F7200
;bead-perimeter_inner
G1 X115.579 Y98.658 F960 E0.02
G1 X115.642 Y98.022 E0.021
G1 X115.727 Y97.481 E0.019
G1 X115.857 Y96.902 E0.019
G1 X116.022 Y96.333 E0.02
G1 X116.223 Y95.775 E0.02
G1 X116.459 Y95.231 E0.02
G1 X116.728 Y94.702 E0.019
G1 X117.03 Y94.192 E0.02
G1 X117.363 Y93.701 E0.02
G1 X117.727 Y93.233 E0.019
G1 X118.118 Y92.789 E0.02
G1 X118.573 Y92.338 E0.021
G1 X118.983 Y91.977 E0.019
G1 X119.451 Y91.613 E0.019
G1 X119.942 Y91.28 E0.02
G1 X120.451 Y90.978 E0.02
G1 X121.022 Y90.69 E0.021
G1 X121.525 Y90.473 E0.018
G1 X122.083 Y90.272 E0.02
G1 X122.652 Y90.107 E0.02
G1 X123.231 Y89.977 E0.019
G1 X123.817 Y89.885 E0.02
G1 X124.407 Y89.829 E0.02
G1 X125 Y89.81 E0.02
G1 X125.592 Y89.829 E0.019
G1 X126.228 Y89.892 E0.021
G1 X126.769 Y89.977 E0.019
G1 X127.348 Y90.107 E0.019
G1 X127.917 Y90.272 E0.02
G1 X128.475 Y90.473 E0.02
G1 X129.019 Y90.709 E0.02
G1 X129.548 Y90.978 E0.019
G1 X130.058 Y91.28 E0.02
G1 X130.549 Y91.613 E0.02
G1 X131.017 Y91.977 E0.019
G1 X131.462 Y92.368 E0.02
G1 X131.881 Y92.788 E0.02
G1 X132.302 Y93.269 E0.021
G1 X132.637 Y93.701 E0.018
G1 X132.97 Y94.192 E0.02
G1 X133.272 Y94.702 E0.02
G1 X133.541 Y95.231 E0.02
G1 X133.777 Y95.775 E0.019
G1 X133.978 Y96.333 E0.02
G1 X134.143 Y96.902 E0.02
G1 X134.273 Y97.481 E0.019
G1 X134.365 Y98.067 E0.02
G1 X134.421 Y98.657 E0.02
G1 X134.44 Y99.259 E0.02
G1 Y120.19 E0.696
G1 X115.56 E0.628
G1 Y99.259 E0.696
;rapid-leaky
G0 X115.88 Y104.463 F7200
;bead-solid_infill
G1 X122.483 Y97.859 F720 E0.311
G1 X122.367 Y98.078 E0.008
G1 X122.228 Y98.46 E0.014
G1 X122.172 Y98.736 E0.009
G1 X115.88 Y105.028 E0.296
G1 Y105.594 E0.019
G1 X122.125 Y99.349 E0.293
G1 X122.145 Y99.65 E0.01
G1 X122.188 Y99.852 E0.007
G1 X115.88 Y106.16 E0.297
G1 Y106.725 E0.019
G1 X122.318 Y100.287 E0.303
G1 X122.367 Y100.422 E0.004
G1 X122.5 Y100.671 E0.01
G1 X115.88 Y107.291 E0.311
G1 Y107.857 E0.019
G1 X122.726 Y101.011 E0.322
G1 X122.795 Y101.107 E0.004
G1 X122.994 Y101.309 E0.009
G1 X115.88 Y108.422 E0.335
G1 Y108.988 E0.019
G1 X123.299 Y101.569 E0.349
G1 X123.388 Y101.639 E0.004
G1 X123.646 Y101.788 E0.009
G1 X115.88 Y109.554 E0.366
G1 Y110.119 E0.019
G1 X124.038 Y101.962 E0.383
G1 X124.11 Y101.991 E0.003
G1 X124.481 Y102.084 E0.013
G1 X115.88 Y110.685 E0.404
G1 Y111.251 E0.019
G1 X125.004 Y102.127 E0.429
G1 X125.301 Y102.116 E0.01
G1 X125.639 Y102.057 E0.011
G1 X115.88 Y111.817 E0.459
G1 Y112.382 E0.019
G1 X126.673 Y101.59 E0.508
G1 X126.681 Y101.584
G1 X126.774 Y101.521 E0.004
G1 X127.073 Y101.252 E0.013
G1 X127.332 Y100.945 E0.014
G1 X127.355 Y100.907 E0.001
G1 X133.131 Y95.131 E0.272
G1 X132.992 Y94.856 E0.01
G1 X132.935 Y94.761 E0.004
G1 X127.807 Y99.889 E0.241
G1 X127.819 Y99.85 E0.001
G1 X127.867 Y99.507 E0.012
G1 X127.875 Y99.452 E0.002
G1 Y99.256 E0.006
G1 X132.725 Y94.406 E0.228
G1 X132.7 Y94.364 E0.002
G1 X132.498 Y94.067 E0.012
G1 X127.831 Y98.734 E0.219
G1 X127.819 Y98.65 E0.003
G1 X127.714 Y98.285 E0.013
G1 X132.261 Y93.739 E0.214
G1 X132.054 Y93.473 E0.011
G1 X132.011 Y93.423 E0.002
G1 X127.542 Y97.892 E0.21
G1 X127.322 Y97.546 E0.014
G1 X131.747 Y93.121 E0.208
G1 X131.647 Y93.006 E0.005
G1 X131.471 Y92.831 E0.008
G1 X127.063 Y97.239 E0.208
G1 X126.774 Y96.979 E0.013
G1 X126.764 Y96.972
G1 X131.185 Y92.552 E0.208
G1 X130.884 Y92.287 E0.013
G1 X126.425 Y96.746 E0.21
G1 X126.08 Y96.578 E0.013
G1 X126.04 Y96.565 E0.001
G1 X130.57 Y92.035 E0.213
G1 X130.361 Y91.872 E0.009
G1 X130.245 Y91.794 E0.005
G1 X125.603 Y96.437 E0.218
G1 X125.297 Y96.383 E0.011
G1 X125.096 Y96.378 E0.006
G1 X129.909 Y91.565 E0.227
G1 X129.886 Y91.55
G1 X129.555 Y91.354 E0.013
G1 X124.496 Y96.412 E0.238
G1 X124.106 Y96.51 E0.014
G1 X123.714 Y96.671 E0.014
G1 X123.612 Y96.731 E0.004
G1 X129.189 Y91.154 E0.262
G1 X128.883 Y90.999 E0.011
G1 X128.81 Y90.967 E0.003
G1 X115.88 Y103.897 E0.608
G1 Y103.331 E0.019
G1 X128.415 Y90.796 E0.59
G1 X128.357 Y90.77 E0.002
G1 X128.217 Y90.72 E0.005
G1 X128.003 Y90.643 E0.007
G1 X115.88 Y102.766 E0.571
G1 Y102.2 E0.018
G1 X127.574 Y90.506 E0.55
G1 X127.268 Y90.417 E0.011
G1 X127.129 Y90.386 E0.005
G1 X115.88 Y101.634 E0.529
G1 Y101.069 E0.019
G1 X126.664 Y90.285 E0.507
G1 X126.187 Y90.209 E0.016
G1 X126.175 Y90.208
G1 X115.88 Y100.503 E0.485
G1 Y99.937 E0.018
G1 X125.66 Y90.157 E0.46
G1 X125.571 Y90.149 E0.003
G1 X125.117 Y90.134 E0.015
G1 X115.88 Y99.371 E0.435
G1 Y99.264 E0.004
G1 X115.881 Y99.246
G1 X115.895 Y98.791 E0.015
G1 X124.541 Y90.145 E0.407
G1 X124.427 Y90.149 E0.004
G1 X123.924 Y90.196 E0.017
G1 X115.949 Y98.172 E0.375
G1 X115.959 Y98.063 E0.003
G1 X115.993 Y97.852 E0.007
G1 X116.042 Y97.541 E0.011
G1 X116.05 Y97.504 E0.001
G1 X123.254 Y90.3 E0.339
G1 X122.732 Y90.417 E0.018
G1 X122.507 Y90.482 E0.008
G1 X116.232 Y96.757 E0.295
G1 X116.326 Y96.432 E0.011
G1 X116.437 Y96.126 E0.011
G1 X116.515 Y95.908 E0.008
G1 X121.658 Y90.765 E0.241
G1 X121.643 Y90.771 E0.001
G1 X121.158 Y90.98 E0.017
G1 X120.605 Y91.259 E0.021
G1 X120.588 Y91.269 E0.001
G1 X117.019 Y94.838 E0.168
G1 F2100 E-0.5
;rapid-dry
G0 X115.88 Y112.948 F7200
G1 F2100 E0.5
;bead-solid_infill
G1 X133.315 Y95.513 F720 E0.82
G1 X133.48 Y95.893 E0.013
G1 X133.485 Y95.909 E0.001
G1 X115.88 Y113.514 E0.828
G1 Y114.079 E0.019
G1 X133.635 Y96.324 E0.835
G1 X133.674 Y96.432 E0.004
G1 X133.768 Y96.757 E0.011
G1 X115.88 Y114.645 E0.841
G1 Y115.211 E0.019
G1 X133.884 Y97.207 E0.847
G1 X133.958 Y97.541 E0.012
G1 X133.98 Y97.677 E0.004
G1 X115.88 Y115.776 E0.851
G1 Y116.342 E0.019
G1 X134.053 Y98.169 E0.855
G1 X134.101 Y98.677 E0.017
G1 X134.102 Y98.686
G1 X115.88 Y116.908 E0.857
G1 Y117.473 E0.019
G1 X134.119 Y99.234 E0.858
G1 X134.12 Y99.264 E0.001
G1 Y99.799 E0.018
G1 X115.88 Y118.039 E0.858
G1 Y118.605 E0.019
G1 X134.12 Y100.365 E0.858
G1 Y100.93 E0.018
G1 X115.88 Y119.17 E0.858
G1 Y119.736 E0.019
G1 X134.12 Y101.496 E0.858
G1 Y102.062 E0.019
G1 X116.312 Y119.87 E0.838
G1 X116.878 E0.018
G1 X134.12 Y102.628 E0.812
G1 Y103.193 E0.018
G1 X117.443 Y119.87 E0.785
G1 X118.009 E0.019
G1 X134.12 Y103.759 E0.757
G1 Y104.325 E0.019
G1 X118.575 Y119.87 E0.731
G1 X119.14 E0.019
G1 X134.12 Y104.89 E0.705
G1 Y105.456 E0.019
G1 X119.706 Y119.87 E0.678
G1 X120.272 E0.018
G1 X134.12 Y106.022 E0.652
G1 Y106.587 E0.019
G1 X120.837 Y119.87 E0.624
G1 X121.403 E0.019
G1 X134.12 Y107.153 E0.598
G1 Y107.719 E0.019
G1 X121.969 Y119.87 E0.572
G1 X122.534 E0.019
G1 X134.12 Y108.284 E0.545
G1 Y108.85 E0.018
G1 X123.1 Y119.87 E0.519
G1 X123.666 E0.019
G1 X134.12 Y109.416 E0.491
G1 Y109.981 E0.019
G1 X124.231 Y119.87 E0.465
G1 X124.797 E0.019
G1 X134.12 Y110.547 E0.439
G1 Y111.113 E0.018
G1 X125.363 Y119.87 E0.412
G1 X125.928 E0.019
G1 X134.12 Y111.678 E0.385
G1 Y112.244 E0.019
G1 X126.494 Y119.87 E0.359
G1 X127.06 E0.019
G1 X134.12 Y112.81 E0.332
G1 Y113.376 E0.019
G1 X127.626 Y119.87 E0.305
G1 X128.191 E0.019
G1 X134.12 Y113.941 E0.279
G1 Y114.507 E0.019
G1 X128.757 Y119.87 E0.252
G1 X129.323 E0.019
G1 X134.12 Y115.073 E0.225
G1 Y115.638 E0.019
G1 X129.888 Y119.87 E0.199
G1 X130.454 E0.019
G1 X134.12 Y116.204 E0.172
G1 Y116.77 E0.019
G1 X131.02 Y119.87 E0.146
G1 X131.585 E0.019
G1 X134.12 Y117.335 E0.119
G1 Y117.901 E0.019
G1 X132.151 Y119.87 E0.093
G1 X132.717 E0.018
G1 X134.12 Y118.467 E0.066
G1 Y119.032 E0.019
G1 X133.282 Y119.87 E0.04
G1 X133.848 E0.018
G1 X134.12 Y119.598 E0.013
G1 F2100 E-0.5
;LAYER:2
M107
;rapid-dry
G0 X134.8 Y99.253 Z0.35 F7200
G1 F2100 E0.5
;bead-perimeter_outer
G1 Y120.55 F1800 E0.531
G1 X115.2 E0.489
G1 Y99.253 E0.532
G1 X115.22 Y98.635 E0.015
G1 X115.278 Y98.022 E0.015
G1 X115.374 Y97.413 E0.016
G1 X115.508 Y96.813 E0.015
G1 X115.679 Y96.222 E0.015
G1 X115.888 Y95.643 E0.016
G1 X116.133 Y95.077 E0.015
G1 X116.412 Y94.528 E0.016
G1 X116.726 Y93.999 E0.015
G1 X117.072 Y93.49 E0.015
G1 X117.449 Y93.004 E0.016
G1 X117.856 Y92.542 E0.015
G1 X118.291 Y92.106 E0.015
G1 X118.827 Y91.642 E0.018
G1 X119.24 Y91.322 E0.013
G1 X119.749 Y90.976 E0.015
G1 X120.278 Y90.662 E0.016
G1 X120.826 Y90.383 E0.015
G1 X121.48 Y90.106 E0.018
G1 X121.972 Y89.929 E0.013
G1 X122.563 Y89.758 E0.015
G1 X123.163 Y89.624 E0.016
G1 X123.772 Y89.528 E0.015
G1 X124.385 Y89.47 E0.015
G1 X125 Y89.45 E0.016
G1 X125.615 Y89.47 E0.015
G1 X126.228 Y89.528 E0.015
G1 X126.837 Y89.624 E0.016
G1 X127.437 Y89.758 E0.015
G1 X128.028 Y89.929 E0.015
G1 X128.607 Y90.138 E0.016
G1 X129.173 Y90.383 E0.015
G1 X129.722 Y90.662 E0.015
G1 X130.251 Y90.976 E0.016
G1 X130.76 Y91.322 E0.015
G1 X131.246 Y91.699 E0.016
G1 X131.708 Y92.106 E0.015
G1 X132.144 Y92.541 E0.015
G1 X132.608 Y93.077 E0.018
G1 X132.928 Y93.49 E0.013
G1 X133.274 Y93.999 E0.015
G1 X133.588 Y94.528 E0.016
G1 X133.867 Y95.077 E0.015
G1 X134.112 Y95.643 E0.015
G1 X134.321 Y96.222 E0.016
G1 X134.492 Y96.813 E0.015
G1 X134.626 Y97.413 E0.015
G1 X134.731 Y98.114 E0.018
G1 X134.78 Y98.635 E0.013
G1 X134.8 Y99.253 E0.016
;rapid-leaky
G0 X134.44 Y99.259 F7200
;bead-perimeter_inner
G1 Y120.19 F2400 E0.522
G1 X115.56 E0.471
G1 Y99.259 E0.522
G1 X115.579 Y98.657 E0.015
G1 X115.635 Y98.067 E0.015
G1 X115.727 Y97.481 E0.014
G1 X115.857 Y96.902 E0.015
G1 X116.022 Y96.333 E0.015
G1 X116.223 Y95.775 E0.015
G1 X116.459 Y95.231 E0.015
G1 X116.728 Y94.702 E0.014
G1 X117.03 Y94.192 E0.015
G1 X117.363 Y93.701 E0.015
G1 X117.727 Y93.233 E0.015
G1 X118.118 Y92.788 E0.015
G1 X118.537 Y92.37 E0.014
G1 X119.055 Y91.92 E0.017
G1 X119.451 Y91.613 E0.013
G1 X119.942 Y91.28 E0.015
G1 X120.452 Y90.978 E0.015
G1 X120.979 Y90.71 E0.014
G1 X121.611 Y90.442 E0.017
G1 X122.083 Y90.272 E0.013
G1 X122.652 Y90.107 E0.015
G1 X123.231 Y89.977 E0.015
G1 X123.817 Y89.885 E0.014
G1 X124.407 Y89.829 E0.015
G1 X125 Y89.81 E0.015
G1 X125.593 Y89.829 E0.015
G1 X126.183 Y89.885 E0.014
G1 X126.769 Y89.977 E0.015
G1 X127.348 Y90.107 E0.015
G1 X127.917 Y90.272 E0.015
G1 X128.475 Y90.473 E0.015
G1 X129.019 Y90.709 E0.014
G1 X129.548 Y90.978 E0.015
G1 X130.058 Y91.28 E0.015
G1 X130.549 Y91.613 E0.015
G1 X131.017 Y91.977 E0.015
G1 X131.462 Y92.368 E0.014
G1 X131.88 Y92.787 E0.015
G1 X132.33 Y93.305 E0.017
G1 X132.637 Y93.701 E0.013
G1 X132.97 Y94.192 E0.015
G1 X133.272 Y94.702 E0.014
G1 X133.541 Y95.231 E0.015
G1 X133.777 Y95.775 E0.015
G1 X133.978 Y96.333 E0.015
G1 X134.143 Y96.902 E0.015
G1 X134.272 Y97.479 E0.014
G1 X134.374 Y98.158 E0.017
G1 X134.421 Y98.657 E0.013
G1 X134.44 Y99.259 E0.015
G1 F2100 E-0.5
;rapid-dry
G0 X126.781 Y100.543 F7200
G1 F2100 E0.5
;bead-perimeter_outer
G1 X126.961 Y100.243 F1800 E0.009
G1 X127.067 Y100.002 E0.006
G1 X127.152 Y99.708 E0.008
G1 X127.195 Y99.404 E0.008
G1 Y99.096 E0.007
G1 X127.152 Y98.792 E0.008
G1 X127.067 Y98.498 E0.007
G1 X126.943 Y98.217 E0.008
G1 X126.779 Y97.955 E0.008
G1 X126.551 Y97.692 E0.009
G1 X126.354 Y97.516 E0.006
G1 X126.1 Y97.344 E0.008
G1 X125.824 Y97.21 E0.007
G1 X125.533 Y97.114 E0.008
G1 X125.228 Y97.061 E0.008
G1 X124.88 Y97.055 E0.008
G1 X124.618 Y97.083 E0.007
G1 X124.32 Y97.157 E0.008
G1 X124.035 Y97.272 E0.007
G1 X123.77 Y97.426 E0.008
G1 X123.528 Y97.615 E0.008
G1 X123.315 Y97.835 E0.007
G1 X123.134 Y98.084 E0.008
G1 X122.99 Y98.355 E0.008
G1 X122.884 Y98.644 E0.007
G1 X122.816 Y99 E0.009
G1 X122.8 Y99.25 E0.007
G1 X122.82 Y99.556 E0.007
G1 X122.884 Y99.856 E0.008
G1 X122.99 Y100.145 E0.008
G1 X123.134 Y100.416 E0.007
G1 X123.316 Y100.666 E0.008
G1 X123.562 Y100.912 E0.009
G1 X123.77 Y101.074 E0.006
G1 X124.035 Y101.228 E0.008
G1 X124.32 Y101.343 E0.008
G1 X124.618 Y101.417 E0.007
G1 X124.923 Y101.449 E0.008
G1 X125.23 Y101.438 E0.008
G1 X125.533 Y101.386 E0.007
G1 X125.826 Y101.289 E0.008
G1 X126.137 Y101.132 E0.009
G1 X126.355 Y100.984 E0.006
G1 X126.583 Y100.778 E0.008
G1 X126.781 Y100.543 E0.007
;rapid-leaky
G0 X127.075 Y100.752 F7200
;bead-perimeter_inner
G1 X127.281 Y100.409 F2400 E0.01
G1 X127.407 Y100.126 E0.008
G1 X127.505 Y99.783 E0.009
G1 X127.555 Y99.429 E0.009
G1 Y99.071 E0.009
G1 X127.505 Y98.717 E0.009
G1 X127.407 Y98.374 E0.009
G1 X127.262 Y98.048 E0.009
G1 X127.069 Y97.74 E0.009
G1 X126.808 Y97.439 E0.01
G1 X126.576 Y97.232 E0.007
G1 X126.281 Y97.032 E0.009
G1 X125.96 Y96.876 E0.009
G1 X125.62 Y96.764 E0.009
G1 X125.263 Y96.702 E0.009
G1 X124.865 Y96.694 E0.01
G1 X124.555 Y96.727 E0.008
G1 X124.209 Y96.814 E0.009
G1 X123.877 Y96.947 E0.009
G1 X123.567 Y97.127 E0.009
G1 X123.287 Y97.347 E0.009
G1 X123.038 Y97.603 E0.008
G1 X122.828 Y97.893 E0.009
G1 X122.66 Y98.208 E0.009
G1 X122.537 Y98.544 E0.009
G1 X122.457 Y98.975 E0.011
G1 X122.439 Y99.25 E0.007
G1 X122.463 Y99.606 E0.009
G1 X122.537 Y99.956 E0.009
G1 X122.66 Y100.292 E0.009
G1 X122.828 Y100.607 E0.009
G1 X123.041 Y100.901 E0.009
G1 X123.324 Y101.183 E0.01
G1 X123.568 Y101.373 E0.007
G1 X123.877 Y101.553 E0.009
G1 X124.209 Y101.686 E0.009
G1 X124.555 Y101.773 E0.009
G1 X124.911 Y101.81 E0.009
G1 X125.267 Y101.797 E0.009
G1 X125.62 Y101.736 E0.009
G1 X125.964 Y101.623 E0.009
G1 X126.32 Y101.442 E0.01
G1 X126.577 Y101.268 E0.008
G1 X126.843 Y101.029 E0.009
G1 X127.075 Y100.752 E0.009
G1 F2100 E-0.5
;rapid-dry
G0 X131.128 Y92.501 F7200
G1 F2100 E0.5
;bead-solid_infill
G1 X131.735 Y93.108 F1800 E0.021
G1 X132.082 Y93.508 E0.013
G1 X132.377 Y93.889 E0.012
G1 X132.57 Y94.173 E0.009
G1 X132.7 Y94.364 E0.006
G1 X132.962 Y94.806 E0.012
G1 X132.992 Y94.856 E0.002
G1 X133.068 Y95.007 E0.004
G1 X129.243 Y91.182 E0.135
G1 X128.883 Y90.999 E0.01
G1 X128.357 Y90.77 E0.014
G1 X128.215 Y90.719 E0.004
G1 X133.531 Y96.035 E0.188
G1 X133.674 Y96.432 E0.01
G1 X133.801 Y96.871 E0.012
G1 X127.379 Y90.449 E0.226
G1 X127.268 Y90.417 E0.003
G1 X126.709 Y90.292 E0.014
G1 X126.646 Y90.282 E0.002
G1 X133.967 Y97.603 E0.258
G1 X134.056 Y98.196 E0.015
G1 X134.062 Y98.264 E0.002
G1 X125.986 Y90.188 E0.285
G1 X125.573 Y90.149 E0.01
G1 X125.375 Y90.142 E0.005
G1 X134.108 Y98.875 E0.308
G1 X134.12 Y99.264 E0.01
G1 Y99.453 E0.005
G1 X124.804 Y90.137 E0.328
G1 X124.427 Y90.149 E0.01
G1 X124.265 Y90.164 E0.004
G1 X134.12 Y100.019 E0.347
G1 Y100.584 E0.014
G1 X123.754 Y90.219 E0.366
G1 X123.291 Y90.292 E0.012
G1 X123.267 Y90.297
G1 X134.12 Y101.15 E0.383
G1 Y101.716 E0.014
G1 X122.805 Y90.4 E0.4
G1 X122.732 Y90.417 E0.001
G1 X122.363 Y90.524 E0.01
G1 X134.12 Y102.281 E0.415
G1 Y102.847 E0.014
G1 X121.937 Y90.664 E0.43
G1 X121.728 Y90.74 E0.005
G1 X121.531 Y90.823 E0.006
G1 X134.12 Y103.413 E0.444
G1 F2100 E-0.5
;rapid-dry
G0 Y111.898 F7200
G1 F2100 E0.5
;bead-solid_infill
G1 X124.248 Y102.026 F1800 E0.348
G1 X124.499 Y102.089 E0.006
G1 X124.676 Y102.107 E0.005
G1 X124.9 Y102.131 E0.005
G1 X124.918 Y102.13 E0.001
G1 X134.12 Y111.332 E0.325
G1 Y110.767 E0.014
G1 X125.445 Y102.091 E0.306
G1 X125.698 Y102.047 E0.006
G1 X125.9 Y101.981 E0.005
G1 X134.12 Y110.201 E0.29
G1 Y109.635 E0.014
G1 X126.297 Y101.813 E0.276
G1 X126.483 Y101.719 E0.006
G1 X126.653 Y101.603 E0.005
G1 X134.12 Y109.07 E0.263
G1 Y108.504 E0.014
G1 X126.965 Y101.349 E0.253
G1 X127.073 Y101.252 E0.003
G1 X127.238 Y101.056 E0.007
G1 X134.12 Y107.938 E0.242
G1 Y107.373 E0.015
G1 X127.468 Y100.72 E0.234
G1 X127.566 Y100.557 E0.005
G1 X127.637 Y100.397 E0.004
G1 X127.659 Y100.346 E0.002
G1 X134.12 Y106.807 E0.228
G1 Y106.241 E0.014
G1 X127.799 Y99.92 E0.223
G1 X127.819 Y99.85 E0.002
G1 X127.875 Y99.452 E0.01
G1 Y99.43
G1 X134.12 Y105.675 E0.221
G1 Y105.11 E0.014
G1 X127.845 Y98.835 E0.221
G1 X127.819 Y98.65 E0.005
G1 X127.708 Y98.265 E0.01
G1 X127.602 Y98.027 E0.006
G1 X134.12 Y104.544 E0.23
G1 Y103.978 E0.014
G1 X121.133 Y90.992 E0.458
G1 X121.114 Y91 E0.001
G1 X120.945 Y91.086 E0.005
G1 X120.757 Y91.182 E0.005
G1 X126.225 Y96.649 E0.193
G1 X126.08 Y96.578 E0.004
G1 X125.698 Y96.453 E0.01
G1 X125.414 Y96.403 E0.007
G1 X120.394 Y91.384 E0.177
G1 X120.114 Y91.55 E0.008
G1 X120.043 Y91.598 E0.002
G1 X124.822 Y96.377 E0.169
G1 X124.814 Y96.378
G1 X124.499 Y96.411 E0.008
G1 X124.332 Y96.453 E0.004
G1 X119.706 Y91.827 E0.163
G1 X119.639 Y91.873 E0.002
G1 X119.384 Y92.071 E0.009
G1 X123.905 Y96.591 E0.159
G1 X123.736 Y96.659 E0.005
G1 X123.528 Y96.78 E0.006
G1 X119.075 Y92.327 E0.157
G1 X118.772 Y92.59 E0.01
G1 X123.194 Y97.013 E0.156
G1 X123.072 Y97.108 E0.004
G1 X122.901 Y97.285 E0.006
G1 X118.488 Y92.872 E0.155
G1 X118.352 Y93.008 E0.005
G1 X118.214 Y93.164 E0.005
G1 X122.647 Y97.597 E0.157
G1 X122.556 Y97.723 E0.004
G1 X122.435 Y97.95 E0.006
G1 X117.951 Y93.466 E0.158
G1 X117.704 Y93.785 E0.01
G1 X122.268 Y98.349 E0.161
G1 X122.228 Y98.459 E0.003
G1 X122.163 Y98.809 E0.009
G1 X117.469 Y94.116 E0.166
G1 X117.3 Y94.364 E0.007
G1 X117.245 Y94.457 E0.003
G1 X122.124 Y99.336 E0.172
G1 X122.145 Y99.65 E0.008
G1 X122.219 Y99.997 E0.009
G1 X117.034 Y94.812 E0.183
G1 X117.008 Y94.856 E0.001
G1 X116.841 Y95.185 E0.009
G1 X134.12 Y112.464 E0.61
G1 Y113.029 E0.014
G1 X116.661 Y95.57 E0.616
G1 X116.52 Y95.893 E0.008
G1 X116.493 Y95.968 E0.002
G1 X134.12 Y113.595 E0.622
G1 Y114.161 E0.014
G1 X116.344 Y96.384 E0.627
G1 X116.326 Y96.432 E0.002
G1 X116.214 Y96.82 E0.01
G1 X134.12 Y114.726 E0.632
G1 Y115.292 E0.014
G1 X116.102 Y97.274 E0.635
G1 X116.042 Y97.541 E0.007
G1 X116.009 Y97.747 E0.005
G1 X134.12 Y115.858 E0.639
G1 Y116.423 E0.014
G1 X115.94 Y98.243 E0.642
G1 X115.899 Y98.677 E0.011
G1 X115.896 Y98.765 E0.002
G1 X134.12 Y116.989 E0.643
G1 Y117.555 E0.014
G1 X115.88 Y99.315 E0.643
G1 Y99.881 E0.014
G1 X134.12 Y118.121 E0.644
G1 Y118.686 E0.014
G1 X115.88 Y100.446 E0.643
G1 Y101.012 E0.015
G1 X134.12 Y119.252 E0.643
G1 Y119.818 E0.014
G1 X115.88 Y101.578 E0.644
G1 Y102.143 E0.014
G1 X133.607 Y119.87 E0.625
G1 X133.041 E0.014
G1 X115.88 Y102.709 E0.606
G1 Y103.275 E0.014
G1 X132.475 Y119.87 E0.585
G1 X131.91 E0.014
G1 X115.88 Y103.84 E0.566
G1 Y104.406 E0.014
G1 X131.344 Y119.87 E0.545
G1 X130.778 E0.014
G1 X115.88 Y104.972 E0.526
G1 Y105.537 E0.014
G1 X130.213 Y119.87 E0.506
G1 X129.647 E0.014
G1 X115.88 Y106.103 E0.486
G1 Y106.669 E0.014
G1 X129.081 Y119.87 E0.465
G1 X128.516 E0.014
G1 X115.88 Y107.234 E0.446
G1 Y107.8 E0.014
G1 X127.95 Y119.87 E0.426
G1 X127.384 E0.014
G1 X115.88 Y108.366 E0.406
G1 Y108.932 E0.014
G1 X126.819 Y119.87 E0.386
G1 X126.253 E0.014
G1 X115.88 Y109.497 E0.366
G1 Y110.063 E0.014
G1 X125.687 Y119.87 E0.346
G1 X125.121 E0.014
G1 X115.88 Y110.629 E0.326
G1 Y111.194 E0.014
G1 X124.556 Y119.87 E0.307
G1 X123.99 E0.014
G1 X115.88 Y111.76 E0.286
G1 Y112.326 E0.014
G1 X123.424 Y119.87 E0.266
G1 X122.859 E0.014
G1 X115.88 Y112.891 E0.246
G1 Y113.457 E0.014
G1 X122.293 Y119.87 E0.227
G1 X121.727 E0.014
G1 X115.88 Y114.023 E0.206
G1 Y114.588 E0.014
G1 X121.162 Y119.87 E0.186
G1 X120.596 E0.015
G1 X115.88 Y115.154 E0.166
G1 Y115.72 E0.014
G1 X120.03 Y119.87 E0.146
G1 X119.465 E0.015
G1 X115.88 Y116.285 E0.126
G1 Y116.851 E0.014
G1 X118.899 Y119.87 E0.107
G1 X118.333 E0.014
G1 X115.88 Y117.417 E0.086
G1 Y117.982 E0.014
G1 X117.768 Y119.87 E0.067
G1 X117.202 E0.014
G1 X115.88 Y118.548 E0.047
G1 Y119.114 E0.014
G1 X116.636 Y119.87 E0.027
G1 X116.07 E0.014
G1 X115.88 Y119.68 E0.006
G1 F2100 E-0.5
;LAYER:3
M107
;rapid-dry
G0 X126.412 Y100.933 Z0.5 F7200
G1 F2100 E0.5
;bead-perimeter_outer
G1 X126.583 Y100.778 F1800 E0.006
G1 X126.78 Y100.544 E0.008
G1 X126.943 Y100.283 E0.007
G1 X127.067 Y100.002 E0.008
G1 X127.152 Y99.708 E0.008
G1 X127.195 Y99.404 E0.007
G1 Y99.096 E0.008
G1 X127.152 Y98.792 E0.008
G1 X127.067 Y98.498 E0.007
G1 X126.943 Y98.217 E0.008
G1 X126.78 Y97.956 E0.008
G1 X126.583 Y97.722 E0.007
G1 X126.354 Y97.516 E0.008
G1 X126.1 Y97.344 E0.008
G1 X125.824 Y97.21 E0.007
G1 X125.533 Y97.114 E0.008
G1 X125.23 Y97.062 E0.008
G1 X124.923 Y97.051 E0.007
G1 X124.618 Y97.083 E0.008
G1 X124.32 Y97.157 E0.008
G1 X124.036 Y97.272 E0.007
G1 X123.77 Y97.426 E0.008
G1 X123.528 Y97.615 E0.008
G1 X123.315 Y97.835 E0.007
G1 X123.134 Y98.084 E0.008
G1 X122.99 Y98.355 E0.008
G1 X122.884 Y98.644 E0.007
G1 X122.82 Y98.945 E0.008
G1 X122.8 Y99.25 E0.008
G1 X122.82 Y99.556 E0.007
G1 X122.884 Y99.856 E0.008
G1 X122.99 Y100.145 E0.007
G1 X123.134 Y100.416 E0.008
G1 X123.315 Y100.665 E0.008
G1 X123.587 Y100.932 E0.009
G1 X123.77 Y101.074 E0.006
G1 X124.035 Y101.228 E0.008
G1 X124.32 Y101.343 E0.007
G1 X124.618 Y101.417 E0.008
G1 X124.923 Y101.449 E0.008
G1 X125.23 Y101.438 E0.007
G1 X125.533 Y101.386 E0.008
G1 X125.824 Y101.29 E0.008
G1 X126.1 Y101.156 E0.007
G1 X126.412 Y100.933 E0.01
;rapid-leaky
G0 X126.652 Y101.201 F7200
;bead-perimeter_inner
G1 X126.843 Y101.029 F2400 E0.006
G1 X127.072 Y100.756 E0.009
G1 X127.262 Y100.452 E0.009
G1 X127.407 Y100.126 E0.009
G1 X127.505 Y99.783 E0.009
G1 X127.555 Y99.429 E0.009
G1 Y99.071 E0.009
G1 X127.505 Y98.717 E0.009
G1 X127.407 Y98.374 E0.009
G1 X127.262 Y98.048 E0.009
G1 X127.073 Y97.745 E0.008
G1 X126.842 Y97.471 E0.009
G1 X126.577 Y97.232 E0.009
G1 X126.281 Y97.032 E0.009
G1 X125.96 Y96.876 E0.009
G1 X125.62 Y96.764 E0.009
G1 X125.267 Y96.703 E0.009
G1 X124.911 Y96.69 E0.009
G1 X124.555 Y96.727 E0.009
G1 X124.209 Y96.814 E0.009
G1 X123.878 Y96.947 E0.009
G1 X123.567 Y97.127 E0.009
G1 X123.287 Y97.347 E0.008
G1 X123.038 Y97.603 E0.009
G1 X122.828 Y97.893 E0.009
G1 X122.66 Y98.208 E0.009
G1 X122.537 Y98.544 E0.009
G1 X122.463 Y98.895 E0.009
G1 X122.439 Y99.25 E0.009
G1 X122.463 Y99.606 E0.009
G1 X122.537 Y99.956 E0.009
G1 X122.66 Y100.292 E0.009
G1 X122.828 Y100.607 E0.009
G1 X123.038 Y100.897 E0.009
G1 X123.285 Y101.152 E0.008
G1 X123.365 Y101.215 E0.003
G1 X123.568 Y101.373 E0.006
G1 X123.877 Y101.553 E0.009
G1 X124.209 Y101.686 E0.009
G1 X124.555 Y101.773 E0.009
G1 X124.911 Y101.81 E0.009
G1 X125.267 Y101.797 E0.009
G1 X125.62 Y101.736 E0.009
G1 X125.96 Y101.624 E0.009
G1 X126.281 Y101.468 E0.009
G1 X126.576 Y101.269 E0.009
G1 X126.652 Y101.201 E0.002
G1 F2100 E-0.5
;rapid-dry
G0 X134.8 Y99.253 F7200
G1 F2100 E0.5
;bead-perimeter_outer
G1 Y120.55 F1800 E0.531
G1 X115.2 E0.489
G1 Y99.253 E0.532
G1 X115.22 Y98.635 E0.015
G1 X115.278 Y98.022 E0.015
G1 X115.374 Y97.413 E0.016
G1 X115.508 Y96.813 E0.015
G1 X115.679 Y96.222 E0.015
G1 X115.888 Y95.643 E0.016
G1 X116.133 Y95.077 E0.015
G1 X116.412 Y94.528 E0.015
G1 X116.726 Y93.999 E0.016
G1 X117.072 Y93.49 E0.015
G1 X117.449 Y93.003 E0.016
G1 X117.856 Y92.542 E0.015
G1 X118.292 Y92.106 E0.015
G1 X118.754 Y91.699 E0.016
G1 X119.24 Y91.322 E0.015
G1 X119.749 Y90.976 E0.015
G1 X120.278 Y90.662 E0.016
G1 X120.827 Y90.383 E0.015
G1 X121.393 Y90.138 E0.015
G1 X121.972 Y89.929 E0.016
G1 X122.563 Y89.758 E0.015
G1 X123.163 Y89.624 E0.015
G1 X123.772 Y89.528 E0.016
G1 X124.385 Y89.47 E0.015
G1 X125 Y89.45 E0.016
G1 X125.615 Y89.47 E0.015
G1 X126.228 Y89.528 E0.015
G1 X126.837 Y89.624 E0.016
G1 X127.437 Y89.758 E0.015
G1 X128.028 Y89.929 E0.015
G1 X128.607 Y90.138 E0.016
G1 X129.173 Y90.383 E0.015
G1 X129.722 Y90.662 E0.015
G1 X130.251 Y90.976 E0.016
G1 X130.76 Y91.322 E0.015
G1 X131.246 Y91.699 E0.015
G1 X131.708 Y92.106 E0.016
G1 X132.144 Y92.542 E0.015
G1 X132.551 Y93.004 E0.016
G1 X132.928 Y93.49 E0.015
G1 X133.274 Y93.999 E0.015
G1 X133.588 Y94.528 E0.016
G1 X133.867 Y95.077 E0.015
G1 X134.112 Y95.643 E0.015
G1 X134.321 Y96.222 E0.016
G1 X134.492 Y96.813 E0.015
G1 X134.626 Y97.413 E0.015
G1 X134.722 Y98.022 E0.016
G1 X134.78 Y98.635 E0.015
G1 X134.8 Y99.253 E0.016
;rapid-leaky
G0 X134.44 Y99.259 F7200
;bead-perimeter_inner
G1 Y120.19 F2400 E0.522
G1 X115.56 E0.471
G1 Y99.259 E0.522
G1 X115.579 Y98.657 E0.015
G1 X115.635 Y98.067 E0.015
G1 X115.727 Y97.481 E0.014
G1 X115.857 Y96.902 E0.015
G1 X116.022 Y96.333 E0.015
G1 X116.223 Y95.775 E0.015
G1 X116.459 Y95.231 E0.015
G1 X116.728 Y94.702 E0.014
G1 X117.03 Y94.192 E0.015
G1 X117.363 Y93.701 E0.015
G1 X117.809 Y93.14 E0.018
G1 X118.118 Y92.789 E0.011
G1 X118.538 Y92.368 E0.015
G1 X118.983 Y91.977 E0.015
G1 X119.451 Y91.613 E0.015
G1 X119.942 Y91.28 E0.015
G1 X120.452 Y90.978 E0.014
G1 X120.981 Y90.709 E0.015
G1 X121.525 Y90.473 E0.015
G1 X122.083 Y90.272 E0.015
G1 X122.653 Y90.107 E0.015
G1 X123.231 Y89.977 E0.014
G1 X123.817 Y89.885 E0.015
G1 X124.407 Y89.829 E0.015
G1 X125 Y89.81 E0.015
G1 X125.593 Y89.829 E0.015
G1 X126.183 Y89.885 E0.014
G1 X126.769 Y89.977 E0.015
G1 X127.348 Y90.107 E0.015
G1 X127.917 Y90.272 E0.015
G1 X128.475 Y90.473 E0.015
G1 X129.019 Y90.709 E0.014
G1 X129.548 Y90.978 E0.015
G1 X130.058 Y91.28 E0.015
G1 X130.549 Y91.613 E0.015
G1 X131.017 Y91.977 E0.014
G1 X131.462 Y92.368 E0.015
G1 X131.882 Y92.788 E0.015
G1 X132.273 Y93.233 E0.015
G1 X132.637 Y93.701 E0.015
G1 X132.97 Y94.192 E0.014
G1 X133.272 Y94.702 E0.015
G1 X133.541 Y95.231 E0.015
G1 X133.777 Y95.775 E0.015
G1 X133.978 Y96.333 E0.015
G1 X134.143 Y96.902 E0.014
G1 X134.273 Y97.481 E0.015
G1 X134.365 Y98.067 E0.015
G1 X134.421 Y98.657 E0.015
G1 X134.44 Y99.259 E0.015
G1 F2100 E-0.5
;rapid-dry
G0 X117.019 Y94.838 F7200
G1 F2100 E0.5
;bead-solid_infill
G1 X120.588 Y91.269 F1800 E0.126
G1 X120.606 Y91.258
G1 X121.117 Y90.999 E0.015
G1 X121.643 Y90.77 E0.014
G1 X121.658 Y90.765
G1 X116.515 Y95.908 E0.182
G1 X116.437 Y96.126 E0.005
G1 X116.326 Y96.432 E0.009
G1 X116.232 Y96.757 E0.008
G1 X122.507 Y90.482 E0.221
G1 X122.732 Y90.417 E0.006
G1 X123.254 Y90.3 E0.014
G1 X116.05 Y97.504 E0.254
G1 X116.042 Y97.541 E0.001
G1 X115.953 Y98.107 E0.014
G1 X115.946 Y98.174 E0.002
G1 X123.924 Y90.196 E0.281
G1 X124.427 Y90.149 E0.013
G1 X124.541 Y90.145 E0.002
G1 X115.895 Y98.791 E0.305
G1 X115.88 Y99.264 E0.012
G1 Y99.371 E0.003
G1 X125.117 Y90.134 E0.326
G1 X125.573 Y90.149 E0.011
G1 X125.66 Y90.157 E0.002
G1 X115.88 Y99.937 E0.345
G1 Y100.503 E0.015
G1 X126.175 Y90.208 E0.363
G1 X126.664 Y90.285 E0.012
G1 X115.88 Y101.069 E0.38
G1 Y101.634 E0.015
G1 X127.129 Y90.386 E0.396
G1 X127.268 Y90.417 E0.004
G1 X127.574 Y90.506 E0.008
G1 X115.88 Y102.2 E0.412
G1 Y102.766 E0.015
G1 X128.003 Y90.643 E0.427
G1 X128.357 Y90.77 E0.01
G1 X128.415 Y90.796 E0.001
G1 X115.88 Y103.331 E0.442
G1 Y103.897 E0.015
G1 X128.81 Y90.967 E0.456
G1 X128.883 Y90.999 E0.002
G1 X129.189 Y91.154 E0.008
G1 X123.61 Y96.732 E0.197
G1 X123.737 Y96.659 E0.004
G1 X124.109 Y96.509 E0.01
G1 X124.496 Y96.412 E0.01
G1 X129.555 Y91.354 E0.178
G1 X129.886 Y91.55 E0.01
G1 X129.909 Y91.565
G1 X125.098 Y96.376 E0.17
G1 X125.301 Y96.384 E0.005
G1 X125.603 Y96.437 E0.008
G1 X130.245 Y91.794 E0.164
G1 X130.361 Y91.872 E0.003
G1 X130.57 Y92.035 E0.007
G1 X126.04 Y96.565 E0.159
G1 X126.08 Y96.578 E0.002
G1 X126.425 Y96.746 E0.009
G1 X130.884 Y92.287 E0.157
G1 X131.185 Y92.552 E0.01
G1 X126.764 Y96.972 E0.156
G1 X126.774 Y96.979 E0.001
G1 X127.063 Y97.239 E0.009
G1 X131.471 Y92.831 E0.156
G1 X131.648 Y93.008 E0.006
G1 X131.748 Y93.121 E0.004
G1 X127.323 Y97.545 E0.156
G1 X127.332 Y97.556
G1 X127.542 Y97.892 E0.01
G1 X132.013 Y93.421 E0.158
G1 X132.027 Y93.437
G1 X132.261 Y93.739 E0.01
G1 X127.714 Y98.285 E0.16
G1 X127.819 Y98.65 E0.01
G1 X127.831 Y98.734 E0.002
G1 X132.498 Y94.067 E0.165
G1 X132.7 Y94.364 E0.009
G1 X132.725 Y94.406 E0.001
G1 X127.875 Y99.256 E0.171
G1 Y99.452 E0.005
G1 X127.819 Y99.85 E0.01
G1 X127.808 Y99.889 E0.001
G1 X132.935 Y94.761 E0.181
G1 X132.992 Y94.856 E0.002
G1 X133.111 Y95.092 E0.007
G1 X133.131 Y95.131 E0.001
G1 X127.355 Y100.907 E0.204
G1 X127.332 Y100.945 E0.001
G1 X127.073 Y101.252 E0.01
G1 X126.866 Y101.439 E0.007
G1 X126.773 Y101.522 E0.003
G1 X126.673 Y101.59 E0.003
G1 X115.88 Y112.382 E0.381
G1 Y111.817 E0.014
G1 X125.639 Y102.057 E0.344
G1 X125.301 Y102.116 E0.009
G1 X125.004 Y102.127 E0.007
G1 X115.88 Y111.251 E0.322
G1 Y110.685 E0.014
G1 X124.481 Y102.084 E0.304
G1 X124.11 Y101.991 E0.009
G1 X124.038 Y101.962 E0.002
G1 X115.88 Y110.119 E0.288
G1 Y109.554 E0.014
G1 X123.645 Y101.788 E0.274
G1 X123.389 Y101.639 E0.007
G1 X123.299 Y101.569 E0.003
G1 X115.88 Y108.988 E0.262
G1 Y108.422 E0.014
G1 X122.993 Y101.31 E0.251
G1 X122.793 Y101.104 E0.007
G1 X122.726 Y101.011 E0.003
G1 X115.88 Y107.857 E0.241
G1 Y107.291 E0.015
G1 X122.5 Y100.671 E0.233
G1 X122.367 Y100.422 E0.007
G1 X122.318 Y100.287 E0.004
G1 X115.88 Y106.725 E0.227
G1 Y106.16 E0.014
G1 X122.188 Y99.852 E0.222
G1 X122.145 Y99.65 E0.006
G1 X122.125 Y99.349 E0.007
G1 X115.88 Y105.594 E0.22
G1 Y105.028 E0.015
G1 X122.169 Y98.74 E0.221
G1 X122.229 Y98.455 E0.008
G1 X122.367 Y98.078 E0.01
G1 X122.483 Y97.859 E0.006
G1 X115.88 Y104.463 E0.233
G1 F2100 E-0.5
;rapid-dry
G0 Y112.948 F7200
G1 F2100 E0.5
;bead-solid_infill
G1 X133.315 Y95.513 F1800 E0.615
G1 X133.48 Y95.893 E0.01
G1 X133.485 Y95.909 E0.001
G1 X115.88 Y113.514 E0.621
G1 Y114.079 E0.014
G1 X133.635 Y96.324 E0.626
G1 X133.674 Y96.432 E0.003
G1 X133.768 Y96.757 E0.008
G1 X115.88 Y114.645 E0.631
G1 Y115.211 E0.015
G1 X133.884 Y97.207 E0.635
G1 X133.958 Y97.541 E0.008
G1 X133.98 Y97.677 E0.004
G1 X115.88 Y115.776 E0.638
G1 Y116.342 E0.014
G1 X134.053 Y98.169 E0.641
G1 X134.101 Y98.677 E0.013
G1 X134.102 Y98.686
G1 X115.88 Y116.908 E0.643
G1 Y117.473 E0.014
G1 X134.119 Y99.234 E0.644
G1 X134.12 Y99.264
G1 Y99.799 E0.014
G1 X115.88 Y118.039 E0.643
G1 Y118.605 E0.014
G1 X134.12 Y100.365 E0.644
G1 Y100.93 E0.014
G1 X115.88 Y119.17 E0.643
G1 Y119.736 E0.015
G1 X134.12 Y101.496 E0.643
G1 Y102.062 E0.014
G1 X116.312 Y119.87 E0.628
G1 X116.878 E0.014
G1 X134.12 Y102.628 E0.609
G1 Y103.193 E0.014
G1 X117.443 Y119.87 E0.588
G1 X118.009 E0.014
G1 X134.12 Y103.759 E0.569
G1 Y104.325 E0.014
G1 X118.575 Y119.87 E0.548
G1 X119.14 E0.014
G1 X134.12 Y104.89 E0.529
G1 Y105.456 E0.014
G1 X119.706 Y119.87 E0.508
G1 X120.272 E0.014
G1 X134.12 Y106.022 E0.489
G1 Y106.587 E0.014
G1 X120.837 Y119.87 E0.469
G1 X121.403 E0.014
G1 X134.12 Y107.153 E0.448
G1 Y107.719 E0.015
G1 X121.969 Y119.87 E0.428
G1 X122.534 E0.014
G1 X134.12 Y108.284 E0.409
G1 Y108.85 E0.014
G1 X123.1 Y119.87 E0.389
G1 X123.666 E0.014
G1 X134.12 Y109.416 E0.369
G1 Y109.981 E0.014
G1 X124.231 Y119.87 E0.349
G1 X124.797 E0.014
G1 X134.12 Y110.547 E0.329
G1 Y111.113 E0.014
G1 X125.363 Y119.87 E0.309
G1 X125.928 E0.014
G1 X134.12 Y111.678 E0.289
G1 Y112.244 E0.014
G1 X126.494 Y119.87 E0.269
G1 X127.06 E0.014
G1 X134.12 Y112.81 E0.249
G1 Y113.376 E0.014
G1 X127.626 Y119.87 E0.229
G1 X128.191 E0.015
G1 X134.12 Y113.941 E0.209
G1 Y114.507 E0.014
G1 X128.757 Y119.87 E0.189
G1 X129.323 E0.014
G1 X134.12 Y115.073 E0.169
G1 Y115.638 E0.014
G1 X129.888 Y119.87 E0.15
G1 X130.454 E0.014
G1 X134.12 Y116.204 E0.129
G1 Y116.77 E0.014
G1 X131.02 Y119.87 E0.11
G1 X131.585 E0.014
G1 X134.12 Y117.335 E0.089
G1 Y117.901 E0.014
G1 X132.151 Y119.87 E0.07
G1 X132.717 E0.014
G1 X134.12 Y118.467 E0.049
G1 Y119.032 E0.015
G1 X133.282 Y119.87 E0.029
G1 X133.848 E0.014
G1 X134.12 Y119.598 E0.01
G1 F2100 E-0.5
;LAYER:4
M106 S255
;rapid-dry
G0 X122.884 Y99.856 Z0.65 F7200
G1 F2100 E0.5
;bead-perimeter_outer
G1 X122.99 Y100.145 F1653 E0.007
G1 X123.134 Y100.416 E0.008
G1 X123.315 Y100.665 E0.008
G1 X123.605 Y100.945 E0.01
G1 X123.77 Y101.074 E0.005
G1 X124.035 Y101.228 E0.008
G1 X124.32 Y101.343 E0.007
G1 X124.618 Y101.417 E0.008
G1 X124.923 Y101.449 E0.008
G1 X125.23 Y101.438 E0.007
G1 X125.533 Y101.386 E0.008
G1 X125.824 Y101.29 E0.008
G1 X126.1 Y101.156 E0.007
G1 X126.354 Y100.984 E0.008
G1 X126.583 Y100.778 E0.008
G1 X126.78 Y100.544 E0.007
G1 X126.943 Y100.283 E0.008
G1 X127.067 Y100.002 E0.008
G1 X127.152 Y99.708 E0.007
G1 X127.195 Y99.404 E0.008
G1 Y99.096 E0.008
G1 X127.152 Y98.792 E0.007
G1 X127.067 Y98.498 E0.008
G1 X126.943 Y98.217 E0.008
G1 X126.78 Y97.956 E0.007
G1 X126.583 Y97.722 E0.008
G1 X126.354 Y97.516 E0.008
G1 X126.1 Y97.344 E0.007
G1 X125.824 Y97.21 E0.008
G1 X125.533 Y97.114 E0.007
G1 X125.23 Y97.062 E0.008
G1 X124.923 Y97.051 E0.008
G1 X124.618 Y97.083 E0.007
G1 X124.32 Y97.157 E0.008
G1 X124.035 Y97.272 E0.008
G1 X123.77 Y97.426 E0.007
G1 X123.528 Y97.615 E0.008
G1 X123.315 Y97.835 E0.008
G1 X123.134 Y98.084 E0.007
G1 X122.99 Y98.355 E0.008
G1 X122.884 Y98.644 E0.008
G1 X122.821 Y98.944 E0.007
G1 X122.813 Y99.041 E0.003
G1 X122.8 Y99.25 E0.005
G1 X122.82 Y99.556 E0.008
G1 X122.884 Y99.856 E0.007
;rapid-leaky
G0 X122.537 Y99.956 F7200
;bead-perimeter_inner
G1 X122.66 Y100.292 F2204 E0.009
G1 X122.828 Y100.607 E0.009
G1 X123.038 Y100.897 E0.009
G1 X123.286 Y101.153 E0.009
G1 X123.568 Y101.373 E0.009
G1 X123.877 Y101.553 E0.009
G1 X124.209 Y101.686 E0.009
G1 X124.555 Y101.773 E0.009
G1 X124.911 Y101.81 E0.009
G1 X125.267 Y101.797 E0.008
G1 X125.62 Y101.736 E0.009
G1 X125.96 Y101.624 E0.009
G1 X126.281 Y101.468 E0.009
G1 X126.577 Y101.268 E0.009
G1 X126.843 Y101.029 E0.009
G1 X127.072 Y100.756 E0.009
G1 X127.261 Y100.453 E0.009
G1 X127.407 Y100.125 E0.009
G1 X127.505 Y99.783 E0.009
G1 X127.555 Y99.429 E0.009
G1 Y99.071 E0.009
G1 X127.505 Y98.717 E0.008
G1 X127.407 Y98.374 E0.009
G1 X127.262 Y98.048 E0.009
G1 X127.072 Y97.744 E0.009
G1 X126.843 Y97.471 E0.009
G1 X126.576 Y97.231 E0.009
G1 X126.281 Y97.032 E0.009
G1 X125.96 Y96.876 E0.009
G1 X125.62 Y96.764 E0.009
G1 X125.267 Y96.703 E0.009
G1 X124.911 Y96.69 E0.009
G1 X124.555 Y96.727 E0.009
G1 X124.209 Y96.814 E0.008
G1 X123.877 Y96.947 E0.009
G1 X123.567 Y97.127 E0.009
G1 X123.287 Y97.347 E0.009
G1 X123.038 Y97.603 E0.009
G1 X122.828 Y97.893 E0.009
G1 X122.66 Y98.208 E0.009
G1 X122.537 Y98.544 E0.009
G1 X122.463 Y98.893 E0.009
G1 X122.439 Y99.25 E0.009
G1 X122.463 Y99.606 E0.009
G1 X122.537 Y99.956 E0.008
;rapid-leaky
G0 X115.2 Y99.253 F7200
;bead-perimeter_outer
G1 X115.22 Y98.635 F1653 E0.016
G1 X115.306 Y97.842 E0.02
G1 X115.374 Y97.414 E0.011
G1 X115.508 Y96.813 E0.015
G1 X115.679 Y96.222 E0.015
G1 X115.888 Y95.643 E0.016
G1 X116.133 Y95.077 E0.015
G1 X116.412 Y94.528 E0.015
G1 X116.726 Y93.999 E0.016
G1 X117.072 Y93.49 E0.015
G1 X117.449 Y93.003 E0.016
G1 X117.856 Y92.542 E0.015
G1 X118.292 Y92.106 E0.015
G1 X118.754 Y91.699 E0.016
G1 X119.24 Y91.322 E0.015
G1 X119.749 Y90.976 E0.015
G1 X120.278 Y90.662 E0.016
G1 X120.827 Y90.383 E0.015
G1 X121.393 Y90.138 E0.015
G1 X121.972 Y89.929 E0.016
G1 X122.563 Y89.758 E0.015
G1 X123.163 Y89.624 E0.015
G1 X123.772 Y89.528 E0.016
G1 X124.385 Y89.47 E0.015
G1 X125 Y89.45 E0.016
G1 X125.615 Y89.47 E0.015
G1 X126.408 Y89.556 E0.02
G1 X126.837 Y89.624 E0.011
G1 X127.437 Y89.758 E0.015
G1 X128.028 Y89.929 E0.015
G1 X128.607 Y90.138 E0.016
G1 X129.173 Y90.383 E0.015
G1 X129.722 Y90.662 E0.015
G1 X130.251 Y90.976 E0.016
G1 X130.76 Y91.322 E0.015
G1 X131.246 Y91.699 E0.015
G1 X131.708 Y92.106 E0.016
G1 X132.144 Y92.542 E0.015
G1 X132.551 Y93.004 E0.015
G1 X132.928 Y93.49 E0.016
G1 X133.274 Y93.999 E0.015
G1 X133.588 Y94.528 E0.016
G1 X133.867 Y95.077 E0.015
G1 X134.112 Y95.643 E0.015
G1 X134.321 Y96.222 E0.016
G1 X134.492 Y96.813 E0.015
G1 X134.626 Y97.413 E0.015
G1 X134.74 Y98.203 E0.02
G1 X134.78 Y98.635 E0.011
G1 X134.8 Y99.253 E0.016
G1 Y120.55 E0.531
G1 X115.2 E0.489
G1 Y99.253 E0.531
;rapid-leaky
G0 X115.56 Y99.259 F7200
;bead-perimeter_inner
G1 X115.579 Y98.657 F2204 E0.015
G1 X115.661 Y97.898 E0.019
G1 X115.727 Y97.481 E0.011
G1 X115.857 Y96.902 E0.014
G1 X116.022 Y96.333 E0.015
G1 X116.223 Y95.775 E0.015
G1 X116.459 Y95.231 E0.015
G1 X116.728 Y94.702 E0.014
G1 X117.03 Y94.192 E0.015
G1 X117.363 Y93.701 E0.015
G1 X117.727 Y93.233 E0.015
G1 X118.118 Y92.789 E0.015
G1 X118.538 Y92.368 E0.014
G1 X118.983 Y91.977 E0.015
G1 X119.451 Y91.613 E0.015
G1 X119.942 Y91.28 E0.015
G1 X120.452 Y90.978 E0.015
G1 X120.981 Y90.709 E0.014
G1 X121.526 Y90.473 E0.015
G1 X122.083 Y90.272 E0.015
G1 X122.652 Y90.107 E0.015
G1 X123.231 Y89.977 E0.015
G1 X123.817 Y89.885 E0.014
G1 X124.407 Y89.829 E0.015
G1 X125 Y89.81 E0.015
G1 X125.593 Y89.829 E0.015
G1 X126.352 Y89.911 E0.019
G1 X126.769 Y89.977 E0.01
G1 X127.348 Y90.107 E0.015
G1 X127.917 Y90.272 E0.015
G1 X128.475 Y90.473 E0.015
G1 X129.019 Y90.709 E0.015
G1 X129.548 Y90.978 E0.014
G1 X130.058 Y91.28 E0.015
G1 X130.549 Y91.613 E0.015
G1 X131.017 Y91.977 E0.015
G1 X131.462 Y92.368 E0.014
G1 X131.882 Y92.788 E0.015
G1 X132.273 Y93.233 E0.015
G1 X132.637 Y93.701 E0.015
G1 X132.97 Y94.192 E0.015
G1 X133.272 Y94.702 E0.014
G1 X133.541 Y95.231 E0.015
G1 X133.777 Y95.775 E0.015
G1 X133.978 Y96.333 E0.015
G1 X134.143 Y96.902 E0.015
G1 X134.273 Y97.481 E0.014
G1 X134.382 Y98.237 E0.019
G1 X134.421 Y98.657 E0.011
G1 X134.44 Y99.259 E0.015
G1 Y120.19 E0.522
G1 X115.56 E0.471
G1 Y99.259 E0.522
;rapid-leaky
G0 X115.88 Y102.051 F7200
;bead-sparse_infill
G1 X115.901 Y102.068 F3306 E0.001
G1 X116.406 Y103.136 E0.029
G1 X116.177 Y104.204 E0.028
G1 X115.88 Y104.658 E0.013
G1 Y110.597 E0.148
G1 X115.901 Y110.613 E0.001
G1 X116.406 Y111.681 E0.029
G1 X116.177 Y112.749 E0.028
G1 X115.88 Y113.203 E0.013
G1 Y119.142 E0.148
G1 X115.901 Y119.158 E0.001
G1 X116.238 Y119.87 E0.02
G1 X119.291 E0.076
G1 X118.372 Y119.158 E0.029
G1 X117.866 Y118.09 E0.029
G1 X118.096 Y117.022 E0.028
G1 X118.794 Y115.954 E0.031
G1 X120.174 Y114.885 E0.044
G1 X120.679 Y113.817 E0.029
G1 X120.449 Y112.749 E0.028
G1 X119.751 Y111.681 E0.031
G1 X118.372 Y110.613 E0.044
G1 X117.866 Y109.545 E0.029
G1 X118.096 Y108.477 E0.028
G1 X118.794 Y107.408 E0.032
G1 X120.174 Y106.34 E0.043
G1 X120.679 Y105.272 E0.03
G1 X120.449 Y104.204 E0.027
G1 X119.751 Y103.136 E0.032
G1 X118.372 Y102.068 E0.043
G1 X117.866 Y101 E0.03
G1 X118.096 Y99.931 E0.027
G1 X118.794 Y98.863 E0.032
G1 X120.174 Y97.795 E0.043
G1 X120.679 Y96.727 E0.03
G1 X120.449 Y95.659 E0.027
G1 X119.751 Y94.591 E0.032
G1 X118.372 Y93.523 E0.043
G1 X118.206 Y93.173 E0.01
G1 X118.352 Y93.008 E0.005
G1 X118.758 Y92.602 E0.015
G1 X119.187 Y92.223 E0.014
G1 X119.639 Y91.872 E0.014
G1 X120.114 Y91.55 E0.015
G1 X120.606 Y91.258 E0.014
G1 X121.117 Y90.999 E0.014
G1 X121.644 Y90.77 E0.015
G1 X122.182 Y90.576 E0.014
G1 X122.194 Y90.573
G1 X122.368 Y91.386 E0.021
G1 X123.067 Y92.454 E0.032
G1 X124.446 Y93.523 E0.043
G1 X124.952 Y94.591 E0.03
G1 X124.722 Y95.659 E0.027
G1 X124.177 Y96.492 E0.025
G1 X124.11 Y96.509 E0.002
G1 X123.736 Y96.659 E0.01
G1 X123.388 Y96.861 E0.01
G1 X123.072 Y97.108 E0.01
G1 X122.793 Y97.396 E0.01
G1 X122.556 Y97.723 E0.01
G1 X122.367 Y98.078 E0.01
G1 X122.229 Y98.455 E0.01
G1 X122.146 Y98.849 E0.01
G1 X122.139 Y98.863
G1 X122.143 Y98.884 E0.001
G1 X122.118 Y99.25 E0.009
G1 X122.145 Y99.65 E0.01
G1 X122.229 Y100.045 E0.01
G1 X122.367 Y100.422 E0.01
G1 X122.556 Y100.777 E0.01
G1 X122.793 Y101.104 E0.01
G1 X123.072 Y101.391 E0.01
G1 X123.388 Y101.639 E0.01
G1 X123.736 Y101.841 E0.01
G1 X124.11 Y101.991 E0.01
G1 X124.45 Y102.076 E0.009
G1 X124.952 Y103.136 E0.029
G1 X124.722 Y104.204 E0.027
G1 X124.023 Y105.272 E0.032
G1 X122.644 Y106.34 E0.044
G1 X122.139 Y107.408 E0.029
G1 X122.368 Y108.477 E0.027
G1 X123.067 Y109.545 E0.032
G1 X124.446 Y110.613 E0.044
G1 X124.952 Y111.681 E0.029
G1 X124.722 Y112.749 E0.028
G1 X124.023 Y113.817 E0.031
G1 X122.644 Y114.885 E0.044
G1 X122.139 Y115.954 E0.029
G1 X122.368 Y117.022 E0.028
G1 X123.067 Y118.09 E0.031
G1 X124.446 Y119.158 E0.044
G1 X124.783 Y119.87 E0.02
G1 X127.836 E0.076
G1 X126.917 Y119.158 E0.029
G1 X126.411 Y118.09 E0.029
G1 X126.641 Y117.022 E0.028
G1 X127.34 Y115.954 E0.031
G1 X128.719 Y114.885 E0.044
G1 X129.224 Y113.817 E0.029
G1 X128.994 Y112.749 E0.028
G1 X128.296 Y111.681 E0.031
G1 X126.917 Y110.613 E0.044
G1 X126.411 Y109.545 E0.029
G1 X126.641 Y108.477 E0.028
G1 X127.34 Y107.408 E0.032
G1 X128.719 Y106.34 E0.043
G1 X129.224 Y105.272 E0.03
G1 X128.994 Y104.204 E0.027
G1 X128.296 Y103.136 E0.032
G1 X126.917 Y102.068 E0.043
G1 X126.686 Y101.581 E0.014
G1 X126.774 Y101.521 E0.002
G1 X127.073 Y101.252 E0.01
G1 X127.332 Y100.945 E0.01
G1 X127.545 Y100.603 E0.01
G1 X127.708 Y100.235 E0.01
G1 X127.819 Y99.85 E0.01
G1 X127.875 Y99.452 E0.01
G1 Y99.048 E0.01
G1 X127.819 Y98.65 E0.011
G1 X127.782 Y98.521 E0.003
G1 X128.719 Y97.795 E0.029
G1 X129.224 Y96.727 E0.03
G1 X128.994 Y95.659 E0.027
G1 X128.296 Y94.591 E0.032
G1 X126.917 Y93.523 E0.044
G1 X126.411 Y92.454 E0.029
G1 X126.641 Y91.386 E0.027
G1 X127.274 Y90.418 E0.029
G1 X127.818 Y90.576 E0.014
G1 X128.357 Y90.77 E0.014
G1 X128.883 Y90.999 E0.015
G1 X129.394 Y91.258 E0.014
G1 X129.886 Y91.55 E0.014
G1 X130.361 Y91.872 E0.015
G1 X130.813 Y92.223 E0.014
G1 X131.242 Y92.602 E0.014
G1 X131.648 Y93.008 E0.015
G1 X132.027 Y93.437 E0.014
G1 X132.378 Y93.889 E0.014
G1 X132.7 Y94.364 E0.014
G1 X132.992 Y94.856 E0.015
G1 X133.251 Y95.367 E0.014
G1 X133.304 Y95.488 E0.003
G1 X133.267 Y95.659 E0.005
G1 X132.568 Y96.727 E0.031
G1 X131.189 Y97.795 E0.044
G1 X130.684 Y98.863 E0.029
G1 X130.913 Y99.931 E0.028
G1 X131.612 Y101 E0.032
G1 X132.991 Y102.068 E0.043
G1 X133.497 Y103.136 E0.03
G1 X133.267 Y104.204 E0.027
G1 X132.568 Y105.272 E0.032
G1 X131.189 Y106.34 E0.043
G1 X130.684 Y107.408 E0.03
G1 X130.913 Y108.477 E0.027
G1 X131.612 Y109.545 E0.032
G1 X132.991 Y110.613 E0.043
G1 X133.497 Y111.681 E0.03
G1 X133.267 Y112.749 E0.027
G1 X132.568 Y113.817 E0.032
G1 X131.189 Y114.885 E0.043
G1 X130.684 Y115.954 E0.03
G1 X130.913 Y117.022 E0.027
G1 X131.612 Y118.09 E0.032
G1 X132.991 Y119.158 E0.043
G1 X133.328 Y119.87 E0.02
G1 F2100 E-0.5
;LAYER:5
;rapid-leaky
G0 X123.77 Y101.074 Z0.8 F7200
G1 F2100 E0.5
;bead-perimeter_outer
G1 X124.035 Y101.228 F1672 E0.008
G1 X124.32 Y101.343 E0.007
G1 X124.618 Y101.417 E0.008
G1 X124.923 Y101.449 E0.008
G1 X125.23 Y101.438 E0.007
G1 X125.533 Y101.386 E0.008
G1 X125.824 Y101.29 E0.008
G1 X126.1 Y101.156 E0.007
G1 X126.355 Y100.984 E0.008
G1 X126.583 Y100.778 E0.008
G1 X126.78 Y100.544 E0.007
G1 X126.943 Y100.283 E0.008
G1 X127.067 Y100.003 E0.008
G1 X127.152 Y99.708 E0.007
G1 X127.195 Y99.404 E0.008
G1 Y99.096 E0.008
G1 X127.152 Y98.792 E0.007
G1 X127.067 Y98.498 E0.008
G1 X126.943 Y98.217 E0.008
G1 X126.78 Y97.956 E0.007
G1 X126.583 Y97.722 E0.008
G1 X126.354 Y97.516 E0.008
G1 X126.1 Y97.344 E0.007
G1 X125.824 Y97.21 E0.008
G1 X125.533 Y97.114 E0.008
G1 X125.23 Y97.062 E0.007
G1 X124.923 Y97.051 E0.008
G1 X124.618 Y97.083 E0.007
G1 X124.32 Y97.157 E0.008
G1 X124.035 Y97.272 E0.008
G1 X123.77 Y97.426 E0.007
G1 X123.528 Y97.615 E0.008
G1 X123.315 Y97.835 E0.008
G1 X123.134 Y98.084 E0.007
G1 X122.99 Y98.355 E0.008
G1 X122.884 Y98.644 E0.008
G1 X122.82 Y98.944 E0.007
G1 X122.8 Y99.25 E0.008
G1 X122.82 Y99.556 E0.008
G1 X122.884 Y99.856 E0.007
G1 X122.99 Y100.144 E0.008
G1 X123.134 Y100.416 E0.008
G1 X123.315 Y100.665 E0.007
G1 X123.528 Y100.885 E0.008
G1 X123.77 Y101.074 E0.008
;rapid-leaky
G0 X123.567 Y101.373 F7200
;bead-perimeter_inner
G1 X123.877 Y101.553 F2230 E0.009
G1 X124.209 Y101.686 E0.009
G1 X124.555 Y101.773 E0.008
G1 X124.911 Y101.81 E0.009
G1 X125.267 Y101.797 E0.009
G1 X125.62 Y101.736 E0.009
G1 X125.96 Y101.624 E0.009
G1 X126.279 Y101.469 E0.009
G1 X126.577 Y101.268 E0.009
G1 X126.843 Y101.029 E0.009
G1 X127.072 Y100.756 E0.009
G1 X127.262 Y100.452 E0.009
G1 X127.406 Y100.126 E0.009
G1 X127.505 Y99.783 E0.008
G1 X127.555 Y99.429 E0.009
G1 Y99.071 E0.009
G1 X127.505 Y98.717 E0.009
G1 X127.407 Y98.374 E0.009
G1 X127.262 Y98.048 E0.009
G1 X127.072 Y97.744 E0.009
G1 X126.842 Y97.471 E0.009
G1 X126.577 Y97.232 E0.009
G1 X126.281 Y97.032 E0.009
G1 X125.96 Y96.876 E0.009
G1 X125.62 Y96.764 E0.009
G1 X125.267 Y96.703 E0.008
G1 X124.911 Y96.69 E0.009
G1 X124.555 Y96.727 E0.009
G1 X124.209 Y96.814 E0.009
G1 X123.877 Y96.947 E0.009
G1 X123.567 Y97.127 E0.009
G1 X123.287 Y97.347 E0.009
G1 X123.038 Y97.603 E0.009
G1 X122.828 Y97.893 E0.009
G1 X122.66 Y98.208 E0.009
G1 X122.537 Y98.544 E0.009
G1 X122.463 Y98.895 E0.009
G1 X122.439 Y99.25 E0.008
G1 X122.463 Y99.606 E0.009
G1 X122.537 Y99.956 E0.009
G1 X122.66 Y100.291 E0.009
G1 X122.828 Y100.607 E0.009
G1 X123.038 Y100.897 E0.009
G1 X123.287 Y101.154 E0.009
G1 X123.567 Y101.373 E0.009
;rapid-leaky
G0 X115.2 Y99.253 F7200
;bead-perimeter_outer
G1 X115.22 Y98.635 F1672 E0.015
G1 X115.278 Y98.022 E0.016
G1 X115.374 Y97.413 E0.015
G1 X115.508 Y96.813 E0.015
G1 X115.679 Y96.222 E0.016
G1 X115.888 Y95.643 E0.015
G1 X116.133 Y95.077 E0.015
G1 X116.412 Y94.528 E0.016
G1 X116.726 Y93.999 E0.015
G1 X117.072 Y93.49 E0.015
G1 X117.449 Y93.004 E0.016
G1 X117.856 Y92.542 E0.015
G1 X118.292 Y92.106 E0.016
G1 X118.754 Y91.699 E0.015
G1 X119.24 Y91.322 E0.015
G1 X119.749 Y90.976 E0.016
G1 X120.278 Y90.662 E0.015
G1 X120.827 Y90.383 E0.015
G1 X121.393 Y90.138 E0.016
G1 X121.972 Y89.929 E0.015
G1 X122.563 Y89.758 E0.015
G1 X123.163 Y89.624 E0.016
G1 X123.772 Y89.528 E0.015
G1 X124.385 Y89.47 E0.015
G1 X125 Y89.45 E0.016
G1 X125.615 Y89.47 E0.015
G1 X126.228 Y89.528 E0.016
G1 X126.837 Y89.624 E0.015
G1 X127.437 Y89.758 E0.015
G1 X128.028 Y89.929 E0.016
G1 X128.607 Y90.138 E0.015
G1 X129.173 Y90.383 E0.015
G1 X129.722 Y90.662 E0.016
G1 X130.251 Y90.976 E0.015
G1 X130.76 Y91.322 E0.015
G1 X131.246 Y91.699 E0.016
G1 X131.708 Y92.106 E0.015
G1 X132.144 Y92.542 E0.015
G1 X132.551 Y93.004 E0.016
G1 X132.928 Y93.49 E0.015
G1 X133.274 Y93.999 E0.016
G1 X133.588 Y94.528 E0.015
G1 X133.867 Y95.077 E0.015
G1 X133.959 Y95.288 E0.006
G1 X134.112 Y95.643 E0.01
G1 X134.321 Y96.222 E0.015
G1 X134.492 Y96.813 E0.015
G1 X134.626 Y97.413 E0.016
G1 X134.722 Y98.022 E0.015
G1 X134.78 Y98.635 E0.015
G1 X134.8 Y99.253 E0.016
G1 Y120.55 E0.531
G1 X115.2 E0.489
G1 Y99.253 E0.531
;rapid-leaky
G0 X115.56 Y99.259 F7200
;bead-perimeter_inner
G1 X115.579 Y98.657 F2230 E0.015
G1 X115.635 Y98.067 E0.015
G1 X115.727 Y97.481 E0.015
G1 X115.857 Y96.902 E0.015
G1 X116.022 Y96.333 E0.014
G1 X116.223 Y95.775 E0.015
G1 X116.459 Y95.231 E0.015
G1 X116.728 Y94.702 E0.015
G1 X117.03 Y94.192 E0.015
G1 X117.363 Y93.701 E0.014
G1 X117.727 Y93.233 E0.015
G1 X118.118 Y92.788 E0.015
G1 X118.538 Y92.368 E0.015
G1 X118.983 Y91.977 E0.015
G1 X119.451 Y91.613 E0.014
G1 X119.942 Y91.28 E0.015
G1 X120.452 Y90.978 E0.015
G1 X120.981 Y90.709 E0.015
G1 X121.526 Y90.473 E0.015
G1 X122.083 Y90.272 E0.014
G1 X122.652 Y90.107 E0.015
G1 X123.231 Y89.977 E0.015
G1 X123.817 Y89.885 E0.015
G1 X124.407 Y89.829 E0.015
G1 X125 Y89.81 E0.014
G1 X125.593 Y89.829 E0.015
G1 X126.183 Y89.885 E0.015
G1 X126.769 Y89.977 E0.015
G1 X127.348 Y90.107 E0.014
G1 X127.917 Y90.272 E0.015
G1 X128.475 Y90.473 E0.015
G1 X129.019 Y90.709 E0.015
G1 X129.548 Y90.978 E0.015
G1 X130.058 Y91.28 E0.014
G1 X130.549 Y91.613 E0.015
G1 X131.017 Y91.977 E0.015
G1 X131.462 Y92.368 E0.015
G1 X131.882 Y92.788 E0.015
G1 X132.273 Y93.233 E0.014
G1 X132.637 Y93.701 E0.015
G1 X132.97 Y94.192 E0.015
G1 X133.272 Y94.702 E0.015
G1 X133.628 Y95.431 E0.02
G1 X133.777 Y95.775 E0.009
G1 X133.978 Y96.333 E0.015
G1 X134.143 Y96.902 E0.015
G1 X134.273 Y97.481 E0.015
G1 X134.365 Y98.067 E0.015
G1 X134.421 Y98.657 E0.014
G1 X134.44 Y99.259 E0.015
G1 Y120.19 E0.522
G1 X115.56 E0.471
G1 Y99.259 E0.523
;rapid-leaky
G0 X115.88 Y101.849 F7200
;bead-sparse_infill
G1 X116.214 Y102.068 F3345 E0.01
G1 X116.569 Y103.136 E0.028
G1 X116.228 Y104.204 E0.028
G1 X115.88 Y104.663 E0.014
G1 Y110.394 E0.143
G1 X116.214 Y110.613 E0.01
G1 X116.569 Y111.681 E0.028
G1 X116.228 Y112.749 E0.028
G1 X115.88 Y113.209 E0.014
G1 Y118.939 E0.143
G1 X116.214 Y119.158 E0.01
G1 X116.451 Y119.87 E0.019
G1 X119.147 E0.067
G1 X118.058 Y119.158 E0.033
G1 X117.704 Y118.09 E0.028
G1 X118.045 Y117.022 E0.028
G1 X118.853 Y115.954 E0.033
G1 X120.487 Y114.885 E0.049
G1 X120.841 Y113.817 E0.028
G1 X120.5 Y112.749 E0.028
G1 X119.692 Y111.681 E0.033
G1 X118.058 Y110.613 E0.049
G1 X117.704 Y109.545 E0.028
G1 X118.045 Y108.477 E0.028
G1 X118.853 Y107.408 E0.033
G1 X120.487 Y106.34 E0.049
G1 X120.841 Y105.272 E0.028
G1 X120.5 Y104.204 E0.028
G1 X119.692 Y103.136 E0.034
G1 X118.058 Y102.068 E0.048
G1 X117.704 Y101 E0.028
G1 X118.045 Y99.931 E0.028
G1 X118.853 Y98.863 E0.034
G1 X120.487 Y97.795 E0.048
G1 X120.841 Y96.727 E0.028
G1 X120.5 Y95.659 E0.028
G1 X119.692 Y94.591 E0.034
G1 X118.058 Y93.523 E0.049
G1 X118.014 Y93.391 E0.003
G1 X118.352 Y93.008 E0.013
G1 X118.758 Y92.602 E0.014
G1 X119.187 Y92.223 E0.014
G1 X119.639 Y91.872 E0.015
G1 X120.114 Y91.55 E0.014
G1 X120.606 Y91.258 E0.014
G1 X121.117 Y90.999 E0.014
G1 X121.644 Y90.77 E0.015
G1 X122.072 Y90.616 E0.011
G1 X122.317 Y91.386 E0.02
G1 X123.126 Y92.454 E0.034
G1 X124.76 Y93.523 E0.048
G1 X125.114 Y94.591 E0.028
G1 X124.773 Y95.659 E0.028
G1 X124.134 Y96.503 E0.027
G1 X124.11 Y96.509
G1 X123.736 Y96.659 E0.011
G1 X123.388 Y96.861 E0.01
G1 X123.072 Y97.108 E0.01
G1 X122.793 Y97.396 E0.01
G1 X122.659 Y97.58 E0.005
G1 X122.331 Y97.795 E0.01
G1 X121.977 Y98.863 E0.028
G1 X122.123 Y99.322 E0.012
G1 X122.145 Y99.65 E0.008
G1 X122.229 Y100.045 E0.01
G1 X122.367 Y100.422 E0.01
G1 X122.556 Y100.777 E0.01
G1 X122.793 Y101.104 E0.011
G1 X123.072 Y101.392 E0.01
G1 X123.388 Y101.639 E0.01
G1 X123.736 Y101.841 E0.01
G1 X124.11 Y101.991 E0.01
G1 X124.499 Y102.089 E0.01
G1 X124.776 Y102.118 E0.007
G1 X125.114 Y103.136 E0.026
G1 X124.773 Y104.204 E0.028
G1 X123.964 Y105.272 E0.034
G1 X122.331 Y106.34 E0.048
G1 X121.977 Y107.408 E0.028
G1 X122.317 Y108.477 E0.028
G1 X123.126 Y109.545 E0.034
G1 X124.76 Y110.613 E0.049
G1 X125.114 Y111.681 E0.028
G1 X124.773 Y112.749 E0.028
G1 X123.964 Y113.817 E0.033
G1 X122.331 Y114.885 E0.049
G1 X121.977 Y115.954 E0.028
G1 X122.317 Y117.022 E0.028
G1 X123.126 Y118.09 E0.033
G1 X124.76 Y119.158 E0.049
G1 X124.996 Y119.87 E0.019
G1 X127.692 E0.067
G1 X126.603 Y119.158 E0.032
G1 X126.249 Y118.09 E0.028
G1 X126.59 Y117.022 E0.028
G1 X127.399 Y115.954 E0.034
G1 X129.032 Y114.885 E0.048
G1 X129.386 Y113.817 E0.028
G1 X129.046 Y112.749 E0.028
G1 X128.237 Y111.681 E0.034
G1 X126.603 Y110.613 E0.049
G1 X126.249 Y109.545 E0.028
G1 X126.59 Y108.477 E0.028
G1 X127.399 Y107.408 E0.033
G1 X129.032 Y106.34 E0.049
G1 X129.386 Y105.272 E0.028
G1 X129.046 Y104.204 E0.028
G1 X128.237 Y103.136 E0.033
G1 X126.603 Y102.068 E0.049
G1 X126.486 Y101.715 E0.009
G1 X126.775 Y101.521 E0.009
G1 X127.073 Y101.252 E0.01
G1 X127.332 Y100.945 E0.01
G1 X127.545 Y100.602 E0.01
G1 X127.708 Y100.236 E0.01
G1 X127.819 Y99.85 E0.01
G1 X127.875 Y99.452 E0.01
G1 Y99.048 E0.01
G1 X127.819 Y98.65 E0.01
G1 X127.804 Y98.598 E0.001
G1 X129.032 Y97.795 E0.037
G1 X129.386 Y96.727 E0.028
G1 X129.046 Y95.659 E0.028
G1 X128.237 Y94.591 E0.033
G1 X126.603 Y93.523 E0.049
G1 X126.249 Y92.454 E0.028
G1 X126.59 Y91.386 E0.028
G1 X127.314 Y90.43 E0.03
G1 X127.818 Y90.576 E0.013
G1 X128.357 Y90.77 E0.014
G1 X128.883 Y90.999 E0.015
G1 X129.394 Y91.258 E0.014
G1 X129.886 Y91.55 E0.014
G1 X130.361 Y91.872 E0.015
G1 X130.813 Y92.223 E0.014
G1 X131.242 Y92.602 E0.014
G1 X131.648 Y93.008 E0.015
G1 X132.027 Y93.437 E0.014
G1 X132.378 Y93.889 E0.014
G1 X132.7 Y94.364 E0.014
G1 X132.99 Y94.854 E0.015
G1 X133.338 Y95.565 E0.019
G1 X133.344 Y95.579 E0.001
G1 X133.318 Y95.659 E0.002
G1 X132.509 Y96.727 E0.033
G1 X130.876 Y97.795 E0.049
G1 X130.522 Y98.863 E0.028
G1 X130.862 Y99.931 E0.028
G1 X131.671 Y101 E0.033
G1 X133.305 Y102.068 E0.049
G1 X133.659 Y103.136 E0.028
G1 X133.318 Y104.204 E0.028
G1 X132.509 Y105.272 E0.034
G1 X130.876 Y106.34 E0.048
G1 X130.522 Y107.408 E0.028
G1 X130.862 Y108.477 E0.028
G1 X131.671 Y109.545 E0.034
G1 X133.305 Y110.613 E0.048
G1 X133.659 Y111.681 E0.028
G1 X133.318 Y112.749 E0.028
G1 X132.509 Y113.817 E0.034
G1 X130.876 Y114.885 E0.049
G1 X130.522 Y115.954 E0.028
G1 X130.862 Y117.022 E0.028
G1 X131.671 Y118.09 E0.033
G1 X133.305 Y119.158 E0.049
G1 X133.541 Y119.87 E0.018
G1 F2100 E-0.5
;LAYER:6
;rapid-leaky
G0 X126.78 Y100.544 Z0.95 F7200
G1 F2100 E0.5
;bead-perimeter_outer
G1 X126.943 Y100.283 F1719 E0.008
G1 X127.067 Y100.003 E0.008
G1 X127.106 Y99.868 E0.003
G1 X127.152 Y99.708 E0.004
G1 X127.195 Y99.404 E0.008
G1 Y99.096 E0.008
G1 X127.152 Y98.792 E0.007
G1 X127.067 Y98.498 E0.008
G1 X126.943 Y98.217 E0.008
G1 X126.78 Y97.956 E0.007
G1 X126.583 Y97.721 E0.008
G1 X126.354 Y97.516 E0.008
G1 X126.1 Y97.344 E0.007
G1 X125.824 Y97.21 E0.008
G1 X125.533 Y97.114 E0.008
G1 X125.23 Y97.062 E0.007
G1 X124.923 Y97.051 E0.008
G1 X124.618 Y97.083 E0.008
G1 X124.32 Y97.157 E0.007
G1 X124.035 Y97.272 E0.008
G1 X123.77 Y97.426 E0.008
G1 X123.528 Y97.615 E0.007
G1 X123.315 Y97.835 E0.008
G1 X123.134 Y98.084 E0.008
G1 X122.99 Y98.355 E0.007
G1 X122.884 Y98.644 E0.008
G1 X122.821 Y98.944 E0.008
G1 X122.81 Y99.083 E0.003
G1 X122.8 Y99.25 E0.004
G1 X122.82 Y99.556 E0.008
G1 X122.884 Y99.856 E0.007
G1 X122.99 Y100.145 E0.008
G1 X123.134 Y100.416 E0.008
G1 X123.315 Y100.665 E0.007
G1 X123.528 Y100.885 E0.008
G1 X123.77 Y101.074 E0.008
G1 X124.035 Y101.228 E0.007
G1 X124.32 Y101.343 E0.008
G1 X124.618 Y101.417 E0.008
G1 X124.923 Y101.449 E0.007
G1 X125.23 Y101.438 E0.008
G1 X125.533 Y101.386 E0.008
G1 X125.824 Y101.29 E0.007
G1 X126.1 Y101.156 E0.008
G1 X126.354 Y100.984 E0.008
G1 X126.583 Y100.778 E0.007
G1 X126.78 Y100.544 E0.008
;rapid-leaky
G0 X127.072 Y100.756 F7200
;bead-perimeter_inner
G1 X127.262 Y100.452 F2292 E0.009
G1 X127.406 Y100.126 E0.009
G1 X127.452 Y99.968 E0.004
G1 X127.505 Y99.783 E0.005
G1 X127.555 Y99.429 E0.009
G1 Y99.071 E0.009
G1 X127.505 Y98.717 E0.009
G1 X127.407 Y98.374 E0.008
G1 X127.262 Y98.048 E0.009
G1 X127.073 Y97.745 E0.009
G1 X126.842 Y97.47 E0.009
G1 X126.577 Y97.232 E0.009
G1 X126.281 Y97.032 E0.009
G1 X125.96 Y96.876 E0.009
G1 X125.62 Y96.764 E0.009
G1 X125.267 Y96.703 E0.009
G1 X124.911 Y96.69 E0.009
G1 X124.555 Y96.727 E0.009
G1 X124.209 Y96.814 E0.008
G1 X123.877 Y96.947 E0.009
G1 X123.567 Y97.127 E0.009
G1 X123.287 Y97.347 E0.009
G1 X123.038 Y97.603 E0.009
G1 X122.828 Y97.893 E0.009
G1 X122.66 Y98.208 E0.009
G1 X122.537 Y98.544 E0.009
G1 X122.463 Y98.893 E0.009
G1 X122.451 Y99.059 E0.004
G1 X122.439 Y99.251 E0.005
G1 X122.463 Y99.606 E0.009
G1 X122.537 Y99.956 E0.009
G1 X122.66 Y100.292 E0.008
G1 X122.828 Y100.607 E0.009
G1 X123.038 Y100.897 E0.009
G1 X123.287 Y101.154 E0.009
G1 X123.567 Y101.373 E0.009
G1 X123.877 Y101.553 E0.009
G1 X124.208 Y101.686 E0.009
G1 X124.556 Y101.773 E0.009
G1 X124.911 Y101.81 E0.009
G1 X125.267 Y101.797 E0.009
G1 X125.62 Y101.736 E0.009
G1 X125.96 Y101.624 E0.009
G1 X126.281 Y101.468 E0.008
G1 X126.576 Y101.269 E0.009
G1 X126.843 Y101.029 E0.009
G1 X127.072 Y100.756 E0.009
;rapid-leaky
G0 X134.8 Y99.253 F7200
;bead-perimeter_outer
G1 Y120.55 F1719 E0.531
G1 X115.2 E0.489
G1 Y99.253 E0.532
G1 X115.22 Y98.635 E0.015
G1 X115.278 Y98.022 E0.015
G1 X115.374 Y97.413 E0.016
G1 X115.508 Y96.813 E0.015
G1 X115.679 Y96.222 E0.015
G1 X115.888 Y95.643 E0.016
G1 X116.133 Y95.077 E0.015
G1 X116.412 Y94.528 E0.016
G1 X116.726 Y93.999 E0.015
G1 X117.072 Y93.49 E0.015
G1 X117.449 Y93.004 E0.016
G1 X117.856 Y92.542 E0.015
G1 X118.292 Y92.106 E0.015
G1 X118.499 Y91.923 E0.007
G1 X118.754 Y91.699 E0.009
G1 X119.24 Y91.322 E0.015
G1 X119.749 Y90.976 E0.015
G1 X120.278 Y90.662 E0.016
G1 X120.827 Y90.383 E0.015
G1 X121.393 Y90.138 E0.015
G1 X121.972 Y89.929 E0.016
G1 X122.563 Y89.758 E0.015
G1 X123.163 Y89.624 E0.016
G1 X123.772 Y89.528 E0.015
G1 X124.385 Y89.47 E0.015
G1 X125 Y89.45 E0.016
G1 X125.615 Y89.47 E0.015
G1 X126.228 Y89.528 E0.015
G1 X126.837 Y89.624 E0.016
G1 X127.437 Y89.758 E0.015
G1 X128.028 Y89.929 E0.015
G1 X128.607 Y90.138 E0.016
G1 X129.173 Y90.383 E0.015
G1 X129.722 Y90.662 E0.015
G1 X130.251 Y90.976 E0.016
G1 X130.76 Y91.322 E0.015
G1 X131.246 Y91.699 E0.016
G1 X131.708 Y92.106 E0.015
G1 X132.144 Y92.542 E0.015
G1 X132.551 Y93.004 E0.016
G1 X132.928 Y93.49 E0.015
G1 X133.274 Y93.999 E0.015
G1 X133.588 Y94.528 E0.016
G1 X133.867 Y95.077 E0.015
G1 X134.112 Y95.643 E0.015
G1 X134.321 Y96.222 E0.016
G1 X134.492 Y96.813 E0.015
G1 X134.626 Y97.413 E0.015
G1 X134.723 Y98.022 E0.016
G1 X134.749 Y98.297 E0.007
G1 X134.78 Y98.634 E0.008
G1 X134.8 Y99.253 E0.016
;rapid-leaky
G0 X134.44 Y99.259 F7200
;bead-perimeter_inner
G1 Y120.19 F2292 E0.522
G1 X115.56 E0.471
G1 Y99.259 E0.522
G1 X115.579 Y98.657 E0.015
G1 X115.635 Y98.067 E0.015
G1 X115.727 Y97.481 E0.014
G1 X115.857 Y96.902 E0.015
G1 X116.022 Y96.333 E0.015
G1 X116.223 Y95.775 E0.015
G1 X116.459 Y95.231 E0.015
G1 X116.728 Y94.702 E0.014
G1 X117.03 Y94.192 E0.015
G1 X117.363 Y93.701 E0.015
G1 X117.727 Y93.233 E0.015
G1 X118.118 Y92.788 E0.015
G1 X118.539 Y92.368 E0.014
G1 X118.737 Y92.193 E0.007
G1 X118.983 Y91.977 E0.008
G1 X119.451 Y91.613 E0.015
G1 X119.942 Y91.28 E0.015
G1 X120.452 Y90.978 E0.015
G1 X120.981 Y90.709 E0.014
G1 X121.525 Y90.473 E0.015
G1 X122.083 Y90.272 E0.015
G1 X122.653 Y90.107 E0.015
G1 X123.231 Y89.977 E0.014
G1 X123.817 Y89.885 E0.015
G1 X124.407 Y89.829 E0.015
G1 X125 Y89.81 E0.015
G1 X125.593 Y89.829 E0.015
G1 X126.183 Y89.885 E0.014
G1 X126.769 Y89.977 E0.015
G1 X127.348 Y90.107 E0.015
G1 X127.917 Y90.272 E0.015
G1 X128.475 Y90.473 E0.015
G1 X129.019 Y90.709 E0.014
G1 X129.548 Y90.978 E0.015
G1 X130.058 Y91.28 E0.015
G1 X130.549 Y91.613 E0.015
G1 X131.017 Y91.977 E0.015
G1 X131.462 Y92.368 E0.014
G1 X131.882 Y92.788 E0.015
G1 X132.273 Y93.233 E0.015
G1 X132.637 Y93.701 E0.015
G1 X132.97 Y94.192 E0.015
G1 X133.272 Y94.702 E0.014
G1 X133.541 Y95.231 E0.015
G1 X133.777 Y95.775 E0.015
G1 X133.978 Y96.333 E0.015
G1 X134.143 Y96.902 E0.015
G1 X134.273 Y97.481 E0.014
G1 X134.365 Y98.067 E0.015
G1 X134.39 Y98.331 E0.007
G1 X134.421 Y98.657 E0.008
G1 X134.44 Y99.259 E0.015
;rapid-leaky
G0 X133.869 Y119.87 F7200
;bead-sparse_infill
G1 X133.914 Y119.158 F3438 E0.018
G1 X131.728 Y118.09 E0.06
G1 X130.799 Y117.022 E0.036
G1 X130.335 Y115.954 E0.029
G1 X130.267 Y114.885 E0.026
G1 X132.453 Y113.817 E0.061
G1 X133.381 Y112.749 E0.035
G1 X133.846 Y111.681 E0.03
G1 X133.914 Y110.613 E0.026
G1 X131.728 Y109.545 E0.061
G1 X130.799 Y108.477 E0.035
G1 X130.335 Y107.408 E0.029
G1 X130.267 Y106.34 E0.027
G1 X132.453 Y105.272 E0.061
G1 X133.381 Y104.204 E0.035
G1 X133.846 Y103.136 E0.029
G1 X133.914 Y102.068 E0.027
G1 X131.728 Y101 E0.06
G1 X130.799 Y99.931 E0.036
G1 X130.335 Y98.863 E0.029
G1 X130.267 Y97.795 E0.026
G1 X132.453 Y96.727 E0.061
G1 X133.379 Y95.661 E0.035
G1 X133.251 Y95.367 E0.008
G1 X132.992 Y94.856 E0.015
G1 X132.7 Y94.364 E0.014
G1 X132.378 Y93.889 E0.014
G1 X132.027 Y93.437 E0.015
G1 X131.648 Y93.008 E0.014
G1 X131.242 Y92.602 E0.014
G1 X130.813 Y92.223 E0.014
G1 X130.361 Y91.872 E0.015
G1 X129.886 Y91.55 E0.014
G1 X129.394 Y91.258 E0.014
G1 X128.883 Y90.999 E0.015
G1 X128.357 Y90.77 E0.014
G1 X127.818 Y90.576 E0.014
G1 X127.349 Y90.44 E0.012
G1 X126.527 Y91.386 E0.032
G1 X126.062 Y92.454 E0.029
G1 X125.994 Y93.523 E0.026
G1 X128.18 Y94.591 E0.061
G1 X129.108 Y95.659 E0.035
G1 X129.573 Y96.727 E0.029
G1 X129.641 Y97.795 E0.027
G1 X127.823 Y98.683 E0.051
G1 X127.875 Y99.048 E0.009
G1 Y99.452 E0.01
G1 X127.819 Y99.849 E0.01
G1 X127.76 Y100.056 E0.005
G1 X127.708 Y100.236 E0.005
G1 X127.545 Y100.602 E0.01
G1 X127.332 Y100.945 E0.01
G1 X127.074 Y101.252 E0.01
G1 X126.773 Y101.522 E0.01
G1 X126.441 Y101.746 E0.01
G1 X126.08 Y101.922 E0.01
G1 X126.002 Y101.947 E0.002
G1 X125.994 Y102.068 E0.003
G1 X128.18 Y103.136 E0.061
G1 X129.108 Y104.204 E0.035
G1 X129.573 Y105.272 E0.029
G1 X129.641 Y106.34 E0.027
G1 X127.455 Y107.408 E0.061
G1 X126.527 Y108.477 E0.035
G1 X126.062 Y109.545 E0.029
G1 X125.994 Y110.613 E0.027
G1 X128.18 Y111.681 E0.06
G1 X129.108 Y112.749 E0.036
G1 X129.573 Y113.817 E0.029
G1 X129.641 Y114.885 E0.026
G1 X127.455 Y115.954 E0.061
G1 X126.527 Y117.022 E0.035
G1 X126.062 Y118.09 E0.029
G1 X125.994 Y119.158 E0.027
G1 X127.452 Y119.87 E0.041
G1 X125.323 E0.053
G1 X125.369 Y119.158 E0.017
G1 X123.182 Y118.09 E0.061
G1 X122.254 Y117.022 E0.035
G1 X121.789 Y115.954 E0.03
G1 X121.722 Y114.885 E0.026
G1 X123.908 Y113.817 E0.061
G1 X124.836 Y112.749 E0.035
G1 X125.301 Y111.681 E0.029
G1 X125.369 Y110.613 E0.027
G1 X123.182 Y109.545 E0.061
G1 X122.254 Y108.477 E0.035
G1 X121.789 Y107.408 E0.029
G1 X121.722 Y106.34 E0.027
G1 X123.908 Y105.272 E0.06
G1 X124.836 Y104.204 E0.036
G1 X125.301 Y103.136 E0.029
G1 X125.366 Y102.105 E0.026
G1 X125.301 Y102.116 E0.001
G1 X124.9 Y102.131 E0.01
G1 X124.5 Y102.089 E0.01
G1 X124.109 Y101.991 E0.01
G1 X123.736 Y101.841 E0.01
G1 X123.388 Y101.639 E0.01
G1 X123.072 Y101.392 E0.01
G1 X122.793 Y101.104 E0.01
G1 X122.556 Y100.777 E0.01
G1 X122.367 Y100.422 E0.01
G1 X122.229 Y100.045 E0.01
G1 X122.158 Y99.71 E0.009
G1 X121.789 Y98.863 E0.023
G1 X121.722 Y97.795 E0.027
G1 X123.022 Y97.16 E0.036
G1 X123.072 Y97.108 E0.002
G1 X123.388 Y96.861 E0.01
G1 X123.736 Y96.659 E0.01
G1 X124.09 Y96.517 E0.009
G1 X124.836 Y95.659 E0.029
G1 X125.301 Y94.591 E0.029
G1 X125.369 Y93.523 E0.026
G1 X123.182 Y92.454 E0.061
G1 X122.254 Y91.386 E0.035
G1 X121.94 Y90.664 E0.02
G1 X121.643 Y90.77 E0.008
G1 X121.117 Y90.999 E0.014
G1 X120.606 Y91.258 E0.014
G1 X120.114 Y91.55 E0.015
G1 X119.639 Y91.872 E0.014
G1 X119.187 Y92.224 E0.014
G1 X118.949 Y92.433 E0.008
G1 X118.758 Y92.602 E0.007
G1 X118.352 Y93.008 E0.014
G1 X117.973 Y93.437 E0.014
G1 X117.781 Y93.685 E0.008
G1 X119.635 Y94.591 E0.051
G1 X120.563 Y95.659 E0.036
G1 X121.028 Y96.727 E0.029
G1 X121.096 Y97.795 E0.027
G1 X118.91 Y98.863 E0.06
G1 X117.982 Y99.931 E0.036
G1 X117.517 Y101 E0.029
G1 X117.449 Y102.068 E0.026
G1 X119.635 Y103.136 E0.061
G1 X120.563 Y104.204 E0.035
G1 X121.028 Y105.272 E0.029
G1 X121.096 Y106.34 E0.027
G1 X118.91 Y107.408 E0.061
G1 X117.982 Y108.477 E0.035
G1 X117.517 Y109.545 E0.029
G1 X117.449 Y110.613 E0.027
G1 X119.635 Y111.681 E0.06
G1 X120.563 Y112.749 E0.036
G1 X121.028 Y113.817 E0.029
G1 X121.096 Y114.885 E0.027
G1 X118.91 Y115.954 E0.06
G1 X117.982 Y117.022 E0.036
G1 X117.517 Y118.09 E0.029
G1 X117.449 Y119.158 E0.026
G1 X118.906 Y119.87 E0.041
G1 X116.778 E0.053
G1 X116.824 Y119.158 E0.018
G1 X115.88 Y118.697 E0.026
G1 Y113.222 E0.136
G1 X116.291 Y112.749 E0.016
G1 X116.756 Y111.681 E0.029
G1 X116.824 Y110.613 E0.027
G1 X115.88 Y110.152 E0.026
G1 Y104.677 E0.137
G1 X116.291 Y104.204 E0.015
G1 X116.756 Y103.136 E0.029
G1 X116.824 Y102.068 E0.027
G1 X115.88 Y101.607 E0.026
G1 F2100 E-0.5
;LAYER:7
;rapid-dry
G0 X126.583 Y97.722 Z1.1 F7200
G1 F2100 E0.5
;bead-perimeter_outer
G1 X126.354 Y97.516 F1716 E0.008
G1 X126.1 Y97.344 E0.007
G1 X125.824 Y97.21 E0.008
G1 X125.533 Y97.114 E0.008
G1 X125.23 Y97.062 E0.007
G1 X124.923 Y97.051 E0.008
G1 X124.618 Y97.083 E0.008
G1 X124.32 Y97.157 E0.007
G1 X124.035 Y97.272 E0.008
G1 X123.77 Y97.426 E0.008
G1 X123.528 Y97.615 E0.007
G1 X123.315 Y97.835 E0.008
G1 X123.134 Y98.084 E0.008
G1 X122.99 Y98.355 E0.007
G1 X122.884 Y98.644 E0.008
G1 X122.82 Y98.944 E0.008
G1 X122.8 Y99.25 E0.007
G1 X122.82 Y99.556 E0.008
G1 X122.884 Y99.856 E0.008
G1 X122.99 Y100.145 E0.007
G1 X123.134 Y100.416 E0.008
G1 X123.315 Y100.665 E0.008
G1 X123.528 Y100.885 E0.007
G1 X123.654 Y100.984 E0.004
G1 X123.77 Y101.074 E0.004
G1 X124.035 Y101.228 E0.008
G1 X124.32 Y101.343 E0.007
G1 X124.618 Y101.417 E0.008
G1 X124.923 Y101.449 E0.008
G1 X125.23 Y101.438 E0.007
G1 X125.533 Y101.386 E0.008
G1 X125.824 Y101.29 E0.008
G1 X126.1 Y101.156 E0.007
G1 X126.354 Y100.984 E0.008
G1 X126.583 Y100.778 E0.008
G1 X126.78 Y100.544 E0.007
G1 X126.943 Y100.283 E0.008
G1 X127.067 Y100.002 E0.008
G1 X127.152 Y99.708 E0.007
G1 X127.195 Y99.404 E0.008
G1 Y99.096 E0.007
G1 X127.152 Y98.793 E0.008
G1 X127.067 Y98.497 E0.008
G1 X126.943 Y98.217 E0.007
G1 X126.78 Y97.956 E0.008
G1 X126.583 Y97.722 E0.008
;rapid-leaky
G0 X126.843 Y97.471 F7200
;bead-perimeter_inner
G1 X126.577 Y97.232 F2287 E0.009
G1 X126.281 Y97.032 E0.009
G1 X125.96 Y96.876 E0.008
G1 X125.62 Y96.764 E0.009
G1 X125.267 Y96.703 E0.009
G1 X124.911 Y96.69 E0.009
G1 X124.555 Y96.727 E0.009
G1 X124.209 Y96.814 E0.009
G1 X123.877 Y96.947 E0.009
G1 X123.567 Y97.127 E0.009
G1 X123.287 Y97.347 E0.009
G1 X123.038 Y97.603 E0.009
G1 X122.828 Y97.893 E0.009
G1 X122.66 Y98.208 E0.009
G1 X122.537 Y98.544 E0.008
G1 X122.463 Y98.894 E0.009
G1 X122.439 Y99.25 E0.009
G1 X122.463 Y99.606 E0.009
G1 X122.537 Y99.956 E0.009
G1 X122.66 Y100.292 E0.009
G1 X122.828 Y100.607 E0.009
G1 X123.038 Y100.897 E0.009
G1 X123.287 Y101.153 E0.009
G1 X123.432 Y101.267 E0.004
G1 X123.568 Y101.373 E0.005
G1 X123.877 Y101.553 E0.009
G1 X124.208 Y101.686 E0.009
G1 X124.556 Y101.773 E0.008
G1 X124.911 Y101.81 E0.009
G1 X125.267 Y101.797 E0.009
G1 X125.62 Y101.736 E0.009
G1 X125.96 Y101.624 E0.009
G1 X126.281 Y101.468 E0.009
G1 X126.577 Y101.268 E0.009
G1 X126.843 Y101.029 E0.009
G1 X127.072 Y100.756 E0.009
G1 X127.262 Y100.452 E0.009
G1 X127.407 Y100.126 E0.009
G1 X127.505 Y99.783 E0.008
G1 X127.555 Y99.429 E0.009
G1 Y99.071 E0.009
G1 X127.505 Y98.718 E0.009
G1 X127.406 Y98.373 E0.009
G1 X127.262 Y98.048 E0.009
G1 X127.072 Y97.744 E0.009
G1 X126.843 Y97.471 E0.009
;rapid-leaky
G0 X132.144 Y92.542 F7200
;bead-perimeter_outer
G1 X132.551 Y93.004 F1716 E0.015
G1 X132.928 Y93.49 E0.016
G1 X133.274 Y93.999 E0.015
G1 X133.588 Y94.528 E0.015
G1 X133.867 Y95.077 E0.016
G1 X134.112 Y95.643 E0.015
G1 X134.321 Y96.222 E0.015
G1 X134.492 Y96.813 E0.016
G1 X134.626 Y97.413 E0.015
G1 X134.722 Y98.022 E0.015
G1 X134.753 Y98.344 E0.009
G1 X134.78 Y98.635 E0.007
G1 X134.8 Y99.253 E0.015
G1 Y120.55 E0.531
G1 X115.2 E0.489
G1 Y99.253 E0.532
G1 X115.22 Y98.635 E0.015
G1 X115.278 Y98.022 E0.015
G1 X115.328 Y97.702 E0.009
G1 X115.374 Y97.414 E0.007
G1 X115.508 Y96.813 E0.015
G1 X115.679 Y96.222 E0.016
G1 X115.888 Y95.643 E0.015
G1 X116.133 Y95.077 E0.015
G1 X116.412 Y94.528 E0.016
G1 X116.726 Y93.999 E0.015
G1 X117.072 Y93.49 E0.015
G1 X117.449 Y93.004 E0.016
G1 X117.856 Y92.542 E0.015
G1 X118.292 Y92.106 E0.015
G1 X118.754 Y91.699 E0.016
G1 X119.24 Y91.322 E0.015
G1 X119.749 Y90.976 E0.015
G1 X120.278 Y90.662 E0.016
G1 X120.827 Y90.383 E0.015
G1 X121.393 Y90.138 E0.016
G1 X121.972 Y89.929 E0.015
G1 X122.563 Y89.758 E0.015
G1 X123.163 Y89.624 E0.016
G1 X123.772 Y89.528 E0.015
G1 X124.385 Y89.47 E0.015
G1 X125 Y89.45 E0.016
G1 X125.615 Y89.47 E0.015
G1 X126.228 Y89.528 E0.015
G1 X126.548 Y89.578 E0.008
G1 X126.836 Y89.624 E0.008
G1 X127.437 Y89.758 E0.015
G1 X128.028 Y89.929 E0.015
G1 X128.607 Y90.138 E0.016
G1 X129.173 Y90.383 E0.015
G1 X129.722 Y90.662 E0.016
G1 X130.251 Y90.976 E0.015
G1 X130.76 Y91.322 E0.015
G1 X131.246 Y91.699 E0.016
G1 X131.708 Y92.106 E0.015
G1 X132.144 Y92.542 E0.015
;rapid-leaky
G0 X131.882 Y92.788 F7200
;bead-perimeter_inner
G1 X132.273 Y93.233 F2287 E0.015
G1 X132.637 Y93.701 E0.015
G1 X132.97 Y94.192 E0.015
G1 X133.272 Y94.702 E0.014
G1 X133.541 Y95.231 E0.015
G1 X133.777 Y95.775 E0.015
G1 X133.978 Y96.333 E0.015
G1 X134.143 Y96.902 E0.015
G1 X134.273 Y97.481 E0.014
G1 X134.365 Y98.067 E0.015
G1 X134.421 Y98.657 E0.015
G1 X134.44 Y99.259 E0.015
G1 Y120.19 E0.522
G1 X115.56 E0.471
G1 Y99.259 E0.522
G1 X115.579 Y98.657 E0.015
G1 X115.635 Y98.067 E0.015
G1 X115.683 Y97.758 E0.008
G1 X115.727 Y97.481 E0.007
G1 X115.857 Y96.902 E0.015
G1 X116.022 Y96.333 E0.014
G1 X116.223 Y95.775 E0.015
G1 X116.459 Y95.231 E0.015
G1 X116.728 Y94.702 E0.015
G1 X117.03 Y94.192 E0.015
G1 X117.363 Y93.701 E0.014
G1 X117.727 Y93.233 E0.015
G1 X118.118 Y92.788 E0.015
G1 X118.538 Y92.368 E0.015
G1 X118.983 Y91.977 E0.015
G1 X119.451 Y91.613 E0.014
G1 X119.942 Y91.28 E0.015
G1 X120.452 Y90.978 E0.015
G1 X120.981 Y90.709 E0.015
G1 X121.526 Y90.473 E0.015
G1 X122.083 Y90.272 E0.014
G1 X122.652 Y90.107 E0.015
G1 X123.231 Y89.977 E0.015
G1 X123.817 Y89.885 E0.015
G1 X124.407 Y89.829 E0.015
G1 X125 Y89.81 E0.014
G1 X125.593 Y89.829 E0.015
G1 X126.183 Y89.885 E0.015
G1 X126.491 Y89.933 E0.008
G1 X126.769 Y89.977 E0.007
G1 X127.348 Y90.107 E0.015
G1 X127.917 Y90.272 E0.014
G1 X128.475 Y90.473 E0.015
G1 X129.019 Y90.709 E0.015
G1 X129.548 Y90.978 E0.015
G1 X130.058 Y91.28 E0.014
G1 X130.549 Y91.613 E0.015
G1 X131.017 Y91.977 E0.015
G1 X131.462 Y92.368 E0.015
G1 X131.882 Y92.788 E0.015
;rapid-leaky
G0 X127.415 Y90.46 F7200
;bead-sparse_infill
G1 X126.75 Y90.981 F3431 E0.021
G1 X125.681 Y92.7 E0.05
G1 X124.613 Y92.998 E0.028
G1 X123.545 Y92.628 E0.028
G1 X122.477 Y91.792 E0.034
G1 X121.806 Y90.712 E0.032
G1 X121.644 Y90.77 E0.004
G1 X121.117 Y90.999 E0.014
G1 X120.606 Y91.258 E0.015
G1 X120.114 Y91.55 E0.014
G1 X119.639 Y91.872 E0.014
G1 X119.187 Y92.223 E0.014
G1 X118.758 Y92.602 E0.015
G1 X118.352 Y93.008 E0.014
G1 X117.973 Y93.437 E0.014
G1 X117.622 Y93.889 E0.015
G1 X117.354 Y94.284 E0.011
G1 X118.204 Y94.047 E0.023
G1 X119.273 Y94.417 E0.028
G1 X120.341 Y95.254 E0.034
G1 X121.409 Y96.973 E0.05
G1 X122.477 Y97.27 E0.028
G1 X123.172 Y97.03 E0.018
G1 X123.388 Y96.861 E0.007
G1 X123.736 Y96.659 E0.01
G1 X123.977 Y96.562 E0.006
G1 X124.613 Y96.064 E0.021
G1 X125.681 Y94.345 E0.05
G1 X126.75 Y94.047 E0.028
G1 X127.818 Y94.417 E0.028
G1 X128.886 Y95.254 E0.034
G1 X129.954 Y96.973 E0.05
G1 X131.022 Y97.27 E0.028
G1 X132.09 Y96.901 E0.028
G1 X133.158 Y96.064 E0.034
G1 X133.391 Y95.689 E0.011
G1 X133.48 Y95.893 E0.005
G1 X133.674 Y96.432 E0.015
G1 X133.833 Y96.982 E0.014
G1 X133.958 Y97.541 E0.014
G1 X134.047 Y98.107 E0.015
G1 X134.101 Y98.677 E0.014
G1 X134.12 Y99.264 E0.015
G1 Y101.275 E0.05
G1 X133.158 Y101.543 E0.025
G1 X132.09 Y101.173 E0.028
G1 X131.022 Y100.337 E0.034
G1 X129.954 Y98.617 E0.05
G1 X128.886 Y98.32 E0.028
G1 X127.824 Y98.687 E0.028
G1 X127.875 Y99.048 E0.009
G1 Y99.452 E0.01
G1 X127.819 Y99.85 E0.01
G1 X127.708 Y100.235 E0.01
G1 X127.545 Y100.602 E0.01
G1 X127.332 Y100.945 E0.01
G1 X127.073 Y101.252 E0.01
G1 X126.774 Y101.521 E0.01
G1 X126.441 Y101.746 E0.01
G1 X126.08 Y101.922 E0.01
G1 X125.698 Y102.047 E0.01
G1 X125.301 Y102.116 E0.01
G1 X124.9 Y102.131 E0.01
G1 X124.5 Y102.089 E0.01
G1 X124.109 Y101.991 E0.01
G1 X123.736 Y101.841 E0.01
G1 X123.388 Y101.639 E0.01
G1 X123.235 Y101.519 E0.005
G1 X123.072 Y101.392 E0.005
G1 X122.793 Y101.104 E0.01
G1 X122.556 Y100.777 E0.011
G1 X122.367 Y100.422 E0.01
G1 X122.229 Y100.045 E0.01
G1 X122.195 Y99.882 E0.004
G1 X121.409 Y98.617 E0.037
G1 X120.341 Y98.32 E0.028
G1 X119.273 Y98.689 E0.028
G1 X118.204 Y99.526 E0.034
G1 X117.136 Y101.245 E0.05
G1 X116.068 Y101.543 E0.028
G1 X115.88 Y101.478 E0.005
G1 Y104.757 E0.081
G1 X116.068 Y104.609 E0.006
G1 X117.136 Y102.89 E0.051
G1 X118.204 Y102.593 E0.028
G1 X119.273 Y102.962 E0.028
G1 X120.341 Y103.799 E0.034
G1 X121.409 Y105.518 E0.05
G1 X122.477 Y105.815 E0.028
G1 X123.545 Y105.446 E0.028
G1 X124.613 Y104.609 E0.034
G1 X125.681 Y102.89 E0.05
G1 X126.75 Y102.593 E0.028
G1 X127.818 Y102.962 E0.028
G1 X128.886 Y103.799 E0.034
G1 X129.954 Y105.518 E0.05
G1 X131.022 Y105.815 E0.028
G1 X132.09 Y105.446 E0.028
G1 X133.158 Y104.609 E0.034
G1 X134.12 Y103.061 E0.046
G1 Y109.82 E0.168
G1 X133.158 Y110.088 E0.025
G1 X132.09 Y109.719 E0.028
G1 X131.022 Y108.882 E0.034
G1 X129.954 Y107.163 E0.051
G1 X128.886 Y106.865 E0.027
G1 X127.818 Y107.235 E0.029
G1 X126.75 Y108.071 E0.033
G1 X125.681 Y109.791 E0.051
G1 X124.613 Y110.088 E0.027
G1 X123.545 Y109.719 E0.029
G1 X122.477 Y108.882 E0.034
G1 X121.409 Y107.163 E0.05
G1 X120.341 Y106.865 E0.028
G1 X119.273 Y107.235 E0.028
G1 X118.204 Y108.071 E0.034
G1 X117.136 Y109.791 E0.05
G1 X116.068 Y110.088 E0.028
G1 X115.88 Y110.023 E0.005
G1 Y113.302 E0.082
G1 X116.068 Y113.154 E0.006
G1 X117.136 Y111.435 E0.05
G1 X118.204 Y111.138 E0.028
G1 X119.273 Y111.507 E0.028
G1 X120.341 Y112.344 E0.034
G1 X121.409 Y114.063 E0.05
G1 X122.477 Y114.361 E0.028
G1 X123.545 Y113.991 E0.028
G1 X124.613 Y113.154 E0.034
G1 X125.681 Y111.435 E0.05
G1 X126.75 Y111.138 E0.028
G1 X127.818 Y111.507 E0.028
G1 X128.886 Y112.344 E0.034
G1 X129.954 Y114.063 E0.051
G1 X131.022 Y114.361 E0.027
G1 X132.09 Y113.991 E0.029
G1 X133.158 Y113.154 E0.033
G1 X134.12 Y111.607 E0.046
G1 Y118.365 E0.168
G1 X133.158 Y118.633 E0.025
G1 X132.09 Y118.264 E0.029
G1 X131.022 Y117.427 E0.033
G1 X129.954 Y115.708 E0.051
G1 X128.886 Y115.41 E0.027
G1 X127.818 Y115.78 E0.029
G1 X126.75 Y116.616 E0.034
G1 X125.681 Y118.336 E0.05
G1 X124.613 Y118.633 E0.028
G1 X123.545 Y118.264 E0.028
G1 X122.477 Y117.427 E0.034
G1 X121.409 Y115.708 E0.05
G1 X120.341 Y115.41 E0.028
G1 X119.273 Y115.78 E0.028
G1 X118.204 Y116.616 E0.034
G1 X117.136 Y118.336 E0.05
G1 X116.068 Y118.633 E0.028
G1 X115.88 Y118.568 E0.005
G1 Y119.87 E0.032
G1 X117.532 E0.042
G1 X118.204 Y119.683 E0.017
G1 X118.746 Y119.87 E0.014
G1 X126.077 E0.183
G1 X126.75 Y119.683 E0.018
G1 X127.291 Y119.87 E0.014
G1 F2100 E-0.5
;LAYER:8
;rapid-dry
G0 X123.134 Y98.084 Z1.25 F7200
G1 F2100 E0.5
;bead-perimeter_outer
G1 X122.99 Y98.355 F1693 E0.008
G1 X122.884 Y98.644 E0.007
G1 X122.82 Y98.945 E0.008
G1 X122.8 Y99.25 E0.008
G1 X122.82 Y99.556 E0.007
G1 X122.884 Y99.856 E0.008
G1 X122.99 Y100.145 E0.008
G1 X123.134 Y100.416 E0.007
G1 X123.315 Y100.665 E0.008
G1 X123.528 Y100.885 E0.008
G1 X123.77 Y101.074 E0.007
G1 X124.035 Y101.228 E0.008
G1 X124.32 Y101.343 E0.008
G1 X124.618 Y101.417 E0.007
G1 X124.923 Y101.449 E0.008
G1 X125.23 Y101.438 E0.008
G1 X125.533 Y101.386 E0.007
G1 X125.824 Y101.29 E0.008
G1 X126.1 Y101.156 E0.007
G1 X126.354 Y100.984 E0.008
G1 X126.49 Y100.863 E0.005
G1 X126.583 Y100.778 E0.003
G1 X126.78 Y100.544 E0.007
G1 X126.943 Y100.283 E0.008
G1 X127.067 Y100.002 E0.008
G1 X127.152 Y99.708 E0.007
G1 X127.195 Y99.404 E0.008
G1 Y99.096 E0.008
G1 X127.152 Y98.792 E0.007
G1 X127.067 Y98.498 E0.008
G1 X126.943 Y98.217 E0.008
G1 X126.78 Y97.956 E0.007
G1 X126.583 Y97.721 E0.008
G1 X126.354 Y97.516 E0.008
G1 X126.1 Y97.344 E0.007
G1 X125.824 Y97.21 E0.008
G1 X125.533 Y97.114 E0.008
G1 X125.23 Y97.062 E0.007
G1 X124.923 Y97.051 E0.008
G1 X124.618 Y97.083 E0.008
G1 X124.32 Y97.157 E0.007
G1 X124.035 Y97.272 E0.008
G1 X123.77 Y97.426 E0.008
G1 X123.528 Y97.615 E0.007
G1 X123.315 Y97.835 E0.008
G1 X123.134 Y98.084 E0.008
;rapid-leaky
G0 X122.828 Y97.893 F7200
;bead-perimeter_inner
G1 X122.66 Y98.208 F2257 E0.009
G1 X122.537 Y98.544 E0.008
G1 X122.463 Y98.895 E0.009
G1 X122.439 Y99.249 E0.009
G1 X122.463 Y99.606 E0.009
G1 X122.537 Y99.956 E0.009
G1 X122.66 Y100.292 E0.009
G1 X122.828 Y100.607 E0.009
G1 X123.038 Y100.897 E0.009
G1 X123.287 Y101.154 E0.009
G1 X123.567 Y101.373 E0.009
G1 X123.877 Y101.553 E0.009
G1 X124.209 Y101.686 E0.008
G1 X124.555 Y101.773 E0.009
G1 X124.911 Y101.81 E0.009
G1 X125.267 Y101.797 E0.009
G1 X125.62 Y101.736 E0.009
G1 X125.96 Y101.624 E0.009
G1 X126.281 Y101.468 E0.009
G1 X126.576 Y101.269 E0.009
G1 X126.731 Y101.13 E0.005
G1 X126.843 Y101.029 E0.004
G1 X127.072 Y100.756 E0.009
G1 X127.262 Y100.452 E0.009
G1 X127.407 Y100.126 E0.009
G1 X127.505 Y99.783 E0.008
G1 X127.555 Y99.429 E0.009
G1 Y99.071 E0.009
G1 X127.505 Y98.716 E0.009
G1 X127.407 Y98.374 E0.009
G1 X127.262 Y98.048 E0.009
G1 X127.072 Y97.745 E0.009
G1 X126.842 Y97.47 E0.009
G1 X126.577 Y97.232 E0.009
G1 X126.281 Y97.032 E0.009
G1 X125.96 Y96.876 E0.009
G1 X125.62 Y96.764 E0.008
G1 X125.267 Y96.703 E0.009
G1 X124.911 Y96.69 E0.009
G1 X124.554 Y96.727 E0.009
G1 X124.209 Y96.814 E0.009
G1 X123.877 Y96.947 E0.009
G1 X123.567 Y97.127 E0.009
G1 X123.287 Y97.347 E0.009
G1 X123.038 Y97.603 E0.009
G1 X122.828 Y97.893 E0.009
;rapid-leaky
G0 X116.726 Y93.999 F7200
;bead-perimeter_outer
G1 X117.072 Y93.49 F1693 E0.015
G1 X117.449 Y93.004 E0.015
G1 X117.856 Y92.542 E0.016
G1 X118.292 Y92.106 E0.015
G1 X118.754 Y91.699 E0.016
G1 X119.24 Y91.322 E0.015
G1 X119.749 Y90.976 E0.015
G1 X120.278 Y90.662 E0.016
G1 X120.827 Y90.383 E0.015
G1 X121.393 Y90.138 E0.015
G1 X121.972 Y89.929 E0.016
G1 X122.563 Y89.758 E0.015
G1 X123.163 Y89.624 E0.015
G1 X123.772 Y89.528 E0.016
G1 X124.385 Y89.47 E0.015
G1 X125 Y89.45 E0.015
G1 X125.615 Y89.47 E0.016
G1 X126.228 Y89.528 E0.015
G1 X126.837 Y89.624 E0.016
G1 X127.437 Y89.758 E0.015
G1 X128.028 Y89.929 E0.015
G1 X128.607 Y90.138 E0.016
G1 X129.173 Y90.383 E0.015
G1 X129.722 Y90.662 E0.015
G1 X130.251 Y90.976 E0.016
G1 X130.76 Y91.322 E0.015
G1 X131.246 Y91.699 E0.015
G1 X131.708 Y92.106 E0.016
G1 X132.144 Y92.542 E0.015
G1 X132.551 Y93.004 E0.015
G1 X132.928 Y93.49 E0.016
G1 X133.274 Y93.999 E0.015
G1 X133.588 Y94.528 E0.016
G1 X133.867 Y95.077 E0.015
G1 X134.112 Y95.643 E0.015
G1 X134.321 Y96.222 E0.016
G1 X134.492 Y96.813 E0.015
G1 X134.626 Y97.413 E0.015
G1 X134.722 Y98.022 E0.016
G1 X134.78 Y98.635 E0.015
G1 X134.8 Y99.253 E0.015
G1 Y120.55 E0.532
G1 X115.2 E0.489
G1 Y99.253 E0.531
G1 X115.22 Y98.635 E0.015
G1 X115.278 Y98.022 E0.016
G1 X115.374 Y97.413 E0.015
G1 X115.508 Y96.813 E0.015
G1 X115.679 Y96.222 E0.016
G1 X115.888 Y95.643 E0.015
G1 X116.133 Y95.077 E0.015
G1 X116.412 Y94.528 E0.016
G1 X116.726 Y93.999 E0.015
;rapid-leaky
G0 X117.03 Y94.192 F7200
;bead-perimeter_inner
G1 X117.363 Y93.701 F2257 E0.015
G1 X117.727 Y93.233 E0.015
G1 X117.964 Y92.964 E0.009
G1 X118.118 Y92.789 E0.006
G1 X118.538 Y92.368 E0.014
G1 X118.983 Y91.977 E0.015
G1 X119.451 Y91.613 E0.015
G1 X119.942 Y91.28 E0.015
G1 X120.452 Y90.978 E0.015
G1 X120.981 Y90.709 E0.014
G1 X121.525 Y90.473 E0.015
G1 X122.083 Y90.272 E0.015
G1 X122.652 Y90.107 E0.015
G1 X123.231 Y89.977 E0.014
G1 X123.817 Y89.885 E0.015
G1 X124.407 Y89.829 E0.015
G1 X125 Y89.81 E0.015
G1 X125.593 Y89.829 E0.015
G1 X126.183 Y89.885 E0.014
G1 X126.769 Y89.977 E0.015
G1 X127.348 Y90.107 E0.015
G1 X127.917 Y90.272 E0.015
G1 X128.475 Y90.473 E0.015
G1 X129.019 Y90.709 E0.014
G1 X129.548 Y90.978 E0.015
G1 X130.058 Y91.28 E0.015
G1 X130.549 Y91.613 E0.015
G1 X131.017 Y91.977 E0.015
G1 X131.462 Y92.368 E0.014
G1 X131.882 Y92.788 E0.015
G1 X132.273 Y93.233 E0.015
G1 X132.637 Y93.701 E0.015
G1 X132.97 Y94.192 E0.015
G1 X133.272 Y94.702 E0.014
G1 X133.541 Y95.231 E0.015
G1 X133.777 Y95.775 E0.015
G1 X133.978 Y96.333 E0.015
G1 X134.143 Y96.902 E0.015
G1 X134.273 Y97.481 E0.014
G1 X134.365 Y98.067 E0.015
G1 X134.421 Y98.657 E0.015
G1 X134.44 Y99.259 E0.015
G1 Y120.19 E0.522
G1 X115.56 E0.471
G1 Y99.259 E0.522
G1 X115.579 Y98.657 E0.015
G1 X115.635 Y98.067 E0.015
G1 X115.727 Y97.481 E0.015
G1 X115.857 Y96.902 E0.015
G1 X116.022 Y96.333 E0.014
G1 X116.223 Y95.775 E0.015
G1 X116.459 Y95.231 E0.015
G1 X116.728 Y94.702 E0.015
G1 X117.03 Y94.192 E0.014
;rapid-leaky
G0 X127.427 Y90.463 F7200
;bead-sparse_infill
G1 X126.75 Y90.923 F3385 E0.021
G1 X125.681 Y92.353 E0.044
G1 X124.613 Y92.83 E0.03
G1 X123.545 Y92.574 E0.027
G1 X122.477 Y91.85 E0.032
G1 X121.665 Y90.763 E0.034
G1 X121.643 Y90.77 E0.001
G1 X121.117 Y90.999 E0.014
G1 X120.606 Y91.258 E0.014
G1 X120.114 Y91.55 E0.015
G1 X119.639 Y91.872 E0.014
G1 X119.187 Y92.223 E0.014
G1 X118.758 Y92.602 E0.014
G1 X118.352 Y93.008 E0.015
G1 X118.204 Y93.175 E0.005
G1 X117.974 Y93.437 E0.009
G1 X117.622 Y93.889 E0.014
G1 X117.3 Y94.364 E0.015
G1 X117.008 Y94.856 E0.014
G1 X116.997 Y94.878
G1 X117.136 Y94.692 E0.006
G1 X118.204 Y94.215 E0.029
G1 X119.273 Y94.471 E0.028
G1 X120.341 Y95.195 E0.032
G1 X121.409 Y96.626 E0.045
G1 X122.477 Y97.102 E0.029
G1 X123.345 Y96.895 E0.022
G1 X123.388 Y96.861 E0.001
G1 X123.736 Y96.659 E0.01
G1 X123.947 Y96.574 E0.006
G1 X124.613 Y96.122 E0.02
G1 X125.681 Y94.692 E0.045
G1 X126.75 Y94.215 E0.029
G1 X127.818 Y94.471 E0.027
G1 X128.886 Y95.195 E0.032
G1 X129.954 Y96.626 E0.045
G1 X131.022 Y97.102 E0.029
G1 X132.09 Y96.847 E0.028
G1 X133.158 Y96.122 E0.032
G1 X133.424 Y95.766 E0.011
G1 X133.48 Y95.893 E0.003
G1 X133.674 Y96.432 E0.015
G1 X133.833 Y96.982 E0.014
G1 X133.958 Y97.541 E0.014
G1 X134.047 Y98.107 E0.014
G1 X134.101 Y98.677 E0.015
G1 X134.12 Y99.264 E0.014
G1 Y100.946 E0.042
G1 X133.158 Y101.375 E0.027
G1 X132.09 Y101.12 E0.027
G1 X131.022 Y100.395 E0.032
G1 X129.954 Y98.965 E0.045
G1 X128.886 Y98.488 E0.029
G1 X127.831 Y98.74 E0.027
G1 X127.875 Y99.049 E0.008
G1 Y99.452 E0.01
G1 X127.819 Y99.85 E0.01
G1 X127.708 Y100.235 E0.01
G1 X127.545 Y100.602 E0.01
G1 X127.332 Y100.945 E0.01
G1 X127.074 Y101.251 E0.01
G1 X126.944 Y101.368 E0.004
G1 X126.773 Y101.522 E0.006
G1 X126.441 Y101.746 E0.01
G1 X126.08 Y101.922 E0.01
G1 X125.698 Y102.047 E0.01
G1 X125.301 Y102.116 E0.01
G1 X124.9 Y102.131 E0.01
G1 X124.499 Y102.089 E0.01
G1 X124.11 Y101.991 E0.01
G1 X123.736 Y101.841 E0.01
G1 X123.388 Y101.639 E0.01
G1 X123.072 Y101.392 E0.01
G1 X122.793 Y101.104 E0.01
G1 X122.556 Y100.777 E0.01
G1 X122.367 Y100.422 E0.01
G1 X122.242 Y100.081 E0.009
G1 X121.409 Y98.965 E0.035
G1 X120.341 Y98.488 E0.029
G1 X119.273 Y98.743 E0.028
G1 X118.204 Y99.468 E0.032
G1 X117.136 Y100.898 E0.044
G1 X116.068 Y101.375 E0.03
G1 X115.88 Y101.33 E0.004
G1 Y104.795 E0.087
G1 X116.068 Y104.668 E0.006
G1 X117.136 Y103.237 E0.044
G1 X118.204 Y102.76 E0.029
G1 X119.273 Y103.016 E0.028
G1 X120.341 Y103.74 E0.032
G1 X121.409 Y105.171 E0.044
G1 X122.477 Y105.648 E0.03
G1 X123.545 Y105.392 E0.027
G1 X124.613 Y104.668 E0.032
G1 X125.681 Y103.237 E0.045
G1 X126.75 Y102.76 E0.029
G1 X127.818 Y103.016 E0.027
G1 X128.886 Y103.74 E0.032
G1 X129.954 Y105.171 E0.045
G1 X131.022 Y105.648 E0.029
G1 X132.09 Y105.392 E0.028
G1 X133.158 Y104.668 E0.032
G1 X134.12 Y103.38 E0.04
G1 Y109.491 E0.152
G1 X133.158 Y109.92 E0.027
G1 X132.09 Y109.665 E0.027
G1 X131.022 Y108.94 E0.032
G1 X129.954 Y107.51 E0.045
G1 X128.886 Y107.033 E0.029
G1 X127.818 Y107.288 E0.027
G1 X126.75 Y108.013 E0.033
G1 X125.681 Y109.443 E0.044
G1 X124.613 Y109.92 E0.029
G1 X123.545 Y109.665 E0.028
G1 X122.477 Y108.94 E0.032
G1 X121.409 Y107.51 E0.044
G1 X120.341 Y107.033 E0.03
G1 X119.273 Y107.288 E0.027
G1 X118.204 Y108.013 E0.032
G1 X117.136 Y109.443 E0.045
G1 X116.068 Y109.92 E0.029
G1 X115.88 Y109.875 E0.005
G1 Y113.34 E0.086
G1 X116.068 Y113.213 E0.006
G1 X117.136 Y111.782 E0.044
G1 X118.204 Y111.305 E0.029
G1 X119.273 Y111.561 E0.028
G1 X120.341 Y112.285 E0.032
G1 X121.409 Y113.716 E0.045
G1 X122.477 Y114.193 E0.029
G1 X123.545 Y113.937 E0.027
G1 X124.613 Y113.213 E0.032
G1 X125.681 Y111.782 E0.045
G1 X126.75 Y111.305 E0.029
G1 X127.818 Y111.561 E0.027
G1 X128.886 Y112.285 E0.033
G1 X129.954 Y113.716 E0.044
G1 X131.022 Y114.193 E0.029
G1 X132.09 Y113.937 E0.028
G1 X133.158 Y113.213 E0.032
G1 X134.12 Y111.925 E0.04
G1 Y118.036 E0.153
G1 X133.158 Y118.465 E0.026
G1 X132.09 Y118.21 E0.027
G1 X131.022 Y117.485 E0.032
G1 X129.954 Y116.055 E0.045
G1 X128.886 Y115.578 E0.029
G1 X127.818 Y115.834 E0.027
G1 X126.75 Y116.558 E0.033
G1 X125.681 Y117.989 E0.044
G1 X124.613 Y118.465 E0.029
G1 X123.545 Y118.21 E0.028
G1 X122.477 Y117.485 E0.032
G1 X121.409 Y116.055 E0.045
G1 X120.341 Y115.578 E0.029
G1 X119.273 Y115.834 E0.027
G1 X118.204 Y116.558 E0.032
