;suport muschi 1
;Printer name: Prusa i3 MK3
;TIME:779
;Print time: 12m:59s
;Extruder 1 material used: 484mm
;Extruder 1 material name: 
;Extruder 1 filament diameter: 1.75mm
;Extruder 1 nozzle diameter: 0.4mm
;Extruder 1 offset x: 0mm
;Extruder 1 offset y: 0mm
;Extruder 1 offset z: 0mm
;Extruder 1 max temp: 200
;Bed temp: 70
;Layer count: 66
;Width: 250mm
;Depth: 210mm
;Height: 210mm
;Center x: 125mm
;Center y: 105mm
;Center z: 0mm
;Count of bodies: 1
;Fusion version: 2.0.19440
G21
M115 U3.0.10 ;tell printer latest fw version
G28 W ;home all without mesh bed level
;--------------------------------
;Selected Profile: PLA Direct Drive
;--------------------------------
;Selected Printer: Prusa, i3 MK3
;--------------------------------
T0
M140 S70
M104 S200 T0
M190 S70
M109 S200 T0
G80 ;mesh bed leveling
G92 E0
G90
M83
G0 X10 Y10 Z10 F7200
G92 E0
;--------------------------------
;Part 1
;LAYER_COUNT:66
;LAYER:1
M107
;rapid-leaky
G0 X20 Y20.5 Z0.2 F7200
;bead-prime
G1 X120 F720 E8.315
G1 F2100 E-0.5
;rapid-dry
G0 X122.304 Y82.807 F7200
G1 F2100 E0.5
;bead-skirt/brim
G1 X119.958 Y83.726 F960 E0.084
G1 X119.209 Y84.076 E0.027
G1 X118.477 Y84.476 E0.028
G1 X117.777 Y84.923 E0.028
G1 X117.123 Y85.401 E0.027
G1 X116.47 Y85.947 E0.028
G1 X115.87 Y86.519 E0.028
G1 X115.322 Y87.113 E0.026
G1 X114.8 Y87.756 E0.028
G1 X114.303 Y88.456 E0.029
G1 X113.869 Y89.17 E0.027
G1 X113.484 Y89.901 E0.028
G1 X113.146 Y90.659 E0.027
G1 X112.857 Y91.438 E0.028
G1 X112.619 Y92.234 E0.028
G1 X112.434 Y93.045 E0.027
G1 X112.302 Y93.865 E0.028
G1 X112.225 Y94.669 E0.027
G1 X112.198 Y95.499 E0.027
G1 X112.226 Y96.353 E0.029
G1 X112.31 Y97.18 E0.027
G1 X112.441 Y97.974 E0.027
G1 X112.628 Y98.785 E0.028
G1 X112.875 Y99.603 E0.028
G1 X113.168 Y100.381 E0.028
G1 X113.508 Y101.135 E0.028
G1 X113.7 Y101.496 E0.013
G1 Y126.793 E0.842
G1 X136.3 E0.751
G1 Y101.496 E0.842
G1 X136.492 Y101.135 E0.013
G1 X136.841 Y100.359 E0.028
G1 X137.124 Y99.601 E0.027
G1 X137.366 Y98.808 E0.028
G1 X137.559 Y97.977 E0.028
G1 X137.69 Y97.18 E0.027
G1 X137.774 Y96.353 E0.028
G1 X137.802 Y95.498 E0.028
G1 X137.775 Y94.669 E0.028
G1 X137.698 Y93.865 E0.027
G1 X137.566 Y93.045 E0.027
G1 X137.381 Y92.234 E0.028
G1 X137.143 Y91.438 E0.028
G1 X136.854 Y90.659 E0.027
G1 X136.516 Y89.901 E0.028
G1 X136.131 Y89.17 E0.027
G1 X135.697 Y88.456 E0.028
G1 X135.2 Y87.756 E0.029
G1 X134.678 Y87.113 E0.027
G1 X134.13 Y86.519 E0.027
G1 X133.53 Y85.947 E0.028
G1 X132.877 Y85.401 E0.028
G1 X132.223 Y84.923 E0.027
G1 X131.523 Y84.476 E0.028
G1 X130.791 Y84.076 E0.027
G1 X130.042 Y83.726 E0.028
G1 X127.696 Y82.807 E0.084
;rapid-leaky
G0 X126.599 F7200
;bead-skirt/brim
G1 X129.884 Y84.093 F960 E0.117
G1 X130.611 Y84.433 E0.027
G1 X131.319 Y84.821 E0.027
G1 X131.998 Y85.254 E0.026
G1 X132.63 Y85.716 E0.026
G1 X133.264 Y86.245 E0.028
G1 X133.845 Y86.8 E0.027
G1 X134.375 Y87.375 E0.026
G1 X134.881 Y87.998 E0.026
G1 X135.362 Y88.676 E0.028
G1 X135.783 Y89.367 E0.027
G1 X136.156 Y90.076 E0.026
G1 X136.484 Y90.81 E0.027
G1 X136.763 Y91.565 E0.027
G1 X136.994 Y92.336 E0.027
G1 X137.173 Y93.122 E0.027
G1 X137.301 Y93.916 E0.026
G1 X137.376 Y94.694 E0.026
G1 X137.402 Y95.498 E0.027
G1 X137.374 Y96.326 E0.028
G1 X137.293 Y97.127 E0.026
G1 X137.166 Y97.899 E0.026
G1 X136.979 Y98.705 E0.028
G1 X136.745 Y99.472 E0.027
G1 X136.471 Y100.207 E0.026
G1 X136.133 Y100.958 E0.027
G1 X135.9 Y101.396 E0.017
G1 Y126.393 E0.831
G1 X114.1 E0.725
G1 Y101.396 E0.831
G1 X113.868 Y100.959 E0.017
G1 X113.538 Y100.228 E0.027
G1 X113.254 Y99.475 E0.026
G1 X113.014 Y98.682 E0.028
G1 X112.834 Y97.896 E0.027
G1 X112.707 Y97.127 E0.026
G1 X112.626 Y96.326 E0.026
G1 X112.598 Y95.498 E0.028
G1 X112.624 Y94.694 E0.027
G1 X112.699 Y93.916 E0.026
G1 X112.827 Y93.122 E0.026
G1 X113.006 Y92.336 E0.027
G1 X113.237 Y91.565 E0.027
G1 X113.516 Y90.81 E0.027
G1 X113.844 Y90.076 E0.027
G1 X114.217 Y89.367 E0.026
G1 X114.638 Y88.676 E0.027
G1 X115.119 Y87.998 E0.028
G1 X115.625 Y87.375 E0.026
G1 X116.155 Y86.8 E0.027
G1 X116.736 Y86.245 E0.026
G1 X117.37 Y85.716 E0.028
G1 X118.002 Y85.254 E0.026
G1 X118.681 Y84.821 E0.027
G1 X119.39 Y84.433 E0.026
G1 X120.116 Y84.093 E0.027
G1 X123.401 Y82.807 E0.117
;rapid-leaky
G0 X124.498 F7200
;bead-skirt/brim
G1 X120.273 Y84.461 F960 E0.151
G1 X119.57 Y84.79 E0.026
G1 X118.885 Y85.165 E0.026
G1 X118.228 Y85.584 E0.026
G1 X117.616 Y86.031 E0.025
G1 X117.003 Y86.544 E0.027
G1 X116.441 Y87.081 E0.026
G1 X115.927 Y87.637 E0.025
G1 X115.437 Y88.24 E0.026
G1 X114.972 Y88.896 E0.026
G1 X114.565 Y89.565 E0.026
G1 X114.204 Y90.251 E0.026
G1 X113.887 Y90.961 E0.026
G1 X113.616 Y91.692 E0.026
G1 X113.393 Y92.438 E0.026
G1 X113.22 Y93.198 E0.026
G1 X113.096 Y93.967 E0.026
G1 X113.024 Y94.72 E0.025
G1 X112.998 Y95.498 E0.026
G1 X113.025 Y96.3 E0.027
G1 X113.104 Y97.075 E0.025
G1 X113.226 Y97.819 E0.026
G1 X113.401 Y98.579 E0.025
G1 X113.633 Y99.346 E0.027
G1 X113.908 Y100.076 E0.026
G1 X114.227 Y100.783 E0.026
G1 X114.5 Y101.297 E0.019
G1 Y125.993 E0.822
G1 X135.5 E0.698
G1 Y101.297 E0.821
G1 X135.773 Y100.782 E0.02
G1 X136.101 Y100.055 E0.026
G1 X136.366 Y99.344 E0.026
G1 X136.592 Y98.601 E0.025
G1 X136.773 Y97.821 E0.027
G1 X136.896 Y97.075 E0.025
G1 X136.975 Y96.3 E0.026
G1 X137.002 Y95.498 E0.027
G1 X136.976 Y94.72 E0.026
G1 X136.904 Y93.967 E0.025
G1 X136.78 Y93.198 E0.026
G1 X136.607 Y92.438 E0.026
G1 X136.384 Y91.692 E0.026
G1 X136.113 Y90.961 E0.026
G1 X135.796 Y90.251 E0.025
G1 X135.435 Y89.565 E0.026
G1 X135.028 Y88.896 E0.026
G1 X134.563 Y88.24 E0.027
G1 X134.073 Y87.637 E0.026
G1 X133.559 Y87.081 E0.025
G1 X132.997 Y86.544 E0.026
G1 X132.384 Y86.031 E0.026
G1 X131.772 Y85.584 E0.026
G1 X131.115 Y85.165 E0.026
G1 X130.43 Y84.79 E0.026
G1 X129.727 Y84.461 E0.025
;rapid-leaky
G0 F7200
;bead-skirt/brim
G1 X125.502 Y82.807 F960 E0.151
;rapid-leaky
G0 X125.4 Y83.197 F7200
;bead-skirt/brim
G1 X129.569 Y84.829 F960 E0.149
G1 X130.249 Y85.147 E0.025
G1 X130.911 Y85.51 E0.025
G1 X131.546 Y85.914 E0.025
G1 X132.137 Y86.347 E0.025
G1 X132.73 Y86.842 E0.025
G1 X133.274 Y87.361 E0.025
G1 X133.77 Y87.899 E0.025
G1 X134.244 Y88.482 E0.025
G1 X134.693 Y89.116 E0.026
G1 X135.087 Y89.762 E0.025
G1 X135.436 Y90.426 E0.025
G1 X135.743 Y91.112 E0.025
G1 X136.004 Y91.818 E0.025
G1 X136.22 Y92.54 E0.025
G1 X136.388 Y93.274 E0.025
G1 X136.507 Y94.018 E0.025
G1 X136.577 Y94.745 E0.024
G1 X136.601 Y95.498 E0.025
G1 X136.576 Y96.273 E0.026
G1 X136.5 Y97.022 E0.025
G1 X136.381 Y97.744 E0.024
G1 X136.206 Y98.498 E0.026
G1 X135.987 Y99.216 E0.025
G1 X135.731 Y99.902 E0.024
G1 X135.414 Y100.606 E0.026
G1 X135.1 Y101.197 E0.022
G1 Y125.593 E0.812
G1 X114.9 E0.672
G1 Y101.197 E0.811
G1 X114.586 Y100.606 E0.022
G1 X114.278 Y99.923 E0.025
G1 X114.012 Y99.218 E0.025
G1 X113.788 Y98.476 E0.026
G1 X113.619 Y97.741 E0.025
G1 X113.5 Y97.022 E0.024
G1 X113.424 Y96.273 E0.025
G1 X113.399 Y95.498 E0.026
G1 X113.423 Y94.746 E0.025
G1 X113.493 Y94.018 E0.025
G1 X113.612 Y93.274 E0.025
G1 X113.78 Y92.54 E0.025
G1 X113.996 Y91.818 E0.025
G1 X114.257 Y91.112 E0.025
G1 X114.564 Y90.425 E0.025
G1 X114.913 Y89.762 E0.025
G1 X115.307 Y89.116 E0.025
G1 X115.756 Y88.482 E0.026
G1 X116.23 Y87.899 E0.025
G1 X116.726 Y87.361 E0.024
G1 X117.27 Y86.842 E0.025
G1 X117.863 Y86.347 E0.026
G1 X118.454 Y85.914 E0.024
G1 X119.089 Y85.509 E0.025
G1 X119.751 Y85.147 E0.025
G1 X120.431 Y84.829 E0.025
G1 X124.6 Y83.197 E0.149
G1 Y100.373 E0.571
G1 X124.992 Y100.391 E0.013
G1 X125.4 Y100.373 E0.014
G1 Y83.197 E0.571
;rapid-leaky
G0 X125.8 Y83.783 F7200
;bead-skirt/brim
G1 X129.411 Y85.197 F960 E0.129
G1 X130.068 Y85.504 E0.024
G1 X130.707 Y85.854 E0.025
G1 X131.32 Y86.245 E0.024
G1 X131.891 Y86.662 E0.023
G1 X132.464 Y87.141 E0.025
G1 X132.988 Y87.642 E0.024
G1 X133.468 Y88.161 E0.024
G1 X133.925 Y88.724 E0.024
G1 X134.359 Y89.336 E0.025
G1 X134.739 Y89.959 E0.024
G1 X135.076 Y90.6 E0.024
G1 X135.372 Y91.264 E0.024
G1 X135.625 Y91.945 E0.025
G1 X135.833 Y92.642 E0.024
G1 X135.995 Y93.351 E0.024
G1 X136.11 Y94.069 E0.024
G1 X136.178 Y94.771 E0.024
G1 X136.201 Y95.498 E0.024
G1 X136.176 Y96.246 E0.025
G1 X136.103 Y96.969 E0.024
G1 X135.988 Y97.666 E0.023
G1 X135.819 Y98.394 E0.025
G1 X135.608 Y99.088 E0.024
G1 X135.361 Y99.75 E0.024
G1 X135.054 Y100.43 E0.025
G1 X134.7 Y101.092 E0.025
G1 Y125.193 E0.801
G1 X115.3 E0.645
G1 Y101.092 E0.802
G1 X114.946 Y100.43 E0.025
G1 X114.648 Y99.77 E0.024
G1 X114.391 Y99.089 E0.024
G1 X114.175 Y98.373 E0.025
G1 X114.011 Y97.664 E0.024
G1 X113.897 Y96.969 E0.024
G1 X113.824 Y96.246 E0.024
G1 X113.799 Y95.498 E0.025
G1 X113.822 Y94.771 E0.024
G1 X113.89 Y94.069 E0.024
G1 X114.005 Y93.351 E0.024
G1 X114.167 Y92.642 E0.024
G1 X114.375 Y91.945 E0.024
G1 X114.628 Y91.264 E0.024
G1 X114.924 Y90.6 E0.024
G1 X115.261 Y89.959 E0.025
G1 X115.641 Y89.336 E0.024
G1 X116.075 Y88.724 E0.025
G1 X116.532 Y88.161 E0.024
G1 X117.012 Y87.642 E0.023
G1 X117.536 Y87.141 E0.025
G1 X118.109 Y86.662 E0.024
G1 X118.68 Y86.245 E0.024
G1 X119.293 Y85.854 E0.024
G1 X119.932 Y85.504 E0.024
G1 X120.589 Y85.197 E0.024
G1 X124.2 Y83.783 E0.129
G1 Y100.728 E0.564
G1 X124.629 Y100.778 E0.014
G1 X124.991 Y100.792 E0.012
G1 X125.373 Y100.778 E0.013
G1 X125.8 Y100.728 E0.014
G1 Y83.783 E0.564
;rapid-leaky
G0 X126.2 Y84.369 F7200
;bead-skirt/brim
G1 X129.254 Y85.565 F960 E0.109
G1 X129.887 Y85.861 E0.023
G1 X130.504 Y86.198 E0.024
G1 X131.094 Y86.575 E0.023
G1 X131.644 Y86.977 E0.023
G1 X132.197 Y87.439 E0.024
G1 X132.703 Y87.922 E0.023
G1 X133.165 Y88.423 E0.023
G1 X133.606 Y88.966 E0.023
G1 X134.025 Y89.556 E0.024
G1 X134.391 Y90.157 E0.023
G1 X134.716 Y90.775 E0.024
G1 X135.002 Y91.415 E0.023
G1 X135.245 Y92.072 E0.023
G1 X135.446 Y92.743 E0.023
G1 X135.602 Y93.427 E0.024
G1 X135.713 Y94.12 E0.023
G1 X135.778 Y94.797 E0.023
G1 X135.801 Y95.498 E0.023
G1 X135.777 Y96.219 E0.024
G1 X135.706 Y96.916 E0.023
G1 X135.596 Y97.588 E0.023
G1 X135.433 Y98.29 E0.024
G1 X135.229 Y98.959 E0.023
G1 X134.991 Y99.598 E0.023
G1 X134.695 Y100.254 E0.024
G1 X134.3 Y100.978 E0.027
G1 Y124.793 E0.792
G1 X115.7 E0.619
G1 Y100.978 E0.792
G1 X115.305 Y100.254 E0.028
G1 X115.018 Y99.617 E0.023
G1 X114.77 Y98.961 E0.023
G1 X114.562 Y98.27 E0.024
G1 X114.404 Y97.586 E0.023
G1 X114.294 Y96.916 E0.023
G1 X114.223 Y96.219 E0.023
G1 X114.199 Y95.498 E0.024
G1 X114.222 Y94.797 E0.024
G1 X114.287 Y94.12 E0.022
G1 X114.398 Y93.427 E0.024
G1 X114.554 Y92.743 E0.023
G1 X114.755 Y92.072 E0.023
G1 X114.998 Y91.415 E0.024
G1 X115.284 Y90.775 E0.023
G1 X115.609 Y90.157 E0.023
G1 X115.975 Y89.556 E0.024
G1 X116.394 Y88.966 E0.024
G1 X116.835 Y88.423 E0.023
G1 X117.297 Y87.922 E0.022
G1 X117.803 Y87.439 E0.024
G1 X118.356 Y86.977 E0.024
G1 X118.906 Y86.575 E0.022
G1 X119.496 Y86.198 E0.024
G1 X120.113 Y85.861 E0.023
G1 X120.746 Y85.565 E0.023
G1 X123.8 Y84.369 E0.109
G1 Y101.062 E0.556
G1 X124.229 Y101.139 E0.014
G1 X124.601 Y101.177 E0.013
G1 X124.991 Y101.192 E0.013
G1 X125.4 Y101.177 E0.013
G1 X125.771 Y101.139 E0.013
G1 X126.2 Y101.062 E0.014
G1 Y84.369 E0.555
;rapid-leaky
G0 X126.6 Y84.955 F7200
;bead-skirt/brim
G1 X129.096 Y85.933 F960 E0.089
G1 X129.706 Y86.218 E0.023
G1 X130.3 Y86.543 E0.022
G1 X130.868 Y86.906 E0.023
G1 X131.398 Y87.293 E0.022
G1 X131.93 Y87.737 E0.023
G1 X132.418 Y88.203 E0.022
G1 X132.863 Y88.685 E0.022
G1 X133.288 Y89.208 E0.022
G1 X133.69 Y89.776 E0.023
G1 X134.042 Y90.354 E0.023
G1 X134.356 Y90.95 E0.022
G1 X134.631 Y91.566 E0.023
G1 X134.865 Y92.199 E0.022
G1 X135.059 Y92.845 E0.023
G1 X135.209 Y93.504 E0.022
G1 X135.316 Y94.171 E0.023
G1 X135.379 Y94.822 E0.021
G1 X135.401 Y95.498 E0.023
G1 X135.378 Y96.192 E0.023
G1 X135.309 Y96.864 E0.022
G1 X135.203 Y97.51 E0.022
G1 X135.046 Y98.187 E0.023
G1 X134.85 Y98.831 E0.023
G1 X134.62 Y99.446 E0.022
G1 X134.336 Y100.078 E0.023
G1 X134.027 Y100.658 E0.021
G1 X133.9 Y100.865 E0.009
G1 Y124.393 E0.782
G1 X116.1 E0.592
G1 Y100.865 E0.783
G1 X115.973 Y100.658 E0.008
G1 X115.664 Y100.078 E0.022
G1 X115.388 Y99.464 E0.022
G1 X115.149 Y98.832 E0.022
G1 X114.948 Y98.167 E0.024
G1 X114.797 Y97.509 E0.022
G1 X114.691 Y96.864 E0.022
G1 X114.622 Y96.192 E0.022
G1 X114.599 Y95.498 E0.023
G1 X114.621 Y94.822 E0.023
G1 X114.684 Y94.171 E0.022
G1 X114.791 Y93.504 E0.022
G1 X114.941 Y92.845 E0.022
G1 X115.135 Y92.199 E0.023
G1 X115.369 Y91.566 E0.022
G1 X115.644 Y90.95 E0.023
G1 X115.958 Y90.354 E0.022
G1 X116.31 Y89.776 E0.023
G1 X116.712 Y89.208 E0.023
G1 X117.137 Y88.685 E0.022
G1 X117.582 Y88.203 E0.022
G1 X118.07 Y87.737 E0.023
G1 X118.602 Y87.293 E0.023
G1 X119.132 Y86.906 E0.021
G1 X119.7 Y86.543 E0.023
G1 X120.294 Y86.218 E0.022
G1 X120.904 Y85.933 E0.023
G1 X123.4 Y84.955 E0.089
G1 Y101.376 E0.546
G1 X123.76 Y101.464 E0.012
G1 X124.174 Y101.535 E0.014
G1 X124.573 Y101.577 E0.014
G1 X124.991 Y101.592 E0.014
G1 X125.428 Y101.577 E0.014
G1 X125.826 Y101.535 E0.013
G1 X126.24 Y101.464 E0.014
G1 X126.6 Y101.376 E0.013
G1 Y84.955 E0.546
;rapid-leaky
G0 X127 Y85.542 F7200
;bead-skirt/brim
G1 X128.938 Y86.3 F960 E0.069
G1 X129.525 Y86.575 E0.022
G1 X130.096 Y86.887 E0.021
G1 X130.643 Y87.236 E0.022
G1 X131.151 Y87.608 E0.021
G1 X131.664 Y88.036 E0.022
G1 X132.132 Y88.484 E0.022
G1 X132.56 Y88.947 E0.021
G1 X132.969 Y89.45 E0.021
G1 X133.356 Y89.996 E0.022
G1 X133.694 Y90.552 E0.022
G1 X133.996 Y91.125 E0.022
G1 X134.26 Y91.717 E0.021
G1 X134.486 Y92.326 E0.022
G1 X134.672 Y92.947 E0.021
G1 X134.816 Y93.58 E0.022
G1 X134.919 Y94.222 E0.022
G1 X134.979 Y94.848 E0.02
G1 X135.001 Y95.497 E0.022
G1 X134.978 Y96.165 E0.022
G1 X134.913 Y96.811 E0.022
G1 X134.81 Y97.432 E0.021
G1 X134.659 Y98.083 E0.022
G1 X134.471 Y98.703 E0.022
G1 X134.25 Y99.294 E0.021
G1 X133.976 Y99.901 E0.022
G1 X133.68 Y100.459 E0.021
G1 X133.5 Y100.752 E0.011
G1 Y123.993 E0.773
G1 X116.5 E0.566
G1 Y100.752 E0.773
G1 X116.32 Y100.459 E0.011
G1 X116.024 Y99.902 E0.021
G1 X115.757 Y99.311 E0.022
G1 X115.529 Y98.703 E0.021
G1 X115.335 Y98.064 E0.022
G1 X115.189 Y97.432 E0.022
G1 X115.087 Y96.811 E0.021
G1 X115.022 Y96.165 E0.021
G1 X114.999 Y95.497 E0.023
G1 X115.021 Y94.848 E0.021
G1 X115.081 Y94.222 E0.021
G1 X115.184 Y93.58 E0.022
G1 X115.328 Y92.947 E0.021
G1 X115.514 Y92.326 E0.022
G1 X115.74 Y91.717 E0.022
G1 X116.004 Y91.125 E0.021
G1 X116.306 Y90.552 E0.022
G1 X116.644 Y89.996 E0.021
G1 X117.031 Y89.45 E0.023
G1 X117.44 Y88.947 E0.021
G1 X117.868 Y88.484 E0.021
G1 X118.336 Y88.036 E0.022
G1 X118.849 Y87.608 E0.022
G1 X119.357 Y87.236 E0.021
G1 X119.904 Y86.887 E0.021
G1 X120.475 Y86.575 E0.022
G1 X121.062 Y86.3 E0.022
G1 X123 Y85.542 E0.069
G1 Y101.673 E0.536
G1 X123.225 Y101.745 E0.008
G1 X123.678 Y101.855 E0.016
G1 X124.119 Y101.932 E0.015
G1 X124.545 Y101.976 E0.014
G1 X124.991 Y101.992 E0.015
G1 X125.456 Y101.976 E0.015
G1 X125.881 Y101.932 E0.014
G1 X126.322 Y101.855 E0.015
G1 X126.775 Y101.745 E0.016
G1 X127 Y101.673 E0.008
G1 Y85.542 E0.536
;rapid-leaky
G0 X127.4 Y86.128 F7200
;bead-skirt/brim
G1 X128.781 Y86.668 F960 E0.05
G1 X129.344 Y86.932 E0.02
G1 X129.892 Y87.231 E0.021
G1 X130.417 Y87.566 E0.021
G1 X130.905 Y87.923 E0.02
G1 X131.397 Y88.334 E0.021
G1 X131.847 Y88.764 E0.021
G1 X132.258 Y89.209 E0.02
G1 X132.65 Y89.692 E0.021
G1 X133.022 Y90.216 E0.021
G1 X133.346 Y90.749 E0.021
G1 X133.636 Y91.3 E0.02
G1 X133.89 Y91.868 E0.021
G1 X134.106 Y92.453 E0.021
G1 X134.285 Y93.049 E0.021
G1 X134.423 Y93.656 E0.02
G1 X134.522 Y94.273 E0.021
G1 X134.58 Y94.874 E0.02
G1 X134.6 Y95.497 E0.021
G1 X134.579 Y96.138 E0.021
G1 X134.516 Y96.758 E0.021
G1 X134.418 Y97.355 E0.02
G1 X134.273 Y97.979 E0.021
G1 X134.092 Y98.574 E0.021
G1 X133.88 Y99.141 E0.02
G1 X133.617 Y99.725 E0.022
G1 X133.333 Y100.26 E0.02
G1 X133.1 Y100.638 E0.014
G1 Y123.593 E0.764
G1 X116.9 E0.539
G1 Y100.638 E0.763
G1 X116.667 Y100.26 E0.015
G1 X116.383 Y99.725 E0.02
G1 X116.127 Y99.158 E0.021
G1 X115.908 Y98.575 E0.021
G1 X115.722 Y97.961 E0.021
G1 X115.582 Y97.354 E0.021
G1 X115.484 Y96.758 E0.02
G1 X115.421 Y96.138 E0.02
G1 X115.4 Y95.497 E0.022
G1 X115.42 Y94.874 E0.021
G1 X115.478 Y94.273 E0.02
G1 X115.577 Y93.656 E0.02
G1 X115.715 Y93.049 E0.021
G1 X115.894 Y92.453 E0.021
G1 X116.11 Y91.868 E0.021
G1 X116.364 Y91.3 E0.02
G1 X116.654 Y90.749 E0.021
G1 X116.978 Y90.216 E0.021
G1 X117.35 Y89.692 E0.021
G1 X117.742 Y89.209 E0.021
G1 X118.153 Y88.764 E0.02
G1 X118.603 Y88.334 E0.021
G1 X119.095 Y87.923 E0.021
G1 X119.583 Y87.566 E0.02
G1 X120.108 Y87.231 E0.021
G1 X120.656 Y86.932 E0.02
G1 X121.219 Y86.668 E0.021
G1 X122.6 Y86.128 E0.049
G1 Y101.958 E0.527
G1 X123.117 Y102.13 E0.018
G1 X123.597 Y102.247 E0.017
G1 X124.064 Y102.328 E0.015
G1 X124.517 Y102.375 E0.015
G1 X124.99 Y102.393 E0.016
G1 X125.483 Y102.375 E0.017
G1 X125.936 Y102.328 E0.015
G1 X126.404 Y102.247 E0.016
G1 X126.883 Y102.13 E0.016
G1 X127.4 Y101.958 E0.018
G1 Y86.128 E0.527
;rapid-leaky
G0 X127.8 Y86.714 F7200
;bead-skirt/brim
G1 X128.623 Y87.036 F960 E0.029
G1 X129.163 Y87.289 E0.02
G1 X129.688 Y87.576 E0.02
G1 X130.191 Y87.897 E0.02
G1 X130.658 Y88.238 E0.019
G1 X131.13 Y88.633 E0.02
G1 X131.562 Y89.045 E0.02
G1 X131.955 Y89.471 E0.019
G1 X132.331 Y89.934 E0.02
G1 X132.687 Y90.436 E0.021
G1 X132.998 Y90.946 E0.02
G1 X133.276 Y91.475 E0.019
G1 X133.519 Y92.019 E0.02
G1 X133.727 Y92.58 E0.02
G1 X133.898 Y93.151 E0.02
G1 X134.03 Y93.733 E0.02
G1 X134.125 Y94.324 E0.02
G1 X134.181 Y94.899 E0.019
G1 X134.2 Y95.497 E0.02
G1 X134.18 Y96.111 E0.02
G1 X134.119 Y96.705 E0.02
G1 X134.025 Y97.277 E0.019
G1 X133.886 Y97.876 E0.021
G1 X133.713 Y98.446 E0.02
G1 X133.51 Y98.989 E0.019
G1 X133.258 Y99.549 E0.02
G1 X132.986 Y100.061 E0.02
G1 X132.7 Y100.525 E0.018
G1 Y123.193 E0.754
G1 X117.3 E0.512
G1 Y100.525 E0.754
G1 X117.014 Y100.062 E0.018
G1 X116.742 Y99.549 E0.019
G1 X116.497 Y99.005 E0.02
G1 X116.287 Y98.446 E0.02
G1 X116.109 Y97.858 E0.02
G1 X115.975 Y97.277 E0.02
G1 X115.881 Y96.705 E0.02
G1 X115.82 Y96.111 E0.019
G1 X115.8 Y95.497 E0.021
G1 X115.819 Y94.899 E0.02
G1 X115.875 Y94.324 E0.019
G1 X115.97 Y93.733 E0.02
G1 X116.103 Y93.151 E0.02
G1 X116.273 Y92.58 E0.02
G1 X116.481 Y92.019 E0.019
G1 X116.724 Y91.475 E0.02
G1 X117.002 Y90.946 E0.02
G1 X117.313 Y90.436 E0.02
G1 X117.669 Y89.934 E0.021
G1 X118.045 Y89.471 E0.019
G1 X118.438 Y89.045 E0.02
G1 X118.87 Y88.633 E0.02
G1 X119.342 Y88.238 E0.02
G1 X119.809 Y87.897 E0.019
G1 X120.312 Y87.576 E0.02
G1 X120.837 Y87.289 E0.02
G1 X121.377 Y87.036 E0.02
G1 X122.2 Y86.714 E0.029
G1 Y102.23 E0.516
G1 X122.549 Y102.369 E0.013
G1 X123.008 Y102.515 E0.016
G1 X123.515 Y102.639 E0.017
G1 X124.009 Y102.725 E0.017
G1 X124.489 Y102.774 E0.016
G1 X124.99 Y102.793 E0.017
G1 X125.511 Y102.774 E0.017
G1 X125.991 Y102.725 E0.016
G1 X126.485 Y102.639 E0.017
G1 X126.992 Y102.515 E0.017
G1 X127.451 Y102.369 E0.016
G1 X127.8 Y102.23 E0.012
G1 Y86.714 E0.517
G1 F2100 E-0.5
;rapid-dry
G0 X123.433 Y103.031 F7200
G1 F2100 E0.5
;bead-perimeter_outer
G1 X123.955 Y103.121 F720 E0.017
G1 X124.461 Y103.174 E0.017
G1 X124.99 Y103.193 E0.018
G1 X125.539 Y103.174 E0.018
G1 X126.045 Y103.121 E0.017
G1 X126.567 Y103.031 E0.017
G1 X127.1 Y102.901 E0.019
G1 X127.585 Y102.745 E0.017
G1 X128.2 Y102.502 E0.022
G1 Y87.3 E0.505
G1 X128.465 Y87.404 E0.01
G1 X128.983 Y87.646 E0.019
G1 X129.484 Y87.92 E0.019
G1 X129.965 Y88.227 E0.019
G1 X130.412 Y88.554 E0.018
G1 X130.864 Y88.931 E0.02
G1 X131.276 Y89.325 E0.019
G1 X131.653 Y89.733 E0.018
G1 X132.013 Y90.176 E0.019
G1 X132.353 Y90.656 E0.02
G1 X132.65 Y91.144 E0.019
G1 X132.916 Y91.649 E0.019
G1 X133.149 Y92.171 E0.019
G1 X133.347 Y92.706 E0.019
G1 X133.51 Y93.253 E0.019
G1 X133.638 Y93.809 E0.019
G1 X133.729 Y94.374 E0.019
G1 X133.781 Y94.925 E0.018
G1 X133.8 Y95.497 E0.019
G1 X133.78 Y96.085 E0.02
G1 X133.723 Y96.653 E0.019
G1 X133.633 Y97.199 E0.018
G1 X133.5 Y97.772 E0.02
G1 X133.333 Y98.318 E0.019
G1 X133.14 Y98.837 E0.018
G1 X132.898 Y99.373 E0.02
G1 X132.638 Y99.863 E0.018
G1 X132.3 Y100.411 E0.022
G1 Y122.793 E0.744
G1 X117.7 E0.486
G1 Y100.411 E0.744
G1 X117.362 Y99.863 E0.021
G1 X117.102 Y99.373 E0.019
G1 X116.867 Y98.853 E0.019
G1 X116.666 Y98.318 E0.019
G1 X116.495 Y97.756 E0.019
G1 X116.367 Y97.199 E0.019
G1 X116.277 Y96.653 E0.019
G1 X116.22 Y96.085 E0.019
G1 X116.2 Y95.497 E0.019
G1 X116.219 Y94.925 E0.019
G1 X116.271 Y94.374 E0.019
G1 X116.362 Y93.809 E0.019
G1 X116.49 Y93.253 E0.019
G1 X116.653 Y92.706 E0.019
G1 X116.851 Y92.171 E0.019
G1 X117.084 Y91.649 E0.019
G1 X117.35 Y91.144 E0.019
G1 X117.647 Y90.656 E0.019
G1 X117.987 Y90.176 E0.019
G1 X118.347 Y89.733 E0.019
G1 X118.724 Y89.325 E0.019
G1 X119.136 Y88.931 E0.019
G1 X119.588 Y88.554 E0.019
G1 X120.035 Y88.227 E0.019
G1 X120.516 Y87.92 E0.019
G1 X121.017 Y87.646 E0.019
G1 X121.535 Y87.404 E0.019
G1 X121.8 Y87.3 E0.009
G1 Y102.502 E0.506
G1 X122.415 Y102.745 E0.022
G1 X122.9 Y102.901 E0.017
G1 X123.433 Y103.031 E0.018
;rapid-leaky
G0 X123.36 Y103.384 F7200
;bead-perimeter_inner
G1 X123.905 Y103.478 F960 E0.018
G1 X124.436 Y103.533 E0.018
G1 X124.99 Y103.553 E0.019
G1 X125.564 Y103.533 E0.019
G1 X126.095 Y103.478 E0.017
G1 X126.64 Y103.384 E0.019
G1 X127.198 Y103.247 E0.019
G1 X127.707 Y103.085 E0.018
G1 X128.56 Y102.746 E0.03
G1 Y87.845 E0.496
G1 X128.82 Y87.967 E0.009
G1 X129.301 Y88.23 E0.019
G1 X129.762 Y88.525 E0.018
G1 X130.19 Y88.837 E0.017
G1 X130.624 Y89.2 E0.019
G1 X131.02 Y89.578 E0.018
G1 X131.381 Y89.969 E0.018
G1 X131.726 Y90.394 E0.018
G1 X132.052 Y90.854 E0.019
G1 X132.337 Y91.321 E0.018
G1 X132.592 Y91.807 E0.019
G1 X132.815 Y92.307 E0.018
G1 X133.006 Y92.821 E0.018
G1 X133.162 Y93.345 E0.018
G1 X133.284 Y93.878 E0.018
G1 X133.371 Y94.42 E0.019
G1 X133.422 Y94.948 E0.017
G1 X133.44 Y95.497 E0.019
G1 X133.421 Y96.06 E0.018
G1 X133.366 Y96.605 E0.018
G1 X133.279 Y97.129 E0.018
G1 X133.152 Y97.679 E0.019
G1 X132.992 Y98.202 E0.018
G1 X132.807 Y98.7 E0.018
G1 X132.575 Y99.214 E0.019
G1 X132.326 Y99.683 E0.017
G1 X131.94 Y100.309 E0.025
G1 Y122.433 E0.736
G1 X118.06 E0.461
G1 Y100.309 E0.736
G1 X117.674 Y99.683 E0.024
G1 X117.425 Y99.214 E0.018
G1 X117.2 Y98.715 E0.018
G1 X117.007 Y98.202 E0.019
G1 X116.843 Y97.663 E0.018
G1 X116.721 Y97.13 E0.019
G1 X116.634 Y96.605 E0.017
G1 X116.579 Y96.06 E0.018
G1 X116.56 Y95.497 E0.019
G1 X116.578 Y94.948 E0.018
G1 X116.629 Y94.42 E0.018
G1 X116.716 Y93.878 E0.018
G1 X116.838 Y93.345 E0.019
G1 X116.994 Y92.821 E0.018
G1 X117.185 Y92.307 E0.018
G1 X117.408 Y91.807 E0.018
G1 X117.663 Y91.321 E0.018
G1 X117.948 Y90.854 E0.019
G1 X118.274 Y90.394 E0.018
G1 X118.619 Y89.969 E0.019
G1 X118.981 Y89.578 E0.017
G1 X119.376 Y89.2 E0.018
G1 X119.81 Y88.837 E0.019
G1 X120.238 Y88.525 E0.018
G1 X120.699 Y88.23 E0.018
G1 X121.18 Y87.967 E0.018
G1 X121.44 Y87.845 E0.01
G1 Y102.746 E0.495
G1 X122.293 Y103.085 E0.031
G1 X122.802 Y103.247 E0.018
G1 X123.36 Y103.384 E0.019
G1 F2100 E-0.5
;rapid-dry
G0 X128.88 Y102.54 F7200
G1 F2100 E0.5
;bead-solid_infill
G1 X132.22 Y99.2 F720 E0.157
G1 X132.287 Y99.074 E0.005
G1 X132.319 Y99.004 E0.002
G1 X132.511 Y98.578 E0.016
G1 X132.65 Y98.205 E0.013
G1 X128.88 Y101.975 E0.177
G1 Y101.409 E0.019
G1 X132.888 Y97.401 E0.189
G1 X132.965 Y97.067 E0.011
G1 X133.009 Y96.8 E0.009
G1 X133.026 Y96.697 E0.004
G1 X128.88 Y100.843 E0.195
G1 Y100.278 E0.018
G1 X133.1 Y96.058 E0.199
G1 X133.102 Y96.039 E0.001
G1 X133.12 Y95.497 E0.018
G1 X133.119 Y95.473
G1 X128.88 Y99.712 E0.2
G1 Y99.146 E0.019
G1 X133.098 Y94.928 E0.198
G1 X133.054 Y94.461 E0.016
G1 X133.046 Y94.414 E0.001
G1 X128.88 Y98.581 E0.196
G1 Y98.015 E0.019
G1 X132.967 Y93.928 E0.192
G1 X132.862 Y93.467 E0.016
G1 X128.88 Y97.449 E0.187
G1 Y96.884 E0.019
G1 X132.734 Y93.03 E0.181
G1 X132.702 Y92.922 E0.004
G1 X132.587 Y92.611 E0.011
G1 X128.88 Y96.318 E0.174
G1 Y95.752 E0.019
G1 X132.422 Y92.21 E0.167
G1 X132.304 Y91.947 E0.009
G1 X132.241 Y91.826 E0.005
G1 X128.88 Y95.187 E0.158
G1 Y94.621 E0.019
G1 X132.044 Y91.457 E0.149
G1 X131.83 Y91.105 E0.013
G1 X128.88 Y94.055 E0.139
G1 Y93.489 E0.019
G1 X131.6 Y90.77 E0.128
G1 X131.572 Y90.731 E0.001
G1 X131.471 Y90.587 E0.006
G1 X131.393 Y90.492 E0.004
G1 X131.357 Y90.447 E0.002
G1 X128.88 Y92.924 E0.117
G1 Y92.358 E0.019
G1 X131.101 Y90.137 E0.104
G1 X130.829 Y89.843 E0.013
G1 X128.88 Y91.792 E0.092
G1 Y91.227 E0.019
G1 X130.542 Y89.565 E0.078
G1 X130.41 Y89.439 E0.006
G1 X130.243 Y89.298 E0.007
G1 X128.88 Y90.661 E0.065
G1 Y90.095 E0.018
G1 X129.931 Y89.044 E0.05
G1 X129.604 Y88.806 E0.013
G1 X128.88 Y89.53 E0.034
G1 Y88.964 E0.019
G1 X129.26 Y88.584 E0.018
G1 X129.137 Y88.506 E0.005
G1 X128.902 Y88.377 E0.009
G1 X128.88 Y88.398 E0.001
G1 F2100 E-0.5
;rapid-dry
G0 X118.039 Y91.319 F7200
G1 F2100 E0.5
;bead-solid_infill
G1 X120.836 Y88.523 F720 E0.131
G1 X120.863 Y88.506 E0.001
G1 X121.12 Y88.365 E0.01
G1 Y88.804 E0.015
G1 X117.472 Y92.452 E0.171
G1 X117.416 Y92.604 E0.006
G1 X117.298 Y92.922 E0.011
G1 X117.201 Y93.247 E0.011
G1 X117.183 Y93.307 E0.002
G1 X121.12 Y89.37 E0.186
G1 Y89.936 E0.018
G1 X117.014 Y94.042 E0.193
G1 X116.946 Y94.461 E0.015
G1 X116.924 Y94.698 E0.008
G1 X121.12 Y90.501 E0.197
G1 Y91.067 E0.019
G1 X116.887 Y95.3 E0.199
G1 X116.881 Y95.497 E0.006
G1 X116.89 Y95.785 E0.01
G1 X116.893 Y95.86 E0.002
G1 X121.12 Y91.633 E0.199
G1 Y92.198 E0.019
G1 X116.934 Y96.385 E0.197
G1 X116.952 Y96.563 E0.006
G1 X116.993 Y96.815 E0.009
G1 X117.004 Y96.88 E0.002
G1 X121.12 Y92.764 E0.193
G1 Y93.33 E0.019
G1 X117.1 Y97.35 E0.189
G1 X117.153 Y97.581 E0.008
G1 X117.218 Y97.797 E0.008
G1 X121.12 Y93.896 E0.183
G1 Y94.461 E0.019
G1 X117.357 Y98.224 E0.177
G1 X117.496 Y98.593 E0.013
G1 X117.514 Y98.633 E0.002
G1 X121.12 Y95.027 E0.169
G1 Y95.593 E0.019
G1 X117.69 Y99.023 E0.161
G1 X117.713 Y99.073 E0.002
G1 X117.856 Y99.344 E0.01
G1 X117.883 Y99.395 E0.002
G1 X121.12 Y96.158 E0.152
G1 Y96.724 E0.019
G1 X118.092 Y99.752 E0.143
G1 X118.308 Y100.102 E0.013
G1 X121.12 Y97.29 E0.133
G1 Y97.855 E0.018
G1 X118.38 Y100.595 E0.129
G1 Y101.161 E0.019
G1 X121.12 Y98.421 E0.129
G1 Y98.987 E0.019
G1 X118.38 Y101.727 E0.129
G1 Y102.292 E0.019
G1 X121.12 Y99.552 E0.128
G1 Y100.118 E0.019
G1 X118.38 Y102.858 E0.129
G1 Y103.424 E0.019
G1 X121.12 Y100.684 E0.129
G1 Y101.249 E0.019
G1 X118.38 Y103.989 E0.129
G1 Y104.555 E0.018
G1 X121.12 Y101.815 E0.129
G1 Y102.381 E0.019
G1 X118.38 Y105.121 E0.129
G1 Y105.686 E0.019
G1 X121.12 Y102.946 E0.129
G1 Y102.964
G1 X121.513 Y103.119 E0.014
G1 X118.38 Y106.252 E0.148
G1 Y106.818 E0.018
G1 X121.918 Y103.28 E0.167
G1 X122.185 Y103.386 E0.009
G1 X122.331 Y103.433 E0.005
G1 X118.38 Y107.384 E0.186
G1 Y107.949 E0.019
G1 X122.762 Y103.567 E0.206
G1 X123.217 Y103.678 E0.016
G1 X118.38 Y108.515 E0.227
G1 Y109.081 E0.019
G1 X123.694 Y103.766 E0.25
G1 X123.861 Y103.795 E0.006
G1 X124.196 Y103.83 E0.011
G1 X118.38 Y109.646 E0.274
G1 Y110.212 E0.018
G1 X124.728 Y103.864 E0.299
G1 X124.989 Y103.874 E0.009
G1 X125.183 Y103.867 E0.006
G1 X125.295 Y103.863 E0.004
G1 X118.38 Y110.778 E0.325
G1 Y111.343 E0.019
G1 X125.904 Y103.82 E0.354
G1 X126.139 Y103.795 E0.008
G1 X126.384 Y103.753 E0.008
G1 X126.568 Y103.721 E0.006
G1 X118.38 Y111.909 E0.385
G1 Y112.475 E0.019
G1 X127.306 Y103.549 E0.42
G1 X127.815 Y103.386 E0.018
G1 X128.179 Y103.242 E0.013
G1 X118.38 Y113.04 E0.461
G1 Y113.606 E0.018
G1 X131.62 Y100.366 E0.623
G1 Y100.932 E0.019
G1 X118.38 Y114.172 E0.623
G1 Y114.737 E0.019
G1 X131.62 Y101.497 E0.622
G1 Y102.063 E0.019
G1 X118.38 Y115.303 E0.623
G1 Y115.869 E0.019
G1 X131.62 Y102.629 E0.623
G1 Y103.195 E0.018
G1 X118.38 Y116.435 E0.623
G1 Y117 E0.019
G1 X131.62 Y103.76 E0.623
G1 Y104.326 E0.019
G1 X118.38 Y117.566 E0.622
G1 Y118.132 E0.019
G1 X131.62 Y104.892 E0.623
G1 Y105.457 E0.019
G1 X118.38 Y118.697 E0.622
G1 Y119.263 E0.019
G1 X131.62 Y106.023 E0.623
G1 Y106.589 E0.019
G1 X118.38 Y119.829 E0.623
G1 Y120.394 E0.018
G1 X131.62 Y107.154 E0.623
G1 Y107.72 E0.019
G1 X118.38 Y120.96 E0.623
G1 Y121.526 E0.019
G1 X131.62 Y108.286 E0.622
G1 Y108.851 E0.019
G1 X118.38 Y122.091 E0.623
G1 Y122.113 E0.001
G1 X118.924 E0.018
G1 X131.62 Y109.417 E0.597
G1 Y109.983 E0.019
G1 X119.49 Y122.113 E0.57
G1 X120.055 E0.019
G1 X131.62 Y110.548 E0.544
G1 Y111.114 E0.019
G1 X120.621 Y122.113 E0.517
G1 X121.187 E0.019
G1 X131.62 Y111.68 E0.491
G1 Y112.245 E0.019
G1 X121.752 Y122.113 E0.464
G1 X122.318 E0.019
G1 X131.62 Y112.811 E0.437
G1 Y113.377 E0.019
G1 X122.884 Y122.113 E0.411
G1 X123.45 E0.019
G1 X131.62 Y113.943 E0.384
G1 Y114.508 E0.019
G1 X124.015 Y122.113 E0.358
G1 X124.581 E0.018
G1 X131.62 Y115.074 E0.331
G1 Y115.64 E0.019
G1 X125.147 Y122.113 E0.305
G1 X125.712 E0.019
G1 X131.62 Y116.205 E0.277
G1 Y116.771 E0.019
G1 X126.278 Y122.113 E0.252
G1 X126.844 E0.018
G1 X131.62 Y117.337 E0.225
G1 Y117.902 E0.019
G1 X127.409 Y122.113 E0.198
G1 X127.975 E0.019
G1 X131.62 Y118.468 E0.171
G1 Y119.034 E0.019
G1 X128.541 Y122.113 E0.145
G1 X129.106 E0.019
G1 X131.62 Y119.599 E0.118
G1 Y120.165 E0.019
G1 X129.672 Y122.113 E0.091
G1 X130.238 E0.019
G1 X131.62 Y120.731 E0.065
G1 Y121.296 E0.019
G1 X130.803 Y122.113 E0.038
G1 X131.369 E0.019
G1 X131.62 Y121.862 E0.012
G1 F2100 E-0.5
;LAYER:2
M107
;rapid-dry
G0 X133.337 Y92.677 Z0.35 F7200
G1 F2100 E0.5
;bead-perimeter_outer
G1 X133.512 Y93.257 F1800 E0.015
G1 X133.639 Y93.814 E0.014
G1 X133.729 Y94.378 E0.015
G1 X133.783 Y94.948 E0.014
G1 X133.8 Y95.519 E0.014
G1 X133.779 Y96.09 E0.014
G1 X133.727 Y96.623 E0.014
G1 X133.635 Y97.187 E0.014
G1 X133.498 Y97.778 E0.015
G1 X133.331 Y98.325 E0.014
G1 X133.144 Y98.827 E0.014
G1 X132.894 Y99.38 E0.015
G1 X132.643 Y99.854 E0.013
G1 X132.3 Y100.411 E0.017
G1 Y122.793 E0.558
G1 X117.7 E0.364
G1 Y100.411 E0.558
G1 X117.357 Y99.854 E0.017
G1 X117.09 Y99.348 E0.014
G1 X116.87 Y98.859 E0.013
G1 X116.668 Y98.325 E0.015
G1 X116.493 Y97.745 E0.015
G1 X116.365 Y97.188 E0.014
G1 X116.273 Y96.623 E0.014
G1 X116.221 Y96.09 E0.014
G1 X116.2 Y95.519 E0.014
G1 X116.217 Y94.948 E0.014
G1 X116.271 Y94.378 E0.014
G1 X116.361 Y93.814 E0.015
G1 X116.489 Y93.257 E0.014
G1 X116.652 Y92.709 E0.014
G1 X116.849 Y92.174 E0.014
G1 X117.082 Y91.652 E0.015
G1 X117.348 Y91.146 E0.014
G1 X117.646 Y90.659 E0.014
G1 X117.997 Y90.164 E0.015
G1 X118.334 Y89.747 E0.014
G1 X118.722 Y89.327 E0.014
G1 X119.134 Y88.932 E0.014
G1 X119.573 Y88.565 E0.014
G1 X120.034 Y88.227 E0.015
G1 X120.516 Y87.921 E0.014
G1 X121.017 Y87.645 E0.014
G1 X121.535 Y87.404 E0.014
G1 X121.8 Y87.3 E0.008
G1 Y102.502 E0.379
G1 X122.419 Y102.748 E0.016
G1 X122.925 Y102.908 E0.014
G1 X123.44 Y103.033 E0.013
G1 X123.963 Y103.122 E0.013
G1 X124.49 Y103.176 E0.013
G1 X124.98 Y103.193 E0.013
G1 X125.551 Y103.173 E0.014
G1 X126.037 Y103.122 E0.012
G1 X126.56 Y103.033 E0.013
G1 X127.075 Y102.908 E0.013
G1 X127.581 Y102.748 E0.014
G1 X128.2 Y102.502 E0.016
G1 Y87.3 E0.379
G1 X128.465 Y87.404 E0.008
G1 X128.983 Y87.645 E0.014
G1 X129.484 Y87.921 E0.014
G1 X129.966 Y88.227 E0.014
G1 X130.427 Y88.565 E0.015
G1 X130.866 Y88.932 E0.014
G1 X131.278 Y89.327 E0.014
G1 X131.666 Y89.747 E0.014
G1 X132.024 Y90.192 E0.015
G1 X132.354 Y90.659 E0.014
G1 X132.652 Y91.146 E0.014
G1 X132.902 Y91.621 E0.014
G1 X133.151 Y92.175 E0.015
G1 X133.337 Y92.677 E0.013
;rapid-leaky
G0 X132.996 Y92.791 F7200
;bead-perimeter_inner
G1 X133.163 Y93.349 F2400 E0.015
G1 X133.285 Y93.882 E0.013
G1 X133.371 Y94.424 E0.014
G1 X133.424 Y94.97 E0.014
G1 X133.44 Y95.518 E0.013
G1 X133.42 Y96.065 E0.014
G1 X133.369 Y96.576 E0.013
G1 X133.281 Y97.118 E0.013
G1 X133.15 Y97.685 E0.015
G1 X132.99 Y98.209 E0.014
G1 X132.811 Y98.69 E0.012
G1 X132.571 Y99.221 E0.015
G1 X132.331 Y99.675 E0.013
G1 X131.94 Y100.309 E0.018
G1 Y122.433 E0.552
G1 X118.06 E0.346
G1 Y100.309 E0.552
G1 X117.67 Y99.675 E0.019
G1 X117.413 Y99.19 E0.014
G1 X117.203 Y98.722 E0.012
G1 X117.009 Y98.209 E0.014
G1 X116.842 Y97.653 E0.015
G1 X116.719 Y97.118 E0.013
G1 X116.631 Y96.576 E0.014
G1 X116.58 Y96.065 E0.013
G1 X116.56 Y95.518 E0.013
G1 X116.576 Y94.97 E0.014
G1 X116.629 Y94.424 E0.014
G1 X116.715 Y93.882 E0.013
G1 X116.837 Y93.348 E0.014
G1 X116.994 Y92.823 E0.014
G1 X117.183 Y92.31 E0.013
G1 X117.406 Y91.809 E0.014
G1 X117.661 Y91.324 E0.014
G1 X117.947 Y90.858 E0.013
G1 X118.285 Y90.381 E0.015
G1 X118.607 Y89.982 E0.013
G1 X118.979 Y89.58 E0.013
G1 X119.375 Y89.201 E0.014
G1 X119.796 Y88.849 E0.014
G1 X120.237 Y88.525 E0.013
G1 X120.699 Y88.231 E0.014
G1 X121.18 Y87.967 E0.014
G1 X121.44 Y87.845 E0.007
G1 Y102.746 E0.372
G1 X122.298 Y103.087 E0.023
G1 X122.828 Y103.255 E0.014
G1 X123.368 Y103.386 E0.013
G1 X123.915 Y103.479 E0.014
G1 X124.466 Y103.535 E0.014
G1 X124.98 Y103.553 E0.013
G1 X125.576 Y103.532 E0.015
G1 X126.086 Y103.479 E0.013
G1 X126.632 Y103.386 E0.013
G1 X127.172 Y103.255 E0.014
G1 X127.702 Y103.087 E0.014
G1 X128.56 Y102.746 E0.023
G1 Y87.845 E0.372
G1 X128.82 Y87.967 E0.007
G1 X129.301 Y88.231 E0.014
G1 X129.763 Y88.525 E0.013
G1 X130.204 Y88.849 E0.014
G1 X130.625 Y89.201 E0.014
G1 X131.021 Y89.58 E0.013
G1 X131.393 Y89.982 E0.014
G1 X131.737 Y90.409 E0.014
G1 X132.053 Y90.857 E0.013
G1 X132.339 Y91.324 E0.014
G1 X132.578 Y91.778 E0.013
G1 X132.818 Y92.311 E0.014
G1 X132.996 Y92.791 E0.013
;rapid-leaky
G0 X131.942 Y91.288 F7200
;bead-solid_infill
G1 X129.2 Y88.546 F1800 E0.097
G1 X129.137 Y88.507 E0.002
G1 X128.88 Y88.365 E0.007
G1 Y88.792 E0.011
G1 X132.521 Y92.433 E0.128
G1 X132.692 Y92.893 E0.012
G1 X132.811 Y93.289 E0.011
G1 X128.88 Y89.358 E0.138
G1 Y89.923 E0.015
G1 X132.984 Y94.027 E0.144
G1 X133.054 Y94.465 E0.011
G1 X133.075 Y94.684 E0.006
G1 X128.88 Y90.489 E0.148
G1 Y91.055 E0.014
G1 X133.113 Y95.288 E0.149
G1 X133.12 Y95.517 E0.006
G1 X133.108 Y95.848 E0.008
G1 X128.88 Y91.62 E0.149
G1 Y92.186 E0.015
G1 X133.068 Y96.374 E0.147
G1 X133.052 Y96.535 E0.004
G1 X132.998 Y96.869 E0.009
G1 X128.88 Y92.752 E0.145
G1 Y93.317 E0.014
G1 X132.902 Y97.339 E0.142
G1 X132.84 Y97.602 E0.007
G1 X132.784 Y97.787 E0.005
G1 X128.88 Y93.883 E0.137
G1 Y94.449 E0.014
G1 X132.646 Y98.215 E0.133
G1 X132.515 Y98.568 E0.01
G1 X132.489 Y98.624 E0.001
G1 X128.88 Y95.015 E0.128
G1 Y95.58 E0.014
G1 X132.314 Y99.014 E0.121
G1 X132.283 Y99.081 E0.002
G1 X132.121 Y99.387 E0.008
G1 X128.88 Y96.146 E0.115
G1 Y96.712 E0.014
G1 X131.912 Y99.744 E0.107
G1 X131.697 Y100.094 E0.01
G1 X128.88 Y97.277 E0.099
G1 Y97.843 E0.014
G1 X131.62 Y100.583 E0.097
G1 Y101.149 E0.014
G1 X128.88 Y98.409 E0.097
G1 Y98.974 E0.014
G1 X131.62 Y101.714 E0.097
G1 Y102.28 E0.014
G1 X128.88 Y99.54 E0.096
G1 Y100.106 E0.014
G1 X131.62 Y102.846 E0.097
G1 Y103.411 E0.014
G1 X128.88 Y100.671 E0.097
G1 Y101.237 E0.014
G1 X131.62 Y103.977 E0.097
G1 Y104.543 E0.014
G1 X128.88 Y101.803 E0.096
G1 Y102.368 E0.015
G1 X131.62 Y105.108 E0.096
G1 Y105.674 E0.014
G1 X128.88 Y102.934 E0.097
G1 Y102.963 E0.001
G1 X128.496 Y103.116 E0.01
G1 X131.62 Y106.24 E0.11
G1 Y106.805 E0.014
G1 X128.091 Y103.277 E0.125
G1 X127.81 Y103.389 E0.007
G1 X127.679 Y103.43 E0.004
G1 X131.62 Y107.371 E0.139
G1 Y107.937 E0.014
G1 X127.248 Y103.565 E0.154
G1 X126.793 Y103.676 E0.012
G1 X131.62 Y108.503 E0.17
G1 Y109.068 E0.014
G1 X126.316 Y103.764 E0.187
G1 X126.13 Y103.796 E0.005
G1 X125.815 Y103.829 E0.008
G1 X131.62 Y109.634 E0.205
G1 Y110.2 E0.014
G1 X125.283 Y103.863 E0.223
G1 X124.98 Y103.874 E0.008
G1 X124.719 Y103.864 E0.006
G1 X131.62 Y110.765 E0.244
G1 Y111.331 E0.014
G1 X124.11 Y103.821 E0.265
G1 X123.871 Y103.797 E0.006
G1 X123.447 Y103.724 E0.011
G1 X131.62 Y111.897 E0.288
G1 Y112.462 E0.014
G1 X122.711 Y103.553 E0.314
G1 X122.19 Y103.389 E0.014
G1 X121.842 Y103.25 E0.009
G1 X131.62 Y113.028 E0.345
G1 Y113.594 E0.014
G1 X118.38 Y100.354 E0.468
G1 Y100.919 E0.014
G1 X131.62 Y114.159 E0.467
G1 Y114.725 E0.014
G1 X118.38 Y101.485 E0.467
G1 Y102.051 E0.014
G1 X131.62 Y115.291 E0.467
G1 Y115.856 E0.014
G1 X118.38 Y102.616 E0.467
G1 Y103.182 E0.014
G1 X131.62 Y116.422 E0.467
G1 Y116.988 E0.015
G1 X118.38 Y103.748 E0.467
G1 Y104.314 E0.014
G1 X131.62 Y117.554 E0.467
G1 Y118.119 E0.014
G1 X118.38 Y104.879 E0.467
G1 Y105.445 E0.014
G1 X131.62 Y118.685 E0.467
G1 Y119.251 E0.014
G1 X118.38 Y106.011 E0.467
G1 Y106.576 E0.015
G1 X131.62 Y119.816 E0.467
G1 Y120.382 E0.014
G1 X118.38 Y107.142 E0.467
G1 Y107.708 E0.014
G1 X131.62 Y120.948 E0.467
G1 Y121.513 E0.014
G1 X118.38 Y108.273 E0.467
G1 Y108.839 E0.014
G1 X131.62 Y122.079 E0.467
G1 Y122.113 E0.001
G1 X131.088 E0.013
G1 X118.38 Y109.405 E0.449
G1 Y109.97 E0.014
G1 X130.523 Y122.113 E0.428
G1 X129.957 E0.014
G1 X118.38 Y110.536 E0.409
G1 Y111.102 E0.014
G1 X129.391 Y122.113 E0.388
G1 X128.826 E0.014
G1 X118.38 Y111.667 E0.369
G1 Y112.233 E0.014
G1 X128.26 Y122.113 E0.349
G1 X127.694 E0.014
G1 X118.38 Y112.799 E0.328
G1 Y113.364 E0.014
G1 X127.129 Y122.113 E0.309
G1 X126.563 E0.014
G1 X118.38 Y113.93 E0.289
G1 Y114.496 E0.014
G1 X125.997 Y122.113 E0.269
G1 X125.431 E0.014
G1 X118.38 Y115.062 E0.248
G1 Y115.627 E0.015
G1 X124.866 Y122.113 E0.228
G1 X124.3 E0.015
G1 X118.38 Y116.193 E0.208
G1 Y116.759 E0.014
G1 X123.734 Y122.113 E0.189
G1 X123.169 E0.014
G1 X118.38 Y117.324 E0.169
G1 Y117.89 E0.015
G1 X122.603 Y122.113 E0.149
G1 X122.037 E0.014
G1 X118.38 Y118.456 E0.129
G1 Y119.021 E0.014
G1 X121.472 Y122.113 E0.109
G1 X120.906 E0.014
G1 X118.38 Y119.587 E0.089
G1 Y120.153 E0.014
G1 X120.34 Y122.113 E0.069
G1 X119.775 E0.014
G1 X118.38 Y120.718 E0.05
G1 Y121.284 E0.014
G1 X119.209 Y122.113 E0.029
G1 X118.643 E0.014
G1 X118.38 Y121.85 E0.009
G1 F2100 E-0.5
;rapid-dry
G0 X121.12 Y102.528 F7200
G1 F2100 E0.5
;bead-solid_infill
G1 X117.768 Y99.176 F1800 E0.119
G1 X117.701 Y99.05 E0.003
G1 X117.499 Y98.599 E0.012
G1 X117.341 Y98.183 E0.012
G1 X121.12 Y101.962 E0.133
G1 Y101.397 E0.014
G1 X117.109 Y97.385 E0.142
G1 X117.033 Y97.057 E0.008
G1 X116.972 Y96.683 E0.009
G1 X121.12 Y100.831 E0.147
G1 Y100.265 E0.014
G1 X116.9 Y96.045 E0.149
G1 X116.899 Y96.044
G1 X116.88 Y95.517 E0.013
G1 X116.882 Y95.462 E0.001
G1 X121.12 Y99.7 E0.15
G1 Y99.134 E0.014
G1 X116.903 Y94.917 E0.149
G1 X116.946 Y94.465 E0.011
G1 X116.956 Y94.404 E0.002
G1 X121.12 Y98.568 E0.146
G1 Y98.003 E0.015
G1 X117.035 Y93.918 E0.144
G1 X117.14 Y93.457 E0.011
G1 X121.12 Y97.437 E0.141
G1 Y96.871 E0.014
G1 X117.269 Y93.02 E0.136
G1 X117.297 Y92.924 E0.002
G1 X117.416 Y92.602 E0.009
G1 X121.12 Y96.305 E0.13
G1 Y95.74 E0.015
G1 X117.582 Y92.202 E0.124
G1 X117.694 Y91.949 E0.007
G1 X117.763 Y91.817 E0.004
G1 X121.12 Y95.174 E0.118
G1 Y94.608 E0.015
G1 X117.96 Y91.448 E0.111
G1 X118.175 Y91.098 E0.01
G1 X121.12 Y94.043 E0.104
G1 Y93.477 E0.014
G1 X118.406 Y90.763 E0.096
G1 X118.54 Y90.575 E0.006
G1 X118.649 Y90.44 E0.004
G1 X121.12 Y92.911 E0.087
G1 Y92.346 E0.014
G1 X118.905 Y90.131 E0.079
G1 X119.177 Y89.837 E0.01
G1 X121.12 Y91.78 E0.068
G1 Y91.214 E0.014
G1 X119.464 Y89.558 E0.059
G1 X119.588 Y89.439 E0.004
G1 X119.605 Y89.425
G1 X119.764 Y89.292 E0.006
G1 X121.12 Y90.649 E0.047
G1 Y90.083 E0.015
G1 X120.077 Y89.04 E0.036
G1 X120.403 Y88.8 E0.01
G1 X121.12 Y89.517 E0.026
G1 Y88.952 E0.014
G1 X120.748 Y88.579 E0.013
G1 X120.863 Y88.507 E0.003
G1 X121.073 Y88.391 E0.006
G1 X121.106 Y88.372 E0.001
G1 X121.12 Y88.386 E0.001
G1 F2100 E-0.5
;LAYER:3
M107
;rapid-dry
G0 X129.922 Y88.199 Z0.5 F7200
G1 F2100 E0.5
;bead-perimeter_outer
G1 X130.428 Y88.567 F1800 E0.015
G1 X130.867 Y88.933 E0.015
G1 X131.279 Y89.328 E0.014
G1 X131.666 Y89.749 E0.014
G1 X132.025 Y90.194 E0.014
G1 X132.356 Y90.661 E0.015
G1 X132.653 Y91.149 E0.014
G1 X132.919 Y91.655 E0.014
G1 X133.152 Y92.178 E0.014
G1 X133.35 Y92.713 E0.015
G1 X133.499 Y93.21 E0.013
G1 X133.64 Y93.818 E0.015
G1 X133.729 Y94.383 E0.015
G1 X133.783 Y94.952 E0.014
G1 X133.8 Y95.525 E0.014
G1 X133.782 Y96.043 E0.013
G1 X133.722 Y96.664 E0.016
G1 X133.627 Y97.228 E0.014
G1 X133.497 Y97.785 E0.014
G1 X133.345 Y98.281 E0.013
G1 X133.148 Y98.817 E0.014
G1 X132.891 Y99.387 E0.016
G1 X132.622 Y99.891 E0.014
G1 X132.3 Y100.411 E0.015
G1 Y122.793 E0.559
G1 X117.7 E0.364
G1 Y100.411 E0.558
G1 X117.352 Y99.845 E0.017
G1 X117.109 Y99.387 E0.013
G1 X116.872 Y98.866 E0.014
G1 X116.654 Y98.281 E0.016
G1 X116.491 Y97.734 E0.014
G1 X116.363 Y97.177 E0.014
G1 X116.272 Y96.612 E0.014
G1 X116.221 Y96.096 E0.013
G1 X116.201 Y95.472 E0.016
G1 X116.217 Y94.952 E0.013
G1 X116.271 Y94.383 E0.014
G1 X116.36 Y93.818 E0.014
G1 X116.488 Y93.261 E0.015
G1 X116.65 Y92.713 E0.014
G1 X116.848 Y92.178 E0.014
G1 X117.081 Y91.655 E0.014
G1 X117.347 Y91.149 E0.015
G1 X117.644 Y90.661 E0.014
G1 X117.974 Y90.194 E0.014
G1 X118.333 Y89.749 E0.014
G1 X118.721 Y89.328 E0.015
G1 X119.133 Y88.933 E0.014
G1 X119.614 Y88.535 E0.016
G1 X120.033 Y88.228 E0.012
G1 X120.515 Y87.921 E0.015
G1 X121.017 Y87.646 E0.014
G1 X121.534 Y87.404 E0.014
G1 X121.8 Y87.3 E0.007
G1 Y102.502 E0.38
G1 X122.423 Y102.748 E0.016
G1 X122.871 Y102.892 E0.012
G1 X123.447 Y103.034 E0.015
G1 X123.97 Y103.123 E0.013
G1 X124.438 Y103.172 E0.012
G1 X124.969 Y103.192 E0.013
G1 X125.562 Y103.172 E0.015
G1 X126.03 Y103.123 E0.012
G1 X126.553 Y103.034 E0.013
G1 X127.129 Y102.892 E0.015
G1 X127.577 Y102.748 E0.011
G1 X128.2 Y102.502 E0.017
G1 Y87.3 E0.379
G1 X128.466 Y87.404 E0.007
G1 X128.983 Y87.646 E0.015
G1 X129.485 Y87.921 E0.014
G1 X129.922 Y88.199 E0.013
;rapid-leaky
G0 X129.72 Y88.497 F7200
;bead-perimeter_inner
G1 X130.207 Y88.851 F2400 E0.015
G1 X130.626 Y89.202 E0.014
G1 X131.022 Y89.58 E0.013
G1 X131.394 Y89.984 E0.014
G1 X131.738 Y90.411 E0.014
G1 X132.055 Y90.859 E0.013
G1 X132.339 Y91.326 E0.014
G1 X132.595 Y91.812 E0.014
G1 X132.818 Y92.313 E0.013
G1 X133.009 Y92.828 E0.014
G1 X133.15 Y93.302 E0.012
G1 X133.286 Y93.887 E0.015
G1 X133.372 Y94.428 E0.014
G1 X133.424 Y94.975 E0.014
G1 X133.44 Y95.524 E0.013
G1 X133.423 Y96.019 E0.013
G1 X133.365 Y96.616 E0.015
G1 X133.274 Y97.157 E0.013
G1 X133.149 Y97.692 E0.014
G1 X133.004 Y98.166 E0.012
G1 X132.814 Y98.681 E0.014
G1 X132.568 Y99.228 E0.015
G1 X132.309 Y99.711 E0.014
G1 X131.94 Y100.309 E0.017
G1 Y122.433 E0.552
G1 X118.06 E0.346
G1 Y100.31 E0.552
G1 X117.664 Y99.666 E0.019
G1 X117.432 Y99.228 E0.013
G1 X117.205 Y98.728 E0.013
G1 X116.995 Y98.167 E0.015
G1 X116.839 Y97.643 E0.014
G1 X116.717 Y97.108 E0.013
G1 X116.63 Y96.565 E0.014
G1 X116.58 Y96.072 E0.013
G1 X116.561 Y95.472 E0.015
G1 X116.576 Y94.975 E0.012
G1 X116.628 Y94.428 E0.014
G1 X116.714 Y93.886 E0.013
G1 X116.836 Y93.352 E0.014
G1 X116.992 Y92.827 E0.014
G1 X117.182 Y92.313 E0.013
G1 X117.405 Y91.812 E0.014
G1 X117.66 Y91.326 E0.014
G1 X117.946 Y90.858 E0.013
G1 X118.261 Y90.411 E0.014
G1 X118.606 Y89.984 E0.014
G1 X118.978 Y89.58 E0.013
G1 X119.373 Y89.202 E0.014
G1 X119.835 Y88.819 E0.015
G1 X120.236 Y88.526 E0.012
G1 X120.698 Y88.231 E0.014
G1 X121.18 Y87.968 E0.014
G1 X121.44 Y87.846 E0.007
G1 Y102.747 E0.372
G1 X122.301 Y103.088 E0.023
G1 X122.772 Y103.238 E0.012
G1 X123.374 Y103.387 E0.016
G1 X123.921 Y103.48 E0.013
G1 X124.412 Y103.531 E0.013
G1 X124.968 Y103.552 E0.014
G1 X125.586 Y103.531 E0.015
G1 X126.079 Y103.48 E0.012
G1 X126.626 Y103.387 E0.014
G1 X127.228 Y103.238 E0.016
G1 X127.699 Y103.088 E0.012
G1 X128.56 Y102.747 E0.023
G1 Y87.846 E0.372
G1 X128.82 Y87.968 E0.007
G1 X129.302 Y88.231 E0.014
G1 X129.72 Y88.497 E0.012
G1 F2100 E-0.5
;rapid-dry
G0 X128.88 Y88.398 F7200
G1 F2100 E0.5
;bead-solid_infill
G1 X128.901 Y88.377 F1800 E0.001
G1 X129.139 Y88.507 E0.007
G1 X129.26 Y88.584 E0.003
G1 X128.88 Y88.964 E0.014
G1 Y89.53 E0.014
G1 X129.602 Y88.807 E0.025
G1 X129.93 Y89.045 E0.01
G1 X128.88 Y90.095 E0.037
G1 Y90.661 E0.014
G1 X130.243 Y89.298 E0.048
G1 X130.413 Y89.44 E0.006
G1 X130.542 Y89.564 E0.004
G1 X128.88 Y91.227 E0.059
G1 Y91.792 E0.014
G1 X130.829 Y89.843 E0.069
G1 X131.1 Y90.138 E0.01
G1 X128.88 Y92.358 E0.078
G1 Y92.924 E0.014
G1 X131.356 Y90.447 E0.088
G1 X131.483 Y90.604 E0.005
G1 X131.6 Y90.77 E0.005
G1 X128.88 Y93.489 E0.096
G1 Y94.055 E0.014
G1 X131.83 Y91.105 E0.104
G1 X131.947 Y91.296 E0.006
G1 X132.044 Y91.457 E0.004
G1 X128.88 Y94.621 E0.112
G1 Y95.187 E0.014
G1 X132.241 Y91.826 E0.119
G1 X132.307 Y91.952 E0.003
G1 X132.422 Y92.21 E0.007
G1 X128.88 Y95.752 E0.125
G1 Y96.318 E0.014
G1 X132.587 Y92.611 E0.131
G1 X132.705 Y92.929 E0.008
G1 X132.735 Y93.029 E0.003
G1 X128.88 Y96.884 E0.136
G1 Y97.449 E0.014
G1 X132.86 Y93.469 E0.141
G1 X132.967 Y93.928 E0.011
G1 X128.88 Y98.015 E0.145
G1 Y98.581 E0.014
G1 X133.046 Y94.415 E0.147
G1 X133.055 Y94.469 E0.001
G1 X133.098 Y94.928 E0.011
G1 X128.88 Y99.146 E0.149
G1 Y99.712 E0.014
G1 X133.118 Y95.474 E0.15
G1 X133.119 Y95.514 E0.001
G1 X133.12 Y95.523
G1 X133.103 Y95.998 E0.012
G1 X133.097 Y96.06 E0.002
G1 X128.88 Y100.278 E0.148
G1 Y100.843 E0.014
G1 X133.027 Y96.697 E0.147
G1 X132.96 Y97.094 E0.01
G1 X132.895 Y97.371 E0.007
G1 X132.888 Y97.401 E0.001
G1 X128.88 Y101.409 E0.141
G1 Y101.975 E0.014
G1 X132.648 Y98.207 E0.133
G1 X132.518 Y98.56 E0.009
G1 X132.281 Y99.086 E0.015
G1 X132.22 Y99.201 E0.003
G1 X128.88 Y102.54 E0.118
G1 F2100 E-0.5
;rapid-dry
G0 X118.039 Y91.319 F7200
G1 F2100 E0.5
;bead-solid_infill
G1 X120.835 Y88.523 F1800 E0.099
G1 X120.861 Y88.507
G1 X121.12 Y88.365 E0.008
G1 Y88.804 E0.011
G1 X117.471 Y92.453 E0.128
G1 X117.295 Y92.928 E0.013
G1 X117.183 Y93.307 E0.01
G1 X121.12 Y89.37 E0.139
G1 Y89.936 E0.014
G1 X117.013 Y94.042 E0.145
G1 X116.946 Y94.469 E0.01
G1 X116.924 Y94.698 E0.006
G1 X121.12 Y90.501 E0.148
G1 Y91.067 E0.014
G1 X116.887 Y95.301 E0.15
G1 X116.881 Y95.471 E0.004
G1 X116.891 Y95.775 E0.008
G1 X116.894 Y95.859 E0.002
G1 X121.12 Y91.633 E0.149
G1 Y92.198 E0.014
G1 X116.933 Y96.385 E0.148
G1 X116.947 Y96.524 E0.003
G1 X117.004 Y96.88 E0.009
G1 X121.12 Y92.764 E0.145
G1 Y93.33 E0.014
G1 X117.1 Y97.35 E0.142
G1 X117.149 Y97.561 E0.006
G1 X117.219 Y97.797 E0.006
G1 X121.12 Y93.896 E0.137
G1 Y94.461 E0.014
G1 X117.358 Y98.223 E0.133
G1 X117.501 Y98.606 E0.01
G1 X117.513 Y98.634 E0.001
G1 X121.12 Y95.027 E0.127
G1 Y95.593 E0.014
G1 X117.69 Y99.023 E0.121
G1 X117.719 Y99.086 E0.002
G1 X117.883 Y99.395 E0.009
G1 X121.12 Y96.158 E0.114
G1 Y96.724 E0.014
G1 X118.093 Y99.751 E0.107
G1 X118.308 Y100.102 E0.01
G1 X121.12 Y97.29 E0.099
G1 Y97.855 E0.015
G1 X118.38 Y100.595 E0.096
G1 Y101.161 E0.014
G1 X121.12 Y98.421 E0.097
G1 Y98.987 E0.014
G1 X118.38 Y101.727 E0.097
G1 Y102.292 E0.014
G1 X121.12 Y99.552 E0.097
G1 Y100.118 E0.014
G1 X118.38 Y102.858 E0.096
G1 Y103.424 E0.014
G1 X121.12 Y100.684 E0.097
G1 Y101.249 E0.014
G1 X118.38 Y103.989 E0.097
G1 Y104.555 E0.014
G1 X121.12 Y101.815 E0.097
G1 Y102.381 E0.014
G1 X118.38 Y105.121 E0.096
G1 Y105.686 E0.015
G1 X121.12 Y102.946 E0.096
G1 Y102.964 E0.001
G1 X121.513 Y103.12 E0.01
G1 X118.38 Y106.252 E0.111
G1 Y106.818 E0.014
G1 X121.918 Y103.28 E0.125
G1 X122.194 Y103.389 E0.007
G1 X122.331 Y103.433 E0.004
G1 X118.38 Y107.384 E0.139
G1 Y107.949 E0.014
G1 X122.764 Y103.566 E0.155
G1 X123.217 Y103.678 E0.011
G1 X118.38 Y108.515 E0.171
G1 Y109.081 E0.014
G1 X123.695 Y103.766 E0.188
G1 X123.766 Y103.778 E0.001
G1 X123.878 Y103.797 E0.003
G1 X124.196 Y103.83 E0.008
G1 X118.38 Y109.646 E0.205
G1 Y110.212 E0.014
G1 X124.729 Y103.863 E0.224
G1 X124.967 Y103.873 E0.006
G1 X125.288 Y103.862 E0.008
G1 X125.296 Y103.861 E0.001
G1 X118.38 Y110.778 E0.244
G1 Y111.343 E0.014
G1 X125.903 Y103.82 E0.265
G1 X126.122 Y103.797 E0.006
G1 X126.568 Y103.721 E0.011
G1 X118.38 Y111.909 E0.289
G1 Y112.475 E0.014
G1 X127.306 Y103.548 E0.315
G1 X127.315 Y103.546
G1 X127.806 Y103.389 E0.013
G1 X128.179 Y103.242 E0.01
G1 X118.38 Y113.04 E0.346
G1 Y113.606 E0.014
G1 X131.62 Y100.366 E0.467
G1 Y100.932 E0.014
G1 X118.38 Y114.172 E0.467
G1 Y114.737 E0.014
G1 X131.62 Y101.497 E0.467
G1 Y102.063 E0.014
G1 X118.38 Y115.303 E0.467
G1 Y115.869 E0.014
G1 X131.62 Y102.629 E0.467
G1 Y103.195 E0.015
G1 X118.38 Y116.435 E0.467
G1 Y117 E0.014
G1 X131.62 Y103.76 E0.467
G1 Y104.326 E0.014
G1 X118.38 Y117.566 E0.467
G1 Y118.132 E0.014
G1 X131.62 Y104.892 E0.467
G1 Y105.457 E0.014
G1 X118.38 Y118.697 E0.467
G1 Y119.263 E0.014
G1 X131.62 Y106.023 E0.468
G1 Y106.589 E0.014
G1 X118.38 Y119.829 E0.467
G1 Y120.394 E0.014
G1 X131.62 Y107.154 E0.467
G1 Y107.72 E0.014
G1 X118.38 Y120.96 E0.467
G1 Y121.526 E0.014
G1 X131.62 Y108.286 E0.467
G1 Y108.851 E0.014
G1 X118.38 Y122.091 E0.468
G1 Y122.113
G1 X118.924 E0.014
G1 X131.62 Y109.417 E0.448
G1 Y109.983 E0.014
G1 X119.49 Y122.113 E0.428
G1 X120.055 E0.014
G1 X131.62 Y110.548 E0.408
G1 Y111.114 E0.014
G1 X120.621 Y122.113 E0.388
G1 X121.187 E0.014
G1 X131.62 Y111.68 E0.368
G1 Y112.245 E0.014
G1 X121.752 Y122.113 E0.348
G1 X122.318 E0.014
G1 X131.62 Y112.811 E0.328
G1 Y113.377 E0.015
G1 X122.884 Y122.113 E0.308
G1 X123.45 E0.014
G1 X131.62 Y113.943 E0.288
G1 Y114.508 E0.014
G1 X124.015 Y122.113 E0.268
G1 X124.581 E0.015
G1 X131.62 Y115.074 E0.248
G1 Y115.64 E0.014
G1 X125.147 Y122.113 E0.228
G1 X125.712 E0.014
G1 X131.62 Y116.205 E0.209
G1 Y116.771 E0.014
G1 X126.278 Y122.113 E0.188
G1 X126.844 E0.015
G1 X131.62 Y117.337 E0.168
G1 Y117.902 E0.014
G1 X127.409 Y122.113 E0.149
G1 X127.975 E0.014
G1 X131.62 Y118.468 E0.128
G1 Y119.034 E0.015
G1 X128.541 Y122.113 E0.108
G1 X129.106 E0.014
G1 X131.62 Y119.599 E0.089
G1 Y120.165 E0.014
G1 X129.672 Y122.113 E0.069
G1 X130.238 E0.014
G1 X131.62 Y120.731 E0.049
G1 Y121.296 E0.014
G1 X130.803 Y122.113 E0.029
G1 X131.369 E0.014
G1 X131.62 Y121.862 E0.008
G1 F2100 E-0.5
;LAYER:4
M106 S255
;rapid-dry
G0 X133.153 Y92.181 Z0.65 F7200
G1 F2100 E0.5
;bead-perimeter_outer
G1 X133.351 Y92.717 F1794 E0.015
G1 X133.513 Y93.265 E0.014
G1 X133.64 Y93.823 E0.014
G1 X133.72 Y94.319 E0.013
G1 X133.783 Y94.958 E0.016
G1 X133.8 Y95.529 E0.014
G1 X133.778 Y96.1 E0.014
G1 X133.721 Y96.67 E0.015
G1 X133.639 Y97.164 E0.012
G1 X133.495 Y97.791 E0.016
G1 X133.327 Y98.338 E0.014
G1 X133.152 Y98.807 E0.013
G1 X132.888 Y99.393 E0.016
G1 X132.619 Y99.897 E0.014
G1 X132.3 Y100.411 E0.015
G1 Y122.793 E0.559
G1 X117.7 E0.364
G1 Y100.412 E0.558
G1 X117.347 Y99.836 E0.017
G1 X117.112 Y99.393 E0.012
G1 X116.875 Y98.872 E0.015
G1 X116.673 Y98.338 E0.014
G1 X116.487 Y97.723 E0.016
G1 X116.374 Y97.234 E0.013
G1 X116.279 Y96.669 E0.014
G1 X116.222 Y96.101 E0.014
G1 X116.201 Y95.459 E0.016
G1 X116.217 Y94.958 E0.013
G1 X116.271 Y94.388 E0.014
G1 X116.361 Y93.823 E0.014
G1 X116.487 Y93.265 E0.014
G1 X116.649 Y92.717 E0.015
G1 X116.847 Y92.181 E0.014
G1 X117.079 Y91.658 E0.014
G1 X117.345 Y91.152 E0.014
G1 X117.643 Y90.663 E0.015
G1 X118.016 Y90.14 E0.016
G1 X118.331 Y89.751 E0.012
G1 X118.719 Y89.33 E0.015
G1 X119.133 Y88.934 E0.014
G1 X119.571 Y88.567 E0.014
G1 X120.032 Y88.229 E0.014
G1 X120.514 Y87.922 E0.015
G1 X121.016 Y87.646 E0.014
G1 X121.534 Y87.404 E0.014
G1 X121.8 Y87.3 E0.007
G1 Y102.502 E0.379
G1 X122.427 Y102.751 E0.017
G1 X122.936 Y102.911 E0.014
G1 X123.454 Y103.035 E0.013
G1 X123.978 Y103.124 E0.013
G1 X124.509 Y103.177 E0.013
G1 X124.959 Y103.192 E0.012
G1 X125.573 Y103.171 E0.015
G1 X126.022 Y103.124 E0.011
G1 X126.546 Y103.035 E0.014
G1 X127.064 Y102.911 E0.013
G1 X127.573 Y102.751 E0.013
G1 X128.2 Y102.502 E0.017
G1 Y87.3 E0.379
G1 X128.466 Y87.404 E0.007
G1 X128.984 Y87.646 E0.015
G1 X129.486 Y87.922 E0.014
G1 X129.968 Y88.229 E0.014
G1 X130.429 Y88.567 E0.014
G1 X130.867 Y88.934 E0.015
G1 X131.281 Y89.33 E0.014
G1 X131.621 Y89.698 E0.012
G1 X132.028 Y90.196 E0.016
G1 X132.357 Y90.663 E0.015
G1 X132.655 Y91.152 E0.014
G1 X132.921 Y91.658 E0.014
G1 X133.153 Y92.181 E0.015
;rapid-leaky
G0 X132.819 Y92.317 F7200
;bead-perimeter_inner
G1 X133.009 Y92.831 F2392 E0.013
G1 X133.165 Y93.355 E0.014
G1 X133.286 Y93.891 E0.014
G1 X133.362 Y94.366 E0.012
G1 X133.424 Y94.981 E0.015
G1 X133.44 Y95.528 E0.014
G1 X133.419 Y96.075 E0.013
G1 X133.364 Y96.622 E0.014
G1 X133.285 Y97.094 E0.012
G1 X133.147 Y97.698 E0.015
G1 X132.986 Y98.222 E0.014
G1 X132.819 Y98.67 E0.012
G1 X132.565 Y99.234 E0.015
G1 X132.307 Y99.717 E0.014
G1 X131.94 Y100.308 E0.017
G1 Y122.433 E0.552
G1 X118.06 E0.347
G1 Y100.31 E0.551
G1 X117.659 Y99.657 E0.02
G1 X117.435 Y99.234 E0.012
G1 X117.207 Y98.734 E0.013
G1 X117.014 Y98.222 E0.014
G1 X116.835 Y97.63 E0.015
G1 X116.727 Y97.163 E0.012
G1 X116.636 Y96.621 E0.014
G1 X116.581 Y96.077 E0.014
G1 X116.561 Y95.459 E0.015
G1 X116.576 Y94.98 E0.012
G1 X116.628 Y94.433 E0.014
G1 X116.714 Y93.891 E0.013
G1 X116.835 Y93.355 E0.014
G1 X116.991 Y92.831 E0.014
G1 X117.181 Y92.317 E0.013
G1 X117.403 Y91.815 E0.014
G1 X117.658 Y91.329 E0.014
G1 X117.944 Y90.862 E0.013
G1 X118.303 Y90.358 E0.016
G1 X118.604 Y89.986 E0.012
G1 X118.976 Y89.582 E0.013
G1 X119.373 Y89.202 E0.014
G1 X119.794 Y88.85 E0.014
G1 X120.235 Y88.527 E0.014
G1 X120.698 Y88.232 E0.013
G1 X121.179 Y87.967 E0.014
G1 X121.44 Y87.845 E0.007
G1 Y102.746 E0.372
G1 X122.306 Y103.09 E0.023
G1 X122.839 Y103.258 E0.014
G1 X123.382 Y103.388 E0.014
G1 X123.93 Y103.481 E0.014
G1 X124.485 Y103.536 E0.014
G1 X124.959 Y103.552 E0.012
G1 X125.598 Y103.53 E0.015
G1 X126.071 Y103.481 E0.012
G1 X126.618 Y103.388 E0.014
G1 X127.161 Y103.258 E0.014
G1 X127.694 Y103.09 E0.014
G1 X128.56 Y102.746 E0.023
G1 Y87.845 E0.372
G1 X128.821 Y87.968 E0.007
G1 X129.302 Y88.232 E0.014
G1 X129.765 Y88.527 E0.014
G1 X130.206 Y88.85 E0.013
G1 X130.627 Y89.202 E0.014
G1 X131.024 Y89.583 E0.014
G1 X131.349 Y89.934 E0.012
G1 X131.741 Y90.414 E0.015
G1 X132.056 Y90.861 E0.014
G1 X132.342 Y91.329 E0.013
G1 X132.597 Y91.815 E0.014
G1 X132.819 Y92.317 E0.014
;rapid-leaky
G0 X128.88 Y96.202 F7200
;bead-sparse_infill
G1 X129.719 Y95.552 F3588 E0.026
G1 X130.224 Y94.484 E0.03
G1 X129.994 Y93.416 E0.027
G1 X129.296 Y92.348 E0.032
G1 X128.88 Y92.026 E0.013
G1 Y88.365 E0.091
G1 X129.139 Y88.508 E0.008
G1 X129.584 Y88.791 E0.013
G1 X130.009 Y89.102 E0.013
G1 X130.414 Y89.441 E0.013
G1 X130.796 Y89.807 E0.013
G1 X131.107 Y90.144 E0.012
G1 X131.486 Y90.608 E0.015
G1 X131.788 Y91.036 E0.013
G1 X132.063 Y91.487 E0.013
G1 X132.308 Y91.954 E0.013
G1 X132.522 Y92.437 E0.013
G1 X132.706 Y92.932 E0.013
G1 X132.855 Y93.436 E0.013
G1 X132.972 Y93.952 E0.014
G1 X133.045 Y94.407 E0.011
G1 X133.09 Y94.855 E0.011
G1 X132.189 Y95.552 E0.029
G1 X131.684 Y96.62 E0.029
G1 X131.913 Y97.688 E0.028
G1 X132.504 Y98.591 E0.026
G1 X132.278 Y99.093 E0.014
G1 X132.029 Y99.557 E0.013
G1 X131.62 Y100.217 E0.02
G1 Y122.113 E0.546
G1 X128.524 E0.077
G1 X129.719 Y121.188 E0.038
G1 X130.224 Y120.119 E0.029
G1 X129.994 Y119.051 E0.028
G1 X129.296 Y117.983 E0.031
G1 X127.917 Y116.915 E0.044
G1 X127.411 Y115.847 E0.029
G1 X127.641 Y114.779 E0.028
G1 X128.34 Y113.711 E0.031
G1 X129.719 Y112.642 E0.044
G1 X130.224 Y111.574 E0.029
G1 X129.994 Y110.506 E0.028
G1 X129.296 Y109.438 E0.032
G1 X127.917 Y108.37 E0.043
G1 X127.411 Y107.302 E0.03
G1 X127.641 Y106.234 E0.027
G1 X128.34 Y105.165 E0.032
G1 X129.719 Y104.097 E0.043
G1 X130.224 Y103.029 E0.03
G1 X129.994 Y101.961 E0.027
G1 X129.296 Y100.893 E0.032
G1 X128.88 Y100.571 E0.013
G1 Y102.964 E0.06
G1 X127.801 Y103.392 E0.028
G1 X127.246 Y103.567 E0.015
G1 X126.683 Y103.702 E0.014
G1 X126.114 Y103.798 E0.015
G1 X125.62 Y103.849 E0.012
G1 X124.959 Y103.873 E0.017
G1 X124.464 Y103.856 E0.012
G1 X124.014 Y103.811 E0.011
G1 X123.644 Y104.097 E0.012
G1 X123.139 Y105.165 E0.03
G1 X123.368 Y106.234 E0.027
G1 X124.067 Y107.302 E0.032
G1 X125.446 Y108.37 E0.043
G1 X125.952 Y109.438 E0.03
G1 X125.722 Y110.506 E0.027
G1 X125.023 Y111.574 E0.032
G1 X123.644 Y112.642 E0.043
G1 X123.139 Y113.711 E0.03
G1 X123.368 Y114.779 E0.027
G1 X124.067 Y115.847 E0.032
G1 X125.446 Y116.915 E0.043
G1 X125.952 Y117.983 E0.03
G1 X125.722 Y119.051 E0.027
G1 X125.023 Y120.119 E0.032
G1 X123.644 Y121.188 E0.043
G1 X123.206 Y122.113 E0.026
G1 X119.979 E0.08
G1 X121.174 Y121.188 E0.038
G1 X121.679 Y120.119 E0.03
G1 X121.449 Y119.051 E0.027
G1 X120.751 Y117.983 E0.032
G1 X119.372 Y116.915 E0.043
G1 X118.866 Y115.847 E0.03
G1 X119.096 Y114.779 E0.027
G1 X119.794 Y113.711 E0.032
G1 X121.174 Y112.642 E0.043
G1 X121.679 Y111.574 E0.03
G1 X121.449 Y110.506 E0.027
G1 X120.751 Y109.438 E0.032
G1 X119.372 Y108.37 E0.043
G1 X118.866 Y107.302 E0.03
G1 X119.096 Y106.234 E0.027
G1 X119.794 Y105.165 E0.032
G1 X121.174 Y104.097 E0.043
G1 X121.617 Y103.161 E0.026
G1 X121.12 Y102.964 E0.014
G1 Y101.457 E0.037
G1 X120.751 Y100.893 E0.017
G1 X119.372 Y99.825 E0.044
G1 X118.866 Y98.757 E0.029
G1 X119.096 Y97.688 E0.027
G1 X119.794 Y96.62 E0.032
G1 X121.12 Y95.594 E0.042
G1 Y92.912 E0.067
G1 X120.751 Y92.348 E0.017
G1 X119.372 Y91.28 E0.043
G1 X118.866 Y90.211 E0.03
G1 X118.877 Y90.163 E0.001
G1 X118.846 Y90.196 E0.001
G1 X118.558 Y90.552 E0.011
G1 X118.211 Y91.038 E0.015
G1 X117.937 Y91.487 E0.013
G1 X117.692 Y91.954 E0.014
G1 X117.478 Y92.437 E0.013
G1 X117.294 Y92.932 E0.013
G1 X117.245 Y93.1 E0.004
G1 X117.177 Y93.416 E0.008
G1 X117.135 Y93.479 E0.002
G1 F2100 E-0.5
;LAYER:5
;rapid-dry
G0 X132.359 Y90.666 Z0.8 F7200
G1 F2100 E0.5
;bead-perimeter_outer
G1 X132.656 Y91.154 F1800 E0.015
G1 X132.922 Y91.661 E0.014
G1 X133.155 Y92.184 E0.014
G1 X133.352 Y92.721 E0.014
G1 X133.514 Y93.27 E0.015
G1 X133.641 Y93.827 E0.014
G1 X133.718 Y94.306 E0.012
G1 X133.783 Y94.963 E0.016
G1 X133.8 Y95.535 E0.015
G1 X133.778 Y96.106 E0.014
G1 X133.72 Y96.675 E0.014
G1 X133.641 Y97.153 E0.012
G1 X133.493 Y97.797 E0.017
G1 X133.325 Y98.343 E0.014
G1 X133.122 Y98.878 E0.014
G1 X132.885 Y99.399 E0.015
G1 X132.657 Y99.827 E0.012
G1 X132.3 Y100.412 E0.017
G1 Y122.793 E0.558
G1 X117.7 E0.364
G1 Y100.412 E0.559
G1 X117.343 Y99.827 E0.017
G1 X117.115 Y99.399 E0.012
G1 X116.878 Y98.878 E0.014
G1 X116.675 Y98.344 E0.014
G1 X116.485 Y97.712 E0.017
G1 X116.375 Y97.24 E0.012
G1 X116.28 Y96.675 E0.014
G1 X116.222 Y96.107 E0.014
G1 X116.201 Y95.447 E0.017
G1 X116.217 Y94.962 E0.012
G1 X116.27 Y94.393 E0.014
G1 X116.359 Y93.827 E0.015
G1 X116.486 Y93.27 E0.014
G1 X116.648 Y92.721 E0.014
G1 X116.845 Y92.184 E0.014
G1 X117.078 Y91.661 E0.015
G1 X117.344 Y91.154 E0.014
G1 X117.641 Y90.666 E0.014
G1 X117.971 Y90.198 E0.014
G1 X118.33 Y89.753 E0.015
G1 X118.781 Y89.27 E0.016
G1 X119.132 Y88.936 E0.012
G1 X119.57 Y88.567 E0.015
G1 X120.031 Y88.229 E0.014
G1 X120.513 Y87.922 E0.014
G1 X121.016 Y87.646 E0.014
G1 X121.534 Y87.404 E0.015
G1 X121.8 Y87.3 E0.007
G1 Y102.502 E0.379
G1 X122.431 Y102.752 E0.017
G1 X122.842 Y102.882 E0.011
G1 X123.46 Y103.037 E0.016
G1 X123.986 Y103.125 E0.013
G1 X124.414 Y103.17 E0.011
G1 X124.948 Y103.192 E0.013
G1 X125.585 Y103.17 E0.016
G1 X126.014 Y103.125 E0.011
G1 X126.54 Y103.037 E0.013
G1 X127.158 Y102.882 E0.016
G1 X127.569 Y102.752 E0.011
G1 X128.2 Y102.502 E0.017
G1 Y87.3 E0.379
G1 X128.466 Y87.404 E0.007
G1 X128.984 Y87.646 E0.014
G1 X129.487 Y87.922 E0.014
G1 X129.969 Y88.229 E0.015
G1 X130.43 Y88.567 E0.014
G1 X130.868 Y88.936 E0.014
G1 X131.282 Y89.331 E0.015
G1 X131.611 Y89.687 E0.012
G1 X132.029 Y90.198 E0.016
G1 X132.359 Y90.666 E0.014
;rapid-leaky
G0 X132.058 Y90.863 F7200
;bead-perimeter_inner
G1 X132.342 Y91.331 F2400 E0.014
G1 X132.598 Y91.818 E0.014
G1 X132.821 Y92.32 E0.013
G1 X133.01 Y92.834 E0.014
G1 X133.166 Y93.36 E0.014
G1 X133.287 Y93.895 E0.013
G1 X133.36 Y94.352 E0.012
G1 X133.424 Y94.986 E0.016
G1 X133.44 Y95.534 E0.014
G1 X133.419 Y96.081 E0.013
G1 X133.363 Y96.628 E0.014
G1 X133.287 Y97.083 E0.011
G1 X133.145 Y97.704 E0.016
G1 X132.984 Y98.226 E0.014
G1 X132.79 Y98.74 E0.014
G1 X132.562 Y99.24 E0.013
G1 X132.344 Y99.648 E0.012
G1 X131.94 Y100.311 E0.019
G1 Y122.433 E0.552
G1 X118.06 E0.346
G1 Y100.311 E0.552
G1 X117.656 Y99.648 E0.02
G1 X117.438 Y99.24 E0.011
G1 X117.21 Y98.739 E0.014
G1 X117.016 Y98.228 E0.013
G1 X116.833 Y97.619 E0.016
G1 X116.728 Y97.169 E0.012
G1 X116.637 Y96.627 E0.014
G1 X116.581 Y96.083 E0.013
G1 X116.561 Y95.447 E0.016
G1 X116.576 Y94.985 E0.012
G1 X116.627 Y94.438 E0.013
G1 X116.713 Y93.895 E0.014
G1 X116.834 Y93.36 E0.014
G1 X116.99 Y92.834 E0.013
G1 X117.179 Y92.32 E0.014
G1 X117.402 Y91.818 E0.014
G1 X117.658 Y91.331 E0.013
G1 X117.943 Y90.863 E0.014
G1 X118.258 Y90.415 E0.014
G1 X118.602 Y89.99 E0.013
G1 X119.037 Y89.523 E0.016
G1 X119.372 Y89.204 E0.012
G1 X119.792 Y88.851 E0.014
G1 X120.234 Y88.526 E0.013
G1 X120.696 Y88.232 E0.014
G1 X121.179 Y87.968 E0.014
G1 X121.44 Y87.845 E0.007
G1 Y102.747 E0.372
G1 X122.31 Y103.091 E0.023
G1 X122.744 Y103.229 E0.011
G1 X123.387 Y103.39 E0.017
G1 X123.938 Y103.482 E0.014
G1 X124.388 Y103.529 E0.011
G1 X124.947 Y103.552 E0.014
G1 X125.61 Y103.529 E0.017
G1 X126.062 Y103.482 E0.011
G1 X126.613 Y103.39 E0.014
G1 X127.256 Y103.229 E0.016
G1 X127.69 Y103.091 E0.012
G1 X128.56 Y102.747 E0.023
G1 Y87.845 E0.372
G1 X128.821 Y87.968 E0.007
G1 X129.304 Y88.232 E0.014
G1 X129.766 Y88.526 E0.013
G1 X130.208 Y88.851 E0.014
G1 X130.628 Y89.204 E0.014
G1 X131.025 Y89.584 E0.013
G1 X131.339 Y89.924 E0.012
G1 X131.742 Y90.416 E0.016
G1 X132.058 Y90.863 E0.014
;rapid-leaky
G0 X128.88 Y96.306 F7200
;bead-sparse_infill
G1 X130.032 Y95.552 F3600 E0.034
G1 X130.386 Y94.484 E0.028
G1 X130.046 Y93.416 E0.028
G1 X129.237 Y92.348 E0.033
G1 X128.88 Y92.114 E0.011
G1 Y88.365 E0.093
G1 X129.14 Y88.508 E0.008
G1 X129.585 Y88.791 E0.013
G1 X130.01 Y89.102 E0.013
G1 X130.414 Y89.443 E0.013
G1 X130.797 Y89.808 E0.014
G1 X131.098 Y90.134 E0.011
G1 X131.487 Y90.61 E0.015
G1 X131.79 Y91.039 E0.013
G1 X132.064 Y91.489 E0.013
G1 X132.309 Y91.958 E0.013
G1 X132.524 Y92.44 E0.014
G1 X132.706 Y92.935 E0.013
G1 X132.856 Y93.441 E0.013
G1 X132.973 Y93.956 E0.013
G1 X133.043 Y94.394 E0.011
G1 X133.08 Y94.765 E0.009
G1 X131.876 Y95.552 E0.036
G1 X131.522 Y96.62 E0.028
G1 X131.862 Y97.688 E0.028
G1 X132.518 Y98.554 E0.027
G1 X132.494 Y98.616 E0.002
G1 X132.274 Y99.098 E0.013
G1 X132.066 Y99.49 E0.011
G1 X131.62 Y100.221 E0.022
G1 Y104.869 E0.116
G1 X131.522 Y105.165 E0.007
G1 X131.62 Y105.474 E0.009
G1 Y113.414 E0.198
G1 X131.522 Y113.711 E0.007
G1 X131.62 Y114.019 E0.008
G1 Y121.959 E0.199
G1 X131.569 Y122.113 E0.004
G1 X128.617 E0.073
G1 X130.032 Y121.188 E0.042
G1 X130.386 Y120.119 E0.029
G1 X130.046 Y119.051 E0.027
G1 X129.237 Y117.983 E0.034
G1 X127.603 Y116.915 E0.049
G1 X127.249 Y115.847 E0.028
G1 X127.59 Y114.779 E0.028
G1 X128.399 Y113.711 E0.033
G1 X130.032 Y112.642 E0.049
G1 X130.386 Y111.574 E0.028
G1 X130.046 Y110.506 E0.028
G1 X129.237 Y109.438 E0.033
G1 X127.603 Y108.37 E0.049
G1 X127.249 Y107.302 E0.028
G1 X127.59 Y106.234 E0.028
G1 X128.399 Y105.165 E0.033
G1 X130.032 Y104.097 E0.049
G1 X130.386 Y103.029 E0.028
G1 X130.046 Y101.961 E0.028
G1 X129.237 Y100.893 E0.033
G1 X128.88 Y100.66 E0.011
G1 Y102.964 E0.058
G1 X127.798 Y103.392 E0.029
G1 X127.343 Y103.537 E0.012
G1 X126.679 Y103.703 E0.017
G1 X126.105 Y103.799 E0.014
G1 X125.632 Y103.848 E0.012
G1 X124.946 Y103.873 E0.017
G1 X124.365 Y103.848 E0.015
G1 X123.895 Y103.799 E0.011
G1 X123.808 Y103.785 E0.003
G1 X123.331 Y104.097 E0.014
G1 X122.977 Y105.165 E0.028
G1 X123.317 Y106.234 E0.028
G1 X124.126 Y107.302 E0.033
G1 X125.76 Y108.37 E0.049
G1 X126.114 Y109.438 E0.028
G1 X125.773 Y110.506 E0.028
G1 X124.964 Y111.574 E0.033
G1 X123.331 Y112.642 E0.049
G1 X122.977 Y113.711 E0.028
G1 X123.317 Y114.779 E0.028
G1 X124.126 Y115.847 E0.034
G1 X125.76 Y116.915 E0.048
G1 X126.114 Y117.983 E0.028
G1 X125.773 Y119.051 E0.028
G1 X124.964 Y120.119 E0.034
G1 X123.331 Y121.188 E0.048
G1 X123.024 Y122.113 E0.025
G1 X120.072 E0.073
G1 X121.487 Y121.188 E0.043
G1 X121.841 Y120.119 E0.028
G1 X121.5 Y119.051 E0.028
G1 X120.692 Y117.983 E0.033
G1 X119.058 Y116.915 E0.049
G1 X118.704 Y115.847 E0.028
G1 X119.045 Y114.779 E0.028
G1 X119.853 Y113.711 E0.033
G1 X121.487 Y112.642 E0.049
G1 X121.841 Y111.574 E0.028
G1 X121.5 Y110.506 E0.028
G1 X120.692 Y109.438 E0.033
G1 X119.058 Y108.37 E0.049
G1 X118.704 Y107.302 E0.028
G1 X119.045 Y106.234 E0.028
G1 X119.853 Y105.165 E0.033
G1 X121.487 Y104.097 E0.049
G1 X121.777 Y103.224 E0.023
G1 X121.12 Y102.964 E0.018
G1 Y101.459 E0.037
G1 X120.692 Y100.893 E0.018
G1 X119.058 Y99.825 E0.049
G1 X118.704 Y98.757 E0.028
G1 X119.045 Y97.688 E0.028
G1 X119.853 Y96.62 E0.033
G1 X121.12 Y95.792 E0.038
G1 Y92.913 E0.072
G1 X120.692 Y92.348 E0.017
G1 X119.058 Y91.28 E0.049
G1 X118.742 Y90.326 E0.025
G1 X118.514 Y90.607 E0.009
G1 X118.21 Y91.039 E0.013
G1 X117.936 Y91.489 E0.014
G1 X117.691 Y91.958 E0.013
G1 X117.547 Y92.281 E0.009
G1 X117.569 Y92.348 E0.001
G1 X117.228 Y93.416 E0.028
G1 X117.116 Y93.563 E0.005
G1 F2100 E-0.5
;LAYER:6
;rapid-dry
G0 X131.283 Y89.332 Z0.95 F7200
G1 F2100 E0.5
;bead-perimeter_outer
G1 X131.671 Y89.753 F1800 E0.014
G1 X132.03 Y90.199 E0.014
G1 X132.36 Y90.668 E0.015
G1 X132.658 Y91.157 E0.014
G1 X132.924 Y91.664 E0.014
G1 X133.156 Y92.187 E0.015
G1 X133.353 Y92.724 E0.014
G1 X133.515 Y93.273 E0.014
G1 X133.642 Y93.832 E0.014
G1 X133.716 Y94.293 E0.012
G1 X133.784 Y94.968 E0.017
G1 X133.8 Y95.54 E0.014
G1 X133.777 Y96.112 E0.015
G1 X133.719 Y96.681 E0.014
G1 X133.643 Y97.142 E0.011
G1 X133.491 Y97.803 E0.017
G1 X133.323 Y98.349 E0.015
G1 X133.119 Y98.885 E0.014
G1 X132.882 Y99.405 E0.014
G1 X132.662 Y99.818 E0.012
G1 X132.3 Y100.412 E0.017
G1 Y122.793 E0.559
G1 X117.7 E0.364
G1 Y100.412 E0.558
G1 X117.338 Y99.818 E0.017
G1 X117.118 Y99.405 E0.012
G1 X116.881 Y98.885 E0.014
G1 X116.677 Y98.35 E0.015
G1 X116.482 Y97.701 E0.016
G1 X116.377 Y97.246 E0.012
G1 X116.281 Y96.681 E0.014
G1 X116.223 Y96.112 E0.015
G1 X116.202 Y95.439 E0.016
G1 X116.216 Y94.967 E0.012
G1 X116.27 Y94.397 E0.015
G1 X116.359 Y93.832 E0.014
G1 X116.485 Y93.273 E0.014
G1 X116.647 Y92.724 E0.014
G1 X116.844 Y92.187 E0.015
G1 X117.076 Y91.664 E0.014
G1 X117.342 Y91.157 E0.014
G1 X117.64 Y90.668 E0.015
G1 X117.97 Y90.199 E0.014
G1 X118.329 Y89.754 E0.014
G1 X118.717 Y89.332 E0.014
G1 X119.13 Y88.937 E0.015
G1 X119.569 Y88.568 E0.014
G1 X120.03 Y88.23 E0.014
G1 X120.513 Y87.923 E0.014
G1 X121.015 Y87.646 E0.015
G1 X121.534 Y87.405 E0.014
G1 X121.8 Y87.3 E0.007
G1 Y102.502 E0.379
G1 X122.435 Y102.754 E0.017
G1 X122.947 Y102.914 E0.014
G1 X123.467 Y103.038 E0.013
G1 X123.995 Y103.126 E0.013
G1 X124.527 Y103.178 E0.014
G1 X124.939 Y103.192 E0.01
G1 X125.596 Y103.169 E0.016
G1 X126.006 Y103.126 E0.011
G1 X126.533 Y103.038 E0.013
G1 X127.053 Y102.914 E0.013
G1 X127.565 Y102.754 E0.014
G1 X128.2 Y102.502 E0.017
G1 Y87.3 E0.379
G1 X128.466 Y87.405 E0.007
G1 X128.985 Y87.646 E0.014
G1 X129.487 Y87.923 E0.015
G1 X129.97 Y88.23 E0.014
G1 X130.431 Y88.568 E0.014
G1 X130.87 Y88.937 E0.015
G1 X131.283 Y89.332 E0.014
;rapid-leaky
G0 X131.026 Y89.585 F7200
;bead-perimeter_inner
G1 X131.398 Y89.988 F2400 E0.014
G1 X131.742 Y90.416 E0.013
G1 X132.058 Y90.865 E0.014
G1 X132.344 Y91.334 E0.014
G1 X132.599 Y91.821 E0.013
G1 X132.822 Y92.322 E0.014
G1 X133.011 Y92.837 E0.014
G1 X133.167 Y93.364 E0.013
G1 X133.288 Y93.9 E0.014
G1 X133.359 Y94.34 E0.011
G1 X133.425 Y94.991 E0.017
G1 X133.44 Y95.538 E0.013
G1 X133.418 Y96.086 E0.014
G1 X133.362 Y96.634 E0.014
G1 X133.289 Y97.073 E0.011
G1 X133.143 Y97.71 E0.016
G1 X132.982 Y98.232 E0.014
G1 X132.787 Y98.746 E0.013
G1 X132.559 Y99.246 E0.014
G1 X132.349 Y99.639 E0.011
G1 X131.94 Y100.311 E0.02
G1 Y122.433 E0.552
G1 X118.06 E0.346
G1 Y100.311 E0.552
G1 X117.651 Y99.64 E0.019
G1 X117.441 Y99.246 E0.012
G1 X117.213 Y98.746 E0.013
G1 X117.018 Y98.234 E0.014
G1 X116.831 Y97.609 E0.016
G1 X116.73 Y97.175 E0.011
G1 X116.638 Y96.632 E0.014
G1 X116.582 Y96.086 E0.014
G1 X116.562 Y95.447 E0.016
G1 X116.575 Y94.99 E0.011
G1 X116.627 Y94.442 E0.014
G1 X116.712 Y93.899 E0.013
G1 X116.833 Y93.364 E0.014
G1 X116.989 Y92.837 E0.014
G1 X117.178 Y92.322 E0.014
G1 X117.401 Y91.821 E0.013
G1 X117.656 Y91.334 E0.014
G1 X117.942 Y90.865 E0.014
G1 X118.259 Y90.415 E0.013
G1 X118.601 Y89.989 E0.014
G1 X118.974 Y89.584 E0.014
G1 X119.37 Y89.205 E0.013
G1 X119.791 Y88.852 E0.014
G1 X120.233 Y88.528 E0.014
G1 X120.697 Y88.233 E0.014
G1 X121.178 Y87.968 E0.013
G1 X121.44 Y87.846 E0.007
G1 Y102.746 E0.372
G1 X122.315 Y103.093 E0.024
G1 X122.851 Y103.261 E0.014
G1 X123.396 Y103.391 E0.014
G1 X123.948 Y103.484 E0.014
G1 X124.503 Y103.537 E0.013
G1 X124.939 Y103.552 E0.011
G1 X125.621 Y103.528 E0.017
G1 X126.054 Y103.483 E0.011
G1 X126.604 Y103.391 E0.014
G1 X127.149 Y103.261 E0.014
G1 X127.685 Y103.093 E0.014
G1 X128.56 Y102.746 E0.024
G1 Y87.846 E0.371
G1 X128.822 Y87.968 E0.008
G1 X129.303 Y88.233 E0.013
G1 X129.767 Y88.528 E0.014
G1 X130.209 Y88.852 E0.014
G1 X130.63 Y89.205 E0.013
G1 X131.026 Y89.585 E0.014
;rapid-leaky
G0 X128.88 Y96.413 F7200
;bead-sparse_infill
G1 X130.641 Y95.552 F3600 E0.049
G1 X130.573 Y94.484 E0.027
G1 X130.108 Y93.416 E0.029
G1 X129.18 Y92.348 E0.035
G1 X128.88 Y92.201 E0.008
G1 Y88.365 E0.096
G1 X129.14 Y88.508 E0.007
G1 X129.586 Y88.792 E0.014
G1 X130.011 Y89.104 E0.013
G1 X130.416 Y89.444 E0.013
G1 X130.798 Y89.809 E0.013
G1 X131.155 Y90.196 E0.013
G1 X131.487 Y90.609 E0.013
G1 X131.791 Y91.041 E0.014
G1 X132.066 Y91.492 E0.013
G1 X132.311 Y91.96 E0.013
G1 X132.525 Y92.442 E0.013
G1 X132.707 Y92.938 E0.013
G1 X132.857 Y93.445 E0.014
G1 X132.974 Y93.961 E0.013
G1 X133.041 Y94.381 E0.01
G1 X133.071 Y94.671 E0.008
G1 X131.267 Y95.552 E0.05
G1 X131.335 Y96.62 E0.026
G1 X131.799 Y97.688 E0.029
G1 X132.528 Y98.527 E0.028
G1 X132.492 Y98.623 E0.003
G1 X132.272 Y99.104 E0.013
G1 X132.071 Y99.481 E0.011
G1 X131.62 Y100.221 E0.021
G1 Y103.925 E0.093
G1 X131.267 Y104.097 E0.009
G1 X131.335 Y105.165 E0.027
G1 X131.62 Y105.821 E0.018
G1 Y112.47 E0.166
G1 X131.267 Y112.642 E0.01
G1 X131.335 Y113.711 E0.026
G1 X131.62 Y114.366 E0.018
G1 Y121.015 E0.166
G1 X131.267 Y121.188 E0.01
G1 X131.326 Y122.113 E0.023
G1 X128.747 E0.064
G1 X130.641 Y121.188 E0.053
G1 X130.573 Y120.119 E0.027
G1 X130.108 Y119.051 E0.029
G1 X129.18 Y117.983 E0.035
G1 X126.994 Y116.915 E0.061
G1 X127.062 Y115.847 E0.026
G1 X127.527 Y114.779 E0.029
G1 X128.455 Y113.711 E0.036
G1 X130.641 Y112.642 E0.06
G1 X130.573 Y111.574 E0.027
G1 X130.108 Y110.506 E0.029
G1 X129.18 Y109.438 E0.035
G1 X126.994 Y108.37 E0.061
G1 X127.062 Y107.302 E0.027
G1 X127.527 Y106.234 E0.029
G1 X128.455 Y105.165 E0.035
G1 X130.641 Y104.097 E0.061
G1 X130.573 Y103.029 E0.026
G1 X130.108 Y101.961 E0.03
G1 X129.18 Y100.893 E0.035
G1 X128.88 Y100.746 E0.008
G1 Y102.964 E0.056
G1 X127.792 Y103.395 E0.029
G1 X127.234 Y103.57 E0.014
G1 X126.668 Y103.705 E0.015
G1 X126.097 Y103.801 E0.014
G1 X125.643 Y103.847 E0.012
G1 X124.939 Y103.873 E0.017
G1 X124.482 Y103.857 E0.012
G1 X123.906 Y103.801 E0.014
G1 X123.475 Y103.729 E0.011
G1 X122.722 Y104.097 E0.021
G1 X122.789 Y105.165 E0.027
G1 X123.254 Y106.234 E0.029
G1 X124.182 Y107.302 E0.035
G1 X126.369 Y108.37 E0.061
G1 X126.301 Y109.438 E0.026
G1 X125.836 Y110.506 E0.029
G1 X124.908 Y111.574 E0.036
G1 X122.722 Y112.642 E0.06
G1 X122.789 Y113.711 E0.027
G1 X123.254 Y114.779 E0.029
G1 X124.182 Y115.847 E0.035
G1 X126.369 Y116.915 E0.061
G1 X126.301 Y117.983 E0.027
G1 X125.836 Y119.051 E0.029
G1 X124.908 Y120.119 E0.035
G1 X122.722 Y121.188 E0.061
G1 X122.78 Y122.113 E0.023
G1 X120.202 E0.064
G1 X122.096 Y121.188 E0.053
G1 X122.028 Y120.119 E0.027
G1 X121.563 Y119.051 E0.029
G1 X120.635 Y117.983 E0.035
G1 X118.449 Y116.915 E0.061
G1 X118.517 Y115.847 E0.026
G1 X118.982 Y114.779 E0.029
G1 X119.91 Y113.711 E0.036
G1 X122.096 Y112.642 E0.06
G1 X122.028 Y111.574 E0.027
G1 X121.563 Y110.506 E0.029
G1 X120.635 Y109.438 E0.035
G1 X118.449 Y108.37 E0.061
G1 X118.517 Y107.302 E0.027
G1 X118.982 Y106.234 E0.029
G1 X119.91 Y105.165 E0.035
G1 X122.096 Y104.097 E0.061
G1 X122.047 Y103.331 E0.019
G1 X121.12 Y102.964 E0.025
G1 Y101.451 E0.038
G1 X120.635 Y100.893 E0.018
G1 X118.449 Y99.825 E0.061
G1 X118.517 Y98.757 E0.027
G1 X118.982 Y97.688 E0.029
G1 X119.91 Y96.62 E0.035
G1 X121.12 Y96.029 E0.033
G1 Y92.906 E0.078
G1 X120.635 Y92.348 E0.019
G1 X118.449 Y91.28 E0.061
G1 X118.49 Y90.643 E0.015
G1 X118.209 Y91.041 E0.013
G1 X117.934 Y91.492 E0.013
G1 X117.793 Y91.761 E0.007
G1 X117.756 Y92.348 E0.015
G1 X117.291 Y93.416 E0.029
G1 X117.1 Y93.635 E0.007
G1 F2100 E-0.5
;LAYER:7
;rapid-leaky
G0 X116.378 Y97.252 Z1.1 F7200
G1 F2100 E0.5
;bead-perimeter_outer
G1 X116.282 Y96.687 F1763 E0.015
G1 X116.223 Y96.117 E0.014
G1 X116.202 Y95.427 E0.017
G1 X116.216 Y94.972 E0.011
G1 X116.269 Y94.402 E0.015
G1 X116.358 Y93.836 E0.014
G1 X116.484 Y93.277 E0.014
G1 X116.646 Y92.728 E0.015
G1 X116.843 Y92.191 E0.014
G1 X117.075 Y91.667 E0.014
G1 X117.341 Y91.159 E0.015
G1 X117.638 Y90.671 E0.014
G1 X117.968 Y90.201 E0.014
G1 X118.328 Y89.756 E0.014
G1 X118.715 Y89.334 E0.015
G1 X119.129 Y88.938 E0.014
G1 X119.568 Y88.569 E0.014
G1 X120.029 Y88.231 E0.015
G1 X120.512 Y87.923 E0.014
G1 X121.015 Y87.647 E0.014
G1 X121.533 Y87.405 E0.014
G1 X121.8 Y87.3 E0.008
G1 Y102.502 E0.379
G1 X122.44 Y102.755 E0.017
G1 X122.953 Y102.915 E0.013
G1 X123.474 Y103.039 E0.014
G1 X124.003 Y103.127 E0.013
G1 X124.536 Y103.178 E0.013
G1 X124.924 Y103.192 E0.01
G1 X125.608 Y103.168 E0.017
G1 X125.998 Y103.127 E0.01
G1 X126.526 Y103.039 E0.013
G1 X127.047 Y102.915 E0.014
G1 X127.56 Y102.755 E0.013
G1 X128.2 Y102.502 E0.017
G1 Y87.3 E0.379
G1 X128.467 Y87.405 E0.008
G1 X128.985 Y87.647 E0.014
G1 X129.488 Y87.923 E0.014
G1 X129.971 Y88.231 E0.014
G1 X130.432 Y88.569 E0.015
G1 X130.871 Y88.938 E0.014
G1 X131.285 Y89.334 E0.014
G1 X131.672 Y89.755 E0.015
G1 X132.031 Y90.201 E0.014
G1 X132.362 Y90.671 E0.014
G1 X132.659 Y91.159 E0.014
G1 X132.925 Y91.667 E0.015
G1 X133.157 Y92.191 E0.014
G1 X133.354 Y92.728 E0.014
G1 X133.516 Y93.277 E0.015
G1 X133.643 Y93.836 E0.014
G1 X133.731 Y94.401 E0.014
G1 X133.784 Y94.972 E0.014
G1 X133.8 Y95.545 E0.015
G1 X133.777 Y96.117 E0.014
G1 X133.718 Y96.687 E0.014
G1 X133.645 Y97.13 E0.012
G1 X133.49 Y97.81 E0.017
G1 X133.32 Y98.356 E0.014
G1 X133.117 Y98.891 E0.014
G1 X132.879 Y99.412 E0.015
G1 X132.667 Y99.809 E0.011
G1 X132.3 Y100.412 E0.018
G1 Y122.793 E0.558
G1 X117.7 E0.364
G1 Y100.412 E0.558
G1 X117.333 Y99.809 E0.018
G1 X117.121 Y99.412 E0.011
G1 X116.884 Y98.891 E0.015
G1 X116.679 Y98.356 E0.014
G1 X116.48 Y97.694 E0.017
G1 X116.378 Y97.252 E0.011
;rapid-leaky
G0 X116.731 Y97.181 F7200
;bead-perimeter_inner
G1 X116.639 Y96.638 F2351 E0.014
G1 X116.582 Y96.091 E0.014
G1 X116.562 Y95.435 E0.016
G1 X116.575 Y94.994 E0.011
G1 X116.626 Y94.446 E0.014
G1 X116.711 Y93.903 E0.014
G1 X116.832 Y93.368 E0.013
G1 X116.988 Y92.841 E0.014
G1 X117.177 Y92.326 E0.014
G1 X117.4 Y91.823 E0.013
G1 X117.655 Y91.337 E0.014
G1 X117.94 Y90.868 E0.014
G1 X118.256 Y90.418 E0.014
G1 X118.6 Y89.991 E0.013
G1 X118.972 Y89.586 E0.014
G1 X119.369 Y89.206 E0.014
G1 X119.79 Y88.853 E0.013
G1 X120.232 Y88.528 E0.014
G1 X120.696 Y88.233 E0.014
G1 X121.178 Y87.969 E0.013
G1 X121.44 Y87.846 E0.008
G1 Y102.747 E0.371
G1 X122.319 Y103.094 E0.024
G1 X122.86 Y103.263 E0.014
G1 X123.403 Y103.392 E0.014
G1 X123.957 Y103.485 E0.014
G1 X124.512 Y103.537 E0.014
G1 X124.918 Y103.552 E0.01
G1 X125.635 Y103.527 E0.018
G1 X126.046 Y103.484 E0.01
G1 X126.597 Y103.392 E0.014
G1 X127.14 Y103.263 E0.014
G1 X127.681 Y103.094 E0.014
G1 X128.56 Y102.747 E0.024
G1 Y87.846 E0.372
G1 X128.822 Y87.969 E0.007
G1 X129.304 Y88.233 E0.014
G1 X129.768 Y88.528 E0.013
G1 X130.21 Y88.853 E0.014
G1 X130.631 Y89.206 E0.014
G1 X131.028 Y89.587 E0.013
G1 X131.398 Y89.988 E0.014
G1 X131.743 Y90.418 E0.014
G1 X132.06 Y90.868 E0.013
G1 X132.345 Y91.337 E0.014
G1 X132.6 Y91.823 E0.014
G1 X132.823 Y92.326 E0.014
G1 X133.012 Y92.841 E0.013
G1 X133.168 Y93.368 E0.014
G1 X133.289 Y93.904 E0.014
G1 X133.374 Y94.443 E0.013
G1 X133.425 Y94.993 E0.014
G1 X133.44 Y95.543 E0.014
G1 X133.418 Y96.091 E0.013
G1 X133.361 Y96.639 E0.014
G1 X133.291 Y97.061 E0.011
G1 X133.142 Y97.716 E0.017
G1 X132.979 Y98.239 E0.013
G1 X132.785 Y98.752 E0.014
G1 X132.556 Y99.252 E0.014
G1 X132.354 Y99.63 E0.01
G1 X131.94 Y100.311 E0.02
G1 Y122.433 E0.552
G1 X118.06 E0.346
G1 Y100.311 E0.552
G1 X117.646 Y99.63 E0.02
G1 X117.444 Y99.253 E0.011
G1 X117.216 Y98.752 E0.013
G1 X117.02 Y98.238 E0.014
G1 X116.83 Y97.608 E0.017
G1 X116.731 Y97.181 E0.01
;rapid-leaky
G0 X117.056 Y93.831 F7200
;bead-sparse_infill
G1 X117.068 Y93.821 F3526 E0.001
G1 X118.136 Y92.102 E0.05
G1 X119.204 Y91.804 E0.028
G1 X120.273 Y92.174 E0.028
G1 X121.12 Y92.838 E0.027
G1 Y96.153 E0.083
G1 X120.273 Y96.446 E0.022
G1 X119.204 Y97.283 E0.034
G1 X118.136 Y99.002 E0.05
G1 X117.733 Y99.115 E0.011
G1 X117.924 Y99.472 E0.01
G1 X118.38 Y100.221 E0.022
G1 Y100.579 E0.009
G1 X119.204 Y100.35 E0.021
G1 X120.273 Y100.719 E0.028
G1 X121.12 Y101.383 E0.027
G1 Y102.965 E0.04
G1 X122.212 Y103.396 E0.029
G1 X122.775 Y103.572 E0.015
G1 X123.34 Y103.706 E0.014
G1 X123.915 Y103.802 E0.015
G1 X124.491 Y103.856 E0.014
G1 X124.917 Y103.872 E0.011
G1 X125.657 Y103.846 E0.018
G1 X126.089 Y103.802 E0.011
G1 X126.66 Y103.706 E0.015
G1 X127.225 Y103.572 E0.014
G1 X127.788 Y103.396 E0.015
G1 X128.88 Y102.965 E0.029
G1 Y100.768 E0.055
G1 X129.886 Y101.556 E0.032
G1 X130.954 Y103.275 E0.05
G1 X131.62 Y103.46 E0.017
G1 Y105.992 E0.064
G1 X130.954 Y104.92 E0.031
G1 X129.886 Y104.622 E0.028
G1 X128.818 Y104.992 E0.028
G1 X127.75 Y105.828 E0.034
G1 X126.681 Y107.548 E0.05
G1 X125.613 Y107.845 E0.028
G1 X124.545 Y107.476 E0.028
G1 X123.477 Y106.639 E0.034
G1 X122.409 Y104.92 E0.05
G1 X121.341 Y104.622 E0.028
G1 X120.273 Y104.992 E0.028
G1 X119.204 Y105.828 E0.034
G1 X118.38 Y107.155 E0.039
G1 Y109.124 E0.049
G1 X119.204 Y108.895 E0.022
G1 X120.273 Y109.264 E0.028
G1 X121.341 Y110.101 E0.034
G1 X122.409 Y111.82 E0.05
G1 X123.477 Y112.118 E0.028
G1 X124.545 Y111.748 E0.028
G1 X125.613 Y110.911 E0.034
G1 X126.681 Y109.192 E0.05
G1 X127.75 Y108.895 E0.028
G1 X128.818 Y109.264 E0.028
G1 X129.886 Y110.101 E0.034
G1 X130.954 Y111.82 E0.05
G1 X131.62 Y112.006 E0.018
G1 Y114.537 E0.063
G1 X130.954 Y113.465 E0.031
G1 X129.886 Y113.167 E0.028
G1 X128.818 Y113.537 E0.028
G1 X127.75 Y114.373 E0.034
G1 X126.681 Y116.093 E0.051
G1 X125.613 Y116.39 E0.027
G1 X124.545 Y116.021 E0.028
G1 X123.477 Y115.184 E0.034
G1 X122.409 Y113.465 E0.051
G1 X121.341 Y113.167 E0.027
G1 X120.273 Y113.537 E0.029
G1 X119.204 Y114.373 E0.033
G1 X118.38 Y115.7 E0.039
G1 Y117.669 E0.049
G1 X119.204 Y117.44 E0.022
G1 X120.273 Y117.809 E0.028
G1 X121.341 Y118.646 E0.034
G1 X122.409 Y120.365 E0.05
G1 X123.477 Y120.663 E0.028
G1 X124.545 Y120.293 E0.028
G1 X125.613 Y119.456 E0.034
G1 X126.681 Y117.737 E0.051
G1 X127.75 Y117.44 E0.027
G1 X128.818 Y117.809 E0.028
G1 X129.886 Y118.646 E0.034
G1 X130.954 Y120.365 E0.051
G1 X131.62 Y120.551 E0.017
G1 Y122.113 E0.039
G1 X131.018 E0.015
G1 X130.954 Y122.01 E0.003
G1 X129.886 Y121.712 E0.028
G1 X128.818 Y122.082 E0.028
G1 X128.778 Y122.113 E0.001
G1 X122.473 E0.157
G1 X122.409 Y122.01 E0.003
G1 X121.341 Y121.712 E0.028
G1 X120.273 Y122.082 E0.028
G1 X120.233 Y122.113 E0.002
;rapid-leaky
G0 X132.539 Y98.498 F7200
;bead-sparse_infill
G1 X132.022 Y98.094 F3526 E0.016
G1 X130.954 Y96.374 E0.05
G1 X129.886 Y96.077 E0.028
G1 X128.88 Y96.425 E0.027
G1 Y92.223 E0.104
G1 X129.886 Y93.011 E0.032
G1 X130.954 Y94.73 E0.051
G1 X132.022 Y95.027 E0.027
G1 X133.073 Y94.664 E0.028
G1 F2100 E-0.5
;LAYER:8
;rapid-dry
G0 X127.556 Y102.755 Z1.25 F7200
G1 F2100 E0.5
;bead-perimeter_outer
G1 X128.2 Y102.502 F1756 E0.017
G1 Y87.3 E0.38
G1 X128.467 Y87.405 E0.007
G1 X128.986 Y87.647 E0.014
G1 X129.489 Y87.923 E0.014
G1 X129.971 Y88.231 E0.015
G1 X130.433 Y88.57 E0.014
G1 X130.872 Y88.939 E0.014
G1 X131.286 Y89.335 E0.015
G1 X131.674 Y89.757 E0.014
G1 X132.033 Y90.203 E0.014
G1 X132.363 Y90.673 E0.014
G1 X132.661 Y91.163 E0.015
G1 X132.927 Y91.67 E0.014
G1 X133.158 Y92.194 E0.014
G1 X133.356 Y92.732 E0.015
G1 X133.517 Y93.281 E0.014
G1 X133.644 Y93.84 E0.014
G1 X133.732 Y94.406 E0.015
G1 X133.784 Y94.978 E0.014
G1 X133.8 Y95.551 E0.014
G1 X133.777 Y96.122 E0.014
G1 X133.717 Y96.693 E0.015
G1 X133.621 Y97.255 E0.014
G1 X133.488 Y97.815 E0.014
G1 X133.318 Y98.362 E0.015
G1 X133.114 Y98.898 E0.014
G1 X132.875 Y99.418 E0.014
G1 X132.672 Y99.801 E0.011
G1 X132.3 Y100.412 E0.018
G1 Y122.793 E0.558
G1 X117.7 E0.364
G1 Y100.412 E0.559
G1 X117.328 Y99.801 E0.017
G1 X117.125 Y99.418 E0.011
G1 X116.885 Y98.897 E0.015
G1 X116.681 Y98.362 E0.014
G1 X116.478 Y97.683 E0.018
G1 X116.379 Y97.257 E0.01
G1 X116.283 Y96.693 E0.015
G1 X116.223 Y96.122 E0.014
G1 X116.202 Y95.414 E0.018
G1 X116.216 Y94.978 E0.011
G1 X116.268 Y94.407 E0.014
G1 X116.357 Y93.84 E0.014
G1 X116.483 Y93.281 E0.015
G1 X116.644 Y92.732 E0.014
G1 X116.842 Y92.194 E0.014
G1 X117.073 Y91.67 E0.014
G1 X117.339 Y91.163 E0.015
G1 X117.637 Y90.673 E0.014
G1 X117.967 Y90.203 E0.014
G1 X118.326 Y89.758 E0.015
G1 X118.714 Y89.335 E0.014
G1 X119.128 Y88.939 E0.014
G1 X119.567 Y88.57 E0.014
G1 X120.029 Y88.231 E0.015
G1 X120.511 Y87.923 E0.014
G1 X121.014 Y87.647 E0.014
G1 X121.533 Y87.405 E0.015
G1 X121.8 Y87.3 E0.007
G1 Y102.502 E0.379
G1 X122.444 Y102.755 E0.017
G1 X122.795 Y102.868 E0.009
G1 X123.48 Y103.04 E0.018
G1 X124.011 Y103.128 E0.014
G1 X124.545 Y103.179 E0.013
G1 X124.917 Y103.192 E0.009
G1 X125.623 Y103.166 E0.018
G1 X125.99 Y103.128 E0.009
G1 X126.52 Y103.04 E0.013
G1 X127.205 Y102.868 E0.018
G1 X127.556 Y102.755 E0.009
;rapid-leaky
G0 X127.677 Y103.095 F7200
;bead-perimeter_inner
G1 X128.56 Y102.747 F2341 E0.024
G1 Y87.846 E0.372
G1 X128.824 Y87.969 E0.007
G1 X129.305 Y88.233 E0.014
G1 X129.767 Y88.528 E0.013
G1 X130.211 Y88.854 E0.014
G1 X130.632 Y89.207 E0.014
G1 X131.029 Y89.588 E0.013
G1 X131.4 Y89.991 E0.014
G1 X131.745 Y90.42 E0.014
G1 X132.061 Y90.87 E0.014
G1 X132.347 Y91.34 E0.013
G1 X132.602 Y91.826 E0.014
G1 X132.825 Y92.329 E0.014
G1 X133.014 Y92.845 E0.013
G1 X133.169 Y93.372 E0.014
G1 X133.29 Y93.908 E0.014
G1 X133.375 Y94.449 E0.013
G1 X133.425 Y94.999 E0.014
G1 X133.44 Y95.549 E0.014
G1 X133.418 Y96.096 E0.014
G1 X133.36 Y96.645 E0.013
G1 X133.269 Y97.181 E0.014
G1 X133.141 Y97.72 E0.014
G1 X132.977 Y98.244 E0.013
G1 X132.782 Y98.758 E0.014
G1 X132.552 Y99.259 E0.014
G1 X132.359 Y99.623 E0.01
G1 X131.94 Y100.311 E0.02
G1 Y122.433 E0.552
G1 X118.06 E0.346
G1 Y100.311 E0.552
G1 X117.641 Y99.623 E0.02
G1 X117.448 Y99.259 E0.011
G1 X117.218 Y98.758 E0.013
G1 X117.022 Y98.244 E0.014
G1 X116.828 Y97.598 E0.017
G1 X116.732 Y97.186 E0.01
G1 X116.64 Y96.643 E0.014
G1 X116.582 Y96.096 E0.014
G1 X116.562 Y95.422 E0.017
G1 X116.575 Y95 E0.01
G1 X116.625 Y94.451 E0.014
G1 X116.71 Y93.907 E0.014
G1 X116.831 Y93.372 E0.013
G1 X116.986 Y92.845 E0.014
G1 X117.175 Y92.329 E0.014
G1 X117.398 Y91.826 E0.014
G1 X117.653 Y91.34 E0.013
G1 X117.939 Y90.87 E0.014
G1 X118.256 Y90.418 E0.014
G1 X118.598 Y89.993 E0.013
G1 X118.971 Y89.587 E0.014
G1 X119.368 Y89.207 E0.014
G1 X119.789 Y88.854 E0.014
G1 X120.233 Y88.528 E0.013
G1 X120.695 Y88.233 E0.014
G1 X121.176 Y87.969 E0.014
G1 X121.44 Y87.846 E0.007
G1 Y102.747 E0.372
G1 X122.323 Y103.095 E0.023
G1 X122.867 Y103.264 E0.015
G1 X123.409 Y103.393 E0.013
G1 X123.965 Y103.486 E0.014
G1 X124.522 Y103.538 E0.014
G1 X124.915 Y103.552 E0.01
G1 X125.654 Y103.525 E0.019
G1 X126.038 Y103.485 E0.009
G1 X126.591 Y103.393 E0.014
G1 X127.133 Y103.264 E0.014
G1 X127.677 Y103.095 E0.014
;rapid-leaky
G0 X132.537 Y98.502 F7200
;bead-sparse_infill
G1 X132.022 Y98.152 F3512 E0.016
G1 X130.954 Y96.722 E0.044
G1 X129.886 Y96.245 E0.03
G1 X128.88 Y96.485 E0.025
G1 Y92.27 E0.106
G1 X129.886 Y92.952 E0.03
G1 X130.954 Y94.383 E0.044
G1 X132.022 Y94.859 E0.03
G1 X133.068 Y94.609 E0.026
;rapid-leaky
G0 X120.367 Y122.113 F7200
;bead-sparse_infill
G1 X121.341 Y121.88 F3512 E0.025
G1 X121.862 Y122.113 E0.015
G1 X128.913 E0.176
G1 X129.886 Y121.88 E0.024
G1 X130.407 Y122.113 E0.015
G1 X131.62 E0.03
G1 Y120.315 E0.045
G1 X130.954 Y120.018 E0.018
G1 X129.886 Y118.588 E0.045
G1 X128.818 Y117.863 E0.032
G1 X127.75 Y117.608 E0.027
G1 X126.681 Y118.084 E0.029
G1 X125.613 Y119.515 E0.045
G1 X124.545 Y120.239 E0.032
G1 X123.477 Y120.495 E0.027
G1 X122.409 Y120.018 E0.03
G1 X121.341 Y118.588 E0.044
G1 X120.273 Y117.863 E0.032
G1 X119.204 Y117.608 E0.028
G1 X118.38 Y117.976 E0.022
G1 Y115.419 E0.064
G1 X119.204 Y114.315 E0.034
G1 X120.273 Y113.591 E0.033
G1 X121.341 Y113.335 E0.027
G1 X122.409 Y113.812 E0.029
G1 X123.477 Y115.242 E0.045
G1 X124.545 Y115.967 E0.032
G1 X125.613 Y116.222 E0.027
G1 X126.681 Y115.746 E0.03
G1 X127.75 Y114.315 E0.044
G1 X128.818 Y113.591 E0.032
G1 X129.886 Y113.335 E0.028
G1 X130.954 Y113.812 E0.029
G1 X131.62 Y114.704 E0.028
G1 Y111.77 E0.073
G1 X130.954 Y111.473 E0.018
G1 X129.886 Y110.042 E0.044
G1 X128.818 Y109.318 E0.033
G1 X127.75 Y109.062 E0.027
G1 X126.681 Y109.539 E0.029
G1 X125.613 Y110.97 E0.045
G1 X124.545 Y111.694 E0.032
G1 X123.477 Y111.95 E0.027
G1 X122.409 Y111.473 E0.03
G1 X121.341 Y110.042 E0.044
G1 X120.273 Y109.318 E0.032
G1 X119.204 Y109.062 E0.028
G1 X118.38 Y109.43 E0.022
G1 Y106.874 E0.064
G1 X119.204 Y105.77 E0.034
G1 X120.273 Y105.045 E0.033
G1 X121.341 Y104.79 E0.027
G1 X122.409 Y105.267 E0.029
G1 X123.477 Y106.697 E0.045
G1 X124.545 Y107.422 E0.032
G1 X125.613 Y107.677 E0.027
G1 X126.681 Y107.2 E0.029
G1 X127.75 Y105.77 E0.045
G1 X128.818 Y105.045 E0.032
G1 X129.886 Y104.79 E0.028
G1 X130.954 Y105.267 E0.029
G1 X131.62 Y106.159 E0.027
G1 Y103.225 E0.074
G1 X130.954 Y102.928 E0.018
G1 X129.886 Y101.497 E0.044
G1 X128.88 Y100.815 E0.031
G1 Y102.965 E0.053
G1 X127.784 Y103.397 E0.03
G1 X127.217 Y103.573 E0.015
G1 X126.654 Y103.707 E0.014
G1 X126.081 Y103.803 E0.014
G1 X125.677 Y103.844 E0.011
G1 X124.915 Y103.872 E0.019
G1 X124.501 Y103.858 E0.01
G1 X123.923 Y103.803 E0.014
G1 X123.346 Y103.707 E0.015
G1 X122.783 Y103.573 E0.014
G1 X122.217 Y103.397 E0.015
G1 X121.12 Y102.966 E0.03
G1 Y101.348 E0.04
G1 X120.273 Y100.773 E0.026
G1 X119.204 Y100.517 E0.027
G1 X118.38 Y100.885 E0.022
G1 Y100.221 E0.017
G1 X117.919 Y99.465 E0.022
G1 X117.735 Y99.117 E0.01
G1 X117.627 Y98.882 E0.006
G1 X118.136 Y98.655 E0.014
G1 X119.204 Y97.225 E0.045
G1 X120.273 Y96.5 E0.032
G1 X121.12 Y96.298 E0.022
G1 Y92.803 E0.087
G1 X120.273 Y92.228 E0.025
G1 X119.204 Y91.972 E0.028
G1 X118.136 Y92.449 E0.029
G1 X117.068 Y93.879 E0.045
G1 X117.04 Y93.898
G1 F2100 E-0.5
;LAYER:9
;rapid-leaky
G0 X117.323 Y99.792 Z1.4 F7200
G1 F2100 E0.5
;bead-perimeter_outer
G1 X117.128 Y99.425 F1753 E0.011
G1 X116.888 Y98.903 E0.014
G1 X116.683 Y98.368 E0.014
G1 X116.475 Y97.671 E0.019
G1 X116.381 Y97.265 E0.01
G1 X116.284 Y96.699 E0.014
G1 X116.224 Y96.128 E0.015
G1 X116.202 Y95.401 E0.018
G1 X116.216 Y94.983 E0.01
G1 X116.268 Y94.411 E0.015
G1 X116.356 Y93.844 E0.014
G1 X116.482 Y93.285 E0.014
G1 X116.643 Y92.736 E0.014
G1 X116.841 Y92.197 E0.015
G1 X117.072 Y91.673 E0.014
G1 X117.338 Y91.164 E0.014
G1 X117.636 Y90.674 E0.015
G1 X117.965 Y90.205 E0.014
G1 X118.325 Y89.759 E0.014
G1 X118.713 Y89.337 E0.015
G1 X119.127 Y88.94 E0.014
G1 X119.566 Y88.571 E0.014
G1 X120.028 Y88.232 E0.014
G1 X120.511 Y87.924 E0.015
G1 X121.014 Y87.647 E0.014
G1 X121.533 Y87.405 E0.014
G1 X121.8 Y87.3 E0.007
G1 Y102.502 E0.38
G1 X122.448 Y102.758 E0.017
G1 X122.964 Y102.918 E0.014
G1 X123.488 Y103.042 E0.013
G1 X124.019 Y103.13 E0.013
G1 X124.554 Y103.179 E0.014
G1 X124.907 Y103.191 E0.009
G1 X125.633 Y103.165 E0.018
G1 X125.982 Y103.129 E0.009
G1 X126.512 Y103.042 E0.013
G1 X127.036 Y102.918 E0.013
G1 X127.552 Y102.758 E0.014
G1 X128.2 Y102.502 E0.017
G1 Y87.3 E0.379
G1 X128.467 Y87.405 E0.008
G1 X128.986 Y87.647 E0.014
G1 X129.489 Y87.924 E0.014
G1 X129.972 Y88.232 E0.014
G1 X130.434 Y88.571 E0.015
G1 X130.873 Y88.94 E0.014
G1 X131.287 Y89.337 E0.014
G1 X131.675 Y89.758 E0.015
G1 X132.034 Y90.205 E0.014
G1 X132.365 Y90.675 E0.014
G1 X132.662 Y91.164 E0.015
G1 X132.928 Y91.673 E0.014
G1 X133.159 Y92.197 E0.014
G1 X133.357 Y92.736 E0.014
G1 X133.518 Y93.285 E0.015
G1 X133.644 Y93.845 E0.014
G1 X133.732 Y94.41 E0.014
G1 X133.784 Y94.983 E0.015
G1 X133.799 Y95.556 E0.014
G1 X133.776 Y96.128 E0.014
G1 X133.716 Y96.699 E0.015
G1 X133.619 Y97.262 E0.014
G1 X133.486 Y97.821 E0.014
G1 X133.316 Y98.368 E0.014
G1 X133.17 Y98.761 E0.011
G1 X132.872 Y99.425 E0.018
G1 X132.599 Y99.93 E0.014
G1 X132.3 Y100.411 E0.015
G1 Y122.793 E0.558
G1 X117.7 E0.364
G1 Y100.412 E0.558
G1 X117.323 Y99.792 E0.018
;rapid-leaky
G0 X117.636 Y99.614 F7200
;bead-perimeter_inner
G1 X117.451 Y99.266 F2337 E0.01
G1 X117.22 Y98.764 E0.014
G1 X117.024 Y98.25 E0.014
G1 X116.825 Y97.586 E0.017
G1 X116.734 Y97.194 E0.01
G1 X116.641 Y96.649 E0.014
G1 X116.583 Y96.101 E0.014
G1 X116.562 Y95.408 E0.017
G1 X116.575 Y95.006 E0.01
G1 X116.625 Y94.455 E0.014
G1 X116.709 Y93.912 E0.014
G1 X116.83 Y93.376 E0.013
G1 X116.985 Y92.848 E0.014
G1 X117.175 Y92.332 E0.014
G1 X117.397 Y91.829 E0.013
G1 X117.652 Y91.341 E0.014
G1 X117.937 Y90.871 E0.014
G1 X118.253 Y90.421 E0.014
G1 X118.597 Y89.994 E0.013
G1 X118.97 Y89.589 E0.014
G1 X119.367 Y89.208 E0.014
G1 X119.788 Y88.855 E0.013
G1 X120.232 Y88.529 E0.014
G1 X120.695 Y88.234 E0.014
G1 X121.177 Y87.969 E0.014
G1 X121.44 Y87.846 E0.007
G1 Y102.747 E0.371
G1 X122.328 Y103.097 E0.024
G1 X122.871 Y103.266 E0.014
G1 X123.417 Y103.395 E0.014
G1 X123.973 Y103.487 E0.015
G1 X124.532 Y103.538 E0.014
G1 X124.905 Y103.551 E0.009
G1 X125.665 Y103.524 E0.019
G1 X126.03 Y103.486 E0.009
G1 X126.583 Y103.395 E0.014
G1 X127.129 Y103.266 E0.014
G1 X127.673 Y103.097 E0.014
G1 X128.56 Y102.747 E0.024
G1 Y87.846 E0.372
G1 X128.823 Y87.969 E0.007
G1 X129.305 Y88.234 E0.014
G1 X129.769 Y88.529 E0.013
G1 X130.212 Y88.855 E0.014
G1 X130.633 Y89.208 E0.014
G1 X131.03 Y89.59 E0.014
G1 X131.401 Y89.992 E0.013
G1 X131.746 Y90.422 E0.014
G1 X132.063 Y90.872 E0.014
G1 X132.348 Y91.341 E0.013
G1 X132.603 Y91.829 E0.014
G1 X132.825 Y92.332 E0.014
G1 X133.015 Y92.848 E0.014
G1 X133.17 Y93.376 E0.013
G1 X133.291 Y93.913 E0.014
G1 X133.375 Y94.452 E0.014
G1 X133.425 Y95.004 E0.013
G1 X133.439 Y95.553 E0.014
G1 X133.417 Y96.101 E0.014
G1 X133.359 Y96.651 E0.014
G1 X133.267 Y97.187 E0.013
G1 X133.139 Y97.726 E0.014
G1 X132.975 Y98.252 E0.014
G1 X132.834 Y98.63 E0.01
G1 X132.55 Y99.264 E0.017
G1 X132.287 Y99.749 E0.014
G1 X131.94 Y100.308 E0.016
G1 Y122.433 E0.552
G1 X118.06 E0.346
G1 Y100.311 E0.552
G1 X117.636 Y99.614 E0.021
;rapid-leaky
G0 X117.025 Y93.966 F7200
;bead-sparse_infill
G1 X117.068 Y93.941 F3505 E0.001
G1 X118.136 Y92.695 E0.041
G1 X119.204 Y92.119 E0.03
G1 X120.273 Y92.271 E0.027
G1 X121.12 Y92.763 E0.024
G1 Y96.423 E0.092
G1 X120.273 Y96.543 E0.021
G1 X119.204 Y97.163 E0.031
G1 X118.136 Y98.409 E0.041
G1 X117.554 Y98.723 E0.016
G1 X117.738 Y99.124 E0.011
G1 X117.914 Y99.456 E0.01
G1 X118.38 Y100.221 E0.022
G1 Y101.109 E0.022
G1 X119.204 Y100.664 E0.024
G1 X120.273 Y100.816 E0.026
G1 X121.12 Y101.308 E0.025
G1 Y102.965 E0.041
G1 X122.221 Y103.399 E0.03
G1 X122.786 Y103.575 E0.015
G1 X123.354 Y103.709 E0.014
G1 X123.932 Y103.804 E0.015
G1 X124.511 Y103.858 E0.014
G1 X124.905 Y103.871 E0.01
G1 X125.687 Y103.843 E0.02
G1 X126.073 Y103.804 E0.009
G1 X126.646 Y103.709 E0.015
G1 X127.214 Y103.575 E0.014
G1 X127.779 Y103.399 E0.015
G1 X128.88 Y102.965 E0.03
G1 Y100.852 E0.052
G1 X129.886 Y101.436 E0.029
G1 X130.954 Y102.681 E0.041
G1 X131.62 Y103.041 E0.019
G1 Y106.29 E0.081
G1 X130.954 Y105.513 E0.026
G1 X129.886 Y104.936 E0.03
G1 X128.818 Y105.088 E0.027
G1 X127.75 Y105.708 E0.031
G1 X126.681 Y106.954 E0.041
G1 X125.613 Y107.531 E0.03
G1 X124.545 Y107.379 E0.027
G1 X123.477 Y106.759 E0.031
G1 X122.409 Y105.513 E0.041
G1 X121.341 Y104.936 E0.03
G1 X120.273 Y105.088 E0.027
G1 X119.204 Y105.708 E0.031
G1 X118.38 Y106.67 E0.031
G1 Y109.654 E0.075
G1 X119.204 Y109.209 E0.023
G1 X120.273 Y109.361 E0.027
G1 X121.341 Y109.981 E0.031
G1 X122.409 Y111.227 E0.041
G1 X123.477 Y111.803 E0.03
G1 X124.545 Y111.651 E0.027
G1 X125.613 Y111.031 E0.031
G1 X126.681 Y109.786 E0.041
G1 X127.75 Y109.209 E0.03
G1 X128.818 Y109.361 E0.027
G1 X129.886 Y109.981 E0.031
G1 X130.954 Y111.227 E0.04
G1 X131.62 Y111.586 E0.019
G1 Y114.835 E0.081
G1 X130.954 Y114.058 E0.026
G1 X129.886 Y113.481 E0.03
G1 X128.818 Y113.633 E0.027
G1 X127.75 Y114.254 E0.031
G1 X126.681 Y115.499 E0.041
G1 X125.613 Y116.076 E0.03
G1 X124.545 Y115.924 E0.027
G1 X123.477 Y115.304 E0.031
G1 X122.409 Y114.058 E0.041
G1 X121.341 Y113.481 E0.03
G1 X120.273 Y113.633 E0.027
G1 X119.204 Y114.254 E0.031
G1 X118.38 Y115.215 E0.031
G1 Y118.199 E0.075
G1 X119.204 Y117.754 E0.023
G1 X120.273 Y117.906 E0.027
G1 X121.341 Y118.526 E0.031
G1 X122.409 Y119.772 E0.041
G1 X123.477 Y120.348 E0.03
G1 X124.545 Y120.197 E0.027
G1 X125.613 Y119.576 E0.031
G1 X126.681 Y118.331 E0.041
G1 X127.75 Y117.754 E0.03
G1 X128.818 Y117.906 E0.027
G1 X129.886 Y118.526 E0.031
G1 X130.954 Y119.772 E0.041
G1 X131.62 Y120.131 E0.019
G1 Y122.113 E0.049
G1 X130.046 E0.039
G1 X129.886 Y122.027 E0.005
G1 X129.278 Y122.113 E0.015
G1 X121.501 E0.194
G1 X121.341 Y122.027 E0.005
G1 X120.733 Y122.113 E0.015
;rapid-leaky
G0 X132.536 Y98.512 F7200
;bead-sparse_infill
G1 X132.022 Y98.214 F3505 E0.015
G1 X130.954 Y96.968 E0.041
G1 X129.886 Y96.391 E0.03
G1 X128.88 Y96.534 E0.025
G1 Y92.307 E0.106
G1 X129.886 Y92.891 E0.029
G1 X130.954 Y94.136 E0.041
G1 X132.022 Y94.713 E0.03
G1 X133.064 Y94.565 E0.026
G1 F2100 E-0.5
;LAYER:10
;rapid-dry
G0 X116.642 Y92.739 Z1.55 F7200
G1 F2100 E0.5
;bead-perimeter_outer
G1 X116.84 Y92.201 F1800 E0.015
G1 X117.071 Y91.676 E0.014
G1 X117.336 Y91.167 E0.014
G1 X117.634 Y90.677 E0.015
G1 X117.964 Y90.207 E0.014
G1 X118.323 Y89.761 E0.014
G1 X118.711 Y89.338 E0.014
G1 X119.125 Y88.941 E0.015
G1 X119.564 Y88.572 E0.014
G1 X120.027 Y88.233 E0.014
G1 X120.51 Y87.924 E0.015
G1 X121.013 Y87.647 E0.014
G1 X121.533 Y87.405 E0.014
G1 X121.8 Y87.3 E0.007
G1 Y102.502 E0.38
G1 X122.452 Y102.759 E0.017
G1 X122.766 Y102.859 E0.008
G1 X123.494 Y103.043 E0.019
G1 X124.027 Y103.131 E0.014
G1 X124.563 Y103.18 E0.013
G1 X124.897 Y103.191 E0.008
G1 X125.646 Y103.164 E0.019
G1 X125.974 Y103.13 E0.008
G1 X126.506 Y103.043 E0.014
G1 X127.234 Y102.859 E0.018
G1 X127.548 Y102.759 E0.009
G1 X128.2 Y102.502 E0.017
G1 Y87.3 E0.379
G1 X128.467 Y87.405 E0.008
G1 X128.987 Y87.647 E0.014
G1 X129.49 Y87.924 E0.014
G1 X129.973 Y88.233 E0.014
G1 X130.436 Y88.572 E0.015
G1 X130.875 Y88.941 E0.014
G1 X131.289 Y89.338 E0.014
G1 X131.677 Y89.76 E0.015
G1 X132.036 Y90.207 E0.014
G1 X132.366 Y90.677 E0.014
G1 X132.664 Y91.167 E0.015
G1 X132.929 Y91.676 E0.014
G1 X133.16 Y92.201 E0.014
G1 X133.358 Y92.739 E0.015
G1 X133.519 Y93.289 E0.014
G1 X133.645 Y93.849 E0.014
G1 X133.733 Y94.414 E0.014
G1 X133.785 Y94.987 E0.015
G1 X133.799 Y95.56 E0.014
G1 X133.776 Y96.133 E0.014
G1 X133.716 Y96.704 E0.015
G1 X133.618 Y97.268 E0.014
G1 X133.484 Y97.827 E0.014
G1 X133.314 Y98.375 E0.015
G1 X133.174 Y98.75 E0.01
G1 X132.869 Y99.43 E0.018
G1 X132.595 Y99.936 E0.015
G1 X132.3 Y100.411 E0.014
G1 Y122.793 E0.558
G1 X117.7 E0.364
G1 Y100.412 E0.558
G1 X117.318 Y99.783 E0.019
G1 X117.131 Y99.431 E0.01
G1 X116.891 Y98.91 E0.014
G1 X116.685 Y98.374 E0.014
G1 X116.472 Y97.66 E0.019
G1 X116.382 Y97.27 E0.01
G1 X116.284 Y96.703 E0.014
G1 X116.224 Y96.133 E0.014
G1 X116.203 Y95.389 E0.019
G1 X116.215 Y94.988 E0.01
G1 X116.267 Y94.416 E0.014
G1 X116.356 Y93.848 E0.015
G1 X116.48 Y93.289 E0.014
G1 X116.642 Y92.739 E0.014
;rapid-leaky
G0 X116.984 Y92.852 F7200
;bead-perimeter_inner
G1 X117.174 Y92.336 F2400 E0.014
G1 X117.396 Y91.832 E0.014
G1 X117.65 Y91.344 E0.013
G1 X117.936 Y90.875 E0.014
G1 X118.253 Y90.422 E0.014
G1 X118.595 Y89.996 E0.014
G1 X118.968 Y89.59 E0.013
G1 X119.365 Y89.209 E0.014
G1 X119.787 Y88.856 E0.014
G1 X120.231 Y88.53 E0.014
G1 X120.694 Y88.234 E0.013
G1 X121.176 Y87.969 E0.014
G1 X121.44 Y87.845 E0.007
G1 Y102.748 E0.372
G1 X122.331 Y103.098 E0.024
G1 X122.877 Y103.267 E0.014
G1 X123.423 Y103.396 E0.014
G1 X123.981 Y103.488 E0.014
G1 X124.541 Y103.539 E0.014
G1 X124.894 Y103.551 E0.009
G1 X125.677 Y103.523 E0.02
G1 X126.022 Y103.487 E0.008
G1 X126.577 Y103.396 E0.014
G1 X127.123 Y103.267 E0.014
G1 X127.669 Y103.098 E0.015
G1 X128.56 Y102.748 E0.023
G1 Y87.845 E0.372
G1 X128.824 Y87.969 E0.007
G1 X129.306 Y88.234 E0.014
G1 X129.769 Y88.53 E0.014
G1 X130.213 Y88.856 E0.014
G1 X130.635 Y89.209 E0.013
G1 X131.032 Y89.59 E0.014
G1 X131.403 Y89.994 E0.014
G1 X131.748 Y90.423 E0.014
G1 X132.064 Y90.875 E0.013
G1 X132.35 Y91.344 E0.014
G1 X132.604 Y91.832 E0.014
G1 X132.826 Y92.336 E0.013
G1 X133.016 Y92.851 E0.014
G1 X133.171 Y93.379 E0.014
G1 X133.291 Y93.917 E0.014
G1 X133.376 Y94.456 E0.013
G1 X133.426 Y95.008 E0.014
G1 X133.439 Y95.558 E0.014
G1 X133.417 Y96.107 E0.013
G1 X133.359 Y96.656 E0.014
G1 X133.266 Y97.193 E0.014
G1 X133.137 Y97.731 E0.014
G1 X132.973 Y98.259 E0.013
G1 X132.838 Y98.62 E0.01
G1 X132.547 Y99.269 E0.018
G1 X132.284 Y99.755 E0.014
G1 X131.94 Y100.308 E0.016
G1 Y122.433 E0.552
G1 X118.06 E0.346
G1 Y100.311 E0.552
G1 X117.631 Y99.605 E0.02
G1 X117.454 Y99.271 E0.01
G1 X117.223 Y98.77 E0.014
G1 X117.025 Y98.257 E0.013
G1 X116.822 Y97.574 E0.018
G1 X116.735 Y97.199 E0.01
G1 X116.641 Y96.654 E0.013
G1 X116.583 Y96.107 E0.014
G1 X116.563 Y95.396 E0.018
G1 X116.574 Y95.01 E0.01
G1 X116.624 Y94.46 E0.013
G1 X116.71 Y93.915 E0.014
G1 X116.829 Y93.379 E0.014
G1 X116.984 Y92.852 E0.014
G1 F2100 E-0.5
;rapid-dry
G0 X120.761 Y88.592 F7200
G1 F2100 E0.5
;bead-solid_infill
G1 X121.12 Y88.952 F1800 E0.012
G1 Y89.517 E0.014
G1 X120.42 Y88.817 E0.025
G1 X120.235 Y88.942 E0.006
G1 X120.091 Y89.054 E0.004
G1 X121.12 Y90.083 E0.036
G1 Y90.649 E0.015
G1 X119.775 Y89.303 E0.047
G1 X119.774 Y89.304
G1 X119.478 Y89.572 E0.01
G1 X121.12 Y91.214 E0.058
G1 Y91.78 E0.014
G1 X119.193 Y89.853 E0.068
G1 X118.934 Y90.125 E0.009
G1 X118.919 Y90.144 E0.001
G1 X121.12 Y92.346 E0.078
G1 Y92.911 E0.014
G1 X118.663 Y90.454 E0.086
G1 X118.561 Y90.577 E0.004
G1 X118.42 Y90.777 E0.007
G1 X121.12 Y93.477 E0.095
G1 Y94.043 E0.014
G1 X118.189 Y91.112 E0.103
G1 X117.976 Y91.464 E0.011
G1 X121.12 Y94.608 E0.11
G1 Y95.174 E0.015
G1 X117.779 Y91.833 E0.117
G1 X117.652 Y92.082 E0.007
G1 X117.596 Y92.216 E0.004
G1 X121.12 Y95.74 E0.124
G1 Y96.305 E0.014
G1 X117.428 Y92.614 E0.131
G1 X117.425 Y92.623
G1 X117.285 Y93.036 E0.011
G1 X121.12 Y96.871 E0.135
G1 Y97.437 E0.014
G1 X117.161 Y93.477 E0.14
G1 X117.09 Y93.747 E0.007
G1 X117.055 Y93.938 E0.005
G1 X121.12 Y98.003 E0.143
G1 Y98.568 E0.014
G1 X116.974 Y94.423 E0.146
G1 X116.921 Y94.908 E0.013
G1 X116.92 Y94.934
G1 X121.12 Y99.134 E0.148
G1 Y99.7 E0.015
G1 X116.9 Y95.48 E0.148
G1 Y95.495 E0.001
G1 X116.921 Y96.066 E0.014
G1 X121.12 Y100.265 E0.148
G1 Y100.831 E0.014
G1 X116.992 Y96.703 E0.146
G1 X117.085 Y97.214 E0.013
G1 X117.136 Y97.413 E0.005
G1 X121.12 Y101.397 E0.141
G1 Y101.962 E0.014
G1 X117.377 Y98.219 E0.132
G1 X117.427 Y98.367 E0.004
G1 X117.654 Y98.907 E0.014
G1 X117.815 Y99.223 E0.009
G1 X121.12 Y102.528 E0.117
G1 F2100 E-0.5
;rapid-dry
G0 X131.881 Y91.228 F7200
G1 F2100 E0.5
;bead-solid_infill
G1 X129.254 Y88.6 F1800 E0.092
G1 X128.88 Y88.386 E0.011
G1 Y88.792 E0.01
G1 X132.477 Y92.389 E0.127
G1 X132.575 Y92.623 E0.006
G1 X132.754 Y93.152 E0.014
G1 X132.783 Y93.26 E0.003
G1 X128.88 Y89.358 E0.138
G1 Y89.923 E0.014
G1 X132.956 Y93.999 E0.144
G1 X133.015 Y94.326 E0.008
G1 X133.052 Y94.661 E0.008
G1 X128.88 Y90.489 E0.148
G1 Y91.055 E0.014
G1 X133.092 Y95.267 E0.148
G1 X133.1 Y95.495 E0.006
G1 X133.088 Y95.829 E0.008
G1 X128.88 Y91.62 E0.149
G1 Y92.186 E0.014
G1 X133.049 Y96.355 E0.147
G1 X133.015 Y96.664 E0.008
G1 X132.981 Y96.853 E0.005
G1 X128.88 Y92.752 E0.144
G1 Y93.317 E0.014
G1 X132.887 Y97.324 E0.142
G1 X132.771 Y97.774 E0.011
G1 X128.88 Y93.883 E0.138
G1 Y94.449 E0.014
G1 X132.63 Y98.199 E0.132
G1 X132.573 Y98.367 E0.004
G1 X132.472 Y98.607 E0.007
G1 X128.88 Y95.015 E0.127
G1 Y95.58 E0.014
G1 X132.299 Y98.999 E0.12
G1 X132.108 Y99.374 E0.011
G1 X128.88 Y96.146 E0.114
G1 Y96.712 E0.014
G1 X131.898 Y99.73 E0.106
G1 X131.766 Y99.948 E0.007
G1 X131.783 Y99.954
G1 X131.697 Y100.094 E0.004
G1 X128.88 Y97.277 E0.1
G1 Y97.843 E0.014
G1 X131.62 Y100.583 E0.096
G1 Y101.149 E0.014
G1 X128.88 Y98.409 E0.097
G1 Y98.974 E0.014
G1 X131.62 Y101.714 E0.097
G1 Y102.28 E0.014
G1 X128.88 Y99.54 E0.097
G1 Y100.106 E0.014
G1 X131.62 Y102.846 E0.096
G1 Y103.411 E0.015
G1 X128.88 Y100.671 E0.096
G1 Y101.237 E0.014
G1 X131.62 Y103.977 E0.097
G1 Y104.543 E0.014
G1 X128.88 Y101.803 E0.097
G1 Y102.368 E0.014
G1 X131.62 Y105.108 E0.097
G1 Y105.674 E0.014
G1 X128.88 Y102.934 E0.096
G1 Y102.966 E0.001
G1 X128.497 Y103.116 E0.01
G1 X131.62 Y106.24 E0.111
G1 Y106.805 E0.014
G1 X128.09 Y103.276 E0.124
G1 X127.775 Y103.4 E0.009
G1 X127.679 Y103.43 E0.002
G1 X131.62 Y107.371 E0.139
G1 Y107.937 E0.014
G1 X127.263 Y103.58 E0.154
G1 X127.191 Y103.601 E0.002
G1 X126.809 Y103.691 E0.01
G1 X131.62 Y108.503 E0.169
G1 Y109.068 E0.015
G1 X126.334 Y103.782 E0.186
G1 X126.111 Y103.819 E0.006
G1 X125.832 Y103.846 E0.007
G1 X131.62 Y109.634 E0.204
G1 Y110.2 E0.014
G1 X125.303 Y103.883 E0.223
G1 X125.01 Y103.893 E0.007
G1 X124.739 Y103.884 E0.007
G1 X131.62 Y110.765 E0.243
G1 Y111.331 E0.014
G1 X124.132 Y103.843 E0.264
G1 X123.89 Y103.819 E0.006
G1 X123.473 Y103.749 E0.01
G1 X131.62 Y111.897 E0.288
G1 Y112.462 E0.014
G1 X122.737 Y103.58 E0.313
G1 X122.4 Y103.477 E0.009
G1 Y103.454 E0.001
G1 X122.225 Y103.4 E0.004
G1 X121.841 Y103.249 E0.011
G1 X131.62 Y113.028 E0.345
G1 Y113.594 E0.014
G1 X118.38 Y100.354 E0.467
G1 Y100.919 E0.014
G1 X131.62 Y114.159 E0.467
G1 Y114.725 E0.014
G1 X118.38 Y101.485 E0.467
G1 Y102.051 E0.014
G1 X131.62 Y115.291 E0.467
G1 Y115.856 E0.014
G1 X118.38 Y102.616 E0.467
G1 Y103.182 E0.015
G1 X131.62 Y116.422 E0.467
G1 Y116.988 E0.014
G1 X118.38 Y103.748 E0.467
G1 Y104.314 E0.014
G1 X131.62 Y117.554 E0.467
G1 Y118.119 E0.014
G1 X118.38 Y104.879 E0.467
G1 Y105.445 E0.014
G1 X131.62 Y118.685 E0.467
G1 Y119.251 E0.015
G1 X118.38 Y106.011 E0.467
G1 Y106.576 E0.014
G1 X131.62 Y119.816 E0.467
G1 Y120.382 E0.014
G1 X118.38 Y107.142 E0.467
G1 Y107.708 E0.014
G1 X131.62 Y120.948 E0.467
G1 Y121.513 E0.014
G1 X118.38 Y108.273 E0.467
G1 Y108.839 E0.014
