;suport muschi 2
;Printer name: Prusa i3 MK3
;TIME:732
;Print time: 12m:12s
;Extruder 1 material used: 476mm
;Extruder 1 material name: 
;Extruder 1 filament diameter: 1.75mm
;Extruder 1 nozzle diameter: 0.4mm
;Extruder 1 offset x: 0mm
;Extruder 1 offset y: 0mm
;Extruder 1 offset z: 0mm
;Extruder 1 max temp: 200
;Bed temp: 70
;Layer count: 66
;Width: 250mm
;Depth: 210mm
;Height: 210mm
;Center x: 125mm
;Center y: 105mm
;Center z: 0mm
;Count of bodies: 1
;Fusion version: 2.0.19440
G21
M115 U3.0.10 ;tell printer latest fw version
G28 W ;home all without mesh bed level
;--------------------------------
;Selected Profile: PLA Direct Drive
;--------------------------------
;Selected Printer: Prusa, i3 MK3
;--------------------------------
T0
M140 S70
M104 S200 T0
M190 S70
M109 S200 T0
G80 ;mesh bed leveling
G92 E0
G90
M83
G0 X10 Y10 Z10 F7200
G92 E0
;--------------------------------
;Part 1
;LAYER_COUNT:66
;LAYER:1
M107
;rapid-leaky
G0 X20 Y20.5 Z0.2 F7200
;bead-prime
G1 X120 F720 E8.315
G1 F2100 E-0.5
;rapid-dry
G0 X122.676 Y81.758 F7200
G1 F2100 E0.5
;bead-skirt/brim
G1 X120.134 Y82.563 F960 E0.089
G1 X119.321 Y82.872 E0.029
G1 X118.525 Y83.231 E0.029
G1 X117.775 Y83.624 E0.028
G1 X117.015 Y84.079 E0.029
G1 X116.296 Y84.569 E0.029
G1 X115.603 Y85.104 E0.029
G1 X114.947 Y85.678 E0.029
G1 X114.345 Y86.268 E0.028
G1 X113.745 Y86.928 E0.03
G1 X113.198 Y87.608 E0.029
G1 X112.696 Y88.314 E0.029
G1 X112.243 Y89.034 E0.028
G1 X111.815 Y89.815 E0.03
G1 X111.443 Y90.6 E0.029
G1 X111.125 Y91.387 E0.028
G1 X110.846 Y92.212 E0.029
G1 X110.612 Y93.071 E0.03
G1 X110.437 Y93.898 E0.028
G1 X110.303 Y94.781 E0.029
G1 X110.227 Y95.63 E0.029
G1 X110.198 Y96.497 E0.029
G1 X110.222 Y97.388 E0.029
G1 X110.298 Y98.257 E0.029
G1 X110.424 Y99.118 E0.029
G1 X110.601 Y99.97 E0.029
G1 X110.821 Y100.787 E0.028
G1 X111.093 Y101.61 E0.029
G1 X111.416 Y102.421 E0.029
G1 X111.794 Y103.227 E0.03
G1 X112.198 Y103.972 E0.028
G1 X112.658 Y104.713 E0.029
G1 X113.172 Y105.44 E0.03
G1 X113.7 Y106.102 E0.028
G1 Y127.377 E0.707
;rapid-leaky
G0 X113.761 Y127.842 F7200
;bead-skirt/brim
G1 X136.239 F960 E0.748
;rapid-leaky
G0 X136.3 Y127.376 F7200
;bead-skirt/brim
G1 Y106.102 F960 E0.708
G1 X136.828 Y105.44 E0.028
G1 X137.342 Y104.713 E0.029
G1 X137.803 Y103.969 E0.029
G1 X138.216 Y103.205 E0.029
G1 X138.583 Y102.421 E0.029
G1 X138.897 Y101.637 E0.028
G1 X139.174 Y100.809 E0.029
G1 X139.404 Y99.948 E0.03
G1 X139.576 Y99.118 E0.028
G1 X139.702 Y98.257 E0.029
G1 X139.777 Y97.39 E0.029
G1 X139.802 Y96.52 E0.029
G1 X139.774 Y95.631 E0.029
G1 X139.698 Y94.784 E0.029
G1 X139.568 Y93.918 E0.029
G1 X139.382 Y93.049 E0.029
G1 X139.154 Y92.212 E0.029
G1 X138.874 Y91.384 E0.029
G1 X138.548 Y90.58 E0.029
G1 X138.186 Y89.818 E0.028
G1 X137.768 Y89.052 E0.029
G1 X137.303 Y88.313 E0.029
G1 X136.788 Y87.59 E0.03
G1 X136.255 Y86.928 E0.028
G1 X135.672 Y86.284 E0.029
G1 X135.053 Y85.678 E0.029
G1 X134.397 Y85.104 E0.029
G1 X133.702 Y84.568 E0.029
G1 X132.969 Y84.069 E0.03
G1 X132.244 Y83.634 E0.028
G1 X131.475 Y83.231 E0.029
G1 X130.68 Y82.872 E0.029
G1 X129.866 Y82.563 E0.029
G1 X127.324 Y81.758 E0.088
;rapid-leaky
G0 X125.998 F7200
;bead-skirt/brim
G1 X129.734 Y82.941 F960 E0.131
G1 X130.526 Y83.242 E0.028
G1 X131.3 Y83.591 E0.028
G1 X132.048 Y83.983 E0.028
G1 X132.753 Y84.406 E0.027
G1 X133.467 Y84.892 E0.029
G1 X134.143 Y85.413 E0.028
G1 X134.781 Y85.972 E0.029
G1 X135.383 Y86.562 E0.028
G1 X135.951 Y87.188 E0.028
G1 X136.469 Y87.831 E0.027
G1 X136.971 Y88.536 E0.029
G1 X137.423 Y89.255 E0.028
G1 X137.83 Y90 E0.029
G1 X138.181 Y90.741 E0.027
G1 X138.499 Y91.523 E0.028
G1 X138.772 Y92.329 E0.028
G1 X138.993 Y93.143 E0.028
G1 X139.174 Y93.989 E0.029
G1 X139.3 Y94.831 E0.028
G1 X139.374 Y95.656 E0.028
G1 X139.401 Y96.521 E0.029
G1 X139.378 Y97.367 E0.028
G1 X139.305 Y98.21 E0.028
G1 X139.182 Y99.048 E0.028
G1 X139.015 Y99.855 E0.028
G1 X138.791 Y100.693 E0.028
G1 X138.521 Y101.499 E0.029
G1 X138.216 Y102.262 E0.027
G1 X137.859 Y103.025 E0.028
G1 X137.457 Y103.769 E0.028
G1 X137.008 Y104.492 E0.028
G1 X136.508 Y105.2 E0.029
G1 X135.9 Y105.949 E0.032
G1 Y127.442 E0.715
G1 X114.1 E0.725
G1 Y105.949 E0.715
G1 X113.492 Y105.2 E0.032
G1 X112.992 Y104.492 E0.029
G1 X112.545 Y103.771 E0.028
G1 X112.151 Y103.046 E0.028
G1 X111.783 Y102.262 E0.029
G1 X111.469 Y101.473 E0.028
G1 X111.204 Y100.672 E0.028
G1 X110.99 Y99.877 E0.027
G1 X110.818 Y99.049 E0.028
G1 X110.695 Y98.21 E0.029
G1 X110.622 Y97.366 E0.028
G1 X110.599 Y96.498 E0.029
G1 X110.626 Y95.654 E0.028
G1 X110.7 Y94.828 E0.027
G1 X110.83 Y93.97 E0.029
G1 X111.001 Y93.165 E0.028
G1 X111.228 Y92.329 E0.028
G1 X111.5 Y91.526 E0.029
G1 X111.809 Y90.761 E0.027
G1 X112.172 Y89.997 E0.028
G1 X112.588 Y89.236 E0.029
G1 X113.029 Y88.537 E0.027
G1 X113.517 Y87.85 E0.029
G1 X114.049 Y87.188 E0.028
G1 X114.633 Y86.545 E0.029
G1 X115.219 Y85.971 E0.027
G1 X115.857 Y85.413 E0.028
G1 X116.531 Y84.893 E0.028
G1 X117.23 Y84.416 E0.029
G1 X117.971 Y83.973 E0.028
G1 X118.701 Y83.591 E0.028
G1 X119.474 Y83.242 E0.028
G1 X120.266 Y82.941 E0.028
G1 X124.002 Y81.758 E0.13
;rapid-leaky
G0 X124.6 Y82.408 F7200
;bead-skirt/brim
G1 Y89.339 F960 E0.231
G1 X122.386 Y90.157 E0.078
G1 X121.994 Y90.332 E0.015
G1 X121.597 Y90.54 E0.015
G1 X121.217 Y90.772 E0.014
G1 X120.85 Y91.031 E0.015
G1 X120.501 Y91.312 E0.015
G1 X120.172 Y91.613 E0.015
G1 X119.863 Y91.936 E0.015
G1 X119.577 Y92.277 E0.015
G1 X119.303 Y92.652 E0.015
G1 X119.07 Y93.016 E0.015
G1 X118.855 Y93.407 E0.014
G1 X118.664 Y93.813 E0.015
G1 X118.501 Y94.23 E0.015
G1 X118.364 Y94.656 E0.015
G1 X118.256 Y95.089 E0.015
G1 X118.176 Y95.529 E0.015
G1 X118.124 Y95.974 E0.015
G1 X118.102 Y96.418 E0.015
G1 X118.109 Y96.865 E0.014
G1 X118.145 Y97.313 E0.015
G1 X118.209 Y97.756 E0.015
G1 X118.302 Y98.192 E0.015
G1 X118.422 Y98.62 E0.015
G1 X118.578 Y99.059 E0.015
G1 X118.748 Y99.456 E0.015
G1 X118.95 Y99.856 E0.015
G1 X119.177 Y100.24 E0.014
G1 X119.429 Y100.61 E0.015
G1 X119.705 Y100.963 E0.015
G1 X120.001 Y101.297 E0.015
G1 X120.319 Y101.609 E0.015
G1 X120.658 Y101.902 E0.015
G1 X121.014 Y102.172 E0.015
G1 X121.388 Y102.419 E0.015
G1 X121.776 Y102.64 E0.014
G1 X122.177 Y102.836 E0.015
G1 X122.608 Y103.012 E0.016
G1 X123.015 Y103.148 E0.014
G1 X123.448 Y103.263 E0.015
G1 X123.887 Y103.35 E0.015
G1 X124.332 Y103.408 E0.015
G1 X124.777 Y103.437 E0.015
G1 X125.223 E0.014
G1 X125.668 Y103.408 E0.015
G1 X126.113 Y103.35 E0.015
G1 X126.552 Y103.263 E0.015
G1 X126.985 Y103.149 E0.015
G1 X127.407 Y103.007 E0.015
G1 X127.82 Y102.837 E0.015
G1 X128.238 Y102.632 E0.015
G1 X128.612 Y102.419 E0.014
G1 X128.986 Y102.172 E0.015
G1 X129.342 Y101.902 E0.015
G1 X129.681 Y101.609 E0.015
G1 X129.999 Y101.297 E0.015
G1 X130.295 Y100.963 E0.015
G1 X130.571 Y100.61 E0.015
G1 X130.823 Y100.24 E0.015
G1 X131.05 Y99.856 E0.014
G1 X131.252 Y99.456 E0.015
G1 X131.428 Y99.044 E0.015
G1 X131.577 Y98.622 E0.015
G1 X131.698 Y98.192 E0.015
G1 X131.791 Y97.756 E0.015
G1 X131.855 Y97.314 E0.015
G1 X131.891 Y96.867 E0.015
G1 X131.897 Y96.421 E0.014
G1 X131.874 Y95.957 E0.016
G1 X131.824 Y95.53 E0.014
G1 X131.744 Y95.089 E0.015
G1 X131.636 Y94.656 E0.015
G1 X131.499 Y94.23 E0.015
G1 X131.336 Y93.813 E0.015
G1 X131.145 Y93.407 E0.015
G1 X130.93 Y93.016 E0.014
G1 X130.689 Y92.639 E0.015
G1 X130.424 Y92.278 E0.015
G1 X130.137 Y91.936 E0.015
G1 X129.828 Y91.613 E0.015
G1 X129.5 Y91.313 E0.015
G1 X129.137 Y91.021 E0.015
G1 X128.783 Y90.773 E0.015
G1 X128.403 Y90.54 E0.014
G1 X128.007 Y90.333 E0.015
G1 X127.599 Y90.151 E0.015
G1 X125.4 Y89.341 E0.078
G1 Y82.408 E0.231
G1 X129.471 Y83.697 E0.142
G1 X130.219 Y83.981 E0.026
G1 X130.949 Y84.311 E0.027
G1 X131.656 Y84.681 E0.026
G1 X132.322 Y85.081 E0.026
G1 X132.998 Y85.54 E0.027
G1 X133.635 Y86.031 E0.027
G1 X134.237 Y86.559 E0.027
G1 X134.806 Y87.116 E0.026
G1 X135.343 Y87.708 E0.027
G1 X135.831 Y88.315 E0.026
G1 X136.306 Y88.981 E0.027
G1 X136.733 Y89.66 E0.027
G1 X137.117 Y90.363 E0.026
G1 X137.449 Y91.064 E0.026
G1 X137.749 Y91.802 E0.027
G1 X138.006 Y92.562 E0.026
G1 X138.216 Y93.332 E0.027
G1 X138.386 Y94.132 E0.027
G1 X138.506 Y94.927 E0.027
G1 X138.575 Y95.704 E0.026
G1 X138.601 Y96.522 E0.027
G1 X138.579 Y97.321 E0.027
G1 X138.51 Y98.118 E0.026
G1 X138.393 Y98.909 E0.027
G1 X138.236 Y99.671 E0.026
G1 X138.024 Y100.463 E0.027
G1 X137.77 Y101.223 E0.027
G1 X137.481 Y101.944 E0.025
G1 X137.144 Y102.665 E0.027
G1 X136.764 Y103.367 E0.026
G1 X136.341 Y104.05 E0.027
G1 X135.868 Y104.719 E0.027
G1 X135.384 Y105.326 E0.026
G1 X135.1 Y105.643 E0.014
G1 Y126.642 E0.699
G1 X114.9 E0.672
G1 Y105.643 E0.698
G1 X114.616 Y105.326 E0.014
G1 X114.132 Y104.719 E0.026
G1 X113.659 Y104.05 E0.027
G1 X113.237 Y103.369 E0.027
G1 X112.866 Y102.685 E0.026
G1 X112.517 Y101.943 E0.027
G1 X112.221 Y101.199 E0.027
G1 X111.971 Y100.442 E0.026
G1 X111.769 Y99.692 E0.026
G1 X111.607 Y98.91 E0.027
G1 X111.49 Y98.117 E0.026
G1 X111.421 Y97.32 E0.027
G1 X111.399 Y96.5 E0.027
G1 X111.425 Y95.703 E0.027
G1 X111.495 Y94.924 E0.026
G1 X111.618 Y94.113 E0.027
G1 X111.779 Y93.353 E0.026
G1 X111.994 Y92.562 E0.027
G1 X112.25 Y91.804 E0.027
G1 X112.542 Y91.083 E0.026
G1 X112.884 Y90.361 E0.026
G1 X113.278 Y89.642 E0.027
G1 X113.694 Y88.982 E0.026
G1 X114.156 Y88.333 E0.027
G1 X114.658 Y87.708 E0.027
G1 X115.21 Y87.101 E0.027
G1 X115.763 Y86.558 E0.026
G1 X116.365 Y86.031 E0.026
G1 X117.001 Y85.541 E0.027
G1 X117.662 Y85.091 E0.027
G1 X118.362 Y84.671 E0.027
G1 X119.051 Y84.31 E0.026
G1 X119.781 Y83.981 E0.026
G1 X120.529 Y83.697 E0.027
G1 X124.6 Y82.408 E0.142
;rapid-leaky
G0 X124.2 Y82.954 F7200
;bead-skirt/brim
G1 Y89.06 F960 E0.203
G1 X122.235 Y89.787 E0.07
G1 X121.819 Y89.972 E0.015
G1 X121.399 Y90.192 E0.016
G1 X120.998 Y90.438 E0.015
G1 X120.609 Y90.711 E0.016
G1 X120.24 Y91.008 E0.016
G1 X119.892 Y91.328 E0.015
G1 X119.565 Y91.669 E0.016
G1 X119.262 Y92.03 E0.016
G1 X118.972 Y92.426 E0.016
G1 X118.726 Y92.811 E0.015
G1 X118.498 Y93.225 E0.016
G1 X118.297 Y93.654 E0.016
G1 X118.124 Y94.095 E0.016
G1 X117.979 Y94.547 E0.015
G1 X117.865 Y95.004 E0.016
G1 X117.78 Y95.471 E0.016
G1 X117.726 Y95.941 E0.016
G1 X117.702 Y96.412 E0.015
G1 X117.71 Y96.884 E0.016
G1 X117.747 Y97.358 E0.016
G1 X117.815 Y97.827 E0.016
G1 X117.913 Y98.288 E0.015
G1 X118.041 Y98.742 E0.016
G1 X118.205 Y99.205 E0.016
G1 X118.385 Y99.625 E0.015
G1 X118.599 Y100.048 E0.016
G1 X118.839 Y100.455 E0.016
G1 X119.106 Y100.846 E0.016
G1 X119.398 Y101.219 E0.015
G1 X119.711 Y101.572 E0.016
G1 X120.048 Y101.903 E0.016
G1 X120.406 Y102.213 E0.016
G1 X120.783 Y102.499 E0.015
G1 X121.178 Y102.76 E0.016
G1 X121.589 Y102.994 E0.016
G1 X122.013 Y103.201 E0.016
G1 X122.468 Y103.387 E0.016
G1 X122.9 Y103.532 E0.015
G1 X123.358 Y103.653 E0.016
G1 X123.823 Y103.745 E0.016
G1 X124.293 Y103.806 E0.015
G1 X124.764 Y103.837 E0.016
G1 X125.236 E0.016
G1 X125.707 Y103.806 E0.015
G1 X126.177 Y103.745 E0.016
G1 X126.642 Y103.653 E0.016
G1 X127.1 Y103.532 E0.016
G1 X127.547 Y103.382 E0.015
G1 X127.984 Y103.202 E0.016
G1 X128.426 Y102.986 E0.016
G1 X128.822 Y102.76 E0.016
G1 X129.217 Y102.499 E0.015
G1 X129.594 Y102.213 E0.016
G1 X129.952 Y101.903 E0.016
G1 X130.289 Y101.572 E0.016
G1 X130.603 Y101.219 E0.015
G1 X130.895 Y100.846 E0.016
G1 X131.161 Y100.455 E0.016
G1 X131.401 Y100.048 E0.015
G1 X131.615 Y99.625 E0.016
G1 X131.801 Y99.19 E0.016
G1 X131.959 Y98.743 E0.016
G1 X132.087 Y98.288 E0.015
G1 X132.185 Y97.827 E0.016
G1 X132.253 Y97.358 E0.016
G1 X132.29 Y96.886 E0.016
G1 X132.297 Y96.414 E0.015
G1 X132.272 Y95.924 E0.017
G1 X132.22 Y95.471 E0.015
G1 X132.135 Y95.004 E0.016
G1 X132.021 Y94.547 E0.015
G1 X131.876 Y94.095 E0.016
G1 X131.703 Y93.654 E0.016
G1 X131.502 Y93.225 E0.016
G1 X131.274 Y92.812 E0.015
G1 X131.019 Y92.413 E0.016
G1 X130.739 Y92.031 E0.016
G1 X130.435 Y91.669 E0.015
G1 X130.108 Y91.328 E0.016
G1 X129.761 Y91.009 E0.016
G1 X129.378 Y90.702 E0.016
G1 X129.003 Y90.438 E0.015
G1 X128.601 Y90.192 E0.016
G1 X128.181 Y89.972 E0.016
G1 X127.75 Y89.78 E0.016
G1 X125.8 Y89.062 E0.069
G1 Y82.954 E0.203
G1 X129.339 Y84.074 E0.123
G1 X130.065 Y84.35 E0.026
G1 X130.774 Y84.67 E0.026
G1 X131.46 Y85.03 E0.026
G1 X132.107 Y85.418 E0.025
G1 X132.763 Y85.864 E0.026
G1 X133.38 Y86.341 E0.026
G1 X133.966 Y86.852 E0.026
G1 X134.518 Y87.394 E0.026
G1 X135.038 Y87.968 E0.026
G1 X135.512 Y88.556 E0.025
G1 X135.973 Y89.204 E0.026
G1 X136.388 Y89.862 E0.026
G1 X136.76 Y90.545 E0.026
G1 X137.083 Y91.225 E0.025
G1 X137.374 Y91.942 E0.026
G1 X137.623 Y92.679 E0.026
G1 X137.827 Y93.426 E0.025
G1 X137.993 Y94.204 E0.027
G1 X138.108 Y94.974 E0.026
G1 X138.176 Y95.728 E0.025
G1 X138.201 Y96.523 E0.026
G1 X138.179 Y97.298 E0.026
G1 X138.112 Y98.071 E0.026
G1 X137.999 Y98.84 E0.026
G1 X137.847 Y99.578 E0.025
G1 X137.641 Y100.348 E0.026
G1 X137.394 Y101.085 E0.026
G1 X137.114 Y101.784 E0.025
G1 X136.787 Y102.485 E0.026
G1 X136.418 Y103.167 E0.026
G1 X136.008 Y103.829 E0.026
G1 X135.548 Y104.478 E0.026
G1 X135.078 Y105.067 E0.025
G1 X134.7 Y105.49 E0.019
G1 Y126.242 E0.69
G1 X115.3 E0.645
G1 Y105.49 E0.691
G1 X114.922 Y105.067 E0.019
G1 X114.452 Y104.478 E0.025
G1 X113.992 Y103.829 E0.026
G1 X113.583 Y103.168 E0.026
G1 X113.223 Y102.505 E0.025
G1 X112.885 Y101.784 E0.026
G1 X112.597 Y101.062 E0.026
G1 X112.354 Y100.327 E0.026
G1 X112.158 Y99.6 E0.025
G1 X112.001 Y98.84 E0.026
G1 X111.888 Y98.071 E0.026
G1 X111.821 Y97.297 E0.026
G1 X111.799 Y96.501 E0.026
G1 X111.824 Y95.727 E0.026
G1 X111.892 Y94.972 E0.025
G1 X112.012 Y94.185 E0.027
G1 X112.168 Y93.447 E0.025
G1 X112.377 Y92.679 E0.026
G1 X112.626 Y91.943 E0.026
G1 X112.909 Y91.243 E0.025
G1 X113.241 Y90.543 E0.026
G1 X113.623 Y89.845 E0.026
G1 X114.026 Y89.205 E0.026
G1 X114.475 Y88.574 E0.025
G1 X114.962 Y87.968 E0.026
G1 X115.498 Y87.378 E0.027
G1 X116.035 Y86.852 E0.025
G1 X116.62 Y86.341 E0.025
G1 X117.236 Y85.865 E0.026
G1 X117.877 Y85.428 E0.026
G1 X118.558 Y85.02 E0.027
G1 X119.226 Y84.67 E0.025
G1 X119.935 Y84.35 E0.025
G1 X120.661 Y84.074 E0.026
G1 X124.2 Y82.954 E0.124
;rapid-leaky
G0 X123.8 Y83.5 F7200
;bead-skirt/brim
G1 Y88.782 F960 E0.175
G1 X122.084 Y89.416 E0.061
G1 X121.645 Y89.612 E0.016
G1 X121.202 Y89.844 E0.017
G1 X120.778 Y90.103 E0.016
G1 X120.368 Y90.392 E0.017
G1 X119.979 Y90.705 E0.017
G1 X119.612 Y91.042 E0.016
G1 X119.267 Y91.402 E0.017
G1 X118.947 Y91.783 E0.016
G1 X118.642 Y92.2 E0.018
G1 X118.382 Y92.607 E0.016
G1 X118.142 Y93.044 E0.016
G1 X117.929 Y93.496 E0.017
G1 X117.747 Y93.961 E0.017
G1 X117.594 Y94.437 E0.016
G1 X117.474 Y94.92 E0.017
G1 X117.384 Y95.412 E0.016
G1 X117.327 Y95.908 E0.017
G1 X117.302 Y96.405 E0.016
G1 X117.31 Y96.904 E0.017
G1 X117.35 Y97.403 E0.017
G1 X117.421 Y97.897 E0.016
G1 X117.524 Y98.383 E0.017
G1 X117.659 Y98.863 E0.016
G1 X117.832 Y99.35 E0.018
G1 X118.022 Y99.794 E0.016
G1 X118.248 Y100.24 E0.016
G1 X118.501 Y100.669 E0.017
G1 X118.782 Y101.082 E0.017
G1 X119.09 Y101.476 E0.016
G1 X119.421 Y101.848 E0.017
G1 X119.776 Y102.197 E0.016
G1 X120.154 Y102.524 E0.017
G1 X120.552 Y102.826 E0.016
G1 X120.969 Y103.101 E0.017
G1 X121.402 Y103.348 E0.017
G1 X121.85 Y103.566 E0.016
G1 X122.329 Y103.762 E0.017
G1 X122.785 Y103.915 E0.016
G1 X123.268 Y104.043 E0.017
G1 X123.758 Y104.14 E0.017
G1 X124.254 Y104.205 E0.016
G1 X124.751 Y104.237 E0.017
G1 X125.249 E0.016
G1 X125.746 Y104.205 E0.017
G1 X126.242 Y104.14 E0.017
G1 X126.732 Y104.043 E0.016
G1 X127.215 Y103.915 E0.017
G1 X127.687 Y103.757 E0.016
G1 X128.148 Y103.567 E0.017
G1 X128.613 Y103.34 E0.017
G1 X129.031 Y103.101 E0.016
G1 X129.448 Y102.826 E0.017
G1 X129.846 Y102.524 E0.016
G1 X130.224 Y102.197 E0.017
G1 X130.579 Y101.848 E0.017
G1 X130.91 Y101.476 E0.016
G1 X131.218 Y101.082 E0.017
G1 X131.499 Y100.669 E0.016
G1 X131.752 Y100.24 E0.017
G1 X131.978 Y99.794 E0.017
G1 X132.174 Y99.335 E0.016
G1 X132.34 Y98.864 E0.017
G1 X132.475 Y98.383 E0.017
G1 X132.579 Y97.897 E0.016
G1 X132.65 Y97.403 E0.017
G1 X132.69 Y96.905 E0.016
G1 X132.697 Y96.406 E0.017
G1 X132.671 Y95.89 E0.017
G1 X132.616 Y95.412 E0.016
G1 X132.526 Y94.92 E0.017
G1 X132.406 Y94.437 E0.016
G1 X132.253 Y93.961 E0.017
G1 X132.071 Y93.496 E0.016
G1 X131.858 Y93.044 E0.017
G1 X131.618 Y92.607 E0.017
G1 X131.349 Y92.186 E0.016
G1 X131.053 Y91.784 E0.017
G1 X130.733 Y91.402 E0.016
G1 X130.388 Y91.042 E0.017
G1 X130.022 Y90.706 E0.017
G1 X129.618 Y90.382 E0.017
G1 X129.223 Y90.104 E0.016
G1 X128.798 Y89.844 E0.016
G1 X128.356 Y89.612 E0.017
G1 X127.9 Y89.41 E0.017
G1 X126.2 Y88.783 E0.06
G1 Y83.5 E0.176
G1 X129.208 Y84.452 E0.105
G1 X129.912 Y84.72 E0.025
G1 X130.599 Y85.03 E0.025
G1 X131.264 Y85.379 E0.025
G1 X131.891 Y85.755 E0.024
G1 X132.528 Y86.188 E0.026
G1 X133.126 Y86.65 E0.025
G1 X133.694 Y87.146 E0.025
G1 X134.229 Y87.671 E0.025
G1 X134.734 Y88.228 E0.025
G1 X135.193 Y88.798 E0.024
G1 X135.641 Y89.427 E0.026
G1 X136.042 Y90.065 E0.025
G1 X136.403 Y90.726 E0.025
G1 X136.716 Y91.386 E0.024
G1 X136.999 Y92.081 E0.025
G1 X137.24 Y92.796 E0.025
G1 X137.438 Y93.52 E0.025
G1 X137.599 Y94.275 E0.026
G1 X137.711 Y95.022 E0.025
G1 X137.776 Y95.752 E0.024
G1 X137.801 Y96.524 E0.026
G1 X137.78 Y97.275 E0.025
G1 X137.715 Y98.025 E0.025
G1 X137.605 Y98.77 E0.025
G1 X137.457 Y99.486 E0.024
G1 X137.258 Y100.233 E0.026
G1 X137.018 Y100.947 E0.025
G1 X136.747 Y101.625 E0.025
G1 X136.429 Y102.305 E0.024
G1 X136.072 Y102.966 E0.025
G1 X135.674 Y103.608 E0.026
G1 X135.229 Y104.238 E0.025
G1 X134.773 Y104.809 E0.025
G1 X134.3 Y105.337 E0.023
G1 Y125.842 E0.682
G1 X115.7 E0.619
G1 Y105.337 E0.682
G1 X115.227 Y104.809 E0.023
G1 X114.771 Y104.238 E0.025
G1 X114.326 Y103.608 E0.025
G1 X113.929 Y102.967 E0.025
G1 X113.58 Y102.324 E0.025
G1 X113.252 Y101.625 E0.025
G1 X112.973 Y100.925 E0.025
G1 X112.737 Y100.212 E0.025
G1 X112.547 Y99.507 E0.025
G1 X112.395 Y98.77 E0.025
G1 X112.285 Y98.025 E0.025
G1 X112.22 Y97.274 E0.025
G1 X112.199 Y96.502 E0.026
G1 X112.224 Y95.751 E0.025
G1 X112.289 Y95.02 E0.024
G1 X112.405 Y94.256 E0.026
G1 X112.557 Y93.541 E0.024
G1 X112.759 Y92.796 E0.026
G1 X113.001 Y92.083 E0.025
G1 X113.275 Y91.404 E0.024
G1 X113.597 Y90.725 E0.025
G1 X113.968 Y90.048 E0.026
G1 X114.359 Y89.427 E0.024
G1 X114.794 Y88.816 E0.025
G1 X115.266 Y88.228 E0.025
G1 X115.786 Y87.656 E0.026
G1 X116.307 Y87.146 E0.024
G1 X116.874 Y86.65 E0.025
G1 X117.471 Y86.188 E0.025
G1 X118.093 Y85.765 E0.025
G1 X118.753 Y85.369 E0.026
G1 X119.402 Y85.03 E0.024
G1 X120.088 Y84.72 E0.025
G1 X120.792 Y84.452 E0.025
G1 X123.8 Y83.5 E0.105
;rapid-leaky
G0 X123.4 Y84.046 F7200
;bead-skirt/brim
G1 Y88.503 F960 E0.148
G1 X121.933 Y89.045 E0.052
G1 X121.47 Y89.252 E0.017
G1 X121.005 Y89.496 E0.018
G1 X120.558 Y89.769 E0.017
G1 X120.128 Y90.072 E0.018
G1 X119.718 Y90.401 E0.017
G1 X119.332 Y90.756 E0.018
G1 X118.969 Y91.135 E0.017
G1 X118.632 Y91.536 E0.018
G1 X118.312 Y91.974 E0.018
G1 X118.038 Y92.402 E0.017
G1 X117.785 Y92.862 E0.017
G1 X117.562 Y93.338 E0.017
G1 X117.37 Y93.827 E0.018
G1 X117.209 Y94.327 E0.017
G1 X117.082 Y94.836 E0.018
G1 X116.989 Y95.353 E0.017
G1 X116.928 Y95.875 E0.018
G1 X116.902 Y96.398 E0.017
G1 X116.91 Y96.923 E0.018
G1 X116.952 Y97.447 E0.017
G1 X117.027 Y97.967 E0.018
G1 X117.136 Y98.479 E0.017
G1 X117.278 Y98.984 E0.017
G1 X117.46 Y99.496 E0.019
G1 X117.66 Y99.963 E0.016
G1 X117.897 Y100.433 E0.018
G1 X118.163 Y100.884 E0.017
G1 X118.459 Y101.318 E0.018
G1 X118.783 Y101.732 E0.017
G1 X119.131 Y102.124 E0.018
G1 X119.505 Y102.492 E0.017
G1 X119.903 Y102.835 E0.018
G1 X120.321 Y103.152 E0.017
G1 X120.759 Y103.442 E0.018
G1 X121.215 Y103.702 E0.017
G1 X121.686 Y103.931 E0.018
G1 X122.189 Y104.137 E0.018
G1 X122.67 Y104.298 E0.016
G1 X123.178 Y104.433 E0.018
G1 X123.693 Y104.535 E0.017
G1 X124.215 Y104.603 E0.018
G1 X124.738 Y104.637 E0.017
G1 X125.262 E0.018
G1 X125.785 Y104.603 E0.017
G1 X126.307 Y104.535 E0.018
G1 X126.822 Y104.433 E0.017
G1 X127.33 Y104.298 E0.018
G1 X127.827 Y104.132 E0.017
G1 X128.312 Y103.932 E0.018
G1 X128.8 Y103.693 E0.018
G1 X129.241 Y103.442 E0.016
G1 X129.679 Y103.153 E0.018
G1 X130.097 Y102.835 E0.017
G1 X130.495 Y102.492 E0.018
G1 X130.869 Y102.124 E0.017
G1 X131.217 Y101.732 E0.018
G1 X131.541 Y101.318 E0.017
G1 X131.837 Y100.884 E0.018
G1 X132.103 Y100.433 E0.017
G1 X132.34 Y99.963 E0.018
G1 X132.547 Y99.48 E0.017
G1 X132.722 Y98.985 E0.018
G1 X132.864 Y98.479 E0.017
G1 X132.973 Y97.967 E0.017
G1 X133.048 Y97.447 E0.018
G1 X133.09 Y96.924 E0.017
G1 X133.097 Y96.399 E0.018
G1 X133.07 Y95.857 E0.018
G1 X133.012 Y95.353 E0.017
G1 X132.918 Y94.836 E0.017
G1 X132.791 Y94.327 E0.018
G1 X132.63 Y93.827 E0.017
G1 X132.438 Y93.338 E0.018
G1 X132.215 Y92.862 E0.017
G1 X131.962 Y92.403 E0.018
G1 X131.679 Y91.96 E0.017
G1 X131.368 Y91.537 E0.017
G1 X131.031 Y91.135 E0.018
G1 X130.668 Y90.756 E0.017
G1 X130.283 Y90.402 E0.018
G1 X129.858 Y90.062 E0.018
G1 X129.442 Y89.769 E0.017
G1 X128.995 Y89.496 E0.017
G1 X128.53 Y89.252 E0.018
G1 X128.051 Y89.039 E0.017
G1 X126.6 Y88.504 E0.052
G1 Y84.046 E0.148
G1 X129.076 Y84.83 E0.086
G1 X129.758 Y85.09 E0.025
G1 X130.423 Y85.39 E0.024
G1 X131.069 Y85.728 E0.024
G1 X131.676 Y86.092 E0.024
G1 X132.293 Y86.512 E0.024
G1 X132.872 Y86.959 E0.025
G1 X133.422 Y87.439 E0.024
G1 X133.941 Y87.948 E0.024
G1 X134.43 Y88.488 E0.024
G1 X134.874 Y89.04 E0.024
G1 X135.309 Y89.649 E0.025
G1 X135.697 Y90.267 E0.024
G1 X136.047 Y90.908 E0.024
G1 X136.35 Y91.547 E0.024
G1 X136.624 Y92.221 E0.024
G1 X136.858 Y92.912 E0.024
G1 X137.049 Y93.615 E0.025
G1 X137.205 Y94.347 E0.025
G1 X137.314 Y95.069 E0.024
G1 X137.377 Y95.776 E0.023
G1 X137.401 Y96.524 E0.025
G1 X137.38 Y97.252 E0.025
G1 X137.317 Y97.978 E0.024
G1 X137.211 Y98.701 E0.024
G1 X137.068 Y99.394 E0.024
G1 X136.874 Y100.117 E0.025
G1 X136.643 Y100.81 E0.024
G1 X136.38 Y101.466 E0.023
G1 X136.072 Y102.125 E0.025
G1 X135.726 Y102.765 E0.024
G1 X135.341 Y103.387 E0.024
G1 X134.909 Y103.997 E0.025
G1 X134.467 Y104.551 E0.023
G1 X133.9 Y105.173 E0.028
G1 Y125.442 E0.675
G1 X116.1 E0.592
G1 Y105.173 E0.674
G1 X115.533 Y104.551 E0.028
G1 X115.091 Y103.998 E0.023
G1 X114.659 Y103.387 E0.025
G1 X114.275 Y102.766 E0.024
G1 X113.937 Y102.144 E0.024
G1 X113.619 Y101.466 E0.025
G1 X113.349 Y100.788 E0.024
G1 X113.12 Y100.097 E0.024
G1 X112.936 Y99.414 E0.024
G1 X112.789 Y98.701 E0.024
G1 X112.683 Y97.978 E0.024
G1 X112.62 Y97.252 E0.025
G1 X112.599 Y96.503 E0.025
G1 X112.623 Y95.776 E0.024
G1 X112.686 Y95.068 E0.023
G1 X112.799 Y94.328 E0.025
G1 X112.946 Y93.635 E0.024
G1 X113.142 Y92.913 E0.025
G1 X113.376 Y92.222 E0.024
G1 X113.642 Y91.565 E0.024
G1 X113.954 Y90.907 E0.024
G1 X114.313 Y90.25 E0.025
G1 X114.691 Y89.65 E0.023
G1 X115.113 Y89.057 E0.025
G1 X115.57 Y88.488 E0.024
G1 X116.074 Y87.933 E0.025
G1 X116.578 Y87.439 E0.023
G1 X117.128 Y86.959 E0.025
G1 X117.706 Y86.512 E0.024
G1 X118.308 Y86.102 E0.024
G1 X118.949 Y85.718 E0.025
G1 X119.577 Y85.39 E0.023
G1 X120.242 Y85.09 E0.025
G1 X120.924 Y84.83 E0.024
G1 X123.4 Y84.046 E0.086
;rapid-leaky
G0 X123 Y84.593 F7200
;bead-skirt/brim
G1 Y88.224 F960 E0.121
G1 X121.782 Y88.675 E0.043
G1 X121.296 Y88.891 E0.018
G1 X120.807 Y89.147 E0.018
G1 X120.338 Y89.434 E0.019
G1 X119.887 Y89.752 E0.018
G1 X119.457 Y90.098 E0.018
G1 X119.052 Y90.47 E0.019
G1 X118.671 Y90.868 E0.018
G1 X118.317 Y91.289 E0.018
G1 X117.982 Y91.748 E0.019
G1 X117.694 Y92.198 E0.018
G1 X117.428 Y92.68 E0.018
G1 X117.194 Y93.18 E0.019
G1 X116.993 Y93.693 E0.018
G1 X116.824 Y94.218 E0.018
G1 X116.691 Y94.752 E0.019
G1 X116.593 Y95.294 E0.018
G1 X116.529 Y95.842 E0.018
G1 X116.501 Y96.391 E0.019
G1 X116.51 Y96.942 E0.018
G1 X116.554 Y97.492 E0.018
G1 X116.633 Y98.037 E0.019
G1 X116.747 Y98.575 E0.018
G1 X116.897 Y99.105 E0.018
G1 X117.087 Y99.642 E0.019
G1 X117.297 Y100.132 E0.018
G1 X117.546 Y100.625 E0.018
G1 X117.826 Y101.099 E0.019
G1 X118.136 Y101.554 E0.018
G1 X118.475 Y101.988 E0.018
G1 X118.841 Y102.4 E0.019
G1 X119.233 Y102.786 E0.018
G1 X119.651 Y103.146 E0.018
G1 X120.09 Y103.479 E0.018
G1 X120.55 Y103.783 E0.019
G1 X121.028 Y104.055 E0.018
G1 X121.523 Y104.297 E0.018
G1 X122.05 Y104.512 E0.019
G1 X122.555 Y104.682 E0.018
G1 X123.088 Y104.823 E0.018
G1 X123.629 Y104.93 E0.019
G1 X124.176 Y105.001 E0.018
G1 X124.725 Y105.037 E0.018
G1 X125.275 E0.019
G1 X125.824 Y105.001 E0.018
G1 X126.371 Y104.93 E0.018
G1 X126.912 Y104.823 E0.019
G1 X127.445 Y104.682 E0.018
G1 X127.966 Y104.507 E0.018
G1 X128.476 Y104.297 E0.019
G1 X128.988 Y104.047 E0.019
G1 X129.45 Y103.783 E0.017
G1 X129.91 Y103.479 E0.019
G1 X130.349 Y103.146 E0.018
G1 X130.767 Y102.786 E0.018
G1 X131.159 Y102.4 E0.019
G1 X131.525 Y101.988 E0.018
G1 X131.864 Y101.554 E0.018
G1 X132.174 Y101.099 E0.019
G1 X132.454 Y100.625 E0.018
G1 X132.703 Y100.132 E0.018
G1 X132.92 Y99.626 E0.019
G1 X133.103 Y99.106 E0.018
G1 X133.253 Y98.575 E0.018
G1 X133.367 Y98.037 E0.019
G1 X133.446 Y97.492 E0.018
G1 X133.49 Y96.943 E0.018
G1 X133.498 Y96.392 E0.019
G1 X133.469 Y95.824 E0.018
G1 X133.407 Y95.294 E0.018
G1 X133.309 Y94.752 E0.019
G1 X133.176 Y94.218 E0.018
G1 X133.007 Y93.693 E0.018
G1 X132.806 Y93.18 E0.018
G1 X132.572 Y92.68 E0.019
G1 X132.306 Y92.198 E0.018
G1 X132.009 Y91.734 E0.018
G1 X131.683 Y91.29 E0.019
G1 X131.329 Y90.868 E0.018
G1 X130.948 Y90.47 E0.018
G1 X130.543 Y90.098 E0.019
G1 X130.099 Y89.742 E0.019
G1 X129.662 Y89.434 E0.017
G1 X129.193 Y89.147 E0.019
G1 X128.704 Y88.892 E0.018
G1 X128.201 Y88.668 E0.018
G1 X127 Y88.225 E0.043
G1 Y84.593 E0.121
G1 X128.945 Y85.208 E0.068
G1 X129.605 Y85.459 E0.023
G1 X130.248 Y85.75 E0.024
G1 X130.873 Y86.077 E0.023
G1 X131.46 Y86.429 E0.023
G1 X132.058 Y86.836 E0.024
G1 X132.618 Y87.268 E0.023
G1 X133.15 Y87.733 E0.024
G1 X133.652 Y88.226 E0.023
G1 X134.126 Y88.748 E0.024
G1 X134.555 Y89.282 E0.023
G1 X134.976 Y89.872 E0.024
G1 X135.352 Y90.47 E0.023
G1 X135.69 Y91.09 E0.024
G1 X135.984 Y91.708 E0.022
G1 X136.249 Y92.36 E0.024
G1 X136.475 Y93.029 E0.023
G1 X136.66 Y93.709 E0.024
G1 X136.811 Y94.418 E0.024
G1 X136.916 Y95.117 E0.023
G1 X136.978 Y95.801 E0.023
G1 X137 Y96.525 E0.024
G1 X136.981 Y97.229 E0.024
G1 X136.92 Y97.932 E0.023
G1 X136.817 Y98.631 E0.024
G1 X136.678 Y99.302 E0.022
G1 X136.491 Y100.002 E0.025
G1 X136.267 Y100.672 E0.023
G1 X136.013 Y101.307 E0.023
G1 X135.715 Y101.945 E0.023
G1 X135.38 Y102.565 E0.024
G1 X135.007 Y103.166 E0.023
G1 X134.589 Y103.757 E0.024
G1 X134.162 Y104.292 E0.023
G1 X133.69 Y104.818 E0.024
G1 X133.5 Y105.006 E0.008
G1 Y125.042 E0.667
G1 X116.5 E0.565
G1 Y105.006 E0.667
G1 X116.31 Y104.818 E0.009
G1 X115.838 Y104.292 E0.023
G1 X115.411 Y103.757 E0.023
G1 X114.993 Y103.166 E0.024
G1 X114.621 Y102.565 E0.023
G1 X114.294 Y101.963 E0.023
G1 X113.986 Y101.307 E0.024
G1 X113.725 Y100.651 E0.024
G1 X113.504 Y99.982 E0.023
G1 X113.326 Y99.322 E0.023
G1 X113.183 Y98.631 E0.023
G1 X113.08 Y97.932 E0.024
G1 X113.019 Y97.229 E0.023
G1 X113 Y96.504 E0.024
G1 X113.022 Y95.8 E0.024
G1 X113.084 Y95.116 E0.023
G1 X113.193 Y94.399 E0.024
G1 X113.335 Y93.729 E0.023
G1 X113.525 Y93.029 E0.024
G1 X113.751 Y92.361 E0.023
G1 X114.008 Y91.726 E0.023
G1 X114.31 Y91.089 E0.023
G1 X114.659 Y90.453 E0.025
G1 X115.024 Y89.872 E0.022
G1 X115.432 Y89.298 E0.024
G1 X115.875 Y88.748 E0.023
G1 X116.362 Y88.211 E0.024
G1 X116.85 Y87.733 E0.023
G1 X117.382 Y87.268 E0.024
G1 X117.941 Y86.836 E0.023
G1 X118.524 Y86.439 E0.024
G1 X119.145 Y86.067 E0.024
G1 X119.752 Y85.75 E0.022
G1 X120.395 Y85.459 E0.024
G1 X121.055 Y85.208 E0.023
G1 X123 Y84.593 E0.068
;rapid-leaky
G0 X120.398 Y83.319 F7200
;bead-skirt/brim
G1 X125 Y81.862 F960 E0.161
G1 X129.603 Y83.319 E0.16
G1 X130.372 Y83.611 E0.028
G1 X131.124 Y83.951 E0.027
G1 X131.852 Y84.332 E0.028
G1 X132.538 Y84.744 E0.026
G1 X133.232 Y85.216 E0.028
G1 X133.889 Y85.722 E0.028
G1 X134.509 Y86.265 E0.027
G1 X135.095 Y86.839 E0.027
G1 X135.647 Y87.448 E0.028
G1 X136.15 Y88.073 E0.026
G1 X136.638 Y88.758 E0.028
G1 X137.078 Y89.457 E0.028
G1 X137.473 Y90.181 E0.027
G1 X137.815 Y90.902 E0.027
G1 X138.124 Y91.663 E0.027
G1 X138.389 Y92.445 E0.028
G1 X138.605 Y93.237 E0.027
G1 X138.78 Y94.061 E0.028
G1 X138.903 Y94.879 E0.027
G1 X138.975 Y95.68 E0.027
G1 X139.001 Y96.522 E0.028
G1 X138.978 Y97.344 E0.028
G1 X138.907 Y98.164 E0.027
G1 X138.788 Y98.979 E0.027
G1 X138.625 Y99.763 E0.027
G1 X138.407 Y100.578 E0.028
G1 X138.145 Y101.361 E0.027
G1 X137.849 Y102.103 E0.027
G1 X137.502 Y102.845 E0.027
G1 X137.111 Y103.568 E0.028
G1 X136.675 Y104.271 E0.027
G1 X136.188 Y104.959 E0.028
G1 X135.689 Y105.584 E0.027
G1 X135.5 Y105.796 E0.009
G1 Y127.042 E0.707
G1 X114.5 E0.698
G1 Y105.796 E0.707
G1 X114.311 Y105.584 E0.009
G1 X113.812 Y104.959 E0.027
G1 X113.325 Y104.271 E0.028
G1 X112.891 Y103.57 E0.028
G1 X112.508 Y102.866 E0.026
G1 X112.15 Y102.102 E0.028
G1 X111.845 Y101.336 E0.028
G1 X111.587 Y100.557 E0.027
G1 X111.379 Y99.785 E0.027
G1 X111.213 Y98.979 E0.027
G1 X111.093 Y98.164 E0.027
G1 X111.022 Y97.343 E0.028
G1 X110.999 Y96.499 E0.028
G1 X111.025 Y95.678 E0.027
G1 X111.097 Y94.876 E0.027
G1 X111.224 Y94.041 E0.028
G1 X111.39 Y93.259 E0.027
G1 X111.611 Y92.446 E0.028
G1 X111.875 Y91.665 E0.027
G1 X112.176 Y90.922 E0.027
G1 X112.528 Y90.179 E0.027
G1 X112.933 Y89.439 E0.028
G1 X113.361 Y88.759 E0.027
G1 X113.837 Y88.091 E0.027
G1 X114.354 Y87.448 E0.028
G1 X114.921 Y86.823 E0.028
G1 X115.491 Y86.265 E0.026
G1 X116.111 Y85.722 E0.028
G1 X116.766 Y85.217 E0.027
G1 X117.446 Y84.754 E0.027
G1 X118.166 Y84.322 E0.028
G1 X118.876 Y83.951 E0.027
G1 X119.628 Y83.611 E0.027
G1 X120.398 Y83.319 E0.028
;rapid-leaky
G0 X122.6 Y85.139 F7200
;bead-skirt/brim
G1 Y87.946 F960 E0.093
G1 X121.631 Y88.304 E0.035
G1 X121.122 Y88.531 E0.018
G1 X120.61 Y88.799 E0.019
G1 X120.119 Y89.1 E0.019
G1 X119.646 Y89.433 E0.02
G1 X119.196 Y89.794 E0.019
G1 X118.772 Y90.184 E0.019
G1 X118.373 Y90.601 E0.019
G1 X118.002 Y91.042 E0.019
G1 X117.651 Y91.522 E0.02
G1 X117.35 Y91.994 E0.019
G1 X117.072 Y92.499 E0.019
G1 X116.826 Y93.021 E0.019
G1 X116.616 Y93.558 E0.019
G1 X116.439 Y94.108 E0.02
G1 X116.3 Y94.667 E0.019
G1 X116.197 Y95.235 E0.019
G1 X116.13 Y95.809 E0.019
G1 X116.101 Y96.384 E0.019
G1 X116.111 Y96.961 E0.019
G1 X116.157 Y97.536 E0.02
G1 X116.239 Y98.108 E0.019
G1 X116.359 Y98.671 E0.019
G1 X116.515 Y99.226 E0.019
G1 X116.714 Y99.787 E0.02
G1 X116.934 Y100.301 E0.019
G1 X117.195 Y100.817 E0.019
G1 X117.488 Y101.313 E0.019
G1 X117.813 Y101.79 E0.019
G1 X118.168 Y102.245 E0.019
G1 X118.551 Y102.675 E0.02
G1 X118.962 Y103.08 E0.019
G1 X119.399 Y103.457 E0.019
G1 X119.859 Y103.806 E0.019
G1 X120.34 Y104.124 E0.019
G1 X120.841 Y104.409 E0.019
G1 X121.359 Y104.662 E0.02
G1 X121.91 Y104.887 E0.019
G1 X122.44 Y105.065 E0.019
G1 X122.998 Y105.213 E0.019
G1 X123.564 Y105.325 E0.019
G1 X124.137 Y105.4 E0.02
G1 X124.712 Y105.437 E0.019
G1 X125.288 E0.019
G1 X125.863 Y105.4 E0.019
G1 X126.436 Y105.325 E0.019
G1 X127.002 Y105.213 E0.02
G1 X127.56 Y105.065 E0.019
G1 X128.106 Y104.882 E0.019
G1 X128.64 Y104.662 E0.019
G1 X129.175 Y104.401 E0.02
G1 X129.66 Y104.124 E0.018
G1 X130.141 Y103.806 E0.02
G1 X130.601 Y103.457 E0.019
G1 X131.038 Y103.08 E0.019
G1 X131.449 Y102.675 E0.019
G1 X131.832 Y102.245 E0.019
G1 X132.187 Y101.79 E0.02
G1 X132.512 Y101.313 E0.019
G1 X132.805 Y100.817 E0.019
G1 X133.066 Y100.301 E0.019
G1 X133.293 Y99.771 E0.019
G1 X133.485 Y99.227 E0.02
G1 X133.641 Y98.671 E0.019
G1 X133.761 Y98.108 E0.019
G1 X133.843 Y97.536 E0.019
G1 X133.889 Y96.962 E0.019
G1 X133.898 Y96.385 E0.019
G1 X133.868 Y95.791 E0.02
G1 X133.803 Y95.235 E0.019
G1 X133.7 Y94.667 E0.019
G1 X133.561 Y94.108 E0.019
G1 X133.384 Y93.558 E0.019
G1 X133.174 Y93.021 E0.02
G1 X132.928 Y92.499 E0.019
G1 X132.65 Y91.994 E0.019
G1 X132.339 Y91.507 E0.019
G1 X131.998 Y91.043 E0.019
G1 X131.627 Y90.601 E0.02
G1 X131.228 Y90.184 E0.019
G1 X130.804 Y89.795 E0.019
G1 X130.339 Y89.422 E0.02
G1 X129.882 Y89.1 E0.018
G1 X129.39 Y88.799 E0.02
G1 X128.879 Y88.531 E0.019
G1 X128.352 Y88.297 E0.019
G1 X127.4 Y87.946 E0.034
G1 Y85.139 E0.093
G1 X128.813 Y85.586 E0.049
G1 X129.451 Y85.829 E0.023
G1 X130.073 Y86.109 E0.023
G1 X130.677 Y86.426 E0.022
G1 X131.244 Y86.766 E0.022
G1 X131.823 Y87.16 E0.024
G1 X132.364 Y87.577 E0.022
G1 X132.878 Y88.027 E0.023
G1 X133.364 Y88.503 E0.023
G1 X133.821 Y89.008 E0.022
G1 X134.236 Y89.523 E0.022
G1 X134.644 Y90.095 E0.024
G1 X135.007 Y90.672 E0.022
G1 X135.334 Y91.271 E0.023
G1 X135.617 Y91.869 E0.022
G1 X135.874 Y92.5 E0.023
G1 X136.092 Y93.146 E0.022
G1 X136.271 Y93.803 E0.023
G1 X136.418 Y94.49 E0.023
G1 X136.519 Y95.165 E0.023
G1 X136.578 Y95.825 E0.022
G1 X136.6 Y96.526 E0.024
G1 X136.581 Y97.206 E0.022
G1 X136.522 Y97.886 E0.023
G1 X136.423 Y98.561 E0.023
G1 X136.289 Y99.209 E0.022
G1 X136.108 Y99.887 E0.023
G1 X135.891 Y100.534 E0.023
G1 X135.646 Y101.148 E0.022
G1 X135.357 Y101.765 E0.022
G1 X135.033 Y102.364 E0.023
G1 X134.673 Y102.945 E0.023
G1 X134.269 Y103.517 E0.023
G1 X133.856 Y104.034 E0.022
G1 X133.401 Y104.542 E0.023
G1 X133.1 Y104.839 E0.014
G1 Y124.642 E0.658
G1 X116.9 E0.539
G1 Y104.839 E0.659
G1 X116.599 Y104.542 E0.014
G1 X116.144 Y104.034 E0.023
G1 X115.731 Y103.517 E0.022
G1 X115.327 Y102.945 E0.023
G1 X114.967 Y102.364 E0.023
G1 X114.651 Y101.783 E0.022
G1 X114.353 Y101.148 E0.023
G1 X114.101 Y100.514 E0.023
G1 X113.887 Y99.867 E0.022
G1 X113.715 Y99.229 E0.022
G1 X113.577 Y98.561 E0.023
G1 X113.478 Y97.885 E0.023
G1 X113.419 Y97.206 E0.022
G1 X113.4 Y96.505 E0.024
G1 X113.422 Y95.825 E0.022
G1 X113.481 Y95.164 E0.022
G1 X113.586 Y94.471 E0.024
G1 X113.724 Y93.823 E0.022
G1 X113.908 Y93.146 E0.023
G1 X114.126 Y92.5 E0.023
G1 X114.374 Y91.887 E0.022
G1 X114.666 Y91.271 E0.022
G1 X115.004 Y90.656 E0.024
G1 X115.356 Y90.095 E0.022
G1 X115.751 Y89.54 E0.022
G1 X116.179 Y89.008 E0.023
G1 X116.651 Y88.489 E0.023
G1 X117.122 Y88.027 E0.022
G1 X117.636 Y87.577 E0.023
G1 X118.176 Y87.16 E0.023
G1 X118.74 Y86.776 E0.022
G1 X119.34 Y86.416 E0.024
G1 X119.927 Y86.109 E0.022
G1 X120.549 Y85.829 E0.022
G1 X121.187 Y85.586 E0.023
G1 X122.6 Y85.139 E0.049
;rapid-leaky
G0 X122.2 Y85.685 F7200
;bead-skirt/brim
G1 Y87.667 F960 E0.066
G1 X121.481 Y87.933 E0.026
G1 X120.947 Y88.171 E0.019
G1 X120.413 Y88.451 E0.02
G1 X119.899 Y88.765 E0.02
G1 X119.405 Y89.113 E0.021
G1 X118.935 Y89.491 E0.02
G1 X118.492 Y89.898 E0.02
G1 X118.075 Y90.334 E0.02
G1 X117.687 Y90.795 E0.02
G1 X117.321 Y91.296 E0.02
G1 X117.006 Y91.789 E0.02
G1 X116.715 Y92.317 E0.02
G1 X116.459 Y92.863 E0.02
G1 X116.239 Y93.424 E0.02
G1 X116.054 Y93.999 E0.02
G1 X115.909 Y94.583 E0.02
G1 X115.801 Y95.176 E0.02
G1 X115.731 Y95.776 E0.02
G1 X115.701 Y96.377 E0.02
G1 X115.711 Y96.98 E0.02
G1 X115.759 Y97.581 E0.02
G1 X115.845 Y98.178 E0.02
G1 X115.97 Y98.767 E0.02
G1 X116.134 Y99.347 E0.02
G1 X116.341 Y99.933 E0.021
G1 X116.571 Y100.47 E0.02
G1 X116.844 Y101.009 E0.02
G1 X117.15 Y101.528 E0.02
G1 X117.49 Y102.026 E0.02
G1 X117.861 Y102.501 E0.02
G1 X118.261 Y102.951 E0.02
G1 X118.691 Y103.374 E0.02
G1 X119.147 Y103.769 E0.02
G1 X119.628 Y104.133 E0.02
G1 X120.131 Y104.465 E0.02
G1 X120.654 Y104.763 E0.02
G1 X121.196 Y105.027 E0.02
G1 X121.771 Y105.262 E0.021
G1 X122.325 Y105.448 E0.019
G1 X122.908 Y105.603 E0.02
G1 X123.499 Y105.72 E0.02
G1 X124.098 Y105.798 E0.02
G1 X124.699 Y105.837 E0.02
G1 X125.301 E0.021
G1 X125.902 Y105.798 E0.02
G1 X126.501 Y105.72 E0.02
G1 X127.092 Y105.603 E0.02
G1 X127.675 Y105.448 E0.02
G1 X128.246 Y105.257 E0.02
G1 X128.804 Y105.027 E0.02
G1 X129.362 Y104.754 E0.02
G1 X129.869 Y104.465 E0.02
G1 X130.372 Y104.133 E0.02
G1 X130.853 Y103.769 E0.02
G1 X131.309 Y103.374 E0.02
G1 X131.739 Y102.951 E0.02
G1 X132.139 Y102.501 E0.02
G1 X132.51 Y102.026 E0.02
G1 X132.85 Y101.528 E0.02
G1 X133.156 Y101.009 E0.02
G1 X133.429 Y100.47 E0.02
G1 X133.666 Y99.916 E0.02
G1 X133.866 Y99.348 E0.02
G1 X134.03 Y98.767 E0.021
G1 X134.155 Y98.178 E0.02
G1 X134.241 Y97.581 E0.02
G1 X134.289 Y96.981 E0.02
G1 X134.298 Y96.378 E0.02
G1 X134.267 Y95.758 E0.02
G1 X134.199 Y95.176 E0.02
G1 X134.091 Y94.583 E0.02
G1 X133.946 Y93.999 E0.02
G1 X133.761 Y93.424 E0.02
G1 X133.541 Y92.863 E0.02
G1 X133.285 Y92.317 E0.02
G1 X132.994 Y91.789 E0.02
G1 X132.669 Y91.281 E0.02
G1 X132.313 Y90.796 E0.02
G1 X131.925 Y90.334 E0.02
G1 X131.508 Y89.898 E0.02
G1 X131.065 Y89.491 E0.02
G1 X130.58 Y89.102 E0.021
G1 X130.101 Y88.765 E0.019
G1 X129.587 Y88.451 E0.021
G1 X129.053 Y88.171 E0.02
G1 X128.503 Y87.926 E0.02
G1 X127.8 Y87.667 E0.025
G1 Y85.685 E0.065
G1 X128.682 Y85.964 E0.031
G1 X129.298 Y86.198 E0.022
G1 X129.898 Y86.469 E0.022
G1 X130.481 Y86.775 E0.022
G1 X131.029 Y87.103 E0.021
G1 X131.588 Y87.484 E0.023
G1 X132.11 Y87.886 E0.022
G1 X132.606 Y88.32 E0.022
G1 X133.075 Y88.78 E0.021
G1 X133.517 Y89.268 E0.022
G1 X133.917 Y89.765 E0.022
G1 X134.311 Y90.318 E0.022
G1 X134.662 Y90.875 E0.022
G1 X134.977 Y91.453 E0.022
G1 X135.251 Y92.03 E0.021
G1 X135.499 Y92.639 E0.022
G1 X135.709 Y93.263 E0.022
G1 X135.882 Y93.898 E0.022
G1 X136.024 Y94.561 E0.022
G1 X136.122 Y95.212 E0.022
G1 X136.179 Y95.849 E0.021
G1 X136.2 Y96.527 E0.023
G1 X136.182 Y97.184 E0.022
G1 X136.125 Y97.839 E0.022
G1 X136.029 Y98.492 E0.022
G1 X135.9 Y99.117 E0.021
G1 X135.725 Y99.772 E0.023
G1 X135.516 Y100.396 E0.021
G1 X135.279 Y100.989 E0.022
G1 X135 Y101.585 E0.022
G1 X134.687 Y102.163 E0.021
G1 X134.34 Y102.724 E0.022
G1 X133.949 Y103.276 E0.023
G1 X133.551 Y103.775 E0.021
G1 X133.111 Y104.266 E0.022
G1 X132.7 Y104.672 E0.019
G1 Y124.242 E0.651
G1 X117.3 E0.512
G1 Y104.672 E0.651
G1 X116.889 Y104.266 E0.019
G1 X116.449 Y103.775 E0.022
G1 X116.051 Y103.276 E0.022
G1 X115.66 Y102.724 E0.022
G1 X115.313 Y102.163 E0.022
G1 X115.008 Y101.602 E0.021
G1 X114.72 Y100.989 E0.023
G1 X114.477 Y100.377 E0.022
G1 X114.27 Y99.752 E0.022
G1 X114.104 Y99.136 E0.021
G1 X113.971 Y98.492 E0.022
G1 X113.875 Y97.839 E0.022
G1 X113.818 Y97.183 E0.022
G1 X113.8 Y96.506 E0.022
G1 X113.821 Y95.849 E0.022
G1 X113.878 Y95.212 E0.021
G1 X113.98 Y94.542 E0.023
G1 X114.113 Y93.917 E0.021
G1 X114.291 Y93.263 E0.023
G1 X114.501 Y92.639 E0.021
G1 X114.741 Y92.048 E0.022
G1 X115.023 Y91.453 E0.022
G1 X115.349 Y90.859 E0.022
G1 X115.689 Y90.318 E0.021
G1 X116.07 Y89.781 E0.022
G1 X116.483 Y89.268 E0.022
G1 X116.939 Y88.766 E0.023
G1 X117.394 Y88.32 E0.021
G1 X117.89 Y87.886 E0.022
G1 X118.412 Y87.484 E0.022
G1 X118.955 Y87.113 E0.022
G1 X119.536 Y86.765 E0.022
G1 X120.102 Y86.469 E0.021
G1 X120.702 Y86.198 E0.022
G1 X121.318 Y85.964 E0.022
G1 X122.2 Y85.685 E0.031
;rapid-leaky
G0 X122.537 Y90.528 F7200
;bead-skirt/brim
G1 X122.168 Y90.692 F960 E0.013
G1 X121.794 Y90.888 E0.014
G1 X121.437 Y91.107 E0.014
G1 X121.091 Y91.351 E0.014
G1 X120.762 Y91.615 E0.014
G1 X120.452 Y91.899 E0.014
G1 X120.161 Y92.204 E0.014
G1 X119.892 Y92.524 E0.014
G1 X119.633 Y92.878 E0.015
G1 X119.415 Y93.22 E0.013
G1 X119.211 Y93.589 E0.014
G1 X119.032 Y93.971 E0.015
G1 X118.878 Y94.364 E0.014
G1 X118.749 Y94.766 E0.014
G1 X118.647 Y95.173 E0.014
G1 X118.572 Y95.588 E0.014
G1 X118.523 Y96.008 E0.014
G1 X118.502 Y96.425 E0.014
G1 X118.509 Y96.846 E0.014
G1 X118.543 Y97.269 E0.014
G1 X118.603 Y97.686 E0.014
G1 X118.69 Y98.096 E0.014
G1 X118.804 Y98.499 E0.014
G1 X118.951 Y98.913 E0.014
G1 X119.11 Y99.287 E0.014
G1 X119.301 Y99.664 E0.014
G1 X119.515 Y100.026 E0.014
G1 X119.752 Y100.374 E0.014
G1 X120.012 Y100.707 E0.014
G1 X120.292 Y101.021 E0.014
G1 X120.59 Y101.315 E0.014
G1 X120.91 Y101.591 E0.014
G1 X121.246 Y101.846 E0.014
G1 X121.597 Y102.078 E0.014
G1 X121.963 Y102.286 E0.014
G1 X122.34 Y102.47 E0.014
G1 X122.747 Y102.637 E0.014
G1 X123.13 Y102.765 E0.014
G1 X123.538 Y102.873 E0.014
G1 X123.952 Y102.955 E0.014
G1 X124.371 Y103.01 E0.014
G1 X124.79 Y103.037 E0.014
G1 X125.21 E0.014
G1 X125.629 Y103.01 E0.014
G1 X126.048 Y102.955 E0.014
G1 X126.462 Y102.873 E0.014
G1 X126.87 Y102.765 E0.014
G1 X127.267 Y102.632 E0.014
G1 X127.656 Y102.472 E0.014
G1 X128.051 Y102.279 E0.014
G1 X128.402 Y102.078 E0.014
G1 X128.754 Y101.846 E0.014
G1 X129.09 Y101.591 E0.014
G1 X129.41 Y101.315 E0.014
G1 X129.708 Y101.021 E0.014
G1 X129.988 Y100.707 E0.014
G1 X130.248 Y100.374 E0.014
G1 X130.485 Y100.026 E0.014
G1 X130.699 Y99.664 E0.014
G1 X130.889 Y99.287 E0.014
G1 X131.055 Y98.899 E0.014
G1 X131.196 Y98.501 E0.014
G1 X131.31 Y98.096 E0.014
G1 X131.397 Y97.686 E0.014
G1 X131.457 Y97.269 E0.014
G1 X131.491 Y96.848 E0.014
G1 X131.497 Y96.428 E0.014
G1 X131.475 Y95.99 E0.015
G1 X131.428 Y95.588 E0.013
G1 X131.353 Y95.173 E0.014
G1 X131.251 Y94.766 E0.014
G1 X131.122 Y94.364 E0.014
G1 X130.968 Y93.971 E0.014
G1 X130.789 Y93.589 E0.014
G1 X130.586 Y93.221 E0.014
G1 X130.359 Y92.865 E0.014
G1 X130.109 Y92.526 E0.014
G1 X129.839 Y92.204 E0.014
G1 X129.548 Y91.899 E0.014
G1 X129.24 Y91.617 E0.014
G1 X128.897 Y91.341 E0.015
G1 X128.564 Y91.107 E0.013
G1 X128.206 Y90.888 E0.014
G1 X127.833 Y90.693 E0.014
G1 X127.448 Y90.522 E0.014
G1 X125 Y89.617 E0.087
G1 X122.537 Y90.528 E0.087
;rapid-leaky
G0 X122.688 Y90.899 F7200
;bead-skirt/brim
G1 X122.343 Y91.053 F960 E0.013
G1 X121.992 Y91.237 E0.013
G1 X121.657 Y91.441 E0.013
G1 X121.331 Y91.67 E0.013
G1 X121.023 Y91.919 E0.014
G1 X120.732 Y92.185 E0.013
G1 X120.459 Y92.471 E0.013
G1 X120.207 Y92.771 E0.013
G1 X119.963 Y93.104 E0.014
G1 X119.759 Y93.425 E0.012
G1 X119.568 Y93.771 E0.013
G1 X119.399 Y94.129 E0.014
G1 X119.255 Y94.498 E0.013
G1 X119.134 Y94.875 E0.013
G1 X119.039 Y95.257 E0.013
G1 X118.968 Y95.647 E0.013
G1 X118.922 Y96.041 E0.013
G1 X118.902 Y96.432 E0.013
G1 X118.909 Y96.827 E0.014
G1 X118.941 Y97.224 E0.013
G1 X118.997 Y97.616 E0.013
G1 X119.079 Y98 E0.013
G1 X119.185 Y98.378 E0.013
G1 X119.323 Y98.768 E0.014
G1 X119.473 Y99.118 E0.013
G1 X119.652 Y99.472 E0.013
G1 X119.852 Y99.811 E0.013
G1 X120.075 Y100.138 E0.013
G1 X120.32 Y100.45 E0.013
G1 X120.582 Y100.745 E0.013
G1 X120.862 Y101.021 E0.013
G1 X121.162 Y101.28 E0.014
G1 X121.477 Y101.519 E0.013
G1 X121.807 Y101.737 E0.013
G1 X122.15 Y101.932 E0.013
G1 X122.504 Y102.105 E0.013
G1 X122.887 Y102.262 E0.014
G1 X123.245 Y102.382 E0.012
G1 X123.628 Y102.483 E0.014
G1 X124.017 Y102.56 E0.013
G1 X124.41 Y102.611 E0.013
G1 X124.803 Y102.637 E0.013
G1 X125.197 E0.013
G1 X125.59 Y102.611 E0.013
G1 X125.983 Y102.56 E0.013
G1 X126.372 Y102.483 E0.014
G1 X126.755 Y102.382 E0.013
G1 X127.127 Y102.257 E0.013
G1 X127.491 Y102.107 E0.013
G1 X127.864 Y101.925 E0.014
G1 X128.193 Y101.737 E0.012
G1 X128.523 Y101.519 E0.014
G1 X128.838 Y101.28 E0.013
G1 X129.138 Y101.021 E0.013
G1 X129.418 Y100.745 E0.013
G1 X129.68 Y100.45 E0.013
G1 X129.925 Y100.138 E0.013
G1 X130.147 Y99.811 E0.013
G1 X130.348 Y99.472 E0.014
G1 X130.527 Y99.118 E0.013
G1 X130.682 Y98.754 E0.013
G1 X130.814 Y98.381 E0.013
G1 X130.921 Y98 E0.013
G1 X131.003 Y97.616 E0.013
G1 X131.059 Y97.224 E0.013
G1 X131.091 Y96.83 E0.014
G1 X131.097 Y96.435 E0.013
G1 X131.076 Y96.023 E0.013
G1 X131.032 Y95.647 E0.013
G1 X130.961 Y95.257 E0.013
G1 X130.866 Y94.875 E0.013
G1 X130.745 Y94.498 E0.013
G1 X130.601 Y94.129 E0.014
G1 X130.432 Y93.771 E0.013
G1 X130.242 Y93.425 E0.013
G1 X130.029 Y93.092 E0.013
G1 X129.794 Y92.773 E0.013
G1 X129.541 Y92.471 E0.013
G1 X129.268 Y92.185 E0.014
G1 X128.979 Y91.92 E0.013
G1 X128.656 Y91.661 E0.013
G1 X128.344 Y91.442 E0.013
G1 X128.009 Y91.237 E0.013
G1 X127.659 Y91.053 E0.013
G1 X127.298 Y90.893 E0.013
G1 X124.997 Y90.045 E0.082
G1 X122.688 Y90.899 E0.082
;rapid-leaky
G0 X122.839 Y91.269 F7200
;bead-skirt/brim
G1 X122.517 Y91.413 F960 E0.012
G1 X122.189 Y91.585 E0.012
G1 X121.876 Y91.776 E0.012
G1 X121.572 Y91.99 E0.012
G1 X121.284 Y92.222 E0.013
G1 X121.012 Y92.471 E0.012
G1 X120.757 Y92.738 E0.012
G1 X120.522 Y93.018 E0.012
G1 X120.294 Y93.33 E0.013
G1 X120.103 Y93.629 E0.012
G1 X119.924 Y93.952 E0.012
G1 X119.767 Y94.288 E0.013
G1 X119.632 Y94.632 E0.012
G1 X119.519 Y94.985 E0.012
G1 X119.43 Y95.341 E0.013
G1 X119.364 Y95.706 E0.012
G1 X119.321 Y96.074 E0.012
G1 X119.303 Y96.439 E0.012
G1 X119.309 Y96.808 E0.013
G1 X119.338 Y97.18 E0.012
G1 X119.391 Y97.546 E0.012
G1 X119.467 Y97.904 E0.012
G1 X119.567 Y98.257 E0.013
G1 X119.696 Y98.622 E0.013
G1 X119.836 Y98.949 E0.011
G1 X120.003 Y99.28 E0.013
G1 X120.19 Y99.596 E0.012
G1 X120.398 Y99.902 E0.012
G1 X120.627 Y100.194 E0.013
G1 X120.872 Y100.469 E0.012
G1 X121.133 Y100.727 E0.012
G1 X121.414 Y100.969 E0.012
G1 X121.708 Y101.192 E0.013
G1 X122.016 Y101.396 E0.012
G1 X122.337 Y101.579 E0.012
G1 X122.667 Y101.74 E0.012
G1 X123.026 Y101.886 E0.013
G1 X123.36 Y101.998 E0.012
G1 X123.718 Y102.093 E0.012
G1 X124.082 Y102.165 E0.013
G1 X124.449 Y102.213 E0.012
G1 X124.816 Y102.237 E0.012
G1 X125.184 E0.012
G1 X125.551 Y102.213 E0.013
G1 X125.918 Y102.165 E0.012
G1 X126.282 Y102.093 E0.012
G1 X126.639 Y101.999 E0.013
G1 X126.988 Y101.882 E0.012
G1 X127.327 Y101.742 E0.012
G1 X127.676 Y101.571 E0.013
G1 X127.983 Y101.396 E0.012
G1 X128.292 Y101.192 E0.012
G1 X128.586 Y100.969 E0.012
G1 X128.867 Y100.727 E0.013
G1 X129.128 Y100.469 E0.012
G1 X129.373 Y100.194 E0.012
G1 X129.602 Y99.901 E0.013
G1 X129.81 Y99.597 E0.012
G1 X129.997 Y99.28 E0.012
G1 X130.164 Y98.949 E0.012
G1 X130.31 Y98.608 E0.013
G1 X130.433 Y98.26 E0.012
G1 X130.533 Y97.904 E0.012
G1 X130.609 Y97.546 E0.012
G1 X130.662 Y97.18 E0.013
G1 X130.691 Y96.811 E0.012
G1 X130.697 Y96.442 E0.012
G1 X130.677 Y96.056 E0.013
G1 X130.636 Y95.706 E0.012
G1 X130.57 Y95.341 E0.012
G1 X130.481 Y94.985 E0.012
G1 X130.368 Y94.632 E0.013
G1 X130.233 Y94.288 E0.012
G1 X130.076 Y93.952 E0.012
G1 X129.898 Y93.63 E0.013
G1 X129.698 Y93.318 E0.012
G1 X129.48 Y93.02 E0.012
G1 X129.243 Y92.738 E0.012
G1 X128.988 Y92.471 E0.013
G1 X128.718 Y92.224 E0.012
G1 X128.416 Y91.981 E0.013
G1 X128.125 Y91.776 E0.012
G1 X127.811 Y91.585 E0.012
G1 X127.484 Y91.414 E0.012
G1 X127.147 Y91.264 E0.012
G1 X124.997 Y90.471 E0.077
G1 X122.839 Y91.269 E0.076
G1 F2100 E-0.5
;rapid-dry
G0 X133.629 Y103.036 F7200
G1 F2100 E0.5
;bead-perimeter_outer
G1 X133.245 Y103.517 F720 E0.021
G1 X132.821 Y103.99 E0.021
G1 X132.3 Y104.504 E0.024
G1 Y123.842 E0.643
G1 X117.7 E0.486
G1 Y104.504 E0.643
G1 X117.179 Y103.99 E0.024
G1 X116.755 Y103.517 E0.022
G1 X116.371 Y103.036 E0.02
G1 X115.994 Y102.502 E0.022
G1 X115.659 Y101.963 E0.021
G1 X115.366 Y101.422 E0.02
G1 X115.088 Y100.829 E0.022
G1 X114.853 Y100.241 E0.021
G1 X114.654 Y99.638 E0.021
G1 X114.494 Y99.044 E0.021
G1 X114.365 Y98.422 E0.021
G1 X114.273 Y97.793 E0.021
G1 X114.218 Y97.161 E0.021
G1 X114.2 Y96.508 E0.022
G1 X114.221 Y95.873 E0.021
G1 X114.276 Y95.26 E0.02
G1 X114.374 Y94.614 E0.022
G1 X114.501 Y94.011 E0.021
G1 X114.673 Y93.379 E0.021
G1 X114.877 Y92.779 E0.022
G1 X115.107 Y92.208 E0.02
G1 X115.379 Y91.635 E0.021
G1 X115.693 Y91.061 E0.022
G1 X116.021 Y90.54 E0.02
G1 X116.39 Y90.023 E0.021
G1 X116.787 Y89.528 E0.022
G1 X117.227 Y89.044 E0.021
G1 X117.666 Y88.614 E0.021
G1 X118.144 Y88.196 E0.021
G1 X118.647 Y87.808 E0.021
G1 X119.171 Y87.451 E0.021
G1 X119.732 Y87.115 E0.022
G1 X120.278 Y86.829 E0.02
G1 X120.856 Y86.568 E0.021
G1 X121.45 Y86.342 E0.022
G1 X121.8 Y86.231 E0.012
G1 Y87.389 E0.038
G1 X121.33 Y87.563 E0.017
G1 X120.773 Y87.811 E0.02
G1 X120.215 Y88.103 E0.021
G1 X119.679 Y88.431 E0.021
G1 X119.165 Y88.793 E0.021
G1 X118.675 Y89.187 E0.021
G1 X118.212 Y89.612 E0.021
G1 X117.777 Y90.066 E0.021
G1 X117.373 Y90.549 E0.021
G1 X116.991 Y91.07 E0.021
G1 X116.662 Y91.585 E0.021
G1 X116.359 Y92.135 E0.02
G1 X116.091 Y92.705 E0.021
G1 X115.861 Y93.29 E0.021
G1 X115.67 Y93.889 E0.021
G1 X115.517 Y94.499 E0.021
G1 X115.405 Y95.118 E0.021
G1 X115.333 Y95.742 E0.021
G1 X115.301 Y96.371 E0.021
G1 X115.311 Y97 E0.021
G1 X115.361 Y97.625 E0.021
G1 X115.451 Y98.248 E0.021
G1 X115.582 Y98.863 E0.02
G1 X115.752 Y99.469 E0.021
G1 X115.969 Y100.079 E0.022
G1 X116.209 Y100.64 E0.02
G1 X116.492 Y101.201 E0.021
G1 X116.812 Y101.742 E0.021
G1 X117.166 Y102.262 E0.021
G1 X117.553 Y102.757 E0.021
G1 X117.971 Y103.227 E0.021
G1 X118.419 Y103.668 E0.021
G1 X118.895 Y104.08 E0.021
G1 X119.396 Y104.459 E0.021
G1 X119.921 Y104.805 E0.02
G1 X120.466 Y105.117 E0.021
G1 X121.032 Y105.393 E0.021
G1 X121.631 Y105.638 E0.022
G1 X122.21 Y105.832 E0.02
G1 X122.818 Y105.993 E0.021
G1 X123.435 Y106.114 E0.021
G1 X124.059 Y106.196 E0.021
G1 X124.686 Y106.237 E0.021
G1 X125.315 E0.021
G1 X125.941 Y106.196 E0.021
G1 X126.565 Y106.114 E0.02
G1 X127.182 Y105.993 E0.021
G1 X127.791 Y105.832 E0.021
G1 X128.386 Y105.632 E0.021
G1 X128.968 Y105.393 E0.021
G1 X129.55 Y105.108 E0.022
G1 X130.079 Y104.805 E0.02
G1 X130.604 Y104.459 E0.021
G1 X131.105 Y104.08 E0.021
G1 X131.581 Y103.668 E0.021
G1 X132.029 Y103.227 E0.021
G1 X132.447 Y102.757 E0.021
G1 X132.834 Y102.262 E0.02
G1 X133.188 Y101.742 E0.021
G1 X133.508 Y101.201 E0.021
G1 X133.791 Y100.64 E0.021
G1 X134.038 Y100.062 E0.021
G1 X134.248 Y99.468 E0.021
G1 X134.418 Y98.863 E0.021
G1 X134.549 Y98.248 E0.021
G1 X134.639 Y97.625 E0.021
G1 X134.689 Y96.999 E0.021
G1 X134.698 Y96.37 E0.021
G1 X134.665 Y95.724 E0.021
G1 X134.595 Y95.118 E0.02
G1 X134.483 Y94.499 E0.021
G1 X134.33 Y93.889 E0.021
G1 X134.139 Y93.29 E0.021
G1 X133.909 Y92.705 E0.021
G1 X133.641 Y92.135 E0.021
G1 X133.338 Y91.585 E0.021
G1 X132.999 Y91.055 E0.021
G1 X132.627 Y90.548 E0.021
G1 X132.223 Y90.066 E0.021
G1 X131.788 Y89.612 E0.021
G1 X131.325 Y89.187 E0.02
G1 X130.82 Y88.782 E0.022
G1 X130.321 Y88.431 E0.02
G1 X129.785 Y88.103 E0.021
G1 X129.227 Y87.811 E0.021
G1 X128.653 Y87.556 E0.021
G1 X128.2 Y87.389 E0.016
G1 Y86.231 E0.039
G1 X128.55 Y86.342 E0.012
G1 X129.144 Y86.568 E0.021
G1 X129.722 Y86.829 E0.021
G1 X130.285 Y87.123 E0.021
G1 X130.813 Y87.441 E0.021
G1 X131.354 Y87.808 E0.021
G1 X131.856 Y88.196 E0.021
G1 X132.334 Y88.614 E0.022
G1 X132.787 Y89.058 E0.021
G1 X133.213 Y89.528 E0.021
G1 X133.599 Y90.007 E0.02
G1 X133.979 Y90.54 E0.022
G1 X134.316 Y91.077 E0.021
G1 X134.621 Y91.635 E0.021
G1 X134.885 Y92.192 E0.021
G1 X135.123 Y92.779 E0.021
G1 X135.327 Y93.379 E0.021
G1 X135.494 Y93.992 E0.021
G1 X135.63 Y94.633 E0.022
G1 X135.724 Y95.26 E0.021
G1 X135.779 Y95.873 E0.02
G1 X135.8 Y96.527 E0.022
G1 X135.782 Y97.161 E0.021
G1 X135.727 Y97.793 E0.021
G1 X135.635 Y98.422 E0.022
G1 X135.51 Y99.025 E0.02
G1 X135.341 Y99.656 E0.022
G1 X135.14 Y100.258 E0.021
G1 X134.911 Y100.829 E0.02
G1 X134.642 Y101.405 E0.021
G1 X134.341 Y101.963 E0.022
G1 X134.006 Y102.502 E0.021
G1 X133.629 Y103.036 E0.021
;rapid-leaky
G0 X133.341 Y102.819 F7200
;bead-perimeter_inner
G1 X132.97 Y103.284 F960 E0.02
G1 X132.56 Y103.742 E0.021
G1 X131.94 Y104.354 E0.029
G1 Y123.482 E0.636
G1 X118.06 E0.461
G1 Y104.354 E0.637
G1 X117.44 Y103.742 E0.029
G1 X117.03 Y103.284 E0.02
G1 X116.659 Y102.819 E0.02
G1 X116.294 Y102.304 E0.021
G1 X115.97 Y101.782 E0.02
G1 X115.687 Y101.259 E0.02
G1 X115.418 Y100.686 E0.021
G1 X115.191 Y100.117 E0.02
G1 X114.999 Y99.534 E0.021
G1 X114.844 Y98.96 E0.02
G1 X114.72 Y98.36 E0.02
G1 X114.63 Y97.751 E0.021
G1 X114.577 Y97.14 E0.02
G1 X114.56 Y96.509 E0.021
G1 X114.58 Y95.895 E0.02
G1 X114.633 Y95.303 E0.02
G1 X114.728 Y94.678 E0.021
G1 X114.852 Y94.096 E0.02
G1 X115.018 Y93.484 E0.021
G1 X115.214 Y92.904 E0.02
G1 X115.437 Y92.353 E0.02
G1 X115.7 Y91.799 E0.021
G1 X116.004 Y91.244 E0.021
G1 X116.321 Y90.741 E0.019
G1 X116.677 Y90.24 E0.021
G1 X117.061 Y89.762 E0.02
G1 X117.487 Y89.294 E0.021
G1 X117.911 Y88.878 E0.02
G1 X118.373 Y88.474 E0.02
G1 X118.858 Y88.099 E0.021
G1 X119.365 Y87.754 E0.02
G1 X119.908 Y87.429 E0.021
G1 X120.435 Y87.153 E0.02
G1 X120.994 Y86.9 E0.02
G1 X121.44 Y86.731 E0.016
G1 Y87.138 E0.014
G1 X121.194 Y87.229 E0.009
G1 X120.616 Y87.487 E0.021
G1 X120.038 Y87.79 E0.021
G1 X119.481 Y88.13 E0.022
G1 X118.948 Y88.505 E0.022
G1 X118.44 Y88.914 E0.021
G1 X117.96 Y89.355 E0.022
G1 X117.509 Y89.826 E0.022
G1 X117.089 Y90.326 E0.022
G1 X116.694 Y90.867 E0.022
G1 X116.352 Y91.401 E0.021
G1 X116.038 Y91.972 E0.022
G1 X115.76 Y92.562 E0.021
G1 X115.522 Y93.169 E0.022
G1 X115.323 Y93.791 E0.022
G1 X115.165 Y94.423 E0.021
G1 X115.049 Y95.065 E0.022
G1 X114.974 Y95.713 E0.022
G1 X114.941 Y96.364 E0.021
G1 X114.951 Y97.017 E0.022
G1 X115.003 Y97.665 E0.022
G1 X115.096 Y98.311 E0.021
G1 X115.232 Y98.949 E0.022
G1 X115.409 Y99.578 E0.022
G1 X115.633 Y100.21 E0.022
G1 X115.882 Y100.792 E0.021
G1 X116.176 Y101.374 E0.022
G1 X116.508 Y101.935 E0.022
G1 X116.876 Y102.474 E0.021
G1 X117.277 Y102.988 E0.022
G1 X117.71 Y103.475 E0.022
G1 X118.175 Y103.933 E0.021
G1 X118.668 Y104.359 E0.022
G1 X119.188 Y104.753 E0.022
G1 X119.733 Y105.112 E0.021
G1 X120.298 Y105.435 E0.022
G1 X120.885 Y105.721 E0.022
G1 X121.506 Y105.975 E0.022
G1 X122.106 Y106.177 E0.021
G1 X122.737 Y106.344 E0.022
G1 X123.376 Y106.47 E0.022
G1 X124.023 Y106.555 E0.021
G1 X124.674 Y106.597 E0.022
G1 X125.326 E0.022
G1 X125.977 Y106.555 E0.021
G1 X126.624 Y106.47 E0.022
G1 X127.263 Y106.344 E0.022
G1 X127.894 Y106.177 E0.021
G1 X128.512 Y105.969 E0.022
G1 X129.116 Y105.721 E0.022
G1 X129.718 Y105.426 E0.022
G1 X130.267 Y105.112 E0.021
G1 X130.812 Y104.753 E0.022
G1 X131.332 Y104.359 E0.022
G1 X131.825 Y103.933 E0.021
G1 X132.29 Y103.475 E0.022
G1 X132.723 Y102.988 E0.022
G1 X133.124 Y102.474 E0.021
G1 X133.492 Y101.935 E0.022
G1 X133.824 Y101.374 E0.022
G1 X134.118 Y100.792 E0.021
G1 X134.374 Y100.192 E0.022
G1 X134.591 Y99.577 E0.022
G1 X134.768 Y98.949 E0.021
G1 X134.904 Y98.311 E0.022
G1 X134.997 Y97.665 E0.022
G1 X135.049 Y97.016 E0.022
G1 X135.058 Y96.364 E0.021
G1 X135.024 Y95.695 E0.023
G1 X134.951 Y95.065 E0.021
G1 X134.835 Y94.423 E0.021
G1 X134.677 Y93.791 E0.022
G1 X134.478 Y93.169 E0.022
G1 X134.24 Y92.562 E0.021
G1 X133.962 Y91.972 E0.022
G1 X133.648 Y91.401 E0.022
G1 X133.296 Y90.851 E0.021
G1 X132.911 Y90.326 E0.022
G1 X132.491 Y89.826 E0.022
G1 X132.04 Y89.355 E0.022
G1 X131.56 Y88.914 E0.021
G1 X131.037 Y88.494 E0.022
G1 X130.518 Y88.13 E0.022
G1 X129.962 Y87.79 E0.021
G1 X129.384 Y87.487 E0.022
G1 X128.789 Y87.222 E0.022
G1 X128.56 Y87.138 E0.008
G1 Y86.731 E0.013
G1 X129.006 Y86.9 E0.016
G1 X129.565 Y87.153 E0.021
G1 X130.109 Y87.438 E0.02
G1 X130.619 Y87.744 E0.02
G1 X131.142 Y88.1 E0.021
G1 X131.627 Y88.474 E0.02
G1 X132.089 Y88.878 E0.021
G1 X132.527 Y89.307 E0.02
G1 X132.939 Y89.762 E0.02
G1 X133.312 Y90.224 E0.02
G1 X133.68 Y90.741 E0.021
G1 X134.006 Y91.259 E0.021
G1 X134.3 Y91.798 E0.02
G1 X134.555 Y92.337 E0.02
G1 X134.786 Y92.904 E0.02
G1 X134.982 Y93.484 E0.021
G1 X135.144 Y94.077 E0.02
G1 X135.276 Y94.697 E0.021
G1 X135.367 Y95.303 E0.02
G1 X135.42 Y95.895 E0.02
G1 X135.44 Y96.528 E0.021
G1 X135.423 Y97.14 E0.021
G1 X135.37 Y97.751 E0.02
G1 X135.28 Y98.36 E0.021
G1 X135.16 Y98.942 E0.019
G1 X134.996 Y99.553 E0.021
G1 X134.802 Y100.134 E0.021
G1 X134.581 Y100.686 E0.02
G1 X134.321 Y101.243 E0.02
G1 X134.029 Y101.782 E0.02
G1 X133.706 Y102.304 E0.021
G1 X133.341 Y102.819 E0.021
G1 F2100 E-0.5
;rapid-dry
G0 X118.38 Y104.595 F7200
G1 F2100 E0.5
;bead-solid_infill
G1 X118.413 Y104.562 F720 E0.001
G1 X118.467 Y104.608 E0.003
G1 X118.732 Y104.809 E0.011
G1 X118.38 Y105.161 E0.016
G1 Y105.727 E0.019
G1 X119.057 Y105.05 E0.032
G1 X119.398 Y105.275 E0.014
G1 X118.38 Y106.292 E0.047
G1 Y106.858 E0.019
G1 X119.748 Y105.49 E0.065
G1 X119.874 Y105.561 E0.004
G1 X120.108 Y105.695 E0.009
G1 X118.38 Y107.424 E0.082
G1 Y107.989 E0.018
G1 X120.486 Y105.883 E0.1
G1 X120.754 Y106.014 E0.009
G1 X120.873 Y106.062 E0.005
G1 X118.38 Y108.555 E0.117
G1 Y109.121 E0.019
G1 X121.274 Y106.226 E0.136
G1 X121.394 Y106.275 E0.004
G1 X121.691 Y106.375 E0.011
G1 X118.38 Y109.687 E0.155
G1 Y110.252 E0.019
G1 X122.121 Y106.512 E0.176
G1 X122.568 Y106.63 E0.016
G1 X118.38 Y110.818 E0.197
G1 Y111.384 E0.018
G1 X123.035 Y106.729 E0.219
G1 X123.325 Y106.786 E0.01
G1 X123.518 Y106.811 E0.007
G1 X118.38 Y111.949 E0.241
G1 Y112.515 E0.019
G1 X124.02 Y106.875 E0.265
G1 X124.551 Y106.91 E0.018
G1 X118.38 Y113.081 E0.29
G1 Y113.646 E0.019
G1 X125.109 Y106.917 E0.317
G1 X125.337 E0.007
G1 X125.699 Y106.893 E0.012
G1 X118.38 Y114.212 E0.345
G1 Y114.778 E0.018
G1 X126.326 Y106.832 E0.374
G1 X126.675 Y106.786 E0.012
G1 X127.002 Y106.722 E0.011
G1 X118.38 Y115.343 E0.405
G1 Y115.909 E0.019
G1 X127.741 Y106.548 E0.441
G1 X127.986 Y106.483 E0.008
G1 X128.567 Y106.288 E0.02
G1 X118.38 Y116.475 E0.48
G1 Y117.04 E0.018
G1 X129.561 Y105.859 E0.526
G1 X129.868 Y105.709 E0.012
G1 X130.435 Y105.385 E0.021
G1 X130.923 Y105.064 E0.02
G1 X118.38 Y117.606 E0.59
G1 Y118.172 E0.019
G1 X131.62 Y104.932 E0.622
G1 Y105.497 E0.019
G1 X118.38 Y118.737 E0.623
G1 Y119.303 E0.019
G1 X131.62 Y106.063 E0.623
G1 Y106.629 E0.018
G1 X118.38 Y119.869 E0.623
G1 Y120.435 E0.019
G1 X131.62 Y107.195 E0.623
G1 Y107.76 E0.018
G1 X118.38 Y121 E0.623
G1 Y121.566 E0.019
G1 X131.62 Y108.326 E0.623
G1 Y108.892 E0.019
G1 X118.38 Y122.132 E0.622
G1 Y122.697 E0.019
G1 X131.62 Y109.457 E0.623
G1 Y110.023 E0.019
G1 X118.481 Y123.162 E0.618
G1 X119.047 E0.019
G1 X131.62 Y110.589 E0.591
G1 Y111.154 E0.019
G1 X119.612 Y123.162 E0.565
G1 X120.178 E0.019
G1 X131.62 Y111.72 E0.538
G1 Y112.286 E0.019
G1 X120.744 Y123.162 E0.511
G1 X121.309 E0.019
G1 X131.62 Y112.851 E0.485
G1 Y113.417 E0.019
G1 X121.875 Y123.162 E0.458
G1 X122.441 E0.019
G1 X131.62 Y113.983 E0.432
G1 Y114.548 E0.018
G1 X123.006 Y123.162 E0.406
G1 X123.572 E0.018
G1 X131.62 Y115.114 E0.379
G1 Y115.68 E0.019
G1 X124.138 Y123.162 E0.352
G1 X124.703 E0.019
G1 X131.62 Y116.246 E0.325
G1 Y116.811 E0.019
G1 X125.269 Y123.162 E0.298
G1 X125.835 E0.019
G1 X131.62 Y117.377 E0.272
G1 Y117.943 E0.019
G1 X126.401 Y123.162 E0.246
G1 X126.966 E0.018
G1 X131.62 Y118.508 E0.219
G1 Y119.074 E0.019
G1 X127.532 Y123.162 E0.193
G1 X128.098 E0.018
G1 X131.62 Y119.64 E0.166
G1 Y120.205 E0.019
G1 X128.663 Y123.162 E0.139
G1 X129.229 E0.019
G1 X131.62 Y120.771 E0.112
G1 Y121.337 E0.019
G1 X129.795 Y123.162 E0.086
G1 X130.36 E0.019
G1 X131.62 Y121.902 E0.059
G1 Y122.468 E0.019
G1 X130.926 Y123.162 E0.032
G1 X131.492 E0.019
G1 X131.62 Y123.034 E0.006
G1 F2100 E-0.5
;LAYER:2
M107
;rapid-dry
G0 X134.689 Y96.999 Z0.35 F7200
G1 F2100 E0.5
;bead-perimeter_outer
G1 X134.698 Y96.37 F1800 E0.016
G1 X134.663 Y95.705 E0.017
G1 X134.595 Y95.118 E0.014
G1 X134.483 Y94.499 E0.016
G1 X134.319 Y93.854 E0.017
G1 X134.139 Y93.29 E0.014
G1 X133.909 Y92.705 E0.016
G1 X133.641 Y92.135 E0.016
G1 X133.338 Y91.585 E0.015
G1 X132.999 Y91.055 E0.016
G1 X132.627 Y90.548 E0.016
G1 X132.223 Y90.066 E0.015
G1 X131.761 Y89.587 E0.017
G1 X131.325 Y89.187 E0.015
G1 X130.835 Y88.793 E0.015
G1 X130.321 Y88.431 E0.016
G1 X129.785 Y88.103 E0.016
G1 X129.227 Y87.811 E0.016
G1 X128.653 Y87.556 E0.015
G1 X128.2 Y87.389 E0.012
G1 Y86.231 E0.029
G1 X128.551 Y86.342 E0.009
G1 X129.144 Y86.568 E0.016
G1 X129.723 Y86.83 E0.016
G1 X130.286 Y87.124 E0.016
G1 X130.831 Y87.451 E0.016
G1 X131.354 Y87.809 E0.016
G1 X131.826 Y88.174 E0.014
G1 X132.336 Y88.615 E0.017
G1 X132.789 Y89.06 E0.016
G1 X133.215 Y89.531 E0.016
G1 X133.612 Y90.025 E0.016
G1 X133.981 Y90.543 E0.016
G1 X134.318 Y91.081 E0.015
G1 X134.623 Y91.639 E0.016
G1 X134.895 Y92.213 E0.016
G1 X135.131 Y92.801 E0.016
G1 X135.334 Y93.403 E0.016
G1 X135.491 Y93.979 E0.015
G1 X135.624 Y94.6 E0.016
G1 X135.724 Y95.266 E0.016
G1 X135.781 Y95.899 E0.016
G1 X135.8 Y96.534 E0.016
G1 X135.781 Y97.167 E0.016
G1 X135.73 Y97.762 E0.015
G1 X135.64 Y98.392 E0.016
G1 X135.504 Y99.052 E0.016
G1 X135.338 Y99.664 E0.016
G1 X135.137 Y100.266 E0.016
G1 X134.901 Y100.855 E0.016
G1 X134.647 Y101.395 E0.015
G1 X134.346 Y101.954 E0.016
G1 X134.011 Y102.495 E0.015
G1 X133.646 Y103.013 E0.016
G1 X133.251 Y103.51 E0.016
G1 X132.827 Y103.983 E0.016
G1 X132.3 Y104.505 E0.018
G1 Y123.842 E0.483
G1 X117.7 E0.364
G1 Y104.505 E0.482
G1 X117.173 Y103.983 E0.019
G1 X116.749 Y103.51 E0.016
G1 X116.354 Y103.013 E0.016
G1 X116.01 Y102.526 E0.014
G1 X115.654 Y101.954 E0.017
G1 X115.353 Y101.395 E0.016
G1 X115.098 Y100.855 E0.015
G1 X114.863 Y100.266 E0.016
G1 X114.662 Y99.664 E0.016
G1 X114.496 Y99.052 E0.015
G1 X114.36 Y98.391 E0.017
G1 X114.274 Y97.801 E0.015
G1 X114.219 Y97.167 E0.016
G1 X114.2 Y96.534 E0.016
G1 X114.219 Y95.899 E0.016
G1 X114.276 Y95.266 E0.016
G1 X114.376 Y94.6 E0.016
G1 X114.509 Y93.979 E0.016
G1 X114.666 Y93.403 E0.015
G1 X114.869 Y92.801 E0.016
G1 X115.105 Y92.213 E0.016
G1 X115.377 Y91.639 E0.016
G1 X115.701 Y91.048 E0.016
G1 X116.019 Y90.543 E0.015
G1 X116.388 Y90.025 E0.016
G1 X116.785 Y89.531 E0.016
G1 X117.211 Y89.06 E0.016
G1 X117.664 Y88.615 E0.016
G1 X118.143 Y88.198 E0.015
G1 X118.646 Y87.809 E0.016
G1 X119.169 Y87.451 E0.016
G1 X119.714 Y87.124 E0.016
G1 X120.277 Y86.83 E0.016
G1 X120.856 Y86.568 E0.016
G1 X121.449 Y86.342 E0.016
G1 X121.8 Y86.231 E0.009
G1 Y87.389 E0.029
G1 X121.312 Y87.571 E0.013
G1 X120.773 Y87.811 E0.014
G1 X120.215 Y88.103 E0.016
G1 X119.679 Y88.431 E0.016
G1 X119.165 Y88.793 E0.015
G1 X118.675 Y89.187 E0.016
G1 X118.212 Y89.612 E0.016
G1 X117.777 Y90.066 E0.015
G1 X117.373 Y90.548 E0.016
G1 X117.001 Y91.055 E0.016
G1 X116.662 Y91.585 E0.016
G1 X116.359 Y92.135 E0.015
G1 X116.091 Y92.705 E0.016
G1 X115.861 Y93.29 E0.016
G1 X115.67 Y93.889 E0.015
G1 X115.517 Y94.499 E0.016
G1 X115.405 Y95.118 E0.016
G1 X115.333 Y95.742 E0.015
G1 X115.301 Y96.371 E0.016
G1 X115.311 Y97 E0.016
G1 X115.361 Y97.625 E0.015
G1 X115.451 Y98.248 E0.016
G1 X115.582 Y98.863 E0.016
G1 X115.764 Y99.504 E0.016
G1 X115.962 Y100.062 E0.015
G1 X116.209 Y100.64 E0.016
G1 X116.492 Y101.201 E0.015
G1 X116.812 Y101.742 E0.016
G1 X117.166 Y102.262 E0.016
G1 X117.553 Y102.757 E0.016
G1 X117.971 Y103.227 E0.015
G1 X118.419 Y103.668 E0.016
G1 X118.895 Y104.08 E0.016
G1 X119.396 Y104.459 E0.015
G1 X119.921 Y104.805 E0.016
G1 X120.466 Y105.117 E0.016
G1 X121.032 Y105.393 E0.015
G1 X121.649 Y105.644 E0.017
G1 X122.209 Y105.832 E0.015
G1 X122.818 Y105.993 E0.015
G1 X123.435 Y106.114 E0.016
G1 X124.059 Y106.196 E0.016
G1 X124.686 Y106.237 E0.015
G1 X125.315 E0.016
G1 X125.942 Y106.196 E0.016
G1 X126.602 Y106.107 E0.016
G1 X127.182 Y105.993 E0.015
G1 X127.791 Y105.832 E0.016
G1 X128.386 Y105.632 E0.016
G1 X128.968 Y105.392 E0.015
G1 X129.566 Y105.099 E0.017
G1 X130.079 Y104.805 E0.015
G1 X130.604 Y104.459 E0.015
G1 X131.105 Y104.08 E0.016
G1 X131.581 Y103.668 E0.016
G1 X132.029 Y103.227 E0.015
G1 X132.447 Y102.757 E0.016
G1 X132.855 Y102.232 E0.017
G1 X133.188 Y101.742 E0.014
G1 X133.508 Y101.201 E0.016
G1 X133.791 Y100.64 E0.016
G1 X134.039 Y100.061 E0.015
G1 X134.258 Y99.433 E0.017
G1 X134.418 Y98.863 E0.015
G1 X134.549 Y98.248 E0.016
G1 X134.639 Y97.625 E0.015
G1 X134.689 Y96.999 E0.016
;rapid-leaky
G0 X135.049 Y97.016 F7200
;bead-perimeter_inner
G1 X135.058 Y96.364 F2400 E0.016
G1 X135.022 Y95.675 E0.017
G1 X134.951 Y95.065 E0.016
G1 X134.835 Y94.422 E0.016
G1 X134.666 Y93.755 E0.017
G1 X134.478 Y93.169 E0.015
G1 X134.24 Y92.562 E0.017
G1 X133.962 Y91.972 E0.016
G1 X133.648 Y91.401 E0.016
G1 X133.296 Y90.851 E0.017
G1 X132.911 Y90.326 E0.016
G1 X132.491 Y89.825 E0.016
G1 X132.012 Y89.329 E0.017
G1 X131.56 Y88.914 E0.016
G1 X131.052 Y88.505 E0.016
G1 X130.519 Y88.13 E0.016
G1 X129.962 Y87.79 E0.016
G1 X129.384 Y87.487 E0.017
G1 X128.789 Y87.222 E0.016
G1 X128.56 Y87.138 E0.006
G1 Y86.731 E0.01
G1 X129.006 Y86.9 E0.012
G1 X129.566 Y87.154 E0.015
G1 X130.11 Y87.438 E0.016
G1 X130.636 Y87.755 E0.015
G1 X131.143 Y88.1 E0.015
G1 X131.598 Y88.453 E0.015
G1 X132.092 Y88.88 E0.016
G1 X132.529 Y89.309 E0.015
G1 X132.941 Y89.765 E0.016
G1 X133.325 Y90.242 E0.015
G1 X133.681 Y90.743 E0.015
G1 X134.008 Y91.263 E0.016
G1 X134.302 Y91.802 E0.015
G1 X134.565 Y92.358 E0.015
G1 X134.793 Y92.926 E0.015
G1 X134.989 Y93.508 E0.016
G1 X135.141 Y94.065 E0.014
G1 X135.27 Y94.665 E0.015
G1 X135.367 Y95.309 E0.017
G1 X135.422 Y95.92 E0.015
G1 X135.44 Y96.534 E0.015
G1 X135.422 Y97.147 E0.016
G1 X135.372 Y97.721 E0.014
G1 X135.285 Y98.33 E0.015
G1 X135.154 Y98.968 E0.017
G1 X134.994 Y99.56 E0.015
G1 X134.799 Y100.142 E0.015
G1 X134.57 Y100.712 E0.016
G1 X134.326 Y101.233 E0.014
G1 X134.034 Y101.773 E0.015
G1 X133.711 Y102.296 E0.016
G1 X133.357 Y102.797 E0.015
G1 X132.976 Y103.278 E0.015
G1 X132.566 Y103.735 E0.015
G1 X131.94 Y104.354 E0.022
G1 Y123.482 E0.478
G1 X118.06 E0.346
G1 Y104.354 E0.477
G1 X117.434 Y103.735 E0.022
G1 X117.024 Y103.278 E0.015
G1 X116.642 Y102.797 E0.016
G1 X116.31 Y102.327 E0.014
G1 X115.966 Y101.773 E0.016
G1 X115.674 Y101.233 E0.016
G1 X115.429 Y100.712 E0.014
G1 X115.201 Y100.142 E0.015
G1 X115.006 Y99.56 E0.016
G1 X114.846 Y98.968 E0.015
G1 X114.715 Y98.329 E0.016
G1 X114.631 Y97.759 E0.014
G1 X114.578 Y97.147 E0.016
G1 X114.56 Y96.534 E0.015
G1 X114.578 Y95.92 E0.015
G1 X114.633 Y95.309 E0.016
G1 X114.73 Y94.665 E0.016
G1 X114.859 Y94.065 E0.015
G1 X115.011 Y93.508 E0.015
G1 X115.207 Y92.926 E0.015
G1 X115.435 Y92.358 E0.015
G1 X115.698 Y91.803 E0.016
G1 X116.012 Y91.231 E0.016
G1 X116.319 Y90.743 E0.014
G1 X116.675 Y90.242 E0.016
G1 X117.059 Y89.765 E0.015
G1 X117.471 Y89.309 E0.015
G1 X117.908 Y88.879 E0.015
G1 X118.372 Y88.476 E0.016
G1 X118.858 Y88.1 E0.015
G1 X119.364 Y87.755 E0.015
G1 X119.89 Y87.438 E0.016
G1 X120.434 Y87.154 E0.015
G1 X120.994 Y86.9 E0.015
G1 X121.44 Y86.731 E0.012
G1 Y87.139 E0.01
G1 X121.176 Y87.237 E0.007
G1 X120.616 Y87.487 E0.016
G1 X120.038 Y87.79 E0.016
G1 X119.481 Y88.13 E0.016
G1 X118.948 Y88.505 E0.017
G1 X118.44 Y88.914 E0.016
G1 X117.96 Y89.355 E0.016
G1 X117.509 Y89.826 E0.016
G1 X117.089 Y90.326 E0.017
G1 X116.704 Y90.851 E0.016
G1 X116.352 Y91.401 E0.016
G1 X116.038 Y91.972 E0.016
G1 X115.76 Y92.562 E0.017
G1 X115.522 Y93.169 E0.016
G1 X115.323 Y93.791 E0.016
G1 X115.165 Y94.423 E0.017
G1 X115.049 Y95.065 E0.016
G1 X114.974 Y95.713 E0.016
G1 X114.941 Y96.364 E0.016
G1 X114.951 Y97.017 E0.017
G1 X115.003 Y97.665 E0.016
G1 X115.096 Y98.311 E0.016
G1 X115.232 Y98.95 E0.016
G1 X115.421 Y99.613 E0.018
G1 X115.626 Y100.193 E0.015
G1 X115.882 Y100.792 E0.016
G1 X116.176 Y101.374 E0.016
G1 X116.508 Y101.935 E0.017
G1 X116.876 Y102.474 E0.016
G1 X117.277 Y102.988 E0.016
G1 X117.71 Y103.475 E0.017
G1 X118.175 Y103.933 E0.016
G1 X118.668 Y104.359 E0.016
G1 X119.188 Y104.753 E0.016
G1 X119.733 Y105.112 E0.017
G1 X120.298 Y105.435 E0.016
G1 X120.886 Y105.722 E0.016
G1 X121.524 Y105.981 E0.017
G1 X122.106 Y106.177 E0.016
G1 X122.737 Y106.344 E0.016
G1 X123.376 Y106.47 E0.016
G1 X124.023 Y106.555 E0.016
G1 X124.674 Y106.597 E0.017
G1 X125.326 E0.016
G1 X125.978 Y106.555 E0.016
G1 X126.661 Y106.463 E0.017
G1 X127.263 Y106.344 E0.016
G1 X127.894 Y106.177 E0.016
G1 X128.512 Y105.969 E0.016
G1 X129.116 Y105.721 E0.017
G1 X129.735 Y105.417 E0.017
G1 X130.267 Y105.112 E0.015
G1 X130.812 Y104.753 E0.016
G1 X131.332 Y104.359 E0.017
G1 X131.825 Y103.933 E0.016
G1 X132.29 Y103.475 E0.016
G1 X132.724 Y102.987 E0.017
G1 X133.146 Y102.444 E0.017
G1 X133.492 Y101.935 E0.015
G1 X133.824 Y101.374 E0.016
G1 X134.118 Y100.792 E0.017
G1 X134.374 Y100.192 E0.016
G1 X134.601 Y99.541 E0.017
G1 X134.768 Y98.949 E0.015
G1 X134.904 Y98.311 E0.017
G1 X134.997 Y97.665 E0.016
G1 X135.049 Y97.016 E0.016
G1 F2100 E-0.5
;rapid-dry
G0 X131.321 Y104.769 F7200
G1 F2100 E0.5
;bead-solid_infill
G1 X131.62 Y105.068 F1800 E0.011
G1 Y105.634 E0.014
G1 X130.999 Y105.013 E0.022
G1 X130.997 Y105.015
G1 X130.658 Y105.238 E0.01
G1 X131.62 Y106.2 E0.034
G1 Y106.765 E0.014
G1 X130.311 Y105.456 E0.046
G1 X129.951 Y105.662 E0.01
G1 X131.62 Y107.331 E0.059
G1 Y107.897 E0.014
G1 X129.575 Y105.852 E0.073
G1 X129.248 Y106.013 E0.009
G1 X129.193 Y106.035 E0.001
G1 X131.62 Y108.462 E0.086
G1 Y109.028 E0.014
G1 X128.792 Y106.2 E0.1
G1 X128.624 Y106.269 E0.004
G1 X128.378 Y106.352 E0.007
G1 X131.62 Y109.594 E0.114
G1 Y110.159 E0.014
G1 X127.953 Y106.492 E0.13
G1 X127.506 Y106.611 E0.011
G1 X131.62 Y110.725 E0.145
G1 Y111.291 E0.014
G1 X127.043 Y106.714 E0.162
G1 X126.713 Y106.779 E0.008
G1 X126.562 Y106.799 E0.004
G1 X131.62 Y111.856 E0.178
G1 Y112.422 E0.015
G1 X126.064 Y106.866 E0.196
G1 X126.009 Y106.873 E0.001
G1 X125.536 Y106.904 E0.012
G1 X131.62 Y112.988 E0.214
G1 Y113.553 E0.014
G1 X124.983 Y106.917 E0.235
G1 X124.663 E0.008
G1 X124.401 Y106.9 E0.006
G1 X131.62 Y114.119 E0.255
G1 Y114.685 E0.014
G1 X123.781 Y106.846 E0.276
G1 X123.325 Y106.786 E0.012
G1 X123.114 Y106.744 E0.005
G1 X131.62 Y115.251 E0.3
G1 Y115.816 E0.015
G1 X122.386 Y106.582 E0.325
G1 X122.014 Y106.483 E0.01
G1 X121.573 Y106.335 E0.011
G1 X131.62 Y116.382 E0.355
G1 Y116.948 E0.014
G1 X120.621 Y105.949 E0.388
G1 X120.149 Y105.718 E0.013
G1 X120.11 Y105.697 E0.001
G1 X119.565 Y105.385 E0.016
G1 X119.35 Y105.243 E0.006
G1 X131.62 Y117.513 E0.433
G1 Y118.079 E0.014
G1 X118.38 Y104.839 E0.467
G1 Y105.405 E0.014
G1 X131.62 Y118.645 E0.468
G1 Y119.21 E0.014
G1 X118.38 Y105.97 E0.467
G1 Y106.536 E0.014
G1 X131.62 Y119.776 E0.467
G1 Y120.342 E0.014
G1 X118.38 Y107.102 E0.467
G1 Y107.667 E0.014
G1 X131.62 Y120.907 E0.467
G1 Y121.473 E0.014
G1 X118.38 Y108.233 E0.467
G1 Y108.799 E0.015
G1 X131.62 Y122.039 E0.467
G1 Y122.604 E0.014
G1 X118.38 Y109.364 E0.467
G1 Y109.93 E0.014
G1 X131.612 Y123.162 E0.467
G1 X131.046 E0.014
G1 X118.38 Y110.496 E0.447
G1 Y111.062 E0.014
G1 X130.48 Y123.162 E0.427
G1 X129.915 E0.014
G1 X118.38 Y111.627 E0.407
G1 Y112.193 E0.014
G1 X129.349 Y123.162 E0.387
G1 X128.783 E0.014
G1 X118.38 Y112.759 E0.367
G1 Y113.324 E0.014
G1 X128.218 Y123.162 E0.347
G1 X127.652 E0.014
G1 X118.38 Y113.89 E0.327
G1 Y114.456 E0.014
G1 X127.086 Y123.162 E0.308
G1 X126.521 E0.014
G1 X118.38 Y115.021 E0.287
G1 Y115.587 E0.014
G1 X125.955 Y123.162 E0.267
G1 X125.389 E0.014
G1 X118.38 Y116.153 E0.248
G1 Y116.718 E0.014
G1 X124.824 Y123.162 E0.227
G1 X124.258 E0.014
G1 X118.38 Y117.284 E0.207
G1 Y117.85 E0.015
G1 X123.692 Y123.162 E0.187
G1 X123.127 E0.014
G1 X118.38 Y118.415 E0.168
G1 Y118.981 E0.014
G1 X122.561 Y123.162 E0.147
G1 X121.995 E0.014
G1 X118.38 Y119.547 E0.128
G1 Y120.113 E0.014
G1 X121.43 Y123.162 E0.107
G1 X120.864 E0.015
G1 X118.38 Y120.678 E0.087
G1 Y121.244 E0.014
G1 X120.298 Y123.162 E0.068
G1 X119.732 E0.014
G1 X118.38 Y121.81 E0.048
G1 Y122.375 E0.014
G1 X119.167 Y123.162 E0.028
G1 X118.601 E0.014
G1 X118.38 Y122.941 E0.008
G1 F2100 E-0.5
;LAYER:3
M107
;rapid-dry
G0 X121.8 Y86.231 Z0.5 F7200
G1 F2100 E0.5
;bead-perimeter_outer
G1 Y87.389 F1800 E0.028
G1 X121.296 Y87.578 E0.014
G1 X120.773 Y87.811 E0.014
G1 X120.215 Y88.103 E0.016
G1 X119.679 Y88.431 E0.016
G1 X119.164 Y88.793 E0.015
G1 X118.633 Y89.225 E0.017
G1 X118.212 Y89.612 E0.015
G1 X117.777 Y90.066 E0.015
G1 X117.373 Y90.548 E0.016
G1 X117.001 Y91.055 E0.016
G1 X116.662 Y91.585 E0.015
G1 X116.359 Y92.135 E0.016
G1 X116.091 Y92.705 E0.016
G1 X115.861 Y93.29 E0.015
G1 X115.67 Y93.889 E0.016
G1 X115.517 Y94.499 E0.016
G1 X115.405 Y95.118 E0.015
G1 X115.333 Y95.742 E0.016
G1 X115.301 Y96.371 E0.016
G1 X115.311 Y97 E0.016
G1 X115.361 Y97.626 E0.015
G1 X115.462 Y98.303 E0.017
G1 X115.582 Y98.863 E0.015
G1 X115.752 Y99.468 E0.015
G1 X115.962 Y100.062 E0.016
G1 X116.209 Y100.64 E0.016
G1 X116.492 Y101.201 E0.015
G1 X116.812 Y101.742 E0.016
G1 X117.166 Y102.262 E0.016
G1 X117.553 Y102.757 E0.015
G1 X117.971 Y103.227 E0.016
G1 X118.419 Y103.668 E0.016
G1 X118.895 Y104.08 E0.015
G1 X119.396 Y104.459 E0.016
G1 X119.921 Y104.805 E0.016
G1 X120.466 Y105.117 E0.015
G1 X121.033 Y105.393 E0.016
G1 X121.667 Y105.65 E0.017
G1 X122.21 Y105.832 E0.015
G1 X122.818 Y105.993 E0.015
G1 X123.435 Y106.114 E0.016
G1 X124.059 Y106.196 E0.016
G1 X124.686 Y106.237 E0.015
G1 X125.315 E0.016
G1 X125.941 Y106.196 E0.016
G1 X126.565 Y106.114 E0.015
G1 X127.182 Y105.993 E0.016
G1 X127.791 Y105.832 E0.016
G1 X128.386 Y105.632 E0.015
G1 X128.968 Y105.392 E0.016
G1 X129.582 Y105.09 E0.017
G1 X130.079 Y104.805 E0.014
G1 X130.604 Y104.459 E0.016
G1 X131.105 Y104.08 E0.016
G1 X131.581 Y103.668 E0.016
G1 X132.029 Y103.227 E0.015
G1 X132.447 Y102.757 E0.016
G1 X132.834 Y102.262 E0.016
G1 X133.188 Y101.742 E0.015
G1 X133.533 Y101.152 E0.017
G1 X133.791 Y100.639 E0.015
G1 X134.039 Y100.061 E0.015
G1 X134.263 Y99.415 E0.017
G1 X134.418 Y98.863 E0.015
G1 X134.549 Y98.248 E0.015
G1 X134.639 Y97.625 E0.016
G1 X134.689 Y96.999 E0.016
G1 X134.698 Y96.37 E0.015
G1 X134.661 Y95.687 E0.017
G1 X134.595 Y95.118 E0.015
G1 X134.483 Y94.499 E0.015
G1 X134.33 Y93.889 E0.016
G1 X134.139 Y93.29 E0.016
G1 X133.909 Y92.705 E0.016
G1 X133.641 Y92.135 E0.015
G1 X133.338 Y91.585 E0.016
G1 X132.999 Y91.055 E0.016
G1 X132.627 Y90.548 E0.015
G1 X132.185 Y90.026 E0.017
G1 X131.788 Y89.612 E0.015
G1 X131.325 Y89.187 E0.015
G1 X130.79 Y88.761 E0.017
G1 X130.321 Y88.431 E0.015
G1 X129.785 Y88.103 E0.015
G1 X129.227 Y87.811 E0.016
G1 X128.653 Y87.556 E0.016
G1 X128.2 Y87.389 E0.012
G1 Y86.231 E0.029
G1 X128.551 Y86.342 E0.009
G1 X129.145 Y86.569 E0.016
G1 X129.724 Y86.83 E0.016
G1 X130.287 Y87.124 E0.015
G1 X130.782 Y87.422 E0.015
G1 X131.357 Y87.81 E0.017
G1 X131.859 Y88.199 E0.016
G1 X132.337 Y88.617 E0.016
G1 X132.791 Y89.062 E0.016
G1 X133.217 Y89.533 E0.015
G1 X133.614 Y90.028 E0.016
G1 X133.983 Y90.546 E0.016
G1 X134.32 Y91.085 E0.016
G1 X134.625 Y91.643 E0.016
G1 X134.896 Y92.217 E0.016
G1 X135.113 Y92.752 E0.014
G1 X135.318 Y93.353 E0.016
G1 X135.487 Y93.966 E0.016
G1 X135.632 Y94.644 E0.017
G1 X135.725 Y95.272 E0.016
G1 X135.781 Y95.905 E0.016
G1 X135.8 Y96.54 E0.016
G1 X135.781 Y97.174 E0.016
G1 X135.725 Y97.808 E0.015
G1 X135.632 Y98.437 E0.016
G1 X135.502 Y99.059 E0.016
G1 X135.352 Y99.616 E0.014
G1 X135.134 Y100.274 E0.018
G1 X134.897 Y100.864 E0.016
G1 X134.652 Y101.386 E0.014
G1 X134.321 Y101.996 E0.017
G1 X133.984 Y102.535 E0.016
G1 X133.652 Y103.005 E0.015
G1 X133.256 Y103.503 E0.015
G1 X132.833 Y103.977 E0.016
G1 X132.3 Y104.505 E0.019
G1 Y123.842 E0.482
G1 X117.7 E0.365
G1 Y104.505 E0.482
G1 X117.167 Y103.977 E0.019
G1 X116.782 Y103.548 E0.014
G1 X116.348 Y103.005 E0.017
G1 X116.016 Y102.535 E0.015
G1 X115.649 Y101.946 E0.017
G1 X115.348 Y101.386 E0.016
G1 X115.102 Y100.864 E0.014
G1 X114.866 Y100.274 E0.016
G1 X114.664 Y99.672 E0.016
G1 X114.498 Y99.058 E0.016
G1 X114.368 Y98.437 E0.016
G1 X114.275 Y97.808 E0.016
G1 X114.219 Y97.174 E0.015
G1 X114.2 Y96.54 E0.016
G1 X114.219 Y95.905 E0.016
G1 X114.275 Y95.271 E0.016
G1 X114.368 Y94.644 E0.016
G1 X114.513 Y93.966 E0.017
G1 X114.682 Y93.353 E0.016
G1 X114.867 Y92.806 E0.014
G1 X115.104 Y92.217 E0.016
G1 X115.375 Y91.643 E0.016
G1 X115.71 Y91.035 E0.017
G1 X116.017 Y90.546 E0.015
G1 X116.386 Y90.028 E0.016
G1 X116.783 Y89.533 E0.015
G1 X117.251 Y89.02 E0.018
G1 X117.663 Y88.617 E0.014
G1 X118.141 Y88.199 E0.016
G1 X118.644 Y87.81 E0.016
G1 X119.168 Y87.452 E0.016
G1 X119.713 Y87.124 E0.015
G1 X120.276 Y86.83 E0.016
G1 X120.855 Y86.569 E0.016
G1 X121.449 Y86.342 E0.016
G1 X121.8 Y86.231 E0.009
;rapid-leaky
G0 X121.44 Y86.731 F7200
;bead-perimeter_inner
G1 Y87.14 F2400 E0.01
G1 X121.16 Y87.244 E0.008
G1 X120.616 Y87.487 E0.015
G1 X120.038 Y87.79 E0.016
G1 X119.481 Y88.13 E0.016
G1 X118.947 Y88.506 E0.017
G1 X118.398 Y88.952 E0.017
G1 X117.96 Y89.355 E0.015
G1 X117.509 Y89.826 E0.016
G1 X117.089 Y90.326 E0.017
G1 X116.704 Y90.851 E0.016
G1 X116.352 Y91.401 E0.016
G1 X116.038 Y91.972 E0.016
G1 X115.76 Y92.562 E0.017
G1 X115.522 Y93.169 E0.016
G1 X115.323 Y93.791 E0.016
G1 X115.165 Y94.423 E0.016
G1 X115.049 Y95.065 E0.017
G1 X114.974 Y95.713 E0.016
G1 X114.941 Y96.364 E0.016
G1 X114.951 Y97.017 E0.017
G1 X115.003 Y97.667 E0.016
G1 X115.108 Y98.367 E0.018
G1 X115.232 Y98.95 E0.014
G1 X115.409 Y99.577 E0.017
G1 X115.626 Y100.192 E0.016
G1 X115.882 Y100.792 E0.016
G1 X116.176 Y101.374 E0.016
G1 X116.508 Y101.935 E0.017
G1 X116.876 Y102.474 E0.016
G1 X117.277 Y102.988 E0.016
G1 X117.71 Y103.475 E0.016
G1 X118.175 Y103.933 E0.017
G1 X118.668 Y104.359 E0.016
G1 X119.188 Y104.753 E0.016
G1 X119.733 Y105.112 E0.017
G1 X120.298 Y105.435 E0.016
G1 X120.886 Y105.722 E0.016
G1 X121.542 Y105.987 E0.018
G1 X122.106 Y106.177 E0.015
G1 X122.737 Y106.344 E0.016
G1 X123.376 Y106.47 E0.016
G1 X124.023 Y106.555 E0.016
G1 X124.674 Y106.597 E0.017
G1 X125.326 E0.016
G1 X125.977 Y106.555 E0.016
G1 X126.624 Y106.47 E0.017
G1 X127.263 Y106.344 E0.016
G1 X127.894 Y106.177 E0.016
G1 X128.512 Y105.969 E0.016
G1 X129.116 Y105.721 E0.017
G1 X129.751 Y105.408 E0.017
G1 X130.267 Y105.112 E0.015
G1 X130.812 Y104.753 E0.016
G1 X131.332 Y104.359 E0.017
G1 X131.825 Y103.933 E0.016
G1 X132.29 Y103.475 E0.016
G1 X132.723 Y102.988 E0.016
G1 X133.124 Y102.474 E0.017
G1 X133.493 Y101.934 E0.016
G1 X133.849 Y101.324 E0.018
G1 X134.118 Y100.792 E0.015
G1 X134.375 Y100.191 E0.016
G1 X134.607 Y99.523 E0.017
G1 X134.768 Y98.949 E0.015
G1 X134.904 Y98.311 E0.017
G1 X134.997 Y97.665 E0.016
G1 X135.049 Y97.016 E0.016
G1 X135.058 Y96.363 E0.016
G1 X135.02 Y95.656 E0.018
G1 X134.951 Y95.064 E0.015
G1 X134.835 Y94.423 E0.016
G1 X134.677 Y93.791 E0.016
G1 X134.478 Y93.169 E0.017
G1 X134.24 Y92.562 E0.016
G1 X133.962 Y91.972 E0.016
G1 X133.648 Y91.401 E0.017
G1 X133.296 Y90.851 E0.016
G1 X132.91 Y90.325 E0.016
G1 X132.452 Y89.785 E0.018
G1 X132.04 Y89.355 E0.015
G1 X131.559 Y88.913 E0.016
G1 X131.006 Y88.473 E0.018
G1 X130.519 Y88.13 E0.014
G1 X129.962 Y87.79 E0.017
G1 X129.384 Y87.487 E0.016
G1 X128.789 Y87.222 E0.016
G1 X128.56 Y87.138 E0.006
G1 Y86.731 E0.01
G1 X129.007 Y86.901 E0.012
G1 X129.567 Y87.154 E0.016
G1 X130.111 Y87.439 E0.015
G1 X130.589 Y87.725 E0.014
G1 X131.145 Y88.102 E0.017
G1 X131.63 Y88.477 E0.015
G1 X132.092 Y88.881 E0.015
G1 X132.531 Y89.311 E0.016
G1 X132.943 Y89.766 E0.015
G1 X133.327 Y90.245 E0.015
G1 X133.683 Y90.746 E0.016
G1 X134.01 Y91.267 E0.015
G1 X134.304 Y91.806 E0.015
G1 X134.566 Y92.362 E0.016
G1 X134.775 Y92.878 E0.013
G1 X134.974 Y93.459 E0.016
G1 X135.137 Y94.051 E0.015
G1 X135.278 Y94.708 E0.017
G1 X135.368 Y95.314 E0.015
G1 X135.422 Y95.926 E0.015
G1 X135.44 Y96.54 E0.016
G1 X135.422 Y97.153 E0.015
G1 X135.368 Y97.765 E0.015
G1 X135.277 Y98.374 E0.016
G1 X135.152 Y98.975 E0.015
G1 X135.007 Y99.512 E0.014
G1 X134.796 Y100.15 E0.017
G1 X134.566 Y100.721 E0.015
G1 X134.331 Y101.224 E0.014
G1 X134.01 Y101.815 E0.017
G1 X133.685 Y102.336 E0.015
G1 X133.364 Y102.789 E0.014
G1 X132.981 Y103.271 E0.015
G1 X132.572 Y103.729 E0.016
G1 X131.94 Y104.354 E0.022
G1 Y123.482 E0.477
G1 X118.06 E0.346
G1 Y104.354 E0.477
G1 X117.428 Y103.729 E0.022
G1 X117.057 Y103.315 E0.014
G1 X116.636 Y102.788 E0.017
G1 X116.316 Y102.336 E0.014
G1 X115.961 Y101.765 E0.017
G1 X115.669 Y101.224 E0.015
G1 X115.433 Y100.721 E0.014
G1 X115.204 Y100.15 E0.015
G1 X115.009 Y99.568 E0.016
G1 X114.848 Y98.974 E0.015
G1 X114.723 Y98.374 E0.015
G1 X114.632 Y97.765 E0.016
G1 X114.578 Y97.153 E0.015
G1 X114.56 Y96.54 E0.015
G1 X114.578 Y95.926 E0.015
G1 X114.632 Y95.314 E0.016
G1 X114.722 Y94.708 E0.015
G1 X114.863 Y94.051 E0.017
G1 X115.027 Y93.458 E0.015
G1 X115.204 Y92.931 E0.014
G1 X115.434 Y92.361 E0.015
G1 X115.696 Y91.807 E0.016
G1 X116.021 Y91.217 E0.016
G1 X116.317 Y90.746 E0.014
G1 X116.673 Y90.245 E0.016
G1 X117.057 Y89.767 E0.015
G1 X117.51 Y89.27 E0.017
G1 X117.907 Y88.881 E0.014
G1 X118.37 Y88.477 E0.015
G1 X118.855 Y88.101 E0.015
G1 X119.362 Y87.756 E0.016
G1 X119.89 Y87.438 E0.015
G1 X120.433 Y87.154 E0.015
G1 X120.993 Y86.901 E0.016
G1 X121.44 Y86.731 E0.011
G1 F2100 E-0.5
;rapid-dry
G0 X118.38 Y104.595 F7200
G1 F2100 E0.5
;bead-solid_infill
G1 X118.413 Y104.562 F1800 E0.002
G1 X118.467 Y104.608 E0.001
G1 X118.732 Y104.809 E0.009
G1 X118.38 Y105.161 E0.012
G1 Y105.727 E0.014
G1 X119.057 Y105.05 E0.024
G1 X119.398 Y105.275 E0.01
G1 X118.38 Y106.292 E0.036
G1 Y106.858 E0.014
G1 X119.748 Y105.49 E0.049
G1 X120.108 Y105.695 E0.01
G1 X118.38 Y107.424 E0.061
G1 Y107.989 E0.014
G1 X120.486 Y105.883 E0.074
G1 X120.756 Y106.014 E0.008
G1 X120.873 Y106.062 E0.003
G1 X118.38 Y108.555 E0.088
G1 Y109.121 E0.014
G1 X121.276 Y106.225 E0.102
G1 X121.431 Y106.288 E0.004
G1 X121.691 Y106.375 E0.007
G1 X118.38 Y109.687 E0.117
G1 Y110.252 E0.014
G1 X122.121 Y106.512 E0.132
G1 X122.568 Y106.63 E0.012
G1 X118.38 Y110.818 E0.147
G1 Y111.384 E0.014
G1 X123.035 Y106.729 E0.165
G1 X123.325 Y106.786 E0.007
G1 X123.518 Y106.811 E0.005
G1 X118.38 Y111.949 E0.181
G1 Y112.515 E0.014
G1 X124.02 Y106.875 E0.199
G1 X124.551 Y106.91 E0.014
G1 X118.38 Y113.081 E0.217
G1 Y113.646 E0.014
G1 X125.109 Y106.917 E0.238
G1 X125.337 E0.005
G1 X125.699 Y106.893 E0.009
G1 X118.38 Y114.212 E0.259
G1 Y114.778 E0.014
G1 X126.326 Y106.832 E0.28
G1 X126.675 Y106.786 E0.009
G1 X127.002 Y106.722 E0.008
G1 X118.38 Y115.343 E0.304
G1 Y115.909 E0.014
G1 X127.741 Y106.548 E0.331
G1 X127.986 Y106.483 E0.006
G1 X128.567 Y106.288 E0.015
G1 X118.38 Y116.475 E0.36
G1 Y117.04 E0.014
G1 X129.563 Y105.857 E0.394
G1 X129.902 Y105.69 E0.01
G1 X130.435 Y105.385 E0.015
G1 X130.923 Y105.064 E0.015
G1 X118.38 Y117.606 E0.442
G1 Y118.172 E0.014
G1 X131.62 Y104.932 E0.467
G1 Y105.497 E0.014
G1 X118.38 Y118.737 E0.467
G1 Y119.303 E0.015
G1 X131.62 Y106.063 E0.467
G1 Y106.629 E0.014
G1 X118.38 Y119.869 E0.467
G1 Y120.435 E0.014
G1 X131.62 Y107.195 E0.467
G1 Y107.76 E0.014
G1 X118.38 Y121 E0.467
G1 Y121.566 E0.014
G1 X131.62 Y108.326 E0.467
G1 Y108.892 E0.014
G1 X118.38 Y122.132 E0.468
G1 Y122.697 E0.014
G1 X131.62 Y109.457 E0.467
G1 Y110.023 E0.014
G1 X118.481 Y123.162 E0.463
G1 X119.047 E0.014
G1 X131.62 Y110.589 E0.444
G1 Y111.154 E0.014
G1 X119.612 Y123.162 E0.424
G1 X120.178 E0.014
G1 X131.62 Y111.72 E0.403
G1 Y112.286 E0.015
G1 X120.744 Y123.162 E0.383
G1 X121.309 E0.014
G1 X131.62 Y112.851 E0.364
G1 Y113.417 E0.014
G1 X121.875 Y123.162 E0.344
G1 X122.441 E0.014
G1 X131.62 Y113.983 E0.324
G1 Y114.548 E0.014
G1 X123.006 Y123.162 E0.304
G1 X123.572 E0.014
G1 X131.62 Y115.114 E0.284
G1 Y115.68 E0.014
G1 X124.138 Y123.162 E0.264
G1 X124.703 E0.014
G1 X131.62 Y116.246 E0.244
G1 Y116.811 E0.014
G1 X125.269 Y123.162 E0.224
G1 X125.835 E0.014
G1 X131.62 Y117.377 E0.204
G1 Y117.943 E0.015
G1 X126.401 Y123.162 E0.184
G1 X126.966 E0.014
G1 X131.62 Y118.508 E0.164
G1 Y119.074 E0.014
G1 X127.532 Y123.162 E0.144
G1 X128.098 E0.014
G1 X131.62 Y119.64 E0.125
G1 Y120.205 E0.014
G1 X128.663 Y123.162 E0.104
G1 X129.229 E0.014
G1 X131.62 Y120.771 E0.085
G1 Y121.337 E0.014
G1 X129.795 Y123.162 E0.064
G1 X130.36 E0.014
G1 X131.62 Y121.902 E0.045
G1 Y122.468 E0.014
G1 X130.926 Y123.162 E0.024
G1 X131.492 E0.014
G1 X131.62 Y123.034 E0.005
G1 F2100 E-0.5
;LAYER:4
M106 S255
;rapid-dry
G0 X118.674 Y89.188 Z0.65 F7200
G1 F2100 E0.5
;bead-perimeter_outer
G1 X118.16 Y89.666 F1800 E0.017
G1 X117.777 Y90.066 E0.014
G1 X117.373 Y90.548 E0.016
G1 X117.001 Y91.055 E0.016
G1 X116.662 Y91.585 E0.015
G1 X116.359 Y92.135 E0.016
G1 X116.091 Y92.705 E0.016
G1 X115.861 Y93.29 E0.015
G1 X115.67 Y93.889 E0.016
G1 X115.517 Y94.499 E0.016
G1 X115.405 Y95.118 E0.015
G1 X115.333 Y95.742 E0.016
G1 X115.301 Y96.371 E0.016
G1 X115.311 Y97 E0.015
G1 X115.361 Y97.626 E0.016
G1 X115.466 Y98.321 E0.018
G1 X115.582 Y98.863 E0.013
G1 X115.752 Y99.468 E0.016
G1 X115.962 Y100.062 E0.016
G1 X116.209 Y100.64 E0.016
G1 X116.492 Y101.201 E0.015
G1 X116.812 Y101.742 E0.016
G1 X117.166 Y102.262 E0.016
G1 X117.553 Y102.757 E0.015
G1 X117.971 Y103.227 E0.016
G1 X118.419 Y103.668 E0.016
G1 X118.895 Y104.08 E0.015
G1 X119.396 Y104.459 E0.016
G1 X119.921 Y104.805 E0.016
G1 X120.466 Y105.117 E0.015
G1 X121.032 Y105.393 E0.016
G1 X121.614 Y105.632 E0.016
G1 X122.209 Y105.832 E0.015
G1 X122.818 Y105.993 E0.016
G1 X123.435 Y106.114 E0.016
G1 X124.059 Y106.196 E0.016
G1 X124.686 Y106.237 E0.015
G1 X125.315 E0.016
G1 X125.941 Y106.196 E0.016
G1 X126.565 Y106.114 E0.015
G1 X127.183 Y105.993 E0.016
G1 X127.861 Y105.808 E0.017
G1 X128.386 Y105.631 E0.014
G1 X128.968 Y105.393 E0.016
G1 X129.534 Y105.117 E0.016
G1 X130.079 Y104.805 E0.015
G1 X130.604 Y104.459 E0.016
G1 X131.105 Y104.08 E0.016
G1 X131.581 Y103.668 E0.015
G1 X132.029 Y103.227 E0.016
G1 X132.447 Y102.757 E0.016
G1 X132.876 Y102.2 E0.017
G1 X133.188 Y101.742 E0.014
G1 X133.508 Y101.201 E0.016
G1 X133.791 Y100.64 E0.016
G1 X134.038 Y100.062 E0.015
G1 X134.248 Y99.468 E0.016
G1 X134.418 Y98.863 E0.016
G1 X134.549 Y98.248 E0.015
G1 X134.639 Y97.625 E0.016
G1 X134.689 Y96.999 E0.016
G1 X134.698 Y96.37 E0.015
G1 X134.659 Y95.669 E0.018
G1 X134.595 Y95.118 E0.014
G1 X134.483 Y94.498 E0.015
G1 X134.308 Y93.819 E0.018
G1 X134.138 Y93.29 E0.014
G1 X133.909 Y92.705 E0.015
G1 X133.641 Y92.135 E0.016
G1 X133.338 Y91.585 E0.016
G1 X132.999 Y91.055 E0.015
G1 X132.627 Y90.548 E0.016
G1 X132.223 Y90.066 E0.016
G1 X131.734 Y89.562 E0.017
G1 X131.325 Y89.187 E0.014
G1 X130.835 Y88.793 E0.016
G1 X130.321 Y88.431 E0.016
G1 X129.785 Y88.103 E0.015
G1 X129.227 Y87.811 E0.016
G1 X128.653 Y87.556 E0.016
G1 X128.2 Y87.389 E0.012
G1 Y86.231 E0.029
G1 X128.551 Y86.342 E0.009
G1 X129.145 Y86.569 E0.016
G1 X129.725 Y86.831 E0.015
G1 X130.288 Y87.125 E0.016
G1 X130.833 Y87.452 E0.016
G1 X131.357 Y87.811 E0.016
G1 X131.799 Y88.152 E0.014
G1 X132.339 Y88.619 E0.018
G1 X132.793 Y89.064 E0.016
G1 X133.219 Y89.535 E0.015
G1 X133.616 Y90.031 E0.016
G1 X133.985 Y90.549 E0.016
G1 X134.322 Y91.088 E0.016
G1 X134.627 Y91.647 E0.016
G1 X134.898 Y92.221 E0.016
G1 X135.135 Y92.811 E0.016
G1 X135.337 Y93.413 E0.015
G1 X135.484 Y93.952 E0.014
G1 X135.633 Y94.65 E0.018
G1 X135.726 Y95.278 E0.016
G1 X135.781 Y95.912 E0.016
G1 X135.8 Y96.547 E0.016
G1 X135.78 Y97.182 E0.016
G1 X135.733 Y97.737 E0.013
G1 X135.643 Y98.368 E0.016
G1 X135.518 Y98.991 E0.016
G1 X135.333 Y99.68 E0.018
G1 X135.131 Y100.282 E0.016
G1 X134.893 Y100.872 E0.016
G1 X134.656 Y101.377 E0.014
G1 X134.356 Y101.937 E0.016
G1 X134.022 Y102.478 E0.015
G1 X133.657 Y102.998 E0.016
G1 X133.262 Y103.496 E0.016
G1 X132.839 Y103.97 E0.016
G1 X132.3 Y104.505 E0.019
G1 Y123.842 E0.482
G1 X117.7 E0.364
G1 Y104.505 E0.483
G1 X117.161 Y103.97 E0.019
G1 X116.738 Y103.496 E0.016
G1 X116.343 Y102.998 E0.015
G1 X115.978 Y102.478 E0.016
G1 X115.644 Y101.937 E0.016
G1 X115.378 Y101.446 E0.014
G1 X115.106 Y100.872 E0.016
G1 X114.869 Y100.282 E0.016
G1 X114.666 Y99.68 E0.016
G1 X114.5 Y99.066 E0.016
G1 X114.37 Y98.444 E0.015
G1 X114.276 Y97.815 E0.016
G1 X114.22 Y97.182 E0.016
G1 X114.2 Y96.547 E0.016
G1 X114.219 Y95.912 E0.016
G1 X114.274 Y95.278 E0.016
G1 X114.367 Y94.65 E0.015
G1 X114.516 Y93.952 E0.018
G1 X114.663 Y93.413 E0.014
G1 X114.865 Y92.811 E0.016
G1 X115.102 Y92.221 E0.016
G1 X115.373 Y91.647 E0.016
G1 X115.718 Y91.022 E0.018
G1 X116.015 Y90.549 E0.013
G1 X116.384 Y90.031 E0.016
G1 X116.781 Y89.535 E0.016
G1 X117.207 Y89.064 E0.016
G1 X117.661 Y88.619 E0.016
G1 X118.139 Y88.201 E0.016
G1 X118.643 Y87.811 E0.016
G1 X119.167 Y87.452 E0.015
G1 X119.711 Y87.125 E0.016
G1 X120.346 Y86.798 E0.018
G1 X120.855 Y86.569 E0.014
G1 X121.449 Y86.342 E0.016
G1 X121.8 Y86.231 E0.009
G1 Y87.389 E0.029
G1 X121.347 Y87.556 E0.012
G1 X120.773 Y87.811 E0.016
G1 X120.215 Y88.103 E0.015
G1 X119.679 Y88.431 E0.016
G1 X119.165 Y88.793 E0.016
G1 X118.674 Y89.188 E0.015
;rapid-leaky
G0 X118.438 Y88.915 F7200
;bead-perimeter_inner
G1 X117.908 Y89.409 F2400 E0.019
G1 X117.509 Y89.826 E0.014
G1 X117.089 Y90.326 E0.016
G1 X116.704 Y90.851 E0.016
G1 X116.352 Y91.401 E0.017
G1 X116.038 Y91.972 E0.016
G1 X115.76 Y92.562 E0.016
G1 X115.522 Y93.169 E0.017
G1 X115.323 Y93.791 E0.016
G1 X115.165 Y94.423 E0.016
G1 X115.049 Y95.065 E0.016
G1 X114.974 Y95.713 E0.017
G1 X114.941 Y96.364 E0.016
G1 X114.951 Y97.017 E0.016
G1 X115.003 Y97.667 E0.016
G1 X115.112 Y98.385 E0.019
G1 X115.232 Y98.949 E0.014
G1 X115.409 Y99.577 E0.016
G1 X115.626 Y100.192 E0.017
G1 X115.882 Y100.792 E0.016
G1 X116.176 Y101.374 E0.016
G1 X116.508 Y101.935 E0.016
G1 X116.876 Y102.474 E0.017
G1 X117.277 Y102.988 E0.016
G1 X117.71 Y103.475 E0.016
G1 X118.175 Y103.933 E0.016
G1 X118.668 Y104.359 E0.017
G1 X119.188 Y104.753 E0.016
G1 X119.733 Y105.112 E0.016
G1 X120.298 Y105.435 E0.016
G1 X120.885 Y105.721 E0.017
G1 X121.488 Y105.969 E0.016
G1 X122.106 Y106.177 E0.016
G1 X122.737 Y106.344 E0.017
G1 X123.376 Y106.47 E0.016
G1 X124.023 Y106.555 E0.016
G1 X124.674 Y106.597 E0.016
G1 X125.326 E0.017
G1 X125.977 Y106.555 E0.016
G1 X126.624 Y106.47 E0.016
G1 X127.265 Y106.344 E0.016
G1 X127.966 Y106.153 E0.019
G1 X128.512 Y105.969 E0.014
G1 X129.115 Y105.721 E0.016
G1 X129.702 Y105.435 E0.016
G1 X130.267 Y105.112 E0.017
G1 X130.812 Y104.753 E0.016
G1 X131.332 Y104.359 E0.016
G1 X131.825 Y103.933 E0.017
G1 X132.29 Y103.475 E0.016
G1 X132.725 Y102.986 E0.016
G1 X133.168 Y102.412 E0.018
G1 X133.492 Y101.935 E0.015
G1 X133.824 Y101.374 E0.016
G1 X134.118 Y100.792 E0.016
G1 X134.374 Y100.192 E0.016
G1 X134.591 Y99.577 E0.017
G1 X134.768 Y98.949 E0.016
G1 X134.904 Y98.311 E0.016
G1 X134.997 Y97.665 E0.016
G1 X135.049 Y97.016 E0.017
G1 X135.058 Y96.363 E0.016
G1 X135.018 Y95.638 E0.018
G1 X134.951 Y95.064 E0.015
G1 X134.834 Y94.421 E0.016
G1 X134.654 Y93.719 E0.018
G1 X134.478 Y93.169 E0.014
G1 X134.24 Y92.562 E0.017
G1 X133.962 Y91.972 E0.016
G1 X133.648 Y91.401 E0.016
G1 X133.296 Y90.851 E0.016
G1 X132.911 Y90.326 E0.017
G1 X132.49 Y89.825 E0.016
G1 X131.985 Y89.303 E0.018
G1 X131.56 Y88.914 E0.014
G1 X131.052 Y88.505 E0.017
G1 X130.519 Y88.13 E0.016
G1 X129.962 Y87.79 E0.016
G1 X129.384 Y87.487 E0.017
G1 X128.789 Y87.222 E0.016
G1 X128.56 Y87.138 E0.006
G1 Y86.731 E0.01
G1 X129.006 Y86.901 E0.012
G1 X129.567 Y87.155 E0.015
G1 X130.112 Y87.439 E0.016
G1 X130.638 Y87.755 E0.015
G1 X131.146 Y88.102 E0.015
G1 X131.571 Y88.431 E0.014
G1 X132.095 Y88.884 E0.017
G1 X132.533 Y89.313 E0.015
G1 X132.945 Y89.768 E0.016
G1 X133.329 Y90.248 E0.015
G1 X133.685 Y90.749 E0.015
G1 X134.011 Y91.27 E0.016
G1 X134.305 Y91.81 E0.015
G1 X134.568 Y92.365 E0.015
G1 X134.797 Y92.936 E0.016
G1 X134.992 Y93.518 E0.015
G1 X135.134 Y94.037 E0.013
G1 X135.279 Y94.714 E0.018
G1 X135.369 Y95.32 E0.015
G1 X135.422 Y95.932 E0.015
G1 X135.44 Y96.547 E0.016
G1 X135.421 Y97.162 E0.015
G1 X135.375 Y97.697 E0.013
G1 X135.288 Y98.307 E0.016
G1 X135.167 Y98.909 E0.015
G1 X134.989 Y99.576 E0.017
G1 X134.794 Y100.157 E0.015
G1 X134.562 Y100.728 E0.016
G1 X134.334 Y101.216 E0.013
G1 X134.044 Y101.757 E0.016
G1 X133.721 Y102.28 E0.015
G1 X133.368 Y102.783 E0.015
G1 X132.986 Y103.264 E0.016
G1 X132.578 Y103.722 E0.015
G1 X131.94 Y104.355 E0.022
G1 Y123.482 E0.477
G1 X118.06 E0.347
G1 Y104.355 E0.477
G1 X117.422 Y103.722 E0.022
G1 X117.014 Y103.264 E0.016
G1 X116.632 Y102.783 E0.015
G1 X116.279 Y102.28 E0.015
G1 X115.956 Y101.756 E0.016
G1 X115.7 Y101.284 E0.013
G1 X115.436 Y100.727 E0.015
G1 X115.207 Y100.157 E0.016
G1 X115.011 Y99.575 E0.015
G1 X114.85 Y98.982 E0.015
G1 X114.724 Y98.38 E0.016
G1 X114.633 Y97.773 E0.015
G1 X114.579 Y97.161 E0.015
G1 X114.56 Y96.547 E0.016
G1 X114.578 Y95.932 E0.015
G1 X114.631 Y95.32 E0.015
G1 X114.721 Y94.714 E0.016
G1 X114.866 Y94.037 E0.017
G1 X115.008 Y93.518 E0.013
G1 X115.203 Y92.936 E0.016
G1 X115.432 Y92.365 E0.015
G1 X115.694 Y91.811 E0.015
G1 X116.029 Y91.205 E0.017
G1 X116.315 Y90.749 E0.014
G1 X116.671 Y90.248 E0.015
G1 X117.056 Y89.768 E0.016
G1 X117.467 Y89.313 E0.015
G1 X117.906 Y88.883 E0.015
G1 X118.368 Y88.479 E0.016
G1 X118.855 Y88.102 E0.015
G1 X119.362 Y87.755 E0.015
G1 X119.887 Y87.439 E0.015
G1 X120.502 Y87.123 E0.018
G1 X120.993 Y86.901 E0.013
G1 X121.44 Y86.731 E0.012
G1 Y87.138 E0.01
G1 X121.211 Y87.222 E0.006
G1 X120.616 Y87.487 E0.017
G1 X120.038 Y87.79 E0.016
G1 X119.481 Y88.13 E0.016
G1 X118.948 Y88.505 E0.016
G1 X118.438 Y88.915 E0.017
G1 F2100 E-0.5
;rapid-dry
G0 X118.38 Y108.102 F7200
G1 F2100 E0.5
;bead-sparse_infill
G1 X118.751 Y108.389 F3600 E0.011
G1 X119.449 Y109.457 E0.032
G1 X119.679 Y110.525 E0.028
G1 X119.174 Y111.593 E0.029
G1 X118.38 Y112.208 E0.025
G1 Y116.647 E0.111
G1 X118.751 Y116.934 E0.011
G1 X119.449 Y118.002 E0.032
G1 X119.679 Y119.07 E0.028
G1 X119.174 Y120.139 E0.029
G1 X118.38 Y120.753 E0.025
G1 Y123.162 E0.06
G1 X121.949 E0.089
G1 X121.368 Y122.275 E0.027
G1 X121.139 Y121.207 E0.027
G1 X121.644 Y120.139 E0.029
G1 X123.023 Y119.07 E0.044
G1 X123.722 Y118.002 E0.032
G1 X123.952 Y116.934 E0.027
G1 X123.446 Y115.866 E0.029
G1 X122.067 Y114.798 E0.044
G1 X121.368 Y113.73 E0.032
G1 X121.139 Y112.662 E0.027
G1 X121.644 Y111.593 E0.03
G1 X123.023 Y110.525 E0.043
G1 X123.722 Y109.457 E0.032
G1 X123.952 Y108.389 E0.027
G1 X123.446 Y107.321 E0.03
G1 X122.547 Y106.625 E0.028
G1 X122.665 Y106.656 E0.003
G1 X123.325 Y106.786 E0.017
G1 X123.992 Y106.873 E0.017
G1 X124.663 Y106.917 E0.016
G1 X125.337 E0.017
G1 X125.714 Y106.892 E0.01
G1 X125.917 Y107.321 E0.011
G1 X127.296 Y108.389 E0.044
G1 X127.994 Y109.457 E0.032
G1 X128.224 Y110.525 E0.027
G1 X127.719 Y111.593 E0.029
G1 X126.34 Y112.662 E0.044
G1 X125.641 Y113.73 E0.032
G1 X125.411 Y114.798 E0.027
G1 X125.917 Y115.866 E0.03
G1 X127.296 Y116.934 E0.043
G1 X127.994 Y118.002 E0.032
G1 X128.224 Y119.07 E0.027
G1 X127.719 Y120.139 E0.03
G1 X126.34 Y121.207 E0.043
G1 X125.641 Y122.275 E0.032
G1 X125.45 Y123.162 E0.023
G1 X130.494 E0.125
G1 X129.913 Y122.275 E0.027
G1 X129.684 Y121.207 E0.027
G1 X130.189 Y120.139 E0.03
G1 X131.568 Y119.07 E0.043
G1 X131.62 Y118.992 E0.002
G1 Y115.578 E0.086
G1 X130.612 Y114.798 E0.031
G1 X129.913 Y113.73 E0.032
G1 X129.684 Y112.662 E0.028
G1 X130.189 Y111.593 E0.029
G1 X131.568 Y110.525 E0.044
G1 X131.62 Y110.446 E0.002
G1 Y107.033 E0.085
G1 X130.612 Y106.253 E0.032
G1 X130.151 Y105.547 E0.021
G1 F2100 E-0.5
;LAYER:5
;rapid-dry
G0 X134.689 Y96.999 Z0.8 F7200
G1 F2100 E0.5
;bead-perimeter_outer
G1 X134.698 Y96.371 F1800 E0.015
G1 X134.667 Y95.743 E0.016
G1 X134.595 Y95.118 E0.016
G1 X134.483 Y94.499 E0.016
G1 X134.301 Y93.795 E0.018
G1 X134.139 Y93.29 E0.013
G1 X133.909 Y92.705 E0.016
G1 X133.641 Y92.135 E0.015
G1 X133.338 Y91.585 E0.016
G1 X132.999 Y91.055 E0.016
G1 X132.627 Y90.548 E0.015
G1 X132.223 Y90.067 E0.016
G1 X131.788 Y89.612 E0.016
G1 X131.325 Y89.187 E0.015
G1 X130.835 Y88.793 E0.016
G1 X130.321 Y88.431 E0.016
G1 X129.785 Y88.103 E0.015
G1 X129.227 Y87.811 E0.016
G1 X128.653 Y87.556 E0.016
G1 X128.2 Y87.389 E0.012
G1 Y86.231 E0.029
G1 X128.552 Y86.342 E0.009
G1 X129.146 Y86.569 E0.016
G1 X129.725 Y86.831 E0.016
G1 X130.289 Y87.125 E0.016
G1 X130.751 Y87.403 E0.013
G1 X131.36 Y87.813 E0.018
G1 X131.862 Y88.202 E0.016
G1 X132.341 Y88.62 E0.016
G1 X132.795 Y89.065 E0.016
G1 X133.221 Y89.538 E0.016
G1 X133.618 Y90.033 E0.016
G1 X133.987 Y90.553 E0.015
G1 X134.324 Y91.092 E0.016
G1 X134.629 Y91.65 E0.016
G1 X134.9 Y92.225 E0.016
G1 X135.136 Y92.815 E0.016
G1 X135.338 Y93.418 E0.016
G1 X135.48 Y93.938 E0.013
G1 X135.634 Y94.656 E0.019
G1 X135.726 Y95.284 E0.015
G1 X135.782 Y95.918 E0.016
G1 X135.8 Y96.554 E0.016
G1 X135.78 Y97.189 E0.016
G1 X135.723 Y97.822 E0.016
G1 X135.629 Y98.452 E0.016
G1 X135.498 Y99.074 E0.016
G1 X135.358 Y99.595 E0.013
G1 X135.128 Y100.291 E0.018
G1 X134.928 Y100.791 E0.014
G1 X134.661 Y101.367 E0.016
G1 X134.311 Y102.012 E0.018
G1 X133.974 Y102.551 E0.016
G1 X133.604 Y103.068 E0.016
G1 X133.268 Y103.489 E0.013
G1 X132.845 Y103.964 E0.016
G1 X132.3 Y104.505 E0.019
G1 Y123.842 E0.482
G1 X117.7 E0.365
G1 Y104.505 E0.482
G1 X117.155 Y103.964 E0.019
G1 X116.732 Y103.489 E0.016
G1 X116.396 Y103.068 E0.013
G1 X116.027 Y102.551 E0.016
G1 X115.639 Y101.928 E0.019
G1 X115.339 Y101.367 E0.015
G1 X115.11 Y100.88 E0.014
G1 X114.872 Y100.291 E0.016
G1 X114.669 Y99.688 E0.016
G1 X114.502 Y99.074 E0.015
G1 X114.371 Y98.452 E0.016
G1 X114.277 Y97.822 E0.016
G1 X114.22 Y97.189 E0.016
G1 X114.2 Y96.554 E0.016
G1 X114.218 Y95.918 E0.016
G1 X114.274 Y95.284 E0.016
G1 X114.366 Y94.656 E0.016
G1 X114.52 Y93.938 E0.018
G1 X114.662 Y93.418 E0.013
G1 X114.864 Y92.815 E0.016
G1 X115.1 Y92.225 E0.016
G1 X115.371 Y91.65 E0.016
G1 X115.726 Y91.009 E0.018
G1 X116.013 Y90.553 E0.014
G1 X116.382 Y90.034 E0.015
G1 X116.779 Y89.538 E0.016
G1 X117.205 Y89.066 E0.016
G1 X117.732 Y88.555 E0.018
G1 X118.138 Y88.202 E0.014
G1 X118.641 Y87.813 E0.016
G1 X119.166 Y87.454 E0.016
G1 X119.797 Y87.08 E0.018
G1 X120.275 Y86.831 E0.013
G1 X120.854 Y86.569 E0.016
G1 X121.448 Y86.342 E0.016
G1 X121.8 Y86.231 E0.009
G1 Y87.39 E0.029
G1 X121.262 Y87.593 E0.015
G1 X120.773 Y87.811 E0.013
G1 X120.215 Y88.103 E0.016
G1 X119.679 Y88.431 E0.015
G1 X119.164 Y88.794 E0.016
G1 X118.606 Y89.25 E0.018
G1 X118.212 Y89.612 E0.013
G1 X117.777 Y90.066 E0.016
G1 X117.373 Y90.548 E0.016
G1 X117.001 Y91.055 E0.015
G1 X116.662 Y91.585 E0.016
G1 X116.359 Y92.135 E0.016
G1 X116.091 Y92.705 E0.015
G1 X115.861 Y93.29 E0.016
G1 X115.67 Y93.889 E0.016
G1 X115.517 Y94.499 E0.016
G1 X115.405 Y95.118 E0.015
G1 X115.333 Y95.742 E0.016
G1 X115.301 Y96.371 E0.016
G1 X115.311 Y97 E0.015
G1 X115.361 Y97.625 E0.016
G1 X115.471 Y98.344 E0.018
G1 X115.582 Y98.863 E0.013
G1 X115.752 Y99.468 E0.016
G1 X115.962 Y100.062 E0.016
G1 X116.209 Y100.64 E0.015
G1 X116.492 Y101.201 E0.016
G1 X116.812 Y101.742 E0.016
G1 X117.166 Y102.262 E0.015
G1 X117.553 Y102.757 E0.016
G1 X117.971 Y103.227 E0.016
G1 X118.419 Y103.668 E0.015
G1 X118.895 Y104.08 E0.016
G1 X119.396 Y104.459 E0.016
G1 X119.921 Y104.805 E0.016
G1 X120.466 Y105.117 E0.015
G1 X121.032 Y105.393 E0.016
G1 X121.614 Y105.632 E0.016
G1 X122.21 Y105.832 E0.015
G1 X122.909 Y106.011 E0.018
G1 X123.435 Y106.114 E0.014
G1 X124.059 Y106.196 E0.015
G1 X124.686 Y106.237 E0.016
G1 X125.315 E0.016
G1 X125.941 Y106.196 E0.015
G1 X126.565 Y106.114 E0.016
G1 X127.183 Y105.993 E0.016
G1 X127.878 Y105.802 E0.018
G1 X128.386 Y105.631 E0.013
G1 X128.968 Y105.393 E0.016
G1 X129.534 Y105.117 E0.016
G1 X130.079 Y104.805 E0.015
G1 X130.604 Y104.459 E0.016
G1 X131.105 Y104.079 E0.016
G1 X131.581 Y103.668 E0.015
G1 X132.029 Y103.227 E0.016
G1 X132.447 Y102.757 E0.016
G1 X132.833 Y102.262 E0.015
G1 X133.188 Y101.742 E0.016
G1 X133.508 Y101.201 E0.016
G1 X133.791 Y100.64 E0.015
G1 X134.038 Y100.062 E0.016
G1 X134.248 Y99.468 E0.016
G1 X134.418 Y98.863 E0.015
G1 X134.549 Y98.248 E0.016
G1 X134.639 Y97.625 E0.016
G1 X134.689 Y96.999 E0.015
;rapid-leaky
G0 X135.049 Y97.016 F7200
;bead-perimeter_inner
G1 X135.058 Y96.364 F2400 E0.017
G1 X135.026 Y95.713 E0.016
G1 X134.951 Y95.065 E0.016
G1 X134.835 Y94.423 E0.017
G1 X134.643 Y93.686 E0.019
G1 X134.478 Y93.169 E0.013
G1 X134.24 Y92.562 E0.016
G1 X133.962 Y91.972 E0.017
G1 X133.648 Y91.401 E0.016
G1 X133.296 Y90.851 E0.016
G1 X132.911 Y90.326 E0.016
G1 X132.491 Y89.826 E0.017
G1 X132.04 Y89.355 E0.016
G1 X131.56 Y88.914 E0.016
G1 X131.052 Y88.505 E0.016
G1 X130.519 Y88.13 E0.017
G1 X129.962 Y87.79 E0.016
G1 X129.384 Y87.487 E0.016
G1 X128.789 Y87.222 E0.017
G1 X128.56 Y87.138 E0.006
G1 Y86.73 E0.01
G1 X129.007 Y86.901 E0.012
G1 X129.568 Y87.155 E0.015
G1 X130.113 Y87.44 E0.015
G1 X130.557 Y87.707 E0.013
G1 X131.149 Y88.105 E0.018
G1 X131.633 Y88.48 E0.015
G1 X132.096 Y88.884 E0.016
G1 X132.535 Y89.315 E0.015
G1 X132.946 Y89.771 E0.015
G1 X133.331 Y90.25 E0.016
G1 X133.687 Y90.753 E0.015
G1 X134.014 Y91.274 E0.015
G1 X134.307 Y91.813 E0.016
G1 X134.569 Y92.369 E0.015
G1 X134.798 Y92.939 E0.015
G1 X134.993 Y93.523 E0.016
G1 X135.13 Y94.024 E0.013
G1 X135.28 Y94.72 E0.017
G1 X135.369 Y95.326 E0.016
G1 X135.423 Y95.938 E0.015
G1 X135.44 Y96.553 E0.015
G1 X135.421 Y97.167 E0.016
G1 X135.366 Y97.779 E0.015
G1 X135.275 Y98.388 E0.015
G1 X135.148 Y98.991 E0.016
G1 X135.013 Y99.491 E0.013
G1 X134.79 Y100.168 E0.018
G1 X134.598 Y100.648 E0.012
G1 X134.339 Y101.205 E0.016
G1 X134 Y101.831 E0.017
G1 X133.674 Y102.35 E0.016
G1 X133.317 Y102.851 E0.015
G1 X132.993 Y103.257 E0.013
G1 X132.583 Y103.717 E0.015
G1 X131.94 Y104.355 E0.023
G1 Y123.482 E0.477
G1 X118.06 E0.346
G1 Y104.355 E0.478
G1 X117.417 Y103.717 E0.022
G1 X117.007 Y103.257 E0.016
G1 X116.683 Y102.851 E0.012
G1 X116.326 Y102.351 E0.016
G1 X115.951 Y101.748 E0.018
G1 X115.661 Y101.206 E0.015
G1 X115.44 Y100.736 E0.013
G1 X115.209 Y100.166 E0.015
G1 X115.014 Y99.583 E0.015
G1 X114.852 Y98.99 E0.016
G1 X114.725 Y98.388 E0.015
G1 X114.634 Y97.779 E0.015
G1 X114.579 Y97.167 E0.016
G1 X114.56 Y96.553 E0.015
G1 X114.577 Y95.938 E0.015
G1 X114.631 Y95.326 E0.016
G1 X114.72 Y94.72 E0.015
G1 X114.87 Y94.024 E0.018
G1 X115.007 Y93.523 E0.013
G1 X115.202 Y92.939 E0.015
G1 X115.431 Y92.369 E0.016
G1 X115.692 Y91.814 E0.015
G1 X116.036 Y91.192 E0.018
G1 X116.313 Y90.753 E0.012
G1 X116.669 Y90.25 E0.016
G1 X117.054 Y89.771 E0.015
G1 X117.464 Y89.316 E0.015
G1 X117.976 Y88.82 E0.018
G1 X118.367 Y88.48 E0.013
G1 X118.853 Y88.104 E0.015
G1 X119.359 Y87.758 E0.016
G1 X119.972 Y87.395 E0.018
G1 X120.432 Y87.155 E0.013
G1 X120.993 Y86.901 E0.015
G1 X121.44 Y86.73 E0.012
G1 Y87.141 E0.01
G1 X121.125 Y87.26 E0.008
G1 X120.616 Y87.487 E0.014
G1 X120.038 Y87.79 E0.017
G1 X119.481 Y88.13 E0.016
G1 X118.946 Y88.507 E0.016
G1 X118.37 Y88.978 E0.019
G1 X117.96 Y89.355 E0.014
G1 X117.509 Y89.826 E0.016
G1 X117.089 Y90.326 E0.016
G1 X116.704 Y90.851 E0.016
G1 X116.352 Y91.401 E0.017
G1 X116.038 Y91.972 E0.016
G1 X115.76 Y92.562 E0.016
G1 X115.522 Y93.169 E0.017
G1 X115.323 Y93.791 E0.016
G1 X115.165 Y94.423 E0.016
G1 X115.049 Y95.065 E0.016
G1 X114.974 Y95.713 E0.017
G1 X114.941 Y96.364 E0.016
G1 X114.951 Y97.017 E0.016
G1 X115.003 Y97.665 E0.016
G1 X115.119 Y98.419 E0.019
G1 X115.232 Y98.949 E0.014
G1 X115.409 Y99.577 E0.016
G1 X115.626 Y100.192 E0.017
G1 X115.882 Y100.792 E0.016
G1 X116.176 Y101.374 E0.016
G1 X116.508 Y101.935 E0.016
G1 X116.876 Y102.474 E0.017
G1 X117.277 Y102.988 E0.016
G1 X117.71 Y103.475 E0.016
G1 X118.175 Y103.933 E0.016
G1 X118.668 Y104.359 E0.017
G1 X119.188 Y104.753 E0.016
G1 X119.733 Y105.112 E0.016
G1 X120.298 Y105.435 E0.016
G1 X120.885 Y105.721 E0.017
G1 X121.488 Y105.969 E0.016
G1 X122.108 Y106.177 E0.016
G1 X122.829 Y106.362 E0.019
G1 X123.377 Y106.47 E0.014
G1 X124.023 Y106.555 E0.016
G1 X124.674 Y106.597 E0.016
G1 X125.326 E0.017
G1 X125.977 Y106.555 E0.016
G1 X126.624 Y106.47 E0.016
