;update fixare role
;Printer name: Prusa i3 MK3
;TIME:649
;Print time: 10m:49s
;Extruder 1 material used: 441mm
;Extruder 1 material name: 
;Extruder 1 filament diameter: 1.75mm
;Extruder 1 nozzle diameter: 0.4mm
;Extruder 1 offset x: 0mm
;Extruder 1 offset y: 0mm
;Extruder 1 offset z: 0mm
;Extruder 1 max temp: 200
;Bed temp: 70
;Layer count: 30
;Width: 250mm
;Depth: 210mm
;Height: 210mm
;Center x: 125mm
;Center y: 105mm
;Center z: 0mm
;Count of bodies: 2
;Fusion version: 2.0.19440
G21
M115 U3.0.10 ;tell printer latest fw version
G28 W ;home all without mesh bed level
;--------------------------------
;Selected Profile: PLA Direct Drive
;--------------------------------
;Selected Printer: Prusa, i3 MK3
;--------------------------------
T0
M140 S70
M104 S200 T0
M190 S70
M109 S200 T0
G80 ;mesh bed leveling
G92 E0
G90
M83
G0 X10 Y10 Z10 F7200
G92 E0
;--------------------------------
;Part 1
;LAYER_COUNT:30
;LAYER:1
M107
;rapid-leaky
G0 X20 Y20.5 Z0.2 F7200
;bead-prime
G1 X120 F720 E8.315
G1 F2100 E-0.5
;rapid-dry
G0 X112.725 Y90.71 F7200
G1 F2100 E0.5
;bead-skirt/brim
G1 X137.275 F960 E0.817
G1 X139.181 Y90.992 E0.064
G1 X140.681 Y91.613 E0.054
G1 X141.954 Y92.465 E0.051
G1 X143.033 Y93.542 E0.05
G1 X143.887 Y94.819 E0.051
G1 X144.508 Y96.319 E0.054
G1 X144.832 Y98.5 E0.074
G1 X144.508 Y100.681 E0.073
G1 X143.851 Y102.266 E0.057
G1 X142.539 Y104.037 E0.073
G1 X141.249 Y104.994 E0.054
G1 X141.954 Y105.465 E0.028
G1 X143.034 Y106.544 E0.051
G1 X143.886 Y107.819 E0.051
G1 X144.508 Y109.317 E0.054
G1 X144.832 Y111.5 E0.073
G1 X144.508 Y113.681 E0.074
G1 X143.851 Y115.266 E0.057
G1 X142.539 Y117.037 E0.073
G1 X140.767 Y118.352 E0.073
G1 X139.18 Y119.008 E0.057
G1 X137.277 Y119.29 E0.064
G1 X113 Y119.302 E0.808
G1 Y119.273 E0.001
G1 X112.229 Y119.269 E0.025
G1 X110.734 Y118.972 E0.051
G1 X109.234 Y118.352 E0.054
G1 X107.461 Y117.037 E0.074
G1 X106.149 Y115.266 E0.073
G1 X105.492 Y113.681 E0.057
G1 X105.168 Y111.5 E0.073
G1 X105.492 Y109.319 E0.074
G1 X106.148 Y107.733 E0.057
G1 X107.464 Y105.961 E0.073
G1 X108.751 Y105.007 E0.053
G1 X108.042 Y104.533 E0.029
G1 X106.966 Y103.454 E0.05
G1 X106.061 Y102.103 E0.055
G1 X105.32 Y100.026 E0.073
G1 X105.21 Y97.829 E0.073
G1 X105.547 Y96.141 E0.057
G1 X106.448 Y94.234 E0.07
G1 X107.538 Y92.905 E0.058
G1 X109.234 Y91.649 E0.07
G1 X110.819 Y90.992 E0.057
G1 X112.725 Y90.71 E0.064
;rapid-leaky
G0 X112.754 Y91.11 F7200
;bead-skirt/brim
G1 X137.246 F960 E0.815
G1 X139.073 Y91.38 E0.061
G1 X140.491 Y91.968 E0.051
G1 X141.699 Y92.776 E0.048
G1 X142.722 Y93.797 E0.048
G1 X143.533 Y95.009 E0.049
G1 X144.12 Y96.427 E0.051
G1 X144.427 Y98.5 E0.07
G1 X144.12 Y100.574 E0.069
G1 X143.501 Y102.067 E0.054
G1 X142.253 Y103.751 E0.07
G1 X140.551 Y105.008 E0.07
G1 X141.699 Y105.776 E0.046
G1 X142.723 Y106.799 E0.048
G1 X143.531 Y108.009 E0.049
G1 X144.119 Y109.425 E0.051
G1 X144.427 Y111.5 E0.069
G1 X144.12 Y113.574 E0.07
G1 X143.501 Y115.067 E0.054
G1 X142.253 Y116.751 E0.07
G1 X140.568 Y118.001 E0.069
G1 X139.073 Y118.62 E0.054
G1 X137.248 Y118.89 E0.062
G1 X113.4 Y118.902 E0.793
G1 Y118.875 E0.001
G1 X112.269 Y118.869 E0.037
G1 X110.851 Y118.588 E0.048
G1 X109.432 Y118.001 E0.051
G1 X107.747 Y116.751 E0.07
G1 X106.499 Y115.067 E0.07
G1 X105.88 Y113.574 E0.054
G1 X105.573 Y111.5 E0.069
G1 X105.88 Y109.427 E0.07
G1 X106.499 Y107.931 E0.054
G1 X107.749 Y106.247 E0.07
G1 X109.449 Y104.993 E0.07
G1 X108.297 Y104.222 E0.046
G1 X107.276 Y103.199 E0.048
G1 X106.421 Y101.922 E0.051
G1 X105.716 Y99.947 E0.07
G1 X105.612 Y97.858 E0.07
G1 X105.929 Y96.267 E0.054
G1 X106.789 Y94.449 E0.066
G1 X107.816 Y93.197 E0.054
G1 X109.433 Y91.999 E0.067
G1 X110.927 Y91.38 E0.054
G1 X112.754 Y91.11 E0.061
;rapid-leaky
G0 X112.784 Y91.51 F7200
;bead-skirt/brim
G1 X137.216 F960 E0.813
G1 X138.966 Y91.769 E0.059
G1 X140.301 Y92.322 E0.048
G1 X141.444 Y93.087 E0.046
G1 X142.412 Y94.053 E0.045
G1 X143.178 Y95.198 E0.046
G1 X143.731 Y96.534 E0.048
G1 X144.023 Y98.5 E0.066
G1 X143.731 Y100.466 E0.066
G1 X143.15 Y101.869 E0.051
G1 X141.967 Y103.465 E0.066
G1 X140.37 Y104.65 E0.066
G1 X139.524 Y105 E0.031
G1 X140.301 Y105.322 E0.027
G1 X141.444 Y106.087 E0.046
G1 X142.413 Y107.054 E0.046
G1 X143.177 Y108.198 E0.046
G1 X143.731 Y109.533 E0.048
G1 X144.023 Y111.5 E0.066
G1 X143.731 Y113.466 E0.066
G1 X143.15 Y114.869 E0.05
G1 X141.967 Y116.465 E0.066
G1 X140.37 Y117.65 E0.067
G1 X138.965 Y118.232 E0.05
G1 X137.218 Y118.49 E0.059
G1 X113.8 Y118.501 E0.779
G1 Y118.476 E0.001
G1 X112.309 Y118.47 E0.049
G1 X110.967 Y118.203 E0.046
G1 X109.631 Y117.651 E0.048
G1 X108.033 Y116.465 E0.066
G1 X106.85 Y114.869 E0.066
G1 X106.269 Y113.466 E0.051
G1 X105.977 Y111.5 E0.066
G1 X106.269 Y109.534 E0.066
G1 X106.85 Y108.13 E0.05
G1 X108.035 Y106.533 E0.066
G1 X109.632 Y105.349 E0.067
G1 X110.476 Y105 E0.03
G1 X109.698 Y104.678 E0.028
G1 X108.553 Y103.912 E0.046
G1 X107.587 Y102.944 E0.045
G1 X106.781 Y101.741 E0.048
G1 X106.113 Y99.868 E0.067
G1 X106.014 Y97.888 E0.065
G1 X106.312 Y96.394 E0.051
G1 X107.129 Y94.665 E0.064
G1 X108.094 Y93.489 E0.05
G1 X109.631 Y92.35 E0.064
G1 X111.034 Y91.769 E0.05
G1 X112.784 Y91.51 E0.059
;rapid-leaky
G0 X112.813 Y91.91 F7200
;bead-skirt/brim
G1 X137.187 F960 E0.811
G1 X138.858 Y92.157 E0.056
G1 X140.112 Y92.676 E0.045
G1 X141.189 Y93.397 E0.043
G1 X142.101 Y94.308 E0.043
G1 X142.824 Y95.388 E0.044
G1 X143.343 Y96.642 E0.045
G1 X143.618 Y98.5 E0.062
G1 X143.343 Y100.359 E0.063
G1 X142.799 Y101.67 E0.047
G1 X141.681 Y103.179 E0.062
G1 X140.171 Y104.299 E0.063
G1 X138.858 Y104.843 E0.047
G1 X137.796 Y105 E0.036
G1 X138.858 Y105.157 E0.036
G1 X140.112 Y105.676 E0.045
G1 X141.189 Y106.397 E0.043
G1 X142.102 Y107.309 E0.043
G1 X142.823 Y108.388 E0.043
G1 X143.343 Y109.64 E0.045
G1 X143.618 Y111.5 E0.062
G1 X143.343 Y113.359 E0.063
G1 X142.799 Y114.67 E0.047
G1 X141.681 Y116.179 E0.063
G1 X140.171 Y117.299 E0.062
G1 X138.858 Y117.843 E0.047
G1 X137.189 Y118.09 E0.057
G1 X114.2 Y118.101 E0.764
G1 Y118.078 E0.001
G1 X112.349 Y118.07 E0.061
G1 X111.084 Y117.818 E0.043
G1 X109.829 Y117.3 E0.046
G1 X108.319 Y116.179 E0.062
G1 X107.201 Y114.67 E0.063
G1 X106.657 Y113.359 E0.047
G1 X106.382 Y111.5 E0.062
G1 X106.657 Y109.642 E0.063
G1 X107.201 Y108.329 E0.047
G1 X108.321 Y106.819 E0.063
G1 X109.831 Y105.7 E0.062
G1 X111.083 Y105.182 E0.045
G1 X112.086 Y104.983 E0.034
G1 X111.142 Y104.843 E0.032
G1 X109.888 Y104.324 E0.045
G1 X108.808 Y103.601 E0.043
G1 X107.898 Y102.689 E0.043
G1 X107.141 Y101.559 E0.045
G1 X106.509 Y99.789 E0.063
G1 X106.416 Y97.918 E0.062
G1 X106.695 Y96.52 E0.048
G1 X107.47 Y94.881 E0.06
G1 X108.372 Y93.781 E0.047
G1 X109.83 Y92.701 E0.061
G1 X111.142 Y92.157 E0.047
G1 X112.813 Y91.91 E0.056
;rapid-leaky
G0 X112.842 Y92.31 F7200
;bead-skirt/brim
G1 X137.158 F960 E0.809
G1 X138.751 Y92.545 E0.053
G1 X139.922 Y93.031 E0.042
G1 X140.934 Y93.708 E0.041
G1 X141.791 Y94.563 E0.04
G1 X142.469 Y95.577 E0.041
G1 X142.954 Y96.749 E0.042
G1 X143.214 Y98.5 E0.059
G1 X142.954 Y100.251 E0.059
G1 X142.449 Y101.471 E0.044
G1 X141.395 Y102.893 E0.058
G1 X139.973 Y103.949 E0.059
G1 X138.75 Y104.455 E0.044
G1 X137.157 Y104.69 E0.054
G1 X135.4 Y104.688 E0.058
G1 Y104.701 E0.001
G1 X112.841 Y104.69 E0.75
G1 X111.25 Y104.455 E0.054
G1 X110.077 Y103.969 E0.042
G1 X109.063 Y103.291 E0.04
G1 X108.208 Y102.434 E0.041
G1 X107.501 Y101.378 E0.042
G1 X106.906 Y99.711 E0.059
G1 X106.818 Y97.947 E0.059
G1 X107.077 Y96.647 E0.044
G1 X107.81 Y95.096 E0.057
G1 X108.65 Y94.073 E0.044
G1 X110.029 Y93.051 E0.057
G1 X111.249 Y92.545 E0.044
G1 X112.842 Y92.31 E0.053
;rapid-leaky
G0 X112.872 Y92.71 F7200
;bead-skirt/brim
G1 X137.128 F960 E0.807
G1 X138.643 Y92.934 E0.051
G1 X139.732 Y93.385 E0.039
G1 X140.679 Y94.019 E0.038
G1 X141.48 Y94.818 E0.038
G1 X142.115 Y95.767 E0.038
G1 X142.566 Y96.857 E0.039
G1 X142.81 Y98.5 E0.055
G1 X142.566 Y100.144 E0.056
G1 X142.098 Y101.273 E0.04
G1 X141.109 Y102.607 E0.055
G1 X139.774 Y103.598 E0.056
G1 X138.643 Y104.066 E0.04
G1 X137.128 Y104.29 E0.051
G1 X135 Y104.287 E0.071
G1 Y104.301 E0.001
G1 X112.87 Y104.29 E0.736
G1 X111.357 Y104.066 E0.05
G1 X110.267 Y103.615 E0.04
G1 X109.318 Y102.98 E0.038
G1 X108.519 Y102.179 E0.037
G1 X107.861 Y101.197 E0.04
G1 X107.302 Y99.632 E0.055
G1 X107.22 Y97.977 E0.055
G1 X107.46 Y96.773 E0.041
G1 X108.151 Y95.312 E0.054
G1 X108.928 Y94.365 E0.04
G1 X110.227 Y93.402 E0.054
G1 X111.357 Y92.934 E0.041
G1 X112.872 Y92.71 E0.051
;rapid-leaky
G0 X112.901 Y93.11 F7200
;bead-skirt/brim
G1 X137.099 F960 E0.805
G1 X138.536 Y93.322 E0.048
G1 X139.543 Y93.74 E0.036
G1 X140.424 Y94.33 E0.035
G1 X141.17 Y95.074 E0.035
G1 X141.761 Y95.957 E0.036
G1 X142.178 Y96.964 E0.036
G1 X142.405 Y98.5 E0.052
G1 X142.177 Y100.036 E0.051
G1 X141.747 Y101.074 E0.038
G1 X140.823 Y102.321 E0.051
G1 X139.575 Y103.247 E0.052
G1 X138.536 Y103.678 E0.037
G1 X137.099 Y103.89 E0.049
G1 X134.6 Y103.887 E0.083
G1 Y103.901
G1 X112.9 Y103.89 E0.722
G1 X111.464 Y103.678 E0.048
G1 X110.457 Y103.261 E0.037
G1 X109.574 Y102.67 E0.035
G1 X108.83 Y101.924 E0.035
G1 X108.221 Y101.015 E0.036
G1 X107.699 Y99.553 E0.052
G1 X107.622 Y98.006 E0.052
G1 X107.843 Y96.899 E0.037
G1 X108.491 Y95.527 E0.051
G1 X109.206 Y94.657 E0.037
G1 X110.426 Y93.753 E0.051
G1 X111.464 Y93.322 E0.037
G1 X112.901 Y93.11 E0.048
;rapid-leaky
G0 X112.931 Y93.51 F7200
;bead-skirt/brim
G1 X137.07 F960 E0.803
G1 X138.429 Y93.711 E0.046
G1 X139.353 Y94.094 E0.033
G1 X140.169 Y94.64 E0.033
G1 X140.859 Y95.329 E0.032
G1 X141.406 Y96.146 E0.033
G1 X141.789 Y97.071 E0.033
G1 X142.001 Y98.5 E0.048
G1 X141.789 Y99.929 E0.048
G1 X141.397 Y100.876 E0.034
G1 X140.537 Y102.036 E0.048
G1 X139.377 Y102.897 E0.048
G1 X138.428 Y103.289 E0.035
G1 X137.07 Y103.49 E0.045
G1 X134.2 Y103.486 E0.096
G1 Y103.501
G1 X112.929 Y103.49 E0.708
G1 X111.572 Y103.289 E0.045
G1 X110.646 Y102.906 E0.034
G1 X109.829 Y102.359 E0.032
G1 X109.14 Y101.669 E0.033
G1 X108.581 Y100.834 E0.033
G1 X108.096 Y99.474 E0.048
G1 X108.024 Y98.036 E0.048
G1 X108.225 Y97.026 E0.034
G1 X108.832 Y95.743 E0.048
G1 X109.483 Y94.949 E0.034
G1 X110.624 Y94.103 E0.047
G1 X111.571 Y93.711 E0.034
G1 X112.931 Y93.51 E0.046
;rapid-leaky
G0 X112.96 Y93.91 F7200
;bead-skirt/brim
G1 X137.04 F960 E0.801
G1 X138.321 Y94.099 E0.043
G1 X139.163 Y94.448 E0.03
G1 X139.914 Y94.951 E0.03
G1 X140.549 Y95.584 E0.03
G1 X141.052 Y96.336 E0.03
G1 X141.401 Y97.179 E0.03
G1 X141.597 Y98.5 E0.045
G1 X141.401 Y99.821 E0.044
G1 X141.046 Y100.677 E0.031
G1 X140.251 Y101.75 E0.044
G1 X139.178 Y102.546 E0.045
G1 X138.321 Y102.901 E0.031
G1 X137.041 Y103.09 E0.043
G1 X133.8 Y103.086 E0.107
G1 Y103.1 E0.001
G1 X112.959 Y103.09 E0.693
G1 X111.679 Y102.901 E0.043
G1 X110.836 Y102.552 E0.031
G1 X110.084 Y102.049 E0.03
G1 X109.451 Y101.414 E0.029
G1 X108.941 Y100.653 E0.031
G1 X108.492 Y99.395 E0.044
G1 X108.426 Y98.066 E0.045
G1 X108.608 Y97.152 E0.031
G1 X109.172 Y95.959 E0.043
G1 X109.761 Y95.241 E0.031
G1 X110.823 Y94.454 E0.044
G1 X111.679 Y94.099 E0.031
G1 X112.96 Y93.91 E0.043
;rapid-leaky
G0 X112.989 Y94.31 F7200
;bead-skirt/brim
G1 X137.011 F960 E0.799
G1 X138.214 Y94.488 E0.041
G1 X138.974 Y94.803 E0.027
G1 X139.659 Y95.262 E0.027
G1 X140.238 Y95.839 E0.028
G1 X140.697 Y96.525 E0.027
G1 X141.012 Y97.286 E0.027
G1 X141.192 Y98.5 E0.041
G1 X141.012 Y99.714 E0.041
G1 X140.695 Y100.478 E0.028
G1 X139.965 Y101.464 E0.04
G1 X138.979 Y102.195 E0.041
G1 X138.214 Y102.512 E0.028
G1 X137.012 Y102.69 E0.04
G1 X133.4 Y102.685 E0.12
G1 Y102.7 E0.001
G1 X112.988 Y102.69 E0.679
G1 X111.786 Y102.512 E0.04
G1 X111.025 Y102.197 E0.028
G1 X110.339 Y101.738 E0.027
G1 X109.762 Y101.16 E0.027
G1 X109.301 Y100.472 E0.028
G1 X108.889 Y99.316 E0.041
G1 X108.828 Y98.095 E0.04
G1 X108.991 Y97.279 E0.028
G1 X109.513 Y96.174 E0.041
G1 X110.039 Y95.533 E0.027
G1 X111.022 Y94.805 E0.041
G1 X111.786 Y94.488 E0.027
G1 X112.989 Y94.31 E0.041
;rapid-leaky
G0 X112.39 Y105.33 F7200
;bead-skirt/brim
G1 X114.6 Y105.32 F960 E0.073
G1 Y105.299 E0.001
G1 X137.158 Y105.31 E0.75
G1 X138.751 Y105.545 E0.054
G1 X139.922 Y106.031 E0.042
G1 X140.934 Y106.708 E0.04
G1 X141.792 Y107.564 E0.041
G1 X142.468 Y108.577 E0.04
G1 X142.954 Y109.748 E0.042
G1 X143.214 Y111.5 E0.059
G1 X142.954 Y113.251 E0.059
G1 X142.449 Y114.471 E0.044
G1 X141.395 Y115.893 E0.059
G1 X139.973 Y116.949 E0.059
G1 X138.75 Y117.455 E0.044
G1 X137.159 Y117.69 E0.053
G1 X114.6 Y117.701 E0.751
G1 Y117.68
G1 X112.39 Y117.67 E0.074
G1 X111.2 Y117.434 E0.04
G1 X110.028 Y116.949 E0.043
G1 X108.605 Y115.893 E0.058
G1 X107.551 Y114.471 E0.059
G1 X107.046 Y113.251 E0.044
G1 X106.786 Y111.5 E0.059
G1 X107.046 Y109.749 E0.059
G1 X107.551 Y108.527 E0.044
G1 X108.607 Y107.105 E0.059
G1 X110.029 Y106.051 E0.059
G1 X111.2 Y105.566 E0.042
G1 X112.39 Y105.33 E0.04
;rapid-leaky
G0 X112.43 Y105.73 F7200
;bead-skirt/brim
G1 X115 Y105.718 F960 E0.086
G1 Y105.699
G1 X137.129 Y105.71 E0.736
G1 X138.643 Y105.934 E0.051
G1 X139.732 Y106.385 E0.04
G1 X140.679 Y107.019 E0.037
G1 X141.481 Y107.819 E0.038
G1 X142.114 Y108.767 E0.038
G1 X142.566 Y109.856 E0.039
G1 X142.81 Y111.5 E0.055
G1 X142.566 Y113.144 E0.056
G1 X142.098 Y114.273 E0.04
G1 X141.109 Y115.607 E0.056
G1 X139.774 Y116.598 E0.055
G1 X138.643 Y117.066 E0.041
G1 X137.13 Y117.29 E0.051
G1 X115 Y117.301 E0.736
G1 Y117.282
G1 X112.43 Y117.27 E0.086
G1 X111.317 Y117.049 E0.037
G1 X110.226 Y116.598 E0.04
G1 X108.891 Y115.607 E0.055
G1 X107.902 Y114.273 E0.055
G1 X107.434 Y113.144 E0.041
G1 X107.19 Y111.5 E0.055
G1 X107.434 Y109.857 E0.055
G1 X107.902 Y108.726 E0.041
G1 X108.893 Y107.391 E0.055
G1 X110.228 Y106.402 E0.056
G1 X111.316 Y105.951 E0.039
G1 X112.43 Y105.73 E0.038
;rapid-leaky
G0 X112.47 Y106.13 F7200
;bead-skirt/brim
G1 X115.4 Y106.116 F960 E0.097
G1 Y106.099 E0.001
G1 X137.099 Y106.11 E0.721
G1 X138.536 Y106.322 E0.049
G1 X139.543 Y106.74 E0.036
G1 X140.424 Y107.33 E0.035
G1 X141.17 Y108.074 E0.035
G1 X141.759 Y108.957 E0.036
G1 X142.177 Y109.963 E0.036
G1 X142.405 Y111.5 E0.051
G1 X142.177 Y113.036 E0.052
G1 X141.747 Y114.074 E0.037
G1 X140.823 Y115.321 E0.052
G1 X139.575 Y116.247 E0.052
G1 X138.536 Y116.678 E0.037
G1 X137.1 Y116.89 E0.048
G1 X115.4 Y116.901 E0.722
G1 Y116.884 E0.001
G1 X112.47 Y116.87 E0.097
G1 X111.433 Y116.664 E0.035
G1 X110.425 Y116.248 E0.037
G1 X109.177 Y115.321 E0.051
G1 X108.253 Y114.074 E0.052
G1 X107.823 Y113.036 E0.037
G1 X107.595 Y111.5 E0.052
G1 X107.822 Y109.964 E0.052
G1 X108.253 Y108.925 E0.037
G1 X109.179 Y107.677 E0.052
G1 X110.426 Y106.752 E0.051
G1 X111.433 Y106.336 E0.037
G1 X112.47 Y106.13 E0.035
;rapid-leaky
G0 X112.51 Y106.529 F7200
;bead-skirt/brim
G1 X115.8 Y106.515 F960 E0.109
G1 Y106.5 E0.001
G1 X137.07 Y106.51 E0.707
G1 X138.429 Y106.711 E0.046
G1 X139.353 Y107.094 E0.033
G1 X140.169 Y107.64 E0.033
G1 X140.86 Y108.329 E0.032
G1 X141.405 Y109.146 E0.033
G1 X141.789 Y110.071 E0.033
G1 X142.001 Y111.5 E0.048
G1 X141.789 Y112.929 E0.048
G1 X141.397 Y113.876 E0.034
G1 X140.537 Y115.036 E0.048
G1 X139.377 Y115.897 E0.049
G1 X138.428 Y116.289 E0.034
G1 X137.071 Y116.49 E0.045
G1 X115.8 Y116.5 E0.708
G1 Y116.485
G1 X112.51 Y116.471 E0.11
G1 X111.55 Y116.28 E0.032
G1 X110.624 Y115.897 E0.034
G1 X109.463 Y115.036 E0.048
G1 X108.603 Y113.876 E0.048
G1 X108.211 Y112.929 E0.034
G1 X107.999 Y111.5 E0.048
G1 X108.211 Y110.071 E0.048
G1 X108.603 Y109.123 E0.034
G1 X109.464 Y107.963 E0.048
G1 X110.625 Y107.103 E0.048
G1 X111.55 Y106.72 E0.033
G1 X112.51 Y106.529 E0.033
;rapid-leaky
G0 X112.551 Y106.929 F7200
;bead-skirt/brim
G1 X116.2 Y106.913 F960 E0.121
G1 Y106.9 E0.001
G1 X137.04 Y106.91 E0.693
G1 X138.321 Y107.099 E0.043
G1 X139.163 Y107.448 E0.03
G1 X139.914 Y107.951 E0.03
G1 X140.549 Y108.584 E0.03
G1 X141.051 Y109.336 E0.03
G1 X141.401 Y110.179 E0.031
G1 X141.597 Y111.5 E0.044
G1 X141.401 Y112.821 E0.044
G1 X141.046 Y113.677 E0.031
G1 X140.251 Y114.75 E0.045
G1 X139.178 Y115.546 E0.044
G1 X138.321 Y115.901 E0.031
G1 X137.041 Y116.09 E0.043
G1 X116.2 Y116.1 E0.693
G1 Y116.087 E0.001
G1 X112.551 Y116.071 E0.121
G1 X111.666 Y115.895 E0.03
G1 X110.822 Y115.546 E0.03
G1 X109.749 Y114.75 E0.045
G1 X108.954 Y113.677 E0.044
G1 X108.599 Y112.821 E0.031
G1 X108.403 Y111.5 E0.044
G1 X108.599 Y110.179 E0.045
G1 X108.954 Y109.322 E0.031
G1 X109.75 Y108.249 E0.044
G1 X110.823 Y107.454 E0.045
G1 X111.666 Y107.105 E0.03
G1 X112.551 Y106.929 E0.03
;rapid-leaky
G0 X112.591 Y107.329 F7200
;bead-skirt/brim
G1 X116.6 Y107.311 F960 E0.133
G1 Y107.3 E0.001
G1 X137.011 Y107.31 E0.678
G1 X138.214 Y107.488 E0.041
G1 X138.974 Y107.803 E0.027
G1 X139.659 Y108.262 E0.028
G1 X140.238 Y108.839 E0.027
G1 X140.696 Y109.525 E0.027
G1 X141.012 Y110.286 E0.028
G1 X141.192 Y111.5 E0.041
G1 X141.012 Y112.714 E0.04
G1 X140.695 Y113.478 E0.028
G1 X139.965 Y114.464 E0.041
G1 X138.979 Y115.195 E0.041
G1 X138.214 Y115.512 E0.027
G1 X137.012 Y115.69 E0.04
G1 X116.6 Y115.7 E0.679
G1 Y115.689 E0.001
G1 X112.591 Y115.671 E0.133
G1 X111.783 Y115.51 E0.027
G1 X111.021 Y115.195 E0.028
G1 X110.035 Y114.464 E0.041
G1 X109.305 Y113.478 E0.041
G1 X108.988 Y112.714 E0.027
G1 X108.808 Y111.5 E0.041
G1 X108.988 Y110.286 E0.041
G1 X109.305 Y109.521 E0.027
G1 X110.036 Y108.535 E0.041
G1 X111.022 Y107.805 E0.041
G1 X111.783 Y107.49 E0.027
G1 X112.591 Y107.329 E0.028
G1 F2100 E-0.5
;rapid-dry
G0 X109.446 Y110.744 F7200
G1 F2100 E0.5
;bead-support
G1 X114.475 Y107.841 F1320 E0.193
G1 X116.23 Y107.833 E0.058
G1 Y109.906 E0.069
G1 X114.756 Y110.758 E0.057
G1 X114.838 Y110.893 E0.005
G1 X114.934 Y111.504 E0.021
G1 X114.838 Y112.109 E0.02
G1 X114.366 Y112.875 E0.03
G1 X113.607 Y113.338 E0.03
G1 X112.996 Y113.434 E0.02
G1 X112.391 Y113.338 E0.02
G1 X111.625 Y112.866 E0.03
G1 X111.489 Y112.644 E0.009
G1 X109.979 Y113.515 E0.058
G1 X110.407 Y114.092 E0.024
G1 X111.279 Y114.739 E0.036
G1 X111.934 Y115.01 E0.024
G1 X112.521 Y115.127 E0.02
G1 X116.23 Y112.986 E0.142
G1 F2100 E-0.5
G0 X115.364 Y113.486 F2400
G0 X116.23 Y112.986 F2400
;rapid-dry
G0 X125.468 Y109.248 F7200
G1 F2100 E0.5
;bead-perimeter_outer
G1 X125.157 Y109.205 F720 E0.01
G1 X124.843 E0.011
G1 X124.532 Y109.248 E0.01
G1 X124.23 Y109.332 E0.011
G1 X123.941 Y109.457 E0.01
G1 X123.663 Y109.629 E0.011
G1 X123.43 Y109.819 E0.01
G1 X123.215 Y110.049 E0.011
G1 X123.035 Y110.305 E0.01
G1 X122.89 Y110.583 E0.01
G1 X122.785 Y110.879 E0.011
G1 X122.721 Y111.187 E0.01
G1 X122.7 Y111.5 E0.011
G1 X122.721 Y111.813 E0.01
G1 X122.785 Y112.121 E0.011
G1 X122.89 Y112.417 E0.01
G1 X123.035 Y112.695 E0.011
G1 X123.215 Y112.951 E0.01
G1 X123.43 Y113.181 E0.01
G1 X123.673 Y113.38 E0.011
G1 X123.942 Y113.543 E0.01
G1 X124.23 Y113.668 E0.011
G1 X124.532 Y113.752 E0.01
G1 X124.843 Y113.795 E0.011
G1 X125.157 E0.01
G1 X125.468 Y113.752 E0.01
G1 X125.77 Y113.668 E0.011
G1 X126.058 Y113.543 E0.01
G1 X126.327 Y113.38 E0.011
G1 X126.57 Y113.181 E0.01
G1 X126.785 Y112.951 E0.011
G1 X126.965 Y112.695 E0.01
G1 X127.11 Y112.417 E0.011
G1 X127.215 Y112.121 E0.01
G1 X127.28 Y111.801 E0.011
G1 X127.3 Y111.5 E0.01
G1 X127.279 Y111.187 E0.01
G1 X127.215 Y110.879 E0.011
G1 X127.11 Y110.583 E0.01
G1 X126.965 Y110.305 E0.011
G1 X126.785 Y110.049 E0.01
G1 X126.57 Y109.819 E0.011
G1 X126.327 Y109.62 E0.01
G1 X126.058 Y109.457 E0.01
G1 X125.77 Y109.332 E0.011
G1 X125.468 Y109.248 E0.01
;rapid-leaky
G0 X125.541 Y108.894 F7200
;bead-perimeter_inner
G1 X125.181 Y108.845 F960 E0.012
G1 X124.819 E0.012
G1 X124.459 Y108.894 E0.013
G1 X124.11 Y108.992 E0.012
G1 X123.775 Y109.137 E0.012
G1 X123.454 Y109.335 E0.012
G1 X123.184 Y109.555 E0.012
G1 X122.935 Y109.821 E0.012
G1 X122.727 Y110.117 E0.012
G1 X122.559 Y110.439 E0.012
G1 X122.437 Y110.782 E0.012
G1 X122.364 Y111.138 E0.012
G1 X122.339 Y111.5 E0.012
G1 X122.364 Y111.862 E0.012
G1 X122.437 Y112.218 E0.013
G1 X122.559 Y112.561 E0.012
G1 X122.727 Y112.883 E0.012
G1 X122.935 Y113.179 E0.012
G1 X123.184 Y113.445 E0.012
G1 X123.465 Y113.674 E0.012
G1 X123.776 Y113.863 E0.012
G1 X124.11 Y114.008 E0.012
G1 X124.459 Y114.106 E0.012
G1 X124.819 Y114.155 E0.012
G1 X125.181 E0.012
G1 X125.541 Y114.106 E0.012
G1 X125.89 Y114.008 E0.012
G1 X126.224 Y113.863 E0.013
G1 X126.535 Y113.674 E0.012
G1 X126.816 Y113.445 E0.012
G1 X127.065 Y113.179 E0.012
G1 X127.273 Y112.883 E0.012
G1 X127.441 Y112.561 E0.012
G1 X127.563 Y112.217 E0.012
G1 X127.637 Y111.849 E0.013
G1 X127.661 Y111.5 E0.011
G1 X127.636 Y111.138 E0.012
G1 X127.563 Y110.782 E0.012
G1 X127.441 Y110.439 E0.013
G1 X127.273 Y110.117 E0.012
G1 X127.065 Y109.821 E0.012
G1 X126.816 Y109.555 E0.012
G1 X126.535 Y109.326 E0.012
G1 X126.224 Y109.137 E0.012
G1 X125.89 Y108.992 E0.012
G1 X125.541 Y108.894 E0.012
G1 F2100 E-0.5
;rapid-dry
G0 X133 Y107.7 F7200
G1 F2100 E0.5
;bead-perimeter_outer
G1 Y115.3 F720 E0.253
G1 X117 E0.532
G1 Y107.7 E0.253
G1 X133 E0.532
;rapid-leaky
G0 X132.64 Y108.06 F7200
;bead-perimeter_inner
G1 Y114.94 F960 E0.229
G1 X117.36 E0.508
G1 Y108.06 E0.229
G1 X132.64 E0.508
G1 F2100 E-0.5
;rapid-dry
G0 X133.77 Y109.017 F7200
G1 F2100 E0.5
;bead-support
G1 X135.826 Y107.83 F1320 E0.079
G1 X136.972 E0.038
G1 X138.074 Y107.993 E0.037
G1 X138.727 Y108.264 E0.024
G1 X139.328 Y108.666 E0.024
G1 X139.469 Y108.806 E0.006
G1 X137.821 Y109.758 E0.064
G1 X137.862 Y109.768 E0.001
G1 X138.369 Y110.135 E0.021
G1 X138.733 Y110.638 E0.021
G1 X138.938 Y111.506 E0.029
G1 X138.747 Y112.302 E0.027
G1 X140.625 Y111.218 E0.073
G1 X140.667 Y111.5 E0.009
G1 X140.507 Y112.574 E0.036
G1 X140.239 Y113.22 E0.023
G1 X139.593 Y114.092 E0.037
G1 X138.721 Y114.739 E0.036
G1 X138.074 Y115.007 E0.023
G1 X136.974 Y115.17 E0.037
G1 X133.788 Y115.166 E0.106
G1 X136.843 Y113.402 E0.117
G1 X136.138 Y113.232 E0.024
G1 X135.631 Y112.865 E0.021
G1 X135.267 Y112.362 E0.021
G1 X135.062 Y111.494 E0.029
G1 X135.102 Y111.327 E0.006
G1 X133.77 Y112.096 E0.051
G1 F2100 E-0.5
G0 X134.636 Y111.596 F2400
G0 X133.77 Y112.096 F2400
;rapid-dry
G0 X140.605 Y98.913 F7200
G1 F2100 E0.5
;bead-support
G1 X134.968 Y102.167 F1320 E0.217
G1 X133.77 Y102.166 E0.04
G1 Y99.78 E0.079
G1 X135.143 Y98.987 E0.053
G1 X135.066 Y98.498 E0.016
G1 X135.162 Y97.892 E0.021
G1 X135.633 Y97.126 E0.03
G1 X136.391 Y96.662 E0.029
G1 X137.002 Y96.566 E0.021
G1 X137.608 Y96.662 E0.02
G1 X138.365 Y97.127 E0.03
G1 X139.886 Y96.248 E0.058
G1 X139.835 Y96.171 E0.003
G1 X139.328 Y95.666 E0.024
G1 X138.727 Y95.264 E0.024
G1 X138.074 Y94.993 E0.024
G1 X137.002 Y94.834 E0.036
G1 X133.77 Y96.7 E0.124
G1 F2100 E-0.5
G0 X134.636 Y96.2 F2400
G0 X133.77 Y96.7 F2400
;rapid-dry
G0 X133 Y94.7 F7200
G1 F2100 E0.5
;bead-perimeter_outer
G1 Y102.3 F720 E0.252
G1 X117 E0.533
G1 Y94.7 E0.252
G1 X133 E0.533
;rapid-leaky
G0 X132.64 Y95.06 F7200
;bead-perimeter_inner
G1 Y101.94 F960 E0.228
G1 X117.36 E0.509
G1 Y95.06 E0.228
G1 X132.64 E0.509
G1 F2100 E-0.5
;rapid-dry
G0 X127.215 Y97.879 F7200
G1 F2100 E0.5
;bead-perimeter_outer
G1 X127.11 Y97.583 F720 E0.01
G1 X126.965 Y97.305 E0.011
G1 X126.785 Y97.049 E0.01
G1 X126.57 Y96.819 E0.01
G1 X126.327 Y96.62 E0.011
G1 X126.058 Y96.457 E0.01
G1 X125.77 Y96.332 E0.011
G1 X125.468 Y96.248 E0.01
G1 X125.157 Y96.205 E0.011
G1 X124.843 E0.01
G1 X124.532 Y96.248 E0.011
G1 X124.23 Y96.332 E0.01
G1 X123.941 Y96.457 E0.01
G1 X123.663 Y96.629 E0.011
G1 X123.43 Y96.819 E0.01
G1 X123.215 Y97.049 E0.011
G1 X123.035 Y97.305 E0.01
G1 X122.89 Y97.583 E0.011
G1 X122.785 Y97.879 E0.01
G1 X122.721 Y98.187 E0.01
G1 X122.7 Y98.5 E0.011
G1 X122.721 Y98.813 E0.01
G1 X122.785 Y99.121 E0.011
G1 X122.89 Y99.417 E0.01
G1 X123.035 Y99.695 E0.011
G1 X123.215 Y99.951 E0.01
G1 X123.43 Y100.181 E0.011
G1 X123.673 Y100.38 E0.01
G1 X123.942 Y100.543 E0.01
G1 X124.23 Y100.668 E0.011
G1 X124.532 Y100.752 E0.01
G1 X124.843 Y100.795 E0.011
G1 X125.157 E0.01
G1 X125.468 Y100.752 E0.011
G1 X125.77 Y100.668 E0.01
G1 X126.058 Y100.543 E0.011
G1 X126.327 Y100.38 E0.01
G1 X126.57 Y100.181 E0.01
G1 X126.785 Y99.951 E0.011
G1 X126.965 Y99.695 E0.01
G1 X127.11 Y99.417 E0.011
G1 X127.215 Y99.121 E0.01
G1 X127.28 Y98.801 E0.011
G1 X127.3 Y98.5 E0.01
G1 X127.279 Y98.187 E0.011
G1 X127.215 Y97.879 E0.01
;rapid-leaky
G0 X127.563 Y97.782 F7200
;bead-perimeter_inner
G1 X127.441 Y97.439 F960 E0.012
G1 X127.273 Y97.117 E0.012
G1 X127.065 Y96.821 E0.012
G1 X126.816 Y96.555 E0.012
G1 X126.535 Y96.326 E0.012
G1 X126.224 Y96.137 E0.013
G1 X125.89 Y95.992 E0.012
G1 X125.541 Y95.894 E0.012
G1 X125.181 Y95.845 E0.012
G1 X124.819 E0.012
G1 X124.459 Y95.894 E0.012
G1 X124.11 Y95.992 E0.012
G1 X123.775 Y96.137 E0.012
G1 X123.454 Y96.335 E0.013
G1 X123.184 Y96.555 E0.011
G1 X122.935 Y96.821 E0.012
G1 X122.727 Y97.117 E0.012
G1 X122.559 Y97.439 E0.012
G1 X122.437 Y97.782 E0.013
G1 X122.364 Y98.138 E0.012
G1 X122.339 Y98.5 E0.012
G1 X122.364 Y98.862 E0.012
G1 X122.437 Y99.218 E0.012
G1 X122.559 Y99.561 E0.012
G1 X122.727 Y99.883 E0.012
G1 X122.935 Y100.179 E0.012
G1 X123.184 Y100.445 E0.012
G1 X123.465 Y100.674 E0.012
G1 X123.776 Y100.863 E0.012
G1 X124.11 Y101.008 E0.012
G1 X124.459 Y101.106 E0.013
G1 X124.819 Y101.155 E0.012
G1 X125.181 E0.012
G1 X125.541 Y101.106 E0.012
G1 X125.89 Y101.008 E0.012
G1 X126.224 Y100.863 E0.012
G1 X126.535 Y100.674 E0.012
G1 X126.816 Y100.445 E0.012
G1 X127.065 Y100.179 E0.012
G1 X127.273 Y99.883 E0.012
G1 X127.441 Y99.561 E0.012
G1 X127.563 Y99.217 E0.012
G1 X127.637 Y98.849 E0.013
G1 X127.661 Y98.5 E0.012
G1 X127.636 Y98.138 E0.012
G1 X127.563 Y97.782 E0.012
G1 F2100 E-0.5
;rapid-dry
G0 X124.138 Y95.38 F7200
G1 F2100 E0.5
;bead-solid_infill
G1 X123.695 Y95.823 F720 E0.021
G1 X124.002 Y95.69 E0.011
G1 X124.394 Y95.58 E0.013
G1 X124.52 Y95.563 E0.004
G1 X124.703 Y95.38 E0.009
G1 X125.269 E0.019
G1 X125.124 Y95.525 E0.007
G1 X125.203 E0.002
G1 X125.606 Y95.58 E0.014
G1 X125.628 Y95.587 E0.001
G1 X125.835 Y95.38 E0.009
G1 X126.4 E0.019
G1 X126.063 Y95.718 E0.016
G1 X126.371 Y95.852 E0.011
G1 X126.448 Y95.898 E0.003
G1 X126.966 Y95.38 E0.025
G1 X127.532 E0.018
G1 X126.791 Y96.121 E0.035
G1 X126.93 Y96.235 E0.006
G1 X127.035 Y96.321 E0.005
G1 X127.094 Y96.383 E0.003
G1 X128.097 Y95.38 E0.047
G1 X128.663 E0.019
G1 X127.359 Y96.684 E0.061
G1 X127.547 Y96.95 E0.011
G1 X127.585 Y97.023 E0.003
G1 X129.229 Y95.38 E0.077
G1 X129.794 E0.019
G1 X127.769 Y97.406 E0.095
G1 X127.872 Y97.696 E0.01
G1 X127.901 Y97.839 E0.005
G1 X130.36 Y95.38 E0.116
G1 X130.926 E0.019
G1 X127.971 Y98.335 E0.139
G1 X127.982 Y98.5 E0.005
G1 X127.955 Y98.892 E0.013
G1 X127.949 Y98.923 E0.001
G1 X131.492 Y95.38 E0.167
G1 F2100 E-0.5
;rapid-dry
G0 X132.04 Y101.62 F7200
G1 F2100 E0.5
;bead-solid_infill
G1 X132.32 Y101.34 F720 E0.013
G1 Y100.774 E0.019
G1 X131.474 Y101.62 E0.04
G1 X130.908 E0.018
G1 X132.32 Y100.208 E0.067
G1 Y99.643 E0.019
G1 X130.343 Y101.62 E0.093
G1 X129.777 E0.018
G1 X132.32 Y99.077 E0.12
G1 Y98.511 E0.019
G1 X129.211 Y101.62 E0.146
G1 X128.646 E0.019
G1 X132.32 Y97.946 E0.173
G1 Y97.38 E0.019
G1 X128.08 Y101.62 E0.199
G1 X127.514 E0.019
G1 X132.32 Y96.814 E0.226
G1 Y96.249 E0.019
G1 X126.949 Y101.62 E0.252
G1 X126.383 E0.019
G1 X132.32 Y95.683 E0.279
G1 Y95.38 E0.01
G1 X132.057 E0.009
G1 X127.72 Y99.717 E0.204
G1 X127.547 Y100.05 E0.013
G1 X127.313 Y100.381 E0.013
G1 X127.035 Y100.679 E0.014
G1 X126.72 Y100.936 E0.013
G1 X126.536 Y101.048 E0.007
G1 X126.372 Y101.148 E0.007
G1 X126.253 Y101.2 E0.004
G1 X126.226 Y101.212 E0.001
G1 X125.817 Y101.62 E0.019
G1 X125.252 E0.019
G1 X125.427 Y101.444 E0.008
G1 X125.203 Y101.475 E0.008
G1 X124.831 E0.012
G1 X124.686 Y101.62 E0.007
G1 X124.12 E0.019
G1 X124.337 Y101.404 E0.01
G1 X124.308 Y101.396 E0.001
G1 X124.002 Y101.31 E0.011
G1 X123.906 Y101.269 E0.003
G1 X123.554 Y101.62 E0.017
G1 X122.989 E0.019
G1 X123.524 Y101.085 E0.025
G1 X123.28 Y100.936 E0.009
G1 X123.185 Y100.859 E0.004
G1 X122.423 Y101.62 E0.036
G1 X121.857 E0.019
G1 X122.884 Y100.593 E0.048
G1 X122.687 Y100.381 E0.01
G1 X122.622 Y100.29 E0.004
G1 X121.292 Y101.62 E0.062
G1 X120.726 E0.019
G1 X122.399 Y99.947 E0.079
G1 X122.375 Y99.901 E0.001
G1 X122.265 Y99.689 E0.008
G1 X122.22 Y99.561 E0.005
G1 X120.16 Y101.62 E0.097
G1 X119.595 E0.019
G1 X122.091 Y99.124 E0.117
G1 X122.046 Y98.906 E0.007
G1 X122.026 Y98.623 E0.01
G1 X119.029 Y101.62 E0.141
G1 X118.463 E0.019
G1 X122.061 Y98.022 E0.169
G1 X122.128 Y97.696 E0.011
G1 X122.265 Y97.311 E0.014
G1 X122.329 Y97.189 E0.004
G1 X117.898 Y101.62 E0.209
G1 X117.68 E0.007
G1 Y101.272 E0.011
G1 X123.572 Y95.38 E0.277
G1 X123.006 E0.019
G1 X117.68 Y100.706 E0.251
G1 Y100.141 E0.019
G1 X122.441 Y95.38 E0.224
G1 X121.875 E0.018
G1 X117.68 Y99.575 E0.198
G1 Y99.009 E0.018
G1 X121.309 Y95.38 E0.171
G1 X120.744 E0.019
G1 X117.68 Y98.444 E0.144
G1 Y97.878 E0.019
G1 X120.178 Y95.38 E0.117
G1 X119.612 E0.019
G1 X117.68 Y97.312 E0.091
G1 Y96.746 E0.019
G1 X119.046 Y95.38 E0.064
G1 X118.481 E0.019
G1 X117.68 Y96.181 E0.038
G1 Y95.615 E0.018
G1 X117.915 Y95.38 E0.012
G1 F2100 E-0.5
;rapid-dry
G0 X109.367 Y98.473 F7200
G1 F2100 E0.5
;bead-support
G1 X111.594 Y97.187 F1320 E0.085
G1 X111.635 Y97.131 E0.002
G1 X112.138 Y96.767 E0.021
G1 X112.448 Y96.694 E0.011
G1 X115.67 Y94.834 E0.123
G1 X116.23 E0.019
G1 Y97.59 E0.092
G1 X114.903 Y98.356 E0.051
G1 X114.938 Y98.506 E0.005
G1 X114.732 Y99.362 E0.029
G1 X114.365 Y99.869 E0.021
G1 X113.862 Y100.233 E0.02
G1 X112.994 Y100.438 E0.03
G1 X112.138 Y100.232 E0.029
G1 X111.923 Y100.077 E0.009
G1 X110.332 Y100.995 E0.061
G1 X110.671 Y101.335 E0.016
G1 X111.272 Y101.736 E0.024
G1 X111.926 Y102.007 E0.024
G1 X113.027 Y102.17 E0.037
G1 X113.63 E0.02
G1 X116.23 Y100.669 E0.1
G1 F2100 E-0.5
G0 X115.364 Y101.169 F2400
G0 X116.23 Y100.669 F2400
;rapid-dry
G0 X117.926 Y108.38 F7200
G1 F2100 E0.5
;bead-solid_infill
G1 X117.68 Y108.626 F720 E0.011
G1 Y109.192 E0.019
G1 X118.492 Y108.38 E0.038
G1 X119.057 E0.019
G1 X117.68 Y109.757 E0.065
G1 Y110.323 E0.019
G1 X119.623 Y108.38 E0.091
G1 X120.189 E0.019
G1 X117.68 Y110.889 E0.118
G1 Y111.454 E0.019
G1 X120.754 Y108.38 E0.144
G1 X121.32 E0.019
G1 X117.68 Y112.02 E0.171
G1 Y112.586 E0.019
G1 X121.886 Y108.38 E0.198
G1 X122.451 E0.019
G1 X117.68 Y113.151 E0.224
G1 Y113.717 E0.019
G1 X123.017 Y108.38 E0.251
G1 X123.583 E0.019
G1 X117.68 Y114.283 E0.278
G1 Y114.62 E0.011
G1 X117.908 E0.007
G1 X122.317 Y110.211 E0.208
G1 X122.265 Y110.311 E0.004
G1 X122.128 Y110.696 E0.013
G1 X122.058 Y111.036 E0.012
G1 X118.474 Y114.62 E0.168
G1 X119.04 E0.019
G1 X122.027 Y111.633 E0.141
G1 X122.046 Y111.906 E0.009
G1 X122.093 Y112.132 E0.007
G1 X119.605 Y114.62 E0.117
G1 X120.171 E0.019
G1 X122.222 Y112.569 E0.097
G1 X122.265 Y112.689 E0.004
G1 X122.364 Y112.879 E0.007
G1 X122.403 Y112.954 E0.003
G1 X120.737 Y114.62 E0.078
G1 X121.303 E0.019
G1 X122.626 Y113.296 E0.062
G1 X122.687 Y113.381 E0.004
G1 X122.889 Y113.599 E0.01
G1 X121.868 Y114.62 E0.048
G1 X122.434 E0.019
G1 X123.19 Y113.863 E0.035
G1 X123.28 Y113.936 E0.004
G1 X123.531 Y114.089 E0.01
G1 X123 Y114.62 E0.025
G1 X123.565 E0.019
G1 X123.913 Y114.272 E0.016
G1 X124.002 Y114.31 E0.003
G1 X124.198 Y114.365 E0.007
G1 X124.345 Y114.406 E0.005
G1 X124.131 Y114.62 E0.01
G1 X124.697 E0.019
G1 X124.842 Y114.475 E0.007
G1 X125.203 E0.012
G1 X125.44 Y114.443 E0.008
G1 X125.262 Y114.62 E0.008
G1 X125.828 E0.019
G1 X126.245 Y114.203 E0.019
G1 X126.372 Y114.148 E0.005
G1 X126.536 Y114.048 E0.006
G1 X126.72 Y113.936 E0.008
G1 X127.035 Y113.679 E0.013
G1 X127.313 Y113.381 E0.014
G1 X127.547 Y113.05 E0.013
G1 X127.709 Y112.739 E0.012
G1 X132.068 Y108.38 E0.205
G1 X132.32 E0.008
G1 Y108.694 E0.011
G1 X126.394 Y114.62 E0.278
G1 X126.959 E0.019
G1 X132.32 Y109.259 E0.252
G1 Y109.825 E0.019
G1 X127.525 Y114.62 E0.226
G1 X128.091 E0.019
G1 X132.32 Y110.391 E0.198
G1 Y110.956 E0.019
G1 X128.656 Y114.62 E0.173
G1 X129.222 E0.018
G1 X132.32 Y111.522 E0.146
G1 Y112.088 E0.019
G1 X129.788 Y114.62 E0.119
G1 X130.353 E0.019
G1 X132.32 Y112.653 E0.092
G1 Y113.219 E0.019
G1 X130.919 Y114.62 E0.066
G1 X131.485 E0.019
G1 X132.32 Y113.785 E0.039
G1 Y114.351 E0.019
G1 X132.051 Y114.62 E0.013
G1 F2100 E-0.5
;rapid-dry
G0 X131.502 Y108.38 F7200
G1 F2100 E0.5
;bead-solid_infill
G1 X127.946 Y111.936 F720 E0.167
G1 X127.955 Y111.892 E0.001
G1 X127.982 Y111.5 E0.014
G1 X127.971 Y111.345 E0.005
G1 X130.937 Y108.38 E0.139
G1 X130.371 E0.019
G1 X127.903 Y110.848 E0.116
G1 X127.872 Y110.696 E0.005
G1 X127.824 Y110.562 E0.005
G1 X127.771 Y110.414 E0.005
G1 X129.805 Y108.38 E0.096
G1 X129.24 E0.019
G1 X127.589 Y110.031 E0.077
G1 X127.547 Y109.95 E0.003
G1 X127.364 Y109.69 E0.011
G1 X128.674 Y108.38 E0.062
G1 X128.108 E0.018
G1 X127.099 Y109.389 E0.048
G1 X127.035 Y109.321 E0.003
G1 X126.797 Y109.126 E0.01
G1 X127.543 Y108.38 E0.035
G1 X126.977 E0.019
G1 X126.455 Y108.902 E0.025
G1 X126.371 Y108.852 E0.003
G1 X126.07 Y108.721 E0.011
G1 X126.411 Y108.38 E0.016
G1 X125.845 E0.019
G1 X125.637 Y108.589 E0.009
G1 X125.606 Y108.58 E0.002
G1 X125.203 Y108.525 E0.013
G1 X125.135 E0.002
G1 X125.28 Y108.38 E0.007
G1 X124.714 E0.019
G1 X124.533 Y108.561 E0.008
G1 X124.394 Y108.58 E0.005
G1 X124.002 Y108.69 E0.014
G1 X123.714 Y108.815 E0.01
G1 X124.148 Y108.38 E0.021
G1 F2100 E-0.5
;LAYER:2
M107
;rapid-dry
G0 X125.468 Y109.248 Z0.35 F7200
G1 F2100 E0.5
;bead-perimeter_outer
G1 X125.156 Y109.205 F1800 E0.007
G1 X124.817 Y109.208 E0.009
G1 X124.532 Y109.248 E0.007
G1 X124.23 Y109.332 E0.008
G1 X123.942 Y109.457 E0.008
G1 X123.672 Y109.621 E0.008
G1 X123.412 Y109.837 E0.008
G1 X123.215 Y110.049 E0.007
G1 X123.035 Y110.305 E0.008
G1 X122.89 Y110.583 E0.008
G1 X122.785 Y110.879 E0.008
G1 X122.721 Y111.187 E0.008
G1 X122.7 Y111.5 E0.007
G1 X122.721 Y111.813 E0.008
G1 X122.785 Y112.121 E0.008
G1 X122.89 Y112.417 E0.008
G1 X123.035 Y112.695 E0.008
G1 X123.216 Y112.952 E0.008
G1 X123.45 Y113.198 E0.008
G1 X123.673 Y113.38 E0.007
G1 X123.943 Y113.544 E0.008
G1 X124.255 Y113.675 E0.009
G1 X124.532 Y113.752 E0.007
G1 X124.844 Y113.795 E0.008
G1 X125.183 Y113.792 E0.008
G1 X125.468 Y113.752 E0.007
G1 X125.771 Y113.668 E0.008
G1 X126.081 Y113.529 E0.008
G1 X126.327 Y113.38 E0.008
G1 X126.57 Y113.181 E0.007
G1 X126.785 Y112.951 E0.008
G1 X126.965 Y112.695 E0.008
G1 X127.11 Y112.417 E0.008
G1 X127.215 Y112.12 E0.008
G1 X127.281 Y111.787 E0.008
G1 X127.3 Y111.5 E0.007
G1 X127.279 Y111.187 E0.008
G1 X127.215 Y110.879 E0.008
G1 X127.11 Y110.583 E0.008
G1 X126.965 Y110.305 E0.008
G1 X126.784 Y110.048 E0.008
G1 X126.55 Y109.802 E0.008
G1 X126.327 Y109.62 E0.007
G1 X126.057 Y109.456 E0.008
G1 X125.745 Y109.325 E0.009
G1 X125.468 Y109.248 E0.007
;rapid-leaky
G0 X125.541 Y108.894 F7200
;bead-perimeter_inner
G1 X125.179 Y108.845 F2400 E0.009
G1 X124.791 Y108.848 E0.01
G1 X124.459 Y108.895 E0.008
G1 X124.11 Y108.992 E0.009
G1 X123.776 Y109.137 E0.009
G1 X123.463 Y109.327 E0.009
G1 X123.165 Y109.575 E0.01
G1 X122.935 Y109.821 E0.008
G1 X122.727 Y110.117 E0.009
G1 X122.559 Y110.439 E0.009
G1 X122.437 Y110.782 E0.009
G1 X122.364 Y111.138 E0.01
G1 X122.339 Y111.5 E0.009
G1 X122.364 Y111.862 E0.009
G1 X122.437 Y112.218 E0.009
G1 X122.559 Y112.561 E0.009
G1 X122.727 Y112.883 E0.009
G1 X122.937 Y113.181 E0.009
G1 X123.205 Y113.463 E0.01
G1 X123.465 Y113.675 E0.008
G1 X123.778 Y113.865 E0.009
G1 X124.137 Y114.016 E0.01
G1 X124.459 Y114.106 E0.008
G1 X124.821 Y114.155 E0.009
G1 X125.209 Y114.152 E0.01
G1 X125.541 Y114.106 E0.008
G1 X125.893 Y114.007 E0.009
G1 X126.249 Y113.849 E0.01
G1 X126.535 Y113.674 E0.009
G1 X126.816 Y113.445 E0.009
G1 X127.065 Y113.179 E0.009
G1 X127.273 Y112.883 E0.009
G1 X127.441 Y112.561 E0.009
G1 X127.564 Y112.216 E0.009
G1 X127.638 Y111.834 E0.01
G1 X127.661 Y111.5 E0.008
G1 X127.636 Y111.138 E0.009
G1 X127.563 Y110.782 E0.009
G1 X127.441 Y110.439 E0.009
G1 X127.273 Y110.117 E0.009
G1 X127.063 Y109.819 E0.009
G1 X126.795 Y109.537 E0.01
G1 X126.535 Y109.325 E0.008
G1 X126.222 Y109.135 E0.01
G1 X125.863 Y108.984 E0.009
G1 X125.541 Y108.894 E0.009
G1 F2100 E-0.5
;rapid-dry
G0 X133 Y107.7 F7200
G1 F2100 E0.5
;bead-perimeter_outer
G1 Y115.3 F1800 E0.189
G1 X117 E0.399
G1 Y107.7 E0.19
G1 X133 E0.399
;rapid-leaky
G0 X132.64 Y108.06 F7200
;bead-perimeter_inner
G1 Y114.94 F2400 E0.172
G1 X117.36 E0.381
G1 Y108.06 E0.171
G1 X132.64 E0.382
G1 F2100 E-0.5
;rapid-dry
G0 X133.77 Y109.017 F7200
G1 F2100 E0.5
;bead-support
G1 X135.826 Y107.83 F3300 E0.059
G1 X136.972 E0.028
G1 X138.074 Y107.993 E0.028
G1 X138.727 Y108.264 E0.018
G1 X139.328 Y108.666 E0.018
G1 X139.469 Y108.806 E0.005
G1 X137.821 Y109.758 E0.047
G1 X137.862 Y109.768 E0.001
G1 X138.369 Y110.135 E0.016
G1 X138.733 Y110.638 E0.015
G1 X138.938 Y111.506 E0.023
G1 X138.747 Y112.302 E0.02
G1 X140.625 Y111.218 E0.054
G1 X140.667 Y111.5 E0.007
G1 X140.507 Y112.574 E0.027
G1 X140.239 Y113.22 E0.018
G1 X139.593 Y114.092 E0.027
G1 X138.721 Y114.739 E0.027
G1 X138.074 Y115.007 E0.017
G1 X136.974 Y115.17 E0.028
G1 X133.788 Y115.166 E0.08
G1 X136.843 Y113.402 E0.088
G1 X136.138 Y113.232 E0.018
G1 X135.631 Y112.865 E0.015
G1 X135.267 Y112.362 E0.016
G1 X135.062 Y111.494 E0.022
G1 X135.102 Y111.327 E0.004
G1 X133.77 Y112.096 E0.039
G1 F2100 E-0.5
G0 X134.636 Y111.596 F2400
G0 X133.77 Y112.096 F2400
;rapid-dry
G0 X140.605 Y98.913 F7200
G1 F2100 E0.5
;bead-support
G1 X134.968 Y102.167 F3300 E0.162
G1 X133.77 Y102.166 E0.03
G1 Y99.78 E0.06
G1 X135.143 Y98.987 E0.039
G1 X135.066 Y98.498 E0.012
G1 X135.162 Y97.892 E0.016
G1 X135.633 Y97.126 E0.022
G1 X136.391 Y96.662 E0.022
G1 X137.002 Y96.566 E0.016
G1 X137.608 Y96.662 E0.015
G1 X138.365 Y97.127 E0.022
G1 X139.886 Y96.248 E0.044
G1 X139.835 Y96.171 E0.002
G1 X139.328 Y95.666 E0.018
G1 X138.727 Y95.264 E0.018
G1 X138.074 Y94.993 E0.018
G1 X137.002 Y94.834 E0.027
G1 X133.77 Y96.7 E0.093
G1 F2100 E-0.5
G0 X134.636 Y96.2 F2400
G0 X133.77 Y96.7 F2400
;rapid-dry
G0 X133 Y94.7 F7200
G1 F2100 E0.5
;bead-perimeter_outer
G1 Y102.3 F1800 E0.19
G1 X117 E0.399
G1 Y94.7 E0.189
G1 X133 E0.399
;rapid-leaky
G0 X132.64 Y95.06 F7200
;bead-perimeter_inner
G1 Y101.94 F2400 E0.172
G1 X117.36 E0.381
G1 Y95.06 E0.172
G1 X132.64 E0.381
G1 F2100 E-0.5
;rapid-dry
G0 X127.11 Y97.583 F7200
G1 F2100 E0.5
;bead-perimeter_outer
G1 X126.965 Y97.305 F1800 E0.008
G1 X126.784 Y97.048 E0.008
G1 X126.55 Y96.802 E0.008
G1 X126.327 Y96.62 E0.007
G1 X126.057 Y96.456 E0.008
G1 X125.745 Y96.325 E0.009
G1 X125.468 Y96.248 E0.007
G1 X125.156 Y96.205 E0.008
G1 X124.817 Y96.208 E0.008
G1 X124.532 Y96.248 E0.007
G1 X124.23 Y96.332 E0.008
G1 X123.942 Y96.457 E0.008
G1 X123.672 Y96.621 E0.008
G1 X123.412 Y96.837 E0.008
G1 X123.215 Y97.049 E0.007
G1 X123.035 Y97.305 E0.008
G1 X122.89 Y97.583 E0.008
G1 X122.785 Y97.879 E0.008
G1 X122.721 Y98.187 E0.008
G1 X122.7 Y98.5 E0.008
G1 X122.721 Y98.813 E0.007
G1 X122.785 Y99.121 E0.008
G1 X122.89 Y99.417 E0.008
G1 X123.035 Y99.695 E0.008
G1 X123.216 Y99.952 E0.008
G1 X123.45 Y100.198 E0.008
G1 X123.673 Y100.38 E0.007
G1 X123.943 Y100.544 E0.008
G1 X124.255 Y100.675 E0.009
G1 X124.532 Y100.752 E0.007
G1 X124.844 Y100.795 E0.008
G1 X125.183 Y100.792 E0.008
G1 X125.468 Y100.752 E0.007
G1 X125.771 Y100.668 E0.008
G1 X126.081 Y100.529 E0.009
G1 X126.327 Y100.38 E0.007
G1 X126.57 Y100.181 E0.008
G1 X126.785 Y99.951 E0.008
G1 X126.965 Y99.695 E0.007
G1 X127.11 Y99.417 E0.008
G1 X127.215 Y99.12 E0.008
G1 X127.281 Y98.787 E0.009
G1 X127.3 Y98.5 E0.007
G1 X127.279 Y98.187 E0.008
G1 X127.215 Y97.879 E0.007
G1 X127.11 Y97.583 E0.008
;rapid-leaky
G0 X127.441 Y97.439 F7200
;bead-perimeter_inner
G1 X127.273 Y97.117 F2400 E0.009
G1 X127.063 Y96.819 E0.009
G1 X126.795 Y96.537 E0.01
G1 X126.535 Y96.325 E0.008
G1 X126.222 Y96.135 E0.01
G1 X125.863 Y95.984 E0.009
G1 X125.541 Y95.894 E0.009
G1 X125.179 Y95.845 E0.009
G1 X124.791 Y95.848 E0.009
G1 X124.459 Y95.895 E0.009
G1 X124.11 Y95.992 E0.009
G1 X123.776 Y96.137 E0.009
G1 X123.463 Y96.327 E0.009
G1 X123.165 Y96.575 E0.01
G1 X122.935 Y96.821 E0.008
G1 X122.727 Y97.117 E0.009
G1 X122.559 Y97.439 E0.009
G1 X122.437 Y97.782 E0.009
G1 X122.364 Y98.138 E0.009
G1 X122.339 Y98.5 E0.009
G1 X122.364 Y98.862 E0.009
G1 X122.437 Y99.218 E0.01
G1 X122.559 Y99.561 E0.009
G1 X122.727 Y99.883 E0.009
G1 X122.937 Y100.181 E0.009
G1 X123.205 Y100.463 E0.009
G1 X123.465 Y100.675 E0.009
G1 X123.778 Y100.865 E0.009
G1 X124.137 Y101.016 E0.01
G1 X124.459 Y101.106 E0.008
G1 X124.821 Y101.155 E0.009
G1 X125.209 Y101.152 E0.01
G1 X125.541 Y101.106 E0.008
G1 X125.893 Y101.007 E0.009
G1 X126.249 Y100.849 E0.01
G1 X126.535 Y100.674 E0.008
G1 X126.816 Y100.445 E0.009
G1 X127.065 Y100.179 E0.01
G1 X127.273 Y99.883 E0.009
G1 X127.441 Y99.561 E0.009
G1 X127.564 Y99.215 E0.009
G1 X127.638 Y98.834 E0.009
G1 X127.661 Y98.5 E0.009
G1 X127.636 Y98.138 E0.009
G1 X127.563 Y97.782 E0.009
G1 X127.441 Y97.439 E0.009
G1 F2100 E-0.5
;rapid-dry
G0 X126.394 Y95.38 F7200
G1 F2100 E0.5
;bead-solid_infill
G1 X132.32 Y101.306 F1800 E0.209
G1 Y100.741 E0.014
G1 X126.959 Y95.38 E0.189
G1 X127.525 E0.014
G1 X132.32 Y100.175 E0.17
G1 Y99.609 E0.014
G1 X128.091 Y95.38 E0.149
G1 X128.656 E0.014
G1 X132.32 Y99.044 E0.129
G1 Y98.478 E0.014
G1 X129.222 Y95.38 E0.11
G1 X129.788 E0.014
G1 X132.32 Y97.912 E0.089
G1 Y97.347 E0.014
G1 X130.353 Y95.38 E0.07
G1 X130.919 E0.014
G1 X132.32 Y96.781 E0.049
G1 Y96.215 E0.014
G1 X131.485 Y95.38 E0.03
G1 X132.051 E0.014
G1 X132.32 Y95.649 E0.009
G1 F2100 E-0.5
;rapid-dry
G0 Y108.66 F7200
G1 F2100 E0.5
;bead-solid_infill
G1 X132.04 Y108.38 F1800 E0.01
G1 X131.474 E0.014
G1 X132.32 Y109.226 E0.03
G1 Y109.792 E0.014
G1 X130.908 Y108.38 E0.05
G1 X130.343 E0.014
G1 X132.32 Y110.357 E0.07
G1 Y110.923 E0.014
G1 X129.777 Y108.38 E0.09
G1 X129.211 E0.014
G1 X132.32 Y111.489 E0.109
G1 Y112.054 E0.015
G1 X128.646 Y108.38 E0.129
G1 X128.08 E0.014
G1 X132.32 Y112.62 E0.15
G1 Y113.186 E0.014
G1 X127.514 Y108.38 E0.17
G1 X126.949 E0.014
G1 X132.32 Y113.751 E0.189
G1 Y114.317 E0.014
G1 X126.383 Y108.38 E0.21
G1 F2100 E-0.5
;rapid-dry
G0 X117.898 F7200
G1 F2100 E0.5
;bead-solid_infill
G1 X122.329 Y112.811 F1800 E0.156
G1 X122.265 Y112.689 E0.003
G1 X122.128 Y112.304 E0.011
G1 X122.061 Y111.978 E0.008
G1 X118.463 Y108.38 E0.127
G1 X119.029 E0.014
G1 X122.026 Y111.377 E0.106
G1 X122.046 Y111.094 E0.007
G1 X122.091 Y110.876 E0.005
G1 X119.595 Y108.38 E0.088
G1 X120.16 E0.015
G1 X122.22 Y110.439 E0.072
G1 X122.265 Y110.311 E0.004
G1 X122.391 Y110.069 E0.006
G1 X122.399 Y110.053 E0.001
G1 X120.726 Y108.38 E0.059
G1 X121.292 E0.014
G1 X122.622 Y109.71 E0.047
G1 X122.686 Y109.619 E0.003
G1 X122.884 Y109.407 E0.007
G1 X121.857 Y108.38 E0.036
G1 X122.423 E0.014
G1 X123.185 Y109.142 E0.027
G1 X123.276 Y109.066 E0.003
G1 X123.524 Y108.915 E0.007
G1 X122.989 Y108.38 E0.019
G1 X123.554 E0.014
G1 X123.906 Y108.731 E0.013
G1 X124.002 Y108.69 E0.002
G1 X124.337 Y108.596 E0.009
G1 X124.12 Y108.38 E0.008
G1 X124.686 E0.014
G1 X124.834 Y108.528 E0.005
G1 X125.199 Y108.524 E0.009
G1 X125.427 Y108.556 E0.006
G1 X125.252 Y108.38 E0.006
G1 X125.817 E0.014
G1 X126.227 Y108.79 E0.015
G1 X126.368 Y108.849 E0.003
G1 X126.72 Y109.063 E0.011
G1 X126.888 Y109.201 E0.005
G1 X127.013 Y109.302 E0.004
G1 X127.311 Y109.615 E0.011
G1 X127.547 Y109.95 E0.01
G1 X127.72 Y110.283 E0.009
G1 X132.057 Y114.62 E0.153
G1 X131.492 E0.015
G1 X127.951 Y111.079 E0.124
G1 X127.954 Y111.094 E0.001
G1 X127.982 Y111.5 E0.01
G1 X127.971 Y111.665 E0.004
G1 X130.926 Y114.62 E0.104
G1 X130.36 E0.014
G1 X127.9 Y112.16 E0.087
G1 X127.873 Y112.3 E0.004
G1 X127.769 Y112.594 E0.008
G1 X129.794 Y114.62 E0.071
G1 X129.229 E0.014
G1 X127.585 Y112.977 E0.058
G1 X127.547 Y113.05 E0.002
G1 X127.359 Y113.316 E0.008
G1 X128.663 Y114.62 E0.046
G1 X128.097 E0.014
G1 X127.094 Y113.617 E0.036
G1 X127.035 Y113.679 E0.002
G1 X126.791 Y113.879 E0.008
G1 X127.532 Y114.62 E0.026
G1 X126.966 E0.014
G1 X126.448 Y114.102 E0.018
G1 X126.398 Y114.133 E0.002
G1 X126.063 Y114.282 E0.009
G1 X126.4 Y114.62 E0.012
G1 X125.835 E0.014
G1 X125.628 Y114.413 E0.007
G1 X125.607 Y114.42 E0.001
G1 X125.233 Y114.471 E0.009
G1 X125.121 Y114.473 E0.003
G1 X125.269 Y114.62 E0.005
G1 X124.703 E0.014
G1 X124.52 Y114.437 E0.007
G1 X124.395 Y114.42 E0.003
G1 X124.031 Y114.319 E0.009
G1 X123.694 Y114.177 E0.01
G1 X124.138 Y114.62 E0.015
G1 X123.572 E0.014
G1 X117.68 Y108.728 E0.208
G1 Y109.294 E0.014
G1 X123.006 Y114.62 E0.188
G1 X122.441 E0.014
G1 X117.68 Y109.859 E0.168
G1 Y110.425 E0.014
G1 X121.875 Y114.62 E0.148
G1 X121.309 E0.014
G1 X117.68 Y110.991 E0.128
G1 Y111.556 E0.015
G1 X120.744 Y114.62 E0.108
G1 X120.178 E0.014
G1 X117.68 Y112.122 E0.088
G1 Y112.688 E0.014
G1 X119.612 Y114.62 E0.068
G1 X119.046 E0.014
G1 X117.68 Y113.254 E0.048
G1 Y113.819 E0.015
G1 X118.481 Y114.62 E0.028
G1 X117.915 E0.014
G1 X117.68 Y114.385 E0.008
G1 F2100 E-0.5
;rapid-dry
G0 X116.23 Y112.986 F7200
G1 F2100 E0.5
;bead-support
G1 X112.521 Y115.127 F3300 E0.107
G1 X111.934 Y115.01 E0.015
G1 X111.279 Y114.739 E0.018
G1 X110.407 Y114.092 E0.027
G1 X109.979 Y113.515 E0.018
G1 X111.489 Y112.644 E0.043
G1 X111.625 Y112.866 E0.007
G1 X112.391 Y113.338 E0.022
G1 X112.996 Y113.434 E0.015
G1 X113.607 Y113.338 E0.016
G1 X114.366 Y112.875 E0.022
G1 X114.838 Y112.109 E0.022
G1 X114.934 Y111.504 E0.016
G1 X114.838 Y110.893 E0.015
G1 X114.756 Y110.758 E0.004
G1 X116.23 Y109.906 E0.043
G1 Y107.833 E0.051
G1 X114.475 Y107.841 E0.044
G1 X109.446 Y110.744 E0.145
G1 F2100 E-0.5
G0 X110.312 Y110.244 F2400
G0 X109.446 Y110.744 F2400
;rapid-dry
G0 X109.367 Y98.473 F7200
G1 F2100 E0.5
;bead-support
G1 X111.594 Y97.187 F3300 E0.064
G1 X111.635 Y97.131 E0.002
G1 X112.138 Y96.767 E0.015
G1 X112.448 Y96.694 E0.008
G1 X115.67 Y94.834 E0.093
G1 X116.23 E0.014
G1 Y97.59 E0.069
G1 X114.903 Y98.356 E0.038
G1 X114.938 Y98.506 E0.004
G1 X114.732 Y99.362 E0.022
G1 X114.365 Y99.869 E0.015
G1 X113.862 Y100.233 E0.016
G1 X112.994 Y100.438 E0.022
G1 X112.138 Y100.232 E0.022
G1 X111.923 Y100.077 E0.007
G1 X110.332 Y100.995 E0.046
G1 X110.671 Y101.335 E0.012
G1 X111.272 Y101.736 E0.018
G1 X111.926 Y102.007 E0.017
G1 X113.027 Y102.17 E0.028
G1 X113.63 E0.015
G1 X116.23 Y100.669 E0.075
G1 F2100 E-0.5
G0 X115.364 Y101.169 F2400
G0 X116.23 Y100.669 F2400
;rapid-dry
G0 X117.68 Y101.374 F7200
G1 F2100 E0.5
;bead-solid_infill
G1 X117.926 Y101.62 F1800 E0.009
G1 X118.492 E0.014
G1 X117.68 Y100.808 E0.028
G1 Y100.243 E0.014
G1 X119.057 Y101.62 E0.049
G1 X119.623 E0.014
G1 X117.68 Y99.677 E0.069
G1 Y99.111 E0.014
G1 X120.189 Y101.62 E0.088
G1 X120.754 E0.014
G1 X117.68 Y98.546 E0.109
G1 Y97.98 E0.014
G1 X121.32 Y101.62 E0.128
G1 X121.886 E0.014
G1 X117.68 Y97.414 E0.149
G1 Y96.849 E0.014
G1 X122.451 Y101.62 E0.168
G1 X123.017 E0.014
G1 X117.68 Y96.283 E0.189
G1 Y95.717 E0.014
G1 X123.583 Y101.62 E0.208
G1 X124.148 E0.014
G1 X123.713 Y101.185 E0.015
G1 X124.031 Y101.319 E0.009
G1 X124.395 Y101.42 E0.01
G1 X124.533 Y101.439 E0.003
G1 X124.714 Y101.62 E0.006
G1 X125.28 E0.014
G1 X125.132 Y101.472 E0.006
G1 X125.233 Y101.471 E0.002
G1 X125.607 Y101.42 E0.01
G1 X125.637 Y101.411
G1 X125.845 Y101.62 E0.008
G1 X126.411 E0.014
G1 X126.07 Y101.279 E0.012
G1 X126.201 Y101.221 E0.003
G1 X126.398 Y101.133 E0.006
G1 X126.455 Y101.098 E0.002
G1 X126.977 Y101.62 E0.018
G1 X127.543 E0.014
G1 X126.797 Y100.874 E0.026
G1 X127.036 Y100.679 E0.008
G1 X127.099 Y100.611 E0.002
G1 X128.108 Y101.62 E0.036
G1 X128.674 E0.014
G1 X127.364 Y100.31 E0.046
G1 X127.547 Y100.05 E0.008
G1 X127.589 Y99.969 E0.003
G1 X129.24 Y101.62 E0.058
G1 X129.805 E0.014
G1 X127.771 Y99.586 E0.072
G1 X127.8 Y99.506 E0.002
G1 X127.873 Y99.3 E0.005
G1 X127.902 Y99.151 E0.004
G1 X130.371 Y101.62 E0.087
G1 X130.937 E0.014
G1 X127.971 Y98.655 E0.105
G1 X127.982 Y98.5 E0.004
G1 X127.954 Y98.094 E0.01
G1 X127.948 Y98.066 E0.001
G1 X131.502 Y101.62 E0.125
G1 X132.068 E0.014
G1 X127.709 Y97.261 E0.154
G1 X127.547 Y96.95 E0.009
G1 X127.311 Y96.615 E0.01
G1 X127.013 Y96.302 E0.011
G1 X126.72 Y96.063 E0.009
G1 X126.368 Y95.849 E0.01
G1 X126.246 Y95.798 E0.004
G1 X125.828 Y95.38 E0.014
G1 X125.262 E0.014
G1 X125.44 Y95.558 E0.007
G1 X125.199 Y95.524 E0.006
G1 X124.844 Y95.528 E0.009
G1 X124.697 Y95.38 E0.005
G1 X124.131 E0.014
G1 X124.345 Y95.594 E0.007
G1 X124.002 Y95.69 E0.009
G1 X123.913 Y95.728 E0.003
G1 X123.565 Y95.38 E0.012
G1 X123 E0.014
G1 X123.531 Y95.911 E0.019
G1 X123.276 Y96.066 E0.007
G1 X123.191 Y96.137 E0.003
G1 X122.434 Y95.38 E0.027
G1 X121.868 E0.014
G1 X122.889 Y96.401 E0.036
G1 X122.686 Y96.619 E0.007
G1 X122.626 Y96.704 E0.003
G1 X121.303 Y95.38 E0.047
G1 X120.737 E0.014
G1 X122.403 Y97.046 E0.059
G1 X122.265 Y97.311 E0.007
G1 X122.222 Y97.431 E0.003
G1 X120.171 Y95.38 E0.073
G1 X119.605 E0.014
G1 X122.093 Y97.868 E0.087
G1 X122.046 Y98.094 E0.006
G1 X122.027 Y98.367 E0.007
G1 X119.04 Y95.38 E0.105
G1 X118.474 E0.014
G1 X122.058 Y98.964 E0.127
G1 X122.128 Y99.304 E0.009
G1 X122.205 Y99.52 E0.005
G1 X122.265 Y99.689 E0.005
G1 X122.317 Y99.789 E0.003
G1 X117.908 Y95.38 E0.155
G1 F2100 E-0.5
;LAYER:3
M107
;rapid-leaky
G0 X117 Y94.7 Z0.5 F7200
G1 F2100 E0.5
;bead-perimeter_outer
G1 X133 F1800 E0.399
G1 Y102.3 E0.19
G1 X117 E0.399
G1 Y94.7 E0.19
;rapid-leaky
G0 X117.36 Y95.06 F7200
;bead-perimeter_inner
G1 X132.64 F2400 E0.381
G1 Y101.94 E0.171
G1 X117.36 E0.381
G1 Y95.06 E0.172
G1 F2100 E-0.5
;rapid-dry
G0 X109.367 Y98.473 F7200
G1 F2100 E0.5
;bead-support
G1 X111.594 Y97.187 F3300 E0.064
G1 X111.635 Y97.131 E0.002
G1 X112.138 Y96.767 E0.015
G1 X112.448 Y96.694 E0.008
G1 X115.67 Y94.834 E0.093
G1 X116.23 E0.014
G1 Y97.59 E0.069
G1 X114.903 Y98.356 E0.038
G1 X114.938 Y98.506 E0.004
G1 X114.732 Y99.362 E0.022
G1 X114.365 Y99.869 E0.016
G1 X113.862 Y100.233 E0.015
G1 X112.994 Y100.438 E0.022
G1 X112.138 Y100.232 E0.022
G1 X111.923 Y100.077 E0.007
G1 X110.332 Y100.995 E0.046
G1 X110.671 Y101.335 E0.012
G1 X111.272 Y101.736 E0.018
G1 X111.926 Y102.007 E0.017
G1 X113.027 Y102.17 E0.028
G1 X113.63 E0.015
G1 X116.23 Y100.669 E0.075
G1 F2100 E-0.5
G0 X115.364 Y101.169 F2400
G0 X116.23 Y100.669 F2400
;rapid-dry
G0 X117 Y107.7 F7200
G1 F2100 E0.5
;bead-perimeter_outer
G1 X133 F1800 E0.399
G1 Y115.3 E0.19
G1 X117 E0.399
G1 Y107.7 E0.189
;rapid-leaky
G0 X117.36 Y108.06 F7200
;bead-perimeter_inner
G1 X132.64 F2400 E0.382
G1 Y114.94 E0.171
G1 X117.36 E0.381
G1 Y108.06 E0.172
G1 F2100 E-0.5
;rapid-dry
G0 X109.446 Y110.744 F7200
G1 F2100 E0.5
;bead-support
G1 X114.475 Y107.841 F3300 E0.145
G1 X116.23 Y107.833 E0.044
G1 Y109.906 E0.051
G1 X114.756 Y110.758 E0.043
G1 X114.838 Y110.893 E0.004
G1 X114.934 Y111.504 E0.015
G1 X114.838 Y112.109 E0.016
G1 X114.366 Y112.875 E0.022
G1 X113.607 Y113.338 E0.022
G1 X112.996 Y113.434 E0.016
G1 X112.391 Y113.338 E0.015
G1 X111.625 Y112.866 E0.022
G1 X111.489 Y112.644 E0.007
G1 X109.979 Y113.515 E0.043
G1 X110.407 Y114.092 E0.018
G1 X111.279 Y114.739 E0.027
G1 X111.934 Y115.01 E0.018
G1 X112.521 Y115.127 E0.015
G1 X116.23 Y112.986 E0.107
G1 F2100 E-0.5
G0 X115.364 Y113.486 F2400
G0 X116.23 Y112.986 F2400
;rapid-dry
G0 X124.532 Y109.248 F7200
G1 F2100 E0.5
;bead-perimeter_outer
G1 X124.23 Y109.332 F1800 E0.008
G1 X123.942 Y109.457 E0.007
G1 X123.673 Y109.62 E0.008
G1 X123.43 Y109.819 E0.008
G1 X123.215 Y110.049 E0.008
G1 X123.034 Y110.306 E0.008
G1 X122.877 Y110.621 E0.009
G1 X122.785 Y110.879 E0.006
G1 X122.721 Y111.187 E0.008
G1 X122.7 Y111.5 E0.008
G1 X122.721 Y111.813 E0.008
G1 X122.785 Y112.122 E0.008
G1 X122.908 Y112.452 E0.009
G1 X123.035 Y112.695 E0.006
G1 X123.216 Y112.953 E0.008
G1 X123.46 Y113.206 E0.009
G1 X123.673 Y113.38 E0.007
G1 X123.942 Y113.543 E0.008
G1 X124.23 Y113.668 E0.008
G1 X124.532 Y113.752 E0.007
G1 X124.845 Y113.795 E0.008
G1 X125.195 Y113.79 E0.009
G1 X125.468 Y113.752 E0.007
G1 X125.77 Y113.668 E0.008
G1 X126.058 Y113.543 E0.008
G1 X126.327 Y113.38 E0.007
G1 X126.571 Y113.18 E0.008
G1 X126.807 Y112.919 E0.009
G1 X126.965 Y112.695 E0.007
G1 X127.11 Y112.417 E0.008
G1 X127.216 Y112.12 E0.008
G1 X127.282 Y111.774 E0.008
G1 X127.3 Y111.5 E0.007
G1 X127.279 Y111.187 E0.008
G1 X127.215 Y110.878 E0.008
G1 X127.092 Y110.548 E0.009
G1 X126.965 Y110.305 E0.006
G1 X126.784 Y110.047 E0.008
G1 X126.54 Y109.794 E0.009
G1 X126.327 Y109.62 E0.007
G1 X126.058 Y109.457 E0.008
G1 X125.77 Y109.332 E0.008
G1 X125.468 Y109.248 E0.007
G1 X125.155 Y109.205 E0.008
G1 X124.805 Y109.21 E0.009
G1 X124.532 Y109.248 E0.007
;rapid-leaky
G0 X124.459 Y108.894 F7200
;bead-perimeter_inner
G1 X124.11 Y108.992 F2400 E0.009
G1 X123.776 Y109.137 E0.009
G1 X123.465 Y109.326 E0.009
G1 X123.184 Y109.555 E0.009
G1 X122.935 Y109.821 E0.009
G1 X122.724 Y110.121 E0.009
G1 X122.545 Y110.479 E0.01
G1 X122.437 Y110.782 E0.008
G1 X122.364 Y111.138 E0.01
G1 X122.339 Y111.5 E0.009
G1 X122.364 Y111.862 E0.009
G1 X122.438 Y112.222 E0.009
G1 X122.578 Y112.599 E0.01
G1 X122.727 Y112.883 E0.008
G1 X122.938 Y113.182 E0.009
G1 X123.216 Y113.472 E0.01
G1 X123.465 Y113.675 E0.008
G1 X123.776 Y113.863 E0.009
G1 X124.11 Y114.008 E0.009
G1 X124.459 Y114.106 E0.009
G1 X124.823 Y114.156 E0.009
G1 X125.223 Y114.149 E0.01
G1 X125.541 Y114.106 E0.008
G1 X125.89 Y114.008 E0.009
G1 X126.224 Y113.863 E0.009
G1 X126.535 Y113.674 E0.01
G1 X126.82 Y113.442 E0.009
G1 X127.089 Y113.144 E0.01
G1 X127.274 Y112.883 E0.008
G1 X127.441 Y112.561 E0.009
G1 X127.564 Y112.214 E0.009
G1 X127.639 Y111.82 E0.01
G1 X127.661 Y111.5 E0.008
G1 X127.636 Y111.138 E0.009
G1 X127.562 Y110.778 E0.009
G1 X127.422 Y110.401 E0.01
G1 X127.273 Y110.117 E0.008
G1 X127.062 Y109.818 E0.009
G1 X126.784 Y109.528 E0.01
G1 X126.535 Y109.325 E0.008
G1 X126.224 Y109.137 E0.009
G1 X125.89 Y108.992 E0.009
G1 X125.541 Y108.894 E0.01
G1 X125.177 Y108.844 E0.009
G1 X124.777 Y108.851 E0.01
G1 X124.459 Y108.894 E0.008
G1 F2100 E-0.5
;rapid-dry
G0 X133.77 Y112.096 F7200
G1 F2100 E0.5
;bead-support
G1 X135.102 Y111.327 F3300 E0.038
G1 X135.062 Y111.494 E0.004
G1 X135.267 Y112.362 E0.023
G1 X135.631 Y112.865 E0.015
G1 X136.138 Y113.232 E0.016
G1 X136.843 Y113.402 E0.018
G1 X133.788 Y115.166 E0.088
G1 X136.974 Y115.17 E0.079
G1 X138.074 Y115.007 E0.028
G1 X138.721 Y114.739 E0.017
G1 X139.593 Y114.092 E0.028
G1 X140.239 Y113.22 E0.027
G1 X140.507 Y112.574 E0.017
G1 X140.667 Y111.5 E0.027
G1 X140.625 Y111.218 E0.007
G1 X138.747 Y112.302 E0.054
G1 X138.938 Y111.506 E0.021
G1 X138.733 Y110.638 E0.022
G1 X138.369 Y110.135 E0.016
G1 X137.862 Y109.768 E0.015
G1 X137.821 Y109.758 E0.001
G1 X139.469 Y108.806 E0.048
G1 X139.398 Y108.735 E0.002
G1 X139.329 Y108.666 E0.003
G1 X138.727 Y108.264 E0.018
G1 X138.074 Y107.993 E0.017
G1 X136.972 Y107.83 E0.028
G1 X135.826 E0.029
G1 X133.77 Y109.017 E0.059
G1 F2100 E-0.5
G0 X134.636 Y108.517 F2400
G0 X133.77 Y109.017 F2400
;rapid-dry
G0 X140.605 Y98.913 F7200
G1 F2100 E0.5
;bead-support
G1 X134.968 Y102.167 F3300 E0.162
G1 X133.77 Y102.166 E0.03
G1 Y99.78 E0.06
G1 X135.143 Y98.987 E0.039
G1 X135.066 Y98.498 E0.013
G1 X135.162 Y97.892 E0.015
G1 X135.633 Y97.126 E0.022
G1 X136.391 Y96.662 E0.023
G1 X137.002 Y96.566 E0.015
G1 X137.608 Y96.662 E0.015
G1 X138.365 Y97.127 E0.022
G1 X139.886 Y96.248 E0.044
G1 X139.835 Y96.171 E0.003
G1 X139.398 Y95.735 E0.015
G1 X139.329 Y95.666 E0.002
G1 X138.727 Y95.264 E0.018
G1 X138.074 Y94.993 E0.018
G1 X137.002 Y94.834 E0.027
G1 X133.77 Y96.7 E0.093
G1 F2100 E-0.5
G0 X134.636 Y96.2 F2400
G0 X133.77 Y96.7 F2400
;rapid-dry
G0 X122.785 Y97.879 F7200
G1 F2100 E0.5
;bead-perimeter_outer
G1 X122.721 Y98.187 F1800 E0.008
G1 X122.7 Y98.5 E0.008
G1 X122.721 Y98.813 E0.008
G1 X122.785 Y99.122 E0.008
G1 X122.908 Y99.452 E0.008
G1 X123.035 Y99.695 E0.007
G1 X123.216 Y99.953 E0.008
G1 X123.46 Y100.206 E0.009
G1 X123.673 Y100.38 E0.007
G1 X123.942 Y100.543 E0.008
G1 X124.23 Y100.668 E0.007
G1 X124.532 Y100.752 E0.008
G1 X124.845 Y100.795 E0.008
G1 X125.195 Y100.79 E0.009
G1 X125.468 Y100.752 E0.007
G1 X125.77 Y100.668 E0.007
G1 X126.058 Y100.543 E0.008
G1 X126.327 Y100.38 E0.008
G1 X126.571 Y100.18 E0.008
G1 X126.807 Y99.919 E0.009
G1 X126.965 Y99.695 E0.007
G1 X127.11 Y99.417 E0.007
G1 X127.216 Y99.12 E0.008
G1 X127.282 Y98.774 E0.009
G1 X127.3 Y98.5 E0.007
G1 X127.279 Y98.187 E0.008
G1 X127.215 Y97.878 E0.008
G1 X127.092 Y97.548 E0.008
G1 X126.965 Y97.305 E0.007
G1 X126.784 Y97.047 E0.008
G1 X126.54 Y96.794 E0.009
G1 X126.327 Y96.62 E0.007
G1 X126.058 Y96.457 E0.008
G1 X125.77 Y96.332 E0.007
G1 X125.468 Y96.248 E0.008
G1 X125.155 Y96.205 E0.008
G1 X124.805 Y96.21 E0.009
G1 X124.532 Y96.248 E0.007
G1 X124.23 Y96.332 E0.008
G1 X123.942 Y96.457 E0.007
G1 X123.673 Y96.62 E0.008
G1 X123.43 Y96.819 E0.008
G1 X123.215 Y97.049 E0.008
G1 X123.034 Y97.306 E0.008
G1 X122.877 Y97.621 E0.009
G1 X122.785 Y97.879 E0.006
;rapid-leaky
G0 X122.437 Y97.782 F7200
;bead-perimeter_inner
G1 X122.364 Y98.138 F2400 E0.009
G1 X122.339 Y98.5 E0.01
G1 X122.364 Y98.862 E0.009
G1 X122.438 Y99.222 E0.009
G1 X122.578 Y99.599 E0.01
G1 X122.727 Y99.883 E0.008
G1 X122.938 Y100.182 E0.009
G1 X123.216 Y100.472 E0.01
G1 X123.465 Y100.675 E0.008
G1 X123.776 Y100.863 E0.009
G1 X124.11 Y101.008 E0.009
G1 X124.459 Y101.106 E0.009
G1 X124.823 Y101.156 E0.009
G1 X125.223 Y101.149 E0.01
G1 X125.541 Y101.106 E0.008
G1 X125.89 Y101.008 E0.009
G1 X126.224 Y100.863 E0.009
G1 X126.535 Y100.674 E0.009
G1 X126.82 Y100.442 E0.01
G1 X127.089 Y100.144 E0.01
G1 X127.274 Y99.883 E0.008
G1 X127.441 Y99.561 E0.009
G1 X127.564 Y99.214 E0.009
G1 X127.639 Y98.82 E0.01
G1 X127.661 Y98.5 E0.008
G1 X127.636 Y98.138 E0.009
G1 X127.562 Y97.778 E0.009
G1 X127.422 Y97.401 E0.01
G1 X127.273 Y97.117 E0.008
G1 X127.062 Y96.818 E0.009
G1 X126.784 Y96.528 E0.01
G1 X126.535 Y96.325 E0.008
G1 X126.224 Y96.137 E0.009
G1 X125.89 Y95.992 E0.009
G1 X125.541 Y95.894 E0.009
G1 X125.177 Y95.844 E0.01
G1 X124.777 Y95.851 E0.01
G1 X124.459 Y95.894 E0.008
G1 X124.11 Y95.992 E0.009
G1 X123.776 Y96.137 E0.009
G1 X123.465 Y96.326 E0.009
G1 X123.184 Y96.555 E0.009
G1 X122.935 Y96.821 E0.009
G1 X122.724 Y97.121 E0.009
G1 X122.545 Y97.479 E0.01
G1 X122.437 Y97.782 E0.008
G1 F2100 E-0.5
;rapid-dry
G0 X124.138 Y95.38 F7200
G1 F2100 E0.5
;bead-solid_infill
G1 X123.695 Y95.823 F1800 E0.016
G1 X124.002 Y95.69 E0.008
G1 X124.394 Y95.58 E0.01
G1 X124.52 Y95.563 E0.003
G1 X124.703 Y95.38 E0.007
G1 X125.269 E0.014
G1 X125.124 Y95.525 E0.005
G1 X125.196 Y95.524 E0.002
G1 X125.606 Y95.58 E0.01
G1 X125.628 Y95.587 E0.001
G1 X125.835 Y95.38 E0.007
G1 X126.4 E0.014
G1 X126.063 Y95.718 E0.012
G1 X126.372 Y95.852 E0.009
G1 X126.448 Y95.898 E0.002
G1 X126.966 Y95.38 E0.018
G1 X127.532 E0.014
G1 X126.791 Y96.121 E0.026
G1 X127.001 Y96.292 E0.007
G1 X127.091 Y96.386 E0.003
G1 X128.097 Y95.38 E0.036
G1 X128.663 E0.014
G1 X127.359 Y96.684 E0.046
G1 X127.547 Y96.95 E0.008
G1 X127.585 Y97.023 E0.002
G1 X129.229 Y95.38 E0.058
G1 X129.794 E0.014
G1 X127.766 Y97.409 E0.072
G1 X127.87 Y97.689 E0.007
G1 X127.901 Y97.839 E0.004
G1 X130.36 Y95.38 E0.087
G1 X130.926 E0.014
G1 X127.971 Y98.335 E0.104
G1 X127.982 Y98.499 E0.004
G1 X127.957 Y98.861 E0.009
G1 X127.945 Y98.927 E0.002
G1 X131.492 Y95.38 E0.125
G1 F2100 E-0.5
;rapid-dry
G0 X132.04 Y101.62 F7200
G1 F2100 E0.5
;bead-solid_infill
G1 X132.32 Y101.34 F1800 E0.01
G1 Y100.774 E0.014
G1 X131.474 Y101.62 E0.03
G1 X130.908 E0.014
G1 X132.32 Y100.208 E0.05
G1 Y99.643 E0.014
G1 X130.343 Y101.62 E0.07
G1 X129.777 E0.014
G1 X132.32 Y99.077 E0.09
G1 Y98.511 E0.014
G1 X129.211 Y101.62 E0.109
G1 X128.646 E0.014
G1 X132.32 Y97.946 E0.13
G1 Y97.38 E0.014
G1 X128.08 Y101.62 E0.15
G1 X127.514 E0.014
G1 X132.32 Y96.814 E0.169
G1 Y96.249 E0.015
G1 X126.949 Y101.62 E0.189
G1 X126.383 E0.014
G1 X132.32 Y95.683 E0.21
G1 Y95.38 E0.007
G1 X132.057 E0.007
G1 X127.72 Y99.717 E0.153
G1 X127.548 Y100.049 E0.009
G1 X127.34 Y100.345 E0.009
G1 X127.19 Y100.51 E0.006
G1 X127.041 Y100.675 E0.005
G1 X126.72 Y100.936 E0.01
G1 X126.371 Y101.148 E0.011
G1 X126.253 Y101.2 E0.003
G1 X126.226 Y101.212 E0.001
G1 X125.817 Y101.62 E0.014
G1 X125.252 E0.014
G1 X125.427 Y101.444 E0.006
G1 X125.247 Y101.469 E0.005
G1 X124.83 Y101.476 E0.01
G1 X124.686 Y101.62 E0.005
G1 X124.12 E0.014
G1 X124.337 Y101.404 E0.008
G1 X124.209 Y101.368 E0.003
G1 X124.002 Y101.31 E0.006
G1 X123.906 Y101.269 E0.002
G1 X123.554 Y101.62 E0.013
G1 X122.989 E0.014
G1 X123.524 Y101.085 E0.019
G1 X123.28 Y100.937 E0.007
G1 X123.184 Y100.859 E0.003
G1 X122.423 Y101.62 E0.027
G1 X121.857 E0.014
G1 X122.887 Y100.591 E0.036
G1 X122.69 Y100.387 E0.007
G1 X122.622 Y100.29 E0.003
G1 X121.292 Y101.62 E0.047
G1 X120.726 E0.014
G1 X122.399 Y99.947 E0.059
G1 X122.285 Y99.73 E0.006
G1 X122.222 Y99.559 E0.005
G1 X120.16 Y101.62 E0.073
G1 X119.595 E0.014
G1 X122.091 Y99.124 E0.088
G1 X122.046 Y98.906 E0.005
G1 X122.026 Y98.623 E0.008
G1 X119.029 Y101.62 E0.105
G1 X118.463 E0.014
G1 X122.061 Y98.022 E0.127
G1 X122.128 Y97.696 E0.009
G1 X122.165 Y97.592 E0.002
G1 X122.25 Y97.354 E0.007
G1 X122.336 Y97.182 E0.004
G1 X117.898 Y101.62 E0.157
G1 X117.68 E0.005
G1 Y101.272 E0.009
G1 X123.572 Y95.38 E0.208
G1 X123.006 E0.014
G1 X117.68 Y100.706 E0.188
G1 Y100.141 E0.014
G1 X122.441 Y95.38 E0.168
G1 X121.875 E0.014
G1 X117.68 Y99.575 E0.148
G1 Y99.009 E0.014
G1 X121.309 Y95.38 E0.128
G1 X120.744 E0.014
G1 X117.68 Y98.444 E0.108
G1 Y97.878 E0.015
G1 X120.178 Y95.38 E0.088
G1 X119.612 E0.014
G1 X117.68 Y97.312 E0.068
G1 Y96.746 E0.014
G1 X119.046 Y95.38 E0.048
G1 X118.481 E0.014
G1 X117.68 Y96.181 E0.029
G1 Y95.615 E0.014
G1 X117.915 Y95.38 E0.008
G1 F2100 E-0.5
;rapid-dry
G0 X117.926 Y108.38 F7200
G1 F2100 E0.5
;bead-solid_infill
G1 X117.68 Y108.626 F1800 E0.009
G1 Y109.192 E0.014
G1 X118.492 Y108.38 E0.028
G1 X119.057 E0.015
G1 X117.68 Y109.757 E0.048
G1 Y110.323 E0.014
G1 X119.623 Y108.38 E0.069
G1 X120.189 E0.014
G1 X117.68 Y110.889 E0.088
G1 Y111.454 E0.015
G1 X120.754 Y108.38 E0.108
G1 X121.32 E0.014
G1 X117.68 Y112.02 E0.129
G1 Y112.586 E0.014
G1 X121.886 Y108.38 E0.148
G1 X122.451 E0.014
G1 X117.68 Y113.151 E0.168
G1 Y113.717 E0.015
G1 X123.017 Y108.38 E0.188
G1 X123.583 E0.014
G1 X117.68 Y114.283 E0.208
G1 Y114.62 E0.009
G1 X117.908 E0.005
G1 X122.325 Y110.204 E0.156
G1 X122.25 Y110.354 E0.004
G1 X122.176 Y110.562 E0.006
G1 X122.128 Y110.696 E0.003
G1 X122.058 Y111.036 E0.009
G1 X118.474 Y114.62 E0.126
G1 X119.04 E0.015
G1 X122.027 Y111.633 E0.105
G1 X122.046 Y111.906 E0.007
G1 X122.088 Y112.107 E0.005
G1 X122.093 Y112.132 E0.001
G1 X119.605 Y114.62 E0.087
G1 X120.171 E0.014
G1 X122.225 Y112.566 E0.073
G1 X122.285 Y112.73 E0.004
G1 X122.403 Y112.954 E0.006
G1 X120.737 Y114.62 E0.059
G1 X121.303 E0.014
G1 X122.626 Y113.296 E0.047
G1 X122.69 Y113.387 E0.003
G1 X122.892 Y113.596 E0.007
G1 X121.868 Y114.62 E0.036
G1 X122.434 E0.014
G1 X123.19 Y113.863 E0.027
G1 X123.28 Y113.937 E0.003
G1 X123.531 Y114.089 E0.007
G1 X123 Y114.62 E0.019
G1 X123.565 E0.014
G1 X123.913 Y114.272 E0.012
G1 X124.002 Y114.31 E0.003
G1 X124.198 Y114.365 E0.005
G1 X124.345 Y114.406 E0.004
G1 X124.131 Y114.62 E0.007
G1 X124.697 E0.014
G1 X124.841 Y114.475 E0.005
G1 X125.247 Y114.469 E0.011
G1 X125.44 Y114.443 E0.004
G1 X125.262 Y114.62 E0.007
G1 X125.828 E0.014
G1 X126.245 Y114.203 E0.014
G1 X126.372 Y114.148 E0.004
G1 X126.72 Y113.936 E0.01
G1 X127.041 Y113.675 E0.01
G1 X127.34 Y113.345 E0.011
G1 X127.548 Y113.049 E0.01
G1 X127.709 Y112.739 E0.008
G1 X132.068 Y108.38 E0.154
G1 X132.32 E0.006
G1 Y108.694 E0.008
G1 X126.394 Y114.62 E0.209
G1 X126.959 E0.014
G1 X132.32 Y109.259 E0.189
G1 Y109.825 E0.015
G1 X127.525 Y114.62 E0.169
G1 X128.091 E0.014
G1 X132.32 Y110.391 E0.149
G1 Y110.956 E0.014
G1 X128.656 Y114.62 E0.129
G1 X129.222 E0.014
G1 X132.32 Y111.522 E0.11
G1 Y112.088 E0.014
G1 X129.788 Y114.62 E0.089
G1 X130.353 E0.014
G1 X132.32 Y112.653 E0.07
G1 Y113.219 E0.014
G1 X130.919 Y114.62 E0.049
G1 X131.485 E0.014
G1 X132.32 Y113.785 E0.03
G1 Y114.351 E0.014
G1 X132.051 Y114.62 E0.009
G1 F2100 E-0.5
;rapid-dry
G0 X131.502 Y108.38 F7200
G1 F2100 E0.5
;bead-solid_infill
G1 X127.942 Y111.94 F1800 E0.126
G1 X127.957 Y111.861 E0.002
G1 X127.982 Y111.499 E0.009
G1 X127.971 Y111.345 E0.004
G1 X130.937 Y108.38 E0.104
G1 X130.371 E0.015
G1 X127.903 Y110.848 E0.087
G1 X127.87 Y110.689 E0.004
G1 X127.769 Y110.416 E0.007
G1 X129.805 Y108.38 E0.072
G1 X129.24 E0.014
G1 X127.589 Y110.03 E0.058
G1 X127.58 Y110.013 E0.001
G1 X127.547 Y109.95 E0.001
G1 X127.454 Y109.818 E0.004
G1 X127.364 Y109.69 E0.004
G1 X128.674 Y108.38 E0.047
G1 X128.108 E0.014
G1 X127.097 Y109.392 E0.035
G1 X127.001 Y109.292 E0.004
G1 X126.797 Y109.126 E0.006
G1 X127.543 Y108.38 E0.027
G1 X126.977 E0.014
G1 X126.455 Y108.902 E0.018
G1 X126.371 Y108.852 E0.003
G1 X126.07 Y108.721 E0.008
G1 X126.411 Y108.38 E0.012
G1 X125.845 E0.014
G1 X125.637 Y108.589 E0.007
G1 X125.606 Y108.58 E0.001
G1 X125.196 Y108.524 E0.01
G1 X125.135 Y108.525 E0.002
G1 X125.28 Y108.38 E0.005
G1 X124.714 E0.014
G1 X124.533 Y108.561 E0.007
G1 X124.394 Y108.58 E0.003
G1 X124.002 Y108.69 E0.01
G1 X123.714 Y108.815 E0.008
G1 X124.148 Y108.38 E0.015
G1 F2100 E-0.5
;LAYER:4
M106 S255
;rapid-leaky
G0 X124.532 Y109.248 Z0.65 F7200
G1 F2100 E0.5
;bead-perimeter_outer
G1 X124.23 Y109.332 F1800 E0.008
G1 X123.942 Y109.457 E0.008
G1 X123.673 Y109.62 E0.008
G1 X123.431 Y109.818 E0.008
G1 X123.215 Y110.049 E0.008
G1 X123.035 Y110.305 E0.007
G1 X122.89 Y110.583 E0.008
G1 X122.785 Y110.879 E0.008
G1 X122.721 Y111.187 E0.008
G1 X122.7 Y111.5 E0.008
G1 X122.721 Y111.813 E0.008
G1 X122.785 Y112.121 E0.007
G1 X122.89 Y112.416 E0.008
G1 X123.035 Y112.695 E0.008
G1 X123.215 Y112.951 E0.008
G1 X123.43 Y113.181 E0.008
G1 X123.673 Y113.38 E0.008
G1 X123.942 Y113.543 E0.007
G1 X124.292 Y113.686 E0.01
G1 X124.532 Y113.752 E0.006
G1 X124.843 Y113.795 E0.008
G1 X125.157 E0.008
G1 X125.468 Y113.752 E0.008
G1 X125.77 Y113.668 E0.007
G1 X126.058 Y113.543 E0.008
G1 X126.327 Y113.38 E0.008
G1 X126.57 Y113.181 E0.008
G1 X126.784 Y112.952 E0.008
G1 X126.965 Y112.695 E0.008
G1 X127.11 Y112.417 E0.007
G1 X127.215 Y112.121 E0.008
G1 X127.278 Y111.814 E0.008
G1 X127.3 Y111.5 E0.008
G1 X127.279 Y111.187 E0.008
G1 X127.215 Y110.879 E0.008
G1 X127.081 Y110.526 E0.009
G1 X126.965 Y110.305 E0.006
G1 X126.785 Y110.049 E0.008
G1 X126.521 Y109.778 E0.009
G1 X126.327 Y109.62 E0.007
G1 X126.058 Y109.457 E0.008
G1 X125.771 Y109.332 E0.007
G1 X125.468 Y109.248 E0.008
G1 X125.157 Y109.205 E0.008
G1 X124.843 E0.008
G1 X124.532 Y109.248 E0.008
;rapid-leaky
G0 X124.459 Y108.894 F7200
;bead-perimeter_inner
G1 X124.11 Y108.992 F2400 E0.009
G1 X123.776 Y109.137 E0.009
G1 X123.465 Y109.326 E0.009
G1 X123.185 Y109.554 E0.009
G1 X122.935 Y109.821 E0.009
G1 X122.727 Y110.117 E0.009
G1 X122.559 Y110.439 E0.009
G1 X122.437 Y110.782 E0.009
G1 X122.364 Y111.138 E0.009
G1 X122.339 Y111.5 E0.009
G1 X122.364 Y111.862 E0.009
G1 X122.437 Y112.218 E0.009
G1 X122.559 Y112.559 E0.009
G1 X122.727 Y112.883 E0.01
G1 X122.935 Y113.179 E0.009
G1 X123.183 Y113.444 E0.009
G1 X123.465 Y113.674 E0.009
G1 X123.776 Y113.863 E0.009
G1 X124.194 Y114.032 E0.011
G1 X124.46 Y114.106 E0.007
G1 X124.819 Y114.155 E0.009
G1 X125.181 E0.009
G1 X125.541 Y114.106 E0.009
G1 X125.89 Y114.008 E0.009
G1 X126.223 Y113.864 E0.009
G1 X126.535 Y113.674 E0.009
G1 X126.816 Y113.445 E0.009
G1 X127.064 Y113.179 E0.009
G1 X127.274 Y112.883 E0.009
G1 X127.441 Y112.561 E0.009
G1 X127.563 Y112.218 E0.01
G1 X127.635 Y111.865 E0.009
G1 X127.661 Y111.499 E0.009
G1 X127.636 Y111.138 E0.009
G1 X127.563 Y110.782 E0.009
G1 X127.401 Y110.361 E0.011
G1 X127.273 Y110.117 E0.007
G1 X127.065 Y109.821 E0.009
G1 X126.748 Y109.499 E0.011
G1 X126.535 Y109.326 E0.007
G1 X126.224 Y109.137 E0.009
G1 X125.892 Y108.993 E0.009
G1 X125.54 Y108.894 E0.009
G1 X125.181 Y108.845 E0.009
G1 X124.819 E0.009
G1 X124.459 Y108.894 E0.009
;rapid-leaky
G0 X117 Y107.7 F7200
;bead-perimeter_outer
G1 X133 F1800 E0.4
G1 Y115.3 E0.189
G1 X117 E0.399
G1 Y107.7 E0.19
;rapid-leaky
G0 X117.36 Y108.06 F7200
;bead-perimeter_inner
G1 X132.64 F2400 E0.381
G1 Y114.94 E0.172
G1 X117.36 E0.381
G1 Y108.06 E0.171
G1 F2100 E-0.5
;rapid-dry
G0 X116.23 Y112.986 F7200
G1 F2100 E0.5
;bead-support
G1 X112.521 Y115.127 F3300 E0.107
G1 X111.934 Y115.01 E0.015
G1 X111.279 Y114.739 E0.018
G1 X110.407 Y114.092 E0.027
G1 X109.979 Y113.515 E0.018
G1 X111.489 Y112.644 E0.043
G1 X111.625 Y112.866 E0.007
G1 X112.391 Y113.338 E0.022
G1 X112.996 Y113.434 E0.016
G1 X113.607 Y113.338 E0.015
G1 X114.366 Y112.875 E0.022
G1 X114.838 Y112.109 E0.023
G1 X114.934 Y111.504 E0.015
G1 X114.838 Y110.893 E0.015
G1 X114.756 Y110.758 E0.004
G1 X116.23 Y109.906 E0.043
G1 Y107.833 E0.051
G1 X114.475 Y107.841 E0.044
G1 X109.446 Y110.744 E0.145
G1 F2100 E-0.5
G0 X110.312 Y110.244 F2400
G0 X109.446 Y110.744 F2400
;rapid-dry
G0 X117 Y102.3 F7200
G1 F2100 E0.5
;bead-perimeter_outer
G1 Y94.7 F1800 E0.19
G1 X133 E0.399
G1 Y102.3 E0.189
G1 X117 E0.4
;rapid-leaky
G0 X117.36 Y101.94 F7200
;bead-perimeter_inner
G1 Y95.06 F2400 E0.171
G1 X132.64 E0.381
G1 Y101.94 E0.172
G1 X117.36 E0.381
G1 F2100 E-0.5
;rapid-dry
G0 X116.23 Y100.669 F7200
G1 F2100 E0.5
;bead-support
G1 X113.63 Y102.17 F3300 E0.075
G1 X113.027 E0.015
G1 X111.926 Y102.007 E0.028
G1 X111.272 Y101.736 E0.017
G1 X110.671 Y101.335 E0.018
G1 X110.332 Y100.995 E0.012
G1 X111.923 Y100.077 E0.046
G1 X112.138 Y100.232 E0.007
G1 X112.994 Y100.438 E0.022
G1 X113.862 Y100.233 E0.022
G1 X114.365 Y99.869 E0.016
G1 X114.732 Y99.362 E0.015
G1 X114.938 Y98.506 E0.022
G1 X114.903 Y98.356 E0.004
G1 X116.23 Y97.59 E0.038
G1 Y94.834 E0.069
G1 X115.67 E0.014
G1 X112.448 Y96.694 E0.093
G1 X112.138 Y96.767 E0.008
G1 X111.635 Y97.131 E0.015
G1 X111.594 Y97.187 E0.002
G1 X109.367 Y98.473 E0.064
G1 F2100 E-0.5
G0 X110.233 Y97.973 F2400
G0 X109.367 Y98.473 F2400
;rapid-dry
G0 X123.035 Y99.695 F7200
G1 F2100 E0.5
;bead-perimeter_outer
G1 X123.215 Y99.951 F1800 E0.008
G1 X123.43 Y100.181 E0.008
G1 X123.673 Y100.38 E0.008
G1 X123.942 Y100.543 E0.007
G1 X124.292 Y100.686 E0.01
G1 X124.532 Y100.752 E0.006
G1 X124.843 Y100.795 E0.008
G1 X125.157 E0.008
G1 X125.468 Y100.752 E0.008
G1 X125.77 Y100.668 E0.007
G1 X126.058 Y100.543 E0.008
G1 X126.327 Y100.38 E0.008
G1 X126.57 Y100.181 E0.008
G1 X126.784 Y99.952 E0.008
G1 X126.965 Y99.695 E0.008
G1 X127.11 Y99.417 E0.007
G1 X127.215 Y99.121 E0.008
G1 X127.278 Y98.814 E0.008
G1 X127.3 Y98.5 E0.008
G1 X127.279 Y98.187 E0.008
G1 X127.215 Y97.879 E0.008
G1 X127.081 Y97.526 E0.009
G1 X126.965 Y97.305 E0.006
G1 X126.785 Y97.049 E0.008
G1 X126.521 Y96.778 E0.009
G1 X126.327 Y96.62 E0.007
G1 X126.058 Y96.457 E0.007
G1 X125.771 Y96.332 E0.008
G1 X125.468 Y96.248 E0.008
G1 X125.157 Y96.205 E0.008
G1 X124.843 E0.008
G1 X124.532 Y96.248 E0.008
G1 X124.23 Y96.332 E0.007
G1 X123.942 Y96.457 E0.008
G1 X123.673 Y96.62 E0.008
G1 X123.431 Y96.818 E0.008
G1 X123.215 Y97.049 E0.008
G1 X123.035 Y97.305 E0.008
G1 X122.89 Y97.583 E0.007
G1 X122.785 Y97.879 E0.008
G1 X122.721 Y98.187 E0.008
G1 X122.7 Y98.5 E0.008
G1 X122.721 Y98.813 E0.008
G1 X122.785 Y99.121 E0.008
G1 X122.89 Y99.416 E0.007
G1 X123.035 Y99.695 E0.008
;rapid-leaky
G0 X122.727 Y99.883 F7200
;bead-perimeter_inner
G1 X122.935 Y100.179 F2400 E0.009
G1 X123.183 Y100.444 E0.009
G1 X123.465 Y100.674 E0.009
G1 X123.776 Y100.863 E0.01
G1 X124.194 Y101.032 E0.011
G1 X124.46 Y101.106 E0.007
G1 X124.819 Y101.155 E0.009
G1 X125.181 E0.009
G1 X125.541 Y101.106 E0.009
G1 X125.89 Y101.008 E0.009
G1 X126.223 Y100.864 E0.009
G1 X126.535 Y100.674 E0.009
G1 X126.816 Y100.445 E0.009
G1 X127.064 Y100.179 E0.009
G1 X127.274 Y99.883 E0.009
G1 X127.441 Y99.561 E0.009
G1 X127.563 Y99.218 E0.009
G1 X127.635 Y98.865 E0.009
G1 X127.661 Y98.499 E0.009
G1 X127.636 Y98.138 E0.009
G1 X127.563 Y97.782 E0.01
G1 X127.401 Y97.361 E0.011
G1 X127.273 Y97.117 E0.007
G1 X127.065 Y96.821 E0.009
G1 X126.748 Y96.499 E0.011
G1 X126.535 Y96.326 E0.007
G1 X126.224 Y96.137 E0.009
G1 X125.892 Y95.993 E0.009
G1 X125.54 Y95.894 E0.009
G1 X125.181 Y95.845 E0.009
G1 X124.819 E0.009
G1 X124.459 Y95.894 E0.009
G1 X124.11 Y95.992 E0.009
G1 X123.776 Y96.137 E0.009
G1 X123.465 Y96.326 E0.009
G1 X123.185 Y96.554 E0.009
G1 X122.935 Y96.821 E0.01
G1 X122.727 Y97.117 E0.009
G1 X122.559 Y97.439 E0.009
G1 X122.437 Y97.782 E0.009
G1 X122.364 Y98.138 E0.009
G1 X122.339 Y98.5 E0.009
G1 X122.364 Y98.862 E0.009
G1 X122.437 Y99.218 E0.009
G1 X122.559 Y99.559 E0.009
G1 X122.727 Y99.883 E0.009
;rapid-leaky
G0 X117.68 Y98.179 F7200
;bead-sparse_infill
G1 X118.446 Y98.773 F3600 E0.024
G1 X118.952 Y99.841 E0.03
G1 X118.722 Y100.909 E0.027
G1 X118.257 Y101.62 E0.021
G1 X123.147 E0.122
G1 X122.994 Y100.909 E0.018
G1 X122.296 Y99.841 E0.032
G1 X120.917 Y98.773 E0.044
G1 X120.411 Y97.704 E0.029
G1 X120.641 Y96.636 E0.027
G1 X121.34 Y95.568 E0.032
G1 X121.582 Y95.38 E0.008
G1 X124.773 E0.079
G1 X124.698 Y95.539 E0.005
G1 X124.797 Y95.525 E0.002
G1 X125.203 E0.01
G1 X125.606 Y95.58 E0.011
G1 X125.999 Y95.69 E0.01
G1 X126.372 Y95.852 E0.01
G1 X126.72 Y96.063 E0.01
G1 X126.964 Y96.262 E0.008
G1 X127.311 Y96.615 E0.012
G1 X127.547 Y96.95 E0.01
G1 X127.693 Y97.229 E0.008
G1 X127.871 Y97.691 E0.013
G1 X127.954 Y98.094 E0.01
G1 X127.982 Y98.5 E0.01
G1 X127.953 Y98.909 E0.01
G1 X127.871 Y99.304 E0.01
G1 X127.735 Y99.689 E0.011
G1 X127.547 Y100.049 E0.01
G1 X127.41 Y100.245 E0.006
G1 X127.267 Y100.909 E0.017
G1 X126.802 Y101.62 E0.021
G1 X131.693 E0.122
G1 X131.54 Y100.909 E0.018
G1 X130.841 Y99.841 E0.032
G1 X129.462 Y98.773 E0.043
G1 X128.956 Y97.704 E0.03
G1 X129.186 Y96.636 E0.027
G1 X129.885 Y95.568 E0.032
G1 X130.128 Y95.38 E0.008
G1 F2100 E-0.5
;rapid-dry
G0 X133.77 Y96.7 F7200
G1 F2100 E0.5
;bead-support
G1 X137.002 Y94.834 F3300 E0.093
G1 X138.074 Y94.993 E0.027
G1 X138.727 Y95.264 E0.017
G1 X139.328 Y95.666 E0.018
G1 X139.835 Y96.171 E0.018
G1 X139.886 Y96.248 E0.003
G1 X138.365 Y97.127 E0.043
G1 X137.608 Y96.662 E0.023
G1 X137.002 Y96.566 E0.015
G1 X136.391 Y96.662 E0.015
G1 X135.633 Y97.126 E0.022
G1 X135.162 Y97.892 E0.023
G1 X135.066 Y98.498 E0.015
G1 X135.143 Y98.987 E0.013
G1 X133.77 Y99.78 E0.039
G1 Y102.166 E0.06
G1 X134.968 Y102.167 E0.029
G1 X140.605 Y98.913 E0.163
G1 F2100 E-0.5
G0 X139.739 Y99.413 F2400
G0 X140.605 Y98.913 F2400
;rapid-dry
G0 X133.77 Y109.017 F7200
G1 F2100 E0.5
;bead-support
G1 X135.826 Y107.83 F3300 E0.059
G1 X136.972 E0.029
G1 X138.074 Y107.993 E0.027
G1 X138.727 Y108.264 E0.018
G1 X139.328 Y108.666 E0.018
G1 X139.469 Y108.806 E0.005
G1 X137.821 Y109.758 E0.048
G1 X137.862 Y109.768 E0.001
G1 X138.369 Y110.135 E0.015
G1 X138.733 Y110.638 E0.016
G1 X138.938 Y111.506 E0.022
G1 X138.747 Y112.302 E0.02
G1 X140.625 Y111.218 E0.054
G1 X140.667 Y111.5 E0.008
G1 X140.507 Y112.574 E0.027
G1 X140.239 Y113.22 E0.017
G1 X139.593 Y114.092 E0.027
G1 X138.721 Y114.739 E0.027
G1 X138.074 Y115.007 E0.018
G1 X136.974 Y115.17 E0.027
G1 X133.788 Y115.166 E0.08
G1 X136.843 Y113.402 E0.088
G1 X136.138 Y113.232 E0.018
G1 X135.631 Y112.865 E0.016
G1 X135.267 Y112.362 E0.015
G1 X135.062 Y111.494 E0.022
G1 X135.102 Y111.327 E0.005
G1 X133.77 Y112.096 E0.038
G1 F2100 E-0.5
G0 X134.636 Y111.596 F2400
G0 X133.77 Y112.096 F2400
;rapid-dry
G0 X128.994 Y114.62 F7200
G1 F2100 E0.5
;bead-sparse_infill
G1 X129.186 Y113.727 F3600 E0.023
G1 X129.885 Y112.658 E0.032
G1 X131.264 Y111.59 E0.043
G1 X131.769 Y110.522 E0.03
G1 X131.54 Y109.454 E0.027
G1 X130.841 Y108.386 E0.032
G1 X130.833 Y108.38
G1 X127.494 E0.083
G1 X127.497 Y108.386
G1 X127.267 Y109.454 E0.028
G1 X127.221 Y109.524 E0.002
G1 X127.311 Y109.615 E0.003
G1 X127.547 Y109.95 E0.01
G1 X127.693 Y110.229 E0.008
G1 X127.871 Y110.691 E0.012
G1 X127.954 Y111.094 E0.011
G1 X127.982 Y111.5 E0.01
G1 X127.953 Y111.909 E0.01
G1 X127.871 Y112.304 E0.01
G1 X127.735 Y112.689 E0.01
G1 X127.547 Y113.049 E0.01
G1 X127.313 Y113.382 E0.011
G1 X127.035 Y113.679 E0.01
G1 X126.72 Y113.936 E0.01
G1 X126.371 Y114.149 E0.01
G1 X125.998 Y114.31 E0.01
G1 X125.606 Y114.42 E0.01
G1 X125.387 Y114.45 E0.006
G1 X125.498 Y114.62 E0.005
G1 X120.449 E0.126
G1 X120.641 Y113.727 E0.023
G1 X121.34 Y112.658 E0.032
G1 X122.083 Y112.083 E0.023
G1 X122.046 Y111.906 E0.005
G1 X122.018 Y111.5 E0.01
G1 X122.046 Y111.094 E0.01
G1 X122.128 Y110.696 E0.01
G1 X122.265 Y110.311 E0.01
G1 X122.453 Y109.95 E0.01
G1 X122.686 Y109.619 E0.01
G1 X122.931 Y109.357 E0.009
G1 X122.296 Y108.386 E0.029
G1 X122.288 Y108.38 E0.001
G1 X118.949 E0.083
G1 X118.952 Y108.386
G1 X118.722 Y109.454 E0.027
G1 X118.023 Y110.522 E0.032
G1 X117.68 Y110.788 E0.011
G1 F2100 E-0.5
;LAYER:5
;rapid-dry
G0 X116.23 Y112.986 Z0.8 F7200
G1 F2100 E0.5
;bead-support
G1 X112.521 Y115.127 F3300 E0.107
G1 X111.934 Y115.01 E0.015
G1 X111.279 Y114.739 E0.017
G1 X110.407 Y114.092 E0.027
G1 X109.979 Y113.515 E0.018
G1 X111.489 Y112.644 E0.044
G1 X111.625 Y112.866 E0.006
G1 X112.391 Y113.338 E0.023
G1 X112.996 Y113.434 E0.015
G1 X113.607 Y113.338 E0.016
G1 X114.366 Y112.875 E0.022
G1 X114.838 Y112.109 E0.022
G1 X114.934 Y111.504 E0.015
G1 X114.838 Y110.893 E0.016
G1 X114.756 Y110.758 E0.004
G1 X116.23 Y109.906 E0.042
G1 Y107.833 E0.052
G1 X114.475 Y107.841 E0.044
G1 X109.446 Y110.744 E0.145
G1 F2100 E-0.5
G0 X110.312 Y110.244 F2400
G0 X109.446 Y110.744 F2400
;rapid-dry
G0 X109.367 Y98.473 F7200
G1 F2100 E0.5
;bead-support
G1 X111.594 Y97.187 F3300 E0.064
G1 X111.635 Y97.131 E0.002
G1 X112.138 Y96.767 E0.015
G1 X112.448 Y96.694 E0.008
G1 X115.67 Y94.834 E0.093
G1 X116.23 E0.014
G1 Y97.59 E0.068
G1 X114.903 Y98.356 E0.039
G1 X114.938 Y98.506 E0.004
G1 X114.732 Y99.362 E0.022
G1 X114.365 Y99.869 E0.015
G1 X113.862 Y100.233 E0.016
G1 X112.994 Y100.438 E0.022
G1 X112.138 Y100.232 E0.022
G1 X111.923 Y100.077 E0.006
G1 X110.332 Y100.995 E0.046
G1 X110.671 Y101.335 E0.012
G1 X111.272 Y101.736 E0.018
G1 X111.926 Y102.007 E0.018
G1 X113.027 Y102.17 E0.028
G1 X113.63 E0.015
G1 X116.23 Y100.669 E0.075
G1 F2100 E-0.5
G0 X115.364 Y101.169 F2400
G0 X116.23 Y100.669 F2400
;rapid-dry
G0 X126.57 Y96.819 F7200
G1 F2100 E0.5
;bead-perimeter_outer
G1 X126.327 Y96.62 F1800 E0.007
G1 X126.058 Y96.457 E0.008
G1 X125.77 Y96.332 E0.008
G1 X125.468 Y96.248 E0.008
G1 X125.157 Y96.205 E0.008
G1 X124.843 E0.008
G1 X124.532 Y96.248 E0.007
G1 X124.23 Y96.332 E0.008
G1 X123.942 Y96.457 E0.008
G1 X123.673 Y96.62 E0.008
G1 X123.43 Y96.819 E0.008
G1 X123.215 Y97.049 E0.008
G1 X123.035 Y97.305 E0.007
G1 X122.89 Y97.583 E0.008
G1 X122.785 Y97.879 E0.008
G1 X122.721 Y98.187 E0.008
G1 X122.7 Y98.499 E0.008
G1 X122.721 Y98.813 E0.008
G1 X122.785 Y99.121 E0.007
G1 X122.925 Y99.485 E0.01
G1 X123.035 Y99.695 E0.006
G1 X123.215 Y99.951 E0.008
G1 X123.43 Y100.181 E0.008
G1 X123.673 Y100.38 E0.008
G1 X123.942 Y100.543 E0.007
G1 X124.23 Y100.668 E0.008
G1 X124.532 Y100.752 E0.008
G1 X124.843 Y100.795 E0.008
G1 X125.157 E0.008
G1 X125.468 Y100.752 E0.008
G1 X125.77 Y100.668 E0.007
G1 X126.058 Y100.543 E0.008
G1 X126.327 Y100.38 E0.008
G1 X126.57 Y100.181 E0.008
G1 X126.785 Y99.951 E0.008
G1 X126.965 Y99.695 E0.008
G1 X127.11 Y99.417 E0.007
G1 X127.215 Y99.121 E0.008
G1 X127.279 Y98.813 E0.008
G1 X127.301 Y98.5 E0.008
G1 X127.279 Y98.187 E0.008
G1 X127.215 Y97.879 E0.008
G1 X127.075 Y97.515 E0.009
G1 X126.965 Y97.305 E0.006
G1 X126.785 Y97.049 E0.008
G1 X126.57 Y96.819 E0.008
;rapid-leaky
G0 X126.816 Y96.555 F7200
;bead-perimeter_inner
G1 X126.535 Y96.326 F2400 E0.009
G1 X126.224 Y96.137 E0.009
G1 X125.89 Y95.992 E0.009
G1 X125.541 Y95.894 E0.009
G1 X125.181 Y95.845 E0.009
G1 X124.819 E0.009
G1 X124.459 Y95.894 E0.009
G1 X124.11 Y95.992 E0.009
G1 X123.776 Y96.137 E0.009
G1 X123.465 Y96.326 E0.009
G1 X123.184 Y96.555 E0.01
G1 X122.935 Y96.821 E0.009
G1 X122.727 Y97.117 E0.009
G1 X122.559 Y97.439 E0.009
G1 X122.437 Y97.782 E0.009
G1 X122.364 Y98.138 E0.009
G1 X122.339 Y98.498 E0.009
G1 X122.364 Y98.863 E0.009
G1 X122.437 Y99.218 E0.009
G1 X122.559 Y99.561 E0.009
G1 X122.606 Y99.651 E0.003
G1 X122.727 Y99.883 E0.006
G1 X122.935 Y100.179 E0.009
G1 X123.184 Y100.445 E0.009
G1 X123.465 Y100.674 E0.009
G1 X123.776 Y100.863 E0.009
G1 X124.11 Y101.008 E0.009
G1 X124.459 Y101.106 E0.01
G1 X124.819 Y101.155 E0.009
G1 X125.181 E0.009
G1 X125.541 Y101.106 E0.009
G1 X125.89 Y101.008 E0.009
G1 X126.224 Y100.863 E0.009
G1 X126.535 Y100.674 E0.009
G1 X126.816 Y100.445 E0.009
G1 X127.065 Y100.179 E0.009
G1 X127.273 Y99.883 E0.009
G1 X127.441 Y99.561 E0.009
G1 X127.563 Y99.218 E0.009
G1 X127.636 Y98.861 E0.009
G1 X127.661 Y98.501 E0.009
G1 X127.636 Y98.138 E0.009
G1 X127.563 Y97.782 E0.009
G1 X127.441 Y97.439 E0.009
G1 X127.394 Y97.349 E0.003
G1 X127.273 Y97.117 E0.007
G1 X127.065 Y96.821 E0.009
G1 X126.816 Y96.555 E0.009
;rapid-leaky
G0 X133 Y94.7 F7200
;bead-perimeter_outer
G1 Y102.3 F1800 E0.189
G1 X117 E0.399
G1 Y94.7 E0.19
G1 X133 E0.399
;rapid-leaky
G0 X132.64 Y95.06 F7200
;bead-perimeter_inner
G1 Y101.94 F2400 E0.172
G1 X117.36 E0.381
G1 Y95.06 E0.171
G1 X132.64 E0.382
G1 F2100 E-0.5
;rapid-dry
G0 X133.77 Y96.7 F7200
G1 F2100 E0.5
;bead-support
G1 X137.002 Y94.834 F3300 E0.093
G1 X138.074 Y94.993 E0.027
G1 X138.727 Y95.264 E0.017
G1 X139.328 Y95.666 E0.018
G1 X139.459 Y95.796 E0.005
G1 X139.835 Y96.171 E0.013
G1 X139.886 Y96.248 E0.003
G1 X138.365 Y97.127 E0.043
G1 X137.608 Y96.662 E0.023
G1 X137.002 Y96.566 E0.015
G1 X136.391 Y96.662 E0.015
G1 X135.633 Y97.126 E0.023
G1 X135.162 Y97.892 E0.022
G1 X135.066 Y98.498 E0.015
G1 X135.143 Y98.987 E0.013
G1 X133.77 Y99.78 E0.039
G1 Y102.166 E0.06
G1 X134.968 Y102.167 E0.03
G1 X140.605 Y98.913 E0.162
G1 F2100 E-0.5
G0 X139.739 Y99.413 F2400
G0 X140.605 Y98.913 F2400
;rapid-dry
G0 X133 Y107.7 F7200
G1 F2100 E0.5
;bead-perimeter_outer
G1 Y115.3 F1800 E0.189
G1 X117 E0.4
G1 Y107.7 E0.189
G1 X133 E0.399
;rapid-leaky
G0 X132.64 Y108.06 F7200
;bead-perimeter_inner
G1 Y114.94 F2400 E0.172
G1 X117.36 E0.381
G1 Y108.06 E0.172
G1 X132.64 E0.381
G1 F2100 E-0.5
;rapid-dry
G0 X133.77 Y109.017 F7200
G1 F2100 E0.5
;bead-support
G1 X135.826 Y107.83 F3300 E0.059
G1 X136.972 E0.029
G1 X138.074 Y107.993 E0.027
G1 X138.727 Y108.264 E0.018
G1 X139.328 Y108.666 E0.018
G1 X139.459 Y108.796 E0.005
G1 X139.469 Y108.806
G1 X137.821 Y109.758 E0.048
G1 X137.862 Y109.768 E0.001
G1 X138.369 Y110.135 E0.015
G1 X138.733 Y110.638 E0.016
G1 X138.938 Y111.506 E0.022
G1 X138.747 Y112.302 E0.02
G1 X140.625 Y111.218 E0.055
G1 X140.667 Y111.5 E0.007
G1 X140.507 Y112.574 E0.027
G1 X140.239 Y113.22 E0.017
G1 X139.593 Y114.092 E0.027
G1 X138.721 Y114.739 E0.027
G1 X138.074 Y115.007 E0.018
G1 X136.974 Y115.17 E0.028
G1 X133.788 Y115.166 E0.079
G1 X136.843 Y113.402 E0.088
G1 X136.138 Y113.232 E0.018
G1 X135.631 Y112.865 E0.016
G1 X135.267 Y112.362 E0.015
G1 X135.062 Y111.494 E0.022
G1 X135.102 Y111.327 E0.005
G1 X133.77 Y112.096 E0.038
G1 F2100 E-0.5
G0 X134.636 Y111.596 F2400
G0 X133.77 Y112.096 F2400
;rapid-dry
G0 X125.157 Y109.205 F7200
G1 F2100 E0.5
;bead-perimeter_outer
G1 X124.843 F1800 E0.008
G1 X124.532 Y109.248 E0.008
G1 X124.23 Y109.332 E0.008
G1 X123.942 Y109.457 E0.007
G1 X123.673 Y109.62 E0.008
G1 X123.43 Y109.819 E0.008
G1 X123.215 Y110.049 E0.008
G1 X123.035 Y110.305 E0.008
G1 X122.89 Y110.583 E0.008
G1 X122.785 Y110.879 E0.007
G1 X122.721 Y111.187 E0.008
G1 X122.7 Y111.499 E0.008
G1 X122.721 Y111.813 E0.008
G1 X122.785 Y112.121 E0.008
G1 X122.925 Y112.485 E0.01
G1 X123.035 Y112.695 E0.005
G1 X123.215 Y112.951 E0.008
G1 X123.43 Y113.181 E0.008
G1 X123.673 Y113.38 E0.008
G1 X123.942 Y113.543 E0.008
G1 X124.23 Y113.668 E0.008
G1 X124.532 Y113.752 E0.007
G1 X124.843 Y113.795 E0.008
G1 X125.157 E0.008
G1 X125.468 Y113.752 E0.008
G1 X125.77 Y113.668 E0.008
G1 X126.058 Y113.543 E0.008
G1 X126.327 Y113.38 E0.007
G1 X126.57 Y113.181 E0.008
G1 X126.785 Y112.951 E0.008
G1 X126.965 Y112.695 E0.008
G1 X127.11 Y112.417 E0.008
G1 X127.215 Y112.121 E0.008
G1 X127.279 Y111.813 E0.007
G1 X127.301 Y111.5 E0.008
G1 X127.279 Y111.187 E0.008
G1 X127.215 Y110.879 E0.008
G1 X127.075 Y110.515 E0.01
G1 X126.965 Y110.305 E0.006
G1 X126.785 Y110.049 E0.007
G1 X126.57 Y109.819 E0.008
G1 X126.327 Y109.62 E0.008
G1 X126.058 Y109.457 E0.008
G1 X125.77 Y109.332 E0.008
G1 X125.468 Y109.248 E0.008
G1 X125.157 Y109.205 E0.007
;rapid-leaky
G0 X125.181 Y108.845 F7200
;bead-perimeter_inner
G1 X124.819 F2400 E0.009
G1 X124.459 Y108.894 E0.009
G1 X124.11 Y108.992 E0.01
G1 X123.776 Y109.137 E0.009
G1 X123.465 Y109.326 E0.009
G1 X123.184 Y109.555 E0.009
G1 X122.935 Y109.821 E0.009
G1 X122.727 Y110.117 E0.009
G1 X122.559 Y110.439 E0.009
G1 X122.437 Y110.782 E0.009
G1 X122.364 Y111.138 E0.009
G1 X122.339 Y111.498 E0.009
G1 X122.364 Y111.863 E0.009
G1 X122.437 Y112.218 E0.009
G1 X122.559 Y112.561 E0.009
G1 X122.606 Y112.651 E0.003
G1 X122.727 Y112.883 E0.006
G1 X122.935 Y113.179 E0.009
G1 X123.184 Y113.445 E0.009
G1 X123.465 Y113.674 E0.01
G1 X123.776 Y113.863 E0.009
G1 X124.11 Y114.008 E0.009
G1 X124.459 Y114.106 E0.009
G1 X124.819 Y114.155 E0.009
G1 X125.181 E0.009
G1 X125.541 Y114.106 E0.009
G1 X125.89 Y114.008 E0.009
G1 X126.224 Y113.863 E0.009
G1 X126.535 Y113.674 E0.009
G1 X126.816 Y113.445 E0.009
G1 X127.065 Y113.179 E0.009
G1 X127.273 Y112.883 E0.009
G1 X127.441 Y112.561 E0.009
G1 X127.563 Y112.218 E0.009
G1 X127.636 Y111.861 E0.009
G1 X127.661 Y111.501 E0.009
G1 X127.636 Y111.138 E0.01
G1 X127.563 Y110.782 E0.009
G1 X127.441 Y110.439 E0.009
G1 X127.394 Y110.349 E0.002
G1 X127.273 Y110.117 E0.007
G1 X127.065 Y109.821 E0.009
G1 X126.816 Y109.555 E0.009
G1 X126.535 Y109.326 E0.009
G1 X126.224 Y109.137 E0.009
G1 X125.89 Y108.992 E0.009
G1 X125.541 Y108.894 E0.009
G1 X125.181 Y108.845 E0.009
;rapid-leaky
G0 X117.68 Y110.708 F7200
;bead-sparse_infill
G1 X117.964 Y110.522 F3600 E0.009
G1 X118.773 Y109.454 E0.033
G1 X119.114 Y108.386 E0.028
G1 X119.112 Y108.38
G1 X122.228 E0.078
G1 X122.237 Y108.386
G1 X122.954 Y109.333 E0.03
G1 X122.687 Y109.619 E0.01
G1 X122.453 Y109.95 E0.01
G1 X122.265 Y110.311 E0.01
G1 X122.128 Y110.696 E0.01
G1 X122.046 Y111.094 E0.01
G1 X122.018 Y111.498 E0.01
G1 X122.046 Y111.907 E0.01
G1 X122.106 Y112.196 E0.008
G1 X121.399 Y112.658 E0.021
G1 X120.59 Y113.727 E0.033
G1 X120.305 Y114.62 E0.024
G1 X125.539 E0.13
G1 X125.408 Y114.447 E0.006
G1 X125.606 Y114.42 E0.005
G1 X125.998 Y114.31 E0.01
G1 X126.372 Y114.148 E0.01
G1 X126.72 Y113.936 E0.01
G1 X127.035 Y113.679 E0.01
G1 X127.313 Y113.381 E0.011
G1 X127.547 Y113.05 E0.01
G1 X127.735 Y112.689 E0.01
G1 X127.871 Y112.305 E0.01
G1 X127.954 Y111.904 E0.01
G1 X127.982 Y111.5 E0.01
G1 X127.954 Y111.094 E0.01
G1 X127.871 Y110.695 E0.011
G1 X127.735 Y110.312 E0.01
G1 X127.678 Y110.201 E0.003
G1 X127.547 Y109.95 E0.007
G1 X127.313 Y109.619 E0.01
G1 X127.247 Y109.548 E0.002
G1 X127.318 Y109.454 E0.003
G1 X127.659 Y108.386 E0.028
G1 X127.657 Y108.38
G1 X130.773 E0.078
G1 X130.782 Y108.386
G1 X131.591 Y109.454 E0.034
G1 X131.931 Y110.522 E0.028
G1 X131.577 Y111.59 E0.028
G1 X129.944 Y112.658 E0.049
G1 X129.135 Y113.727 E0.033
G1 X128.85 Y114.62 E0.023
G1 F2100 E-0.5
;rapid-dry
G0 X117.68 Y98.067 F7200
G1 F2100 E0.5
;bead-sparse_infill
G1 X118.76 Y98.773 F3600 E0.033
G1 X119.114 Y99.841 E0.028
G1 X118.773 Y100.909 E0.028
G1 X118.235 Y101.62 E0.022
G1 X123.272 E0.126
G1 X123.046 Y100.909 E0.018
G1 X122.237 Y99.841 E0.034
G1 X120.603 Y98.773 E0.048
G1 X120.249 Y97.704 E0.028
G1 X120.59 Y96.636 E0.028
G1 X121.399 Y95.568 E0.034
G1 X121.686 Y95.38 E0.008
G1 X124.584 E0.073
G1 X124.524 Y95.563 E0.004
G1 X124.797 Y95.525 E0.007
G1 X125.203 E0.01
G1 X125.606 Y95.58 E0.011
G1 X125.998 Y95.69 E0.01
G1 X126.372 Y95.852 E0.01
G1 X126.72 Y96.064 E0.01
G1 X127.035 Y96.321 E0.01
G1 X127.313 Y96.619 E0.01
G1 X127.547 Y96.95 E0.011
G1 X127.678 Y97.201 E0.007
G1 X127.735 Y97.312 E0.003
G1 X127.871 Y97.696 E0.01
G1 X127.954 Y98.094 E0.01
G1 X127.982 Y98.5 E0.01
G1 X127.954 Y98.904 E0.01
G1 X127.871 Y99.304 E0.01
G1 X127.735 Y99.689 E0.011
G1 X127.658 Y99.837 E0.004
G1 X127.659 Y99.841
G1 X127.318 Y100.909 E0.028
G1 X126.78 Y101.62 E0.022
G1 X131.818 E0.126
G1 X131.591 Y100.909 E0.018
G1 X130.782 Y99.841 E0.034
G1 X129.148 Y98.773 E0.048
G1 X128.794 Y97.704 E0.029
G1 X129.135 Y96.636 E0.028
G1 X129.944 Y95.568 E0.033
G1 X130.231 Y95.38 E0.009
G1 F2100 E-0.5
;LAYER:6
;rapid-leaky
G0 X133 Y94.7 Z0.95 F7200
G1 F2100 E0.5
;bead-perimeter_outer
G1 Y102.3 F1800 E0.189
G1 X117 E0.399
G1 Y94.7 E0.19
G1 X133 E0.399
;rapid-leaky
G0 X132.64 Y95.06 F7200
;bead-perimeter_inner
G1 Y101.94 F2400 E0.172
G1 X117.36 E0.381
G1 Y95.06 E0.171
G1 X132.64 E0.381
G1 F2100 E-0.5
;rapid-dry
G0 X133.77 Y96.7 F7200
G1 F2100 E0.5
;bead-support
G1 X137.002 Y94.834 F3300 E0.094
G1 X138.074 Y94.993 E0.027
G1 X138.727 Y95.264 E0.017
G1 X139.328 Y95.666 E0.018
G1 X139.835 Y96.171 E0.018
G1 X139.886 Y96.248 E0.002
G1 X138.365 Y97.127 E0.044
G1 X137.608 Y96.662 E0.022
G1 X137.002 Y96.566 E0.016
G1 X136.391 Y96.662 E0.015
G1 X135.633 Y97.126 E0.022
G1 X135.162 Y97.892 E0.023
G1 X135.066 Y98.498 E0.015
G1 X135.143 Y98.987 E0.012
G1 X133.77 Y99.78 E0.04
G1 Y102.166 E0.059
G1 X134.968 Y102.167 E0.03
G1 X140.605 Y98.913 E0.163
G1 F2100 E-0.5
G0 X139.739 Y99.413 F2400
G0 X140.605 Y98.913 F2400
;rapid-dry
G0 X133 Y107.7 F7200
G1 F2100 E0.5
;bead-perimeter_outer
G1 Y115.3 F1800 E0.189
G1 X117 E0.399
G1 Y107.7 E0.19
G1 X133 E0.399
;rapid-leaky
G0 X132.64 Y108.06 F7200
;bead-perimeter_inner
G1 Y114.94 F2400 E0.172
G1 X117.36 E0.381
G1 Y108.06 E0.172
G1 X132.64 E0.381
G1 F2100 E-0.5
;rapid-dry
G0 X133.77 Y109.017 F7200
G1 F2100 E0.5
;bead-support
G1 X135.826 Y107.83 F3300 E0.059
G1 X136.972 E0.029
G1 X138.074 Y107.993 E0.027
G1 X138.727 Y108.264 E0.018
G1 X139.328 Y108.666 E0.018
G1 X139.469 Y108.806 E0.005
G1 X137.821 Y109.758 E0.047
G1 X137.862 Y109.768 E0.001
G1 X138.369 Y110.135 E0.016
G1 X138.733 Y110.638 E0.016
G1 X138.938 Y111.506 E0.022
G1 X138.747 Y112.302 E0.02
G1 X140.625 Y111.218 E0.054
G1 X140.667 Y111.5 E0.007
G1 X140.507 Y112.574 E0.028
G1 X140.239 Y113.22 E0.017
G1 X139.593 Y114.092 E0.027
G1 X138.721 Y114.739 E0.027
G1 X138.074 Y115.007 E0.018
G1 X136.974 Y115.17 E0.027
G1 X133.788 Y115.166 E0.08
G1 X136.843 Y113.402 E0.088
G1 X136.138 Y113.232 E0.018
G1 X135.631 Y112.865 E0.016
G1 X135.267 Y112.362 E0.015
G1 X135.062 Y111.494 E0.022
G1 X135.102 Y111.327 E0.005
G1 X133.77 Y112.096 E0.038
G1 F2100 E-0.5
G0 X134.636 Y111.596 F2400
G0 X133.77 Y112.096 F2400
;rapid-dry
G0 X125.468 Y109.248 F7200
G1 F2100 E0.5
;bead-perimeter_outer
G1 X125.157 Y109.205 F1800 E0.008
G1 X124.844 E0.008
G1 X124.532 Y109.248 E0.007
G1 X124.23 Y109.332 E0.008
G1 X123.942 Y109.457 E0.008
G1 X123.604 Y109.677 E0.01
G1 X123.43 Y109.819 E0.006
G1 X123.215 Y110.049 E0.008
G1 X123.035 Y110.305 E0.007
G1 X122.89 Y110.583 E0.008
G1 X122.785 Y110.879 E0.008
G1 X122.721 Y111.187 E0.008
G1 X122.7 Y111.5 E0.008
G1 X122.721 Y111.813 E0.008
G1 X122.785 Y112.121 E0.007
G1 X122.89 Y112.417 E0.008
G1 X123.035 Y112.695 E0.008
G1 X123.215 Y112.951 E0.008
G1 X123.43 Y113.181 E0.008
G1 X123.673 Y113.38 E0.008
G1 X123.942 Y113.543 E0.007
G1 X124.23 Y113.668 E0.008
G1 X124.532 Y113.752 E0.008
G1 X124.843 Y113.795 E0.008
G1 X125.245 Y113.783 E0.01
G1 X125.468 Y113.752 E0.006
G1 X125.77 Y113.668 E0.007
G1 X126.058 Y113.543 E0.008
G1 X126.327 Y113.38 E0.008
G1 X126.57 Y113.181 E0.008
G1 X126.836 Y112.878 E0.01
G1 X126.965 Y112.695 E0.006
G1 X127.11 Y112.417 E0.007
G1 X127.215 Y112.121 E0.008
G1 X127.279 Y111.813 E0.008
G1 X127.301 Y111.5 E0.008
G1 X127.279 Y111.187 E0.008
G1 X127.215 Y110.879 E0.008
G1 X127.11 Y110.583 E0.007
G1 X126.965 Y110.305 E0.008
G1 X126.785 Y110.049 E0.008
G1 X126.57 Y109.819 E0.008
G1 X126.327 Y109.62 E0.008
G1 X126.058 Y109.457 E0.008
G1 X125.77 Y109.332 E0.007
G1 X125.468 Y109.248 E0.008
;rapid-leaky
G0 X125.541 Y108.894 F7200
;bead-perimeter_inner
G1 X125.181 Y108.845 F2400 E0.009
G1 X124.82 E0.009
G1 X124.459 Y108.894 E0.009
G1 X124.11 Y108.992 E0.009
G1 X123.776 Y109.137 E0.009
G1 X123.465 Y109.325 E0.01
G1 X123.376 Y109.398 E0.002
G1 X123.184 Y109.555 E0.007
G1 X122.935 Y109.821 E0.009
G1 X122.727 Y110.117 E0.009
G1 X122.559 Y110.439 E0.009
G1 X122.437 Y110.782 E0.009
G1 X122.364 Y111.138 E0.009
G1 X122.339 Y111.499 E0.009
G1 X122.364 Y111.863 E0.009
G1 X122.437 Y112.218 E0.009
G1 X122.559 Y112.561 E0.009
G1 X122.727 Y112.883 E0.009
G1 X122.935 Y113.179 E0.009
G1 X123.184 Y113.445 E0.009
G1 X123.465 Y113.674 E0.009
G1 X123.776 Y113.863 E0.009
G1 X124.11 Y114.008 E0.01
G1 X124.459 Y114.106 E0.009
G1 X124.819 Y114.155 E0.009
G1 X125.18 E0.009
G1 X125.294 Y114.14 E0.003
G1 X125.541 Y114.106 E0.006
G1 X125.89 Y114.008 E0.009
G1 X126.223 Y113.864 E0.009
G1 X126.535 Y113.674 E0.009
G1 X126.816 Y113.445 E0.009
G1 X127.064 Y113.18 E0.009
G1 X127.13 Y113.086 E0.003
G1 X127.274 Y112.883 E0.006
G1 X127.441 Y112.561 E0.009
G1 X127.563 Y112.218 E0.009
G1 X127.636 Y111.861 E0.009
G1 X127.661 Y111.5 E0.009
G1 X127.636 Y111.138 E0.009
G1 X127.563 Y110.782 E0.009
G1 X127.441 Y110.439 E0.01
G1 X127.273 Y110.117 E0.009
G1 X127.065 Y109.821 E0.009
G1 X126.816 Y109.555 E0.009
G1 X126.535 Y109.326 E0.009
G1 X126.224 Y109.137 E0.009
G1 X125.89 Y108.992 E0.009
G1 X125.541 Y108.894 E0.009
G1 F2100 E-0.5
;rapid-dry
G0 X116.23 Y112.986 F7200
G1 F2100 E0.5
;bead-support
G1 X112.521 Y115.127 F3300 E0.107
G1 X111.934 Y115.01 E0.015
G1 X111.279 Y114.739 E0.017
G1 X110.407 Y114.092 E0.028
G1 X109.979 Y113.515 E0.017
G1 X111.489 Y112.644 E0.044
G1 X111.625 Y112.866 E0.006
G1 X112.391 Y113.338 E0.023
G1 X112.996 Y113.434 E0.015
G1 X113.607 Y113.338 E0.016
G1 X114.366 Y112.875 E0.022
G1 X114.838 Y112.109 E0.022
G1 X114.934 Y111.504 E0.015
G1 X114.838 Y110.893 E0.016
G1 X114.756 Y110.758 E0.004
G1 X116.23 Y109.906 E0.042
G1 Y107.833 E0.052
G1 X114.475 Y107.841 E0.044
G1 X109.446 Y110.744 E0.145
G1 F2100 E-0.5
G0 X110.312 Y110.244 F2400
G0 X109.446 Y110.744 F2400
;rapid-dry
G0 X109.367 Y98.473 F7200
G1 F2100 E0.5
;bead-support
G1 X111.594 Y97.187 F3300 E0.064
G1 X111.635 Y97.131 E0.002
G1 X112.138 Y96.767 E0.015
G1 X112.448 Y96.694 E0.008
G1 X115.67 Y94.834 E0.093
G1 X116.23 E0.014
G1 Y97.59 E0.069
G1 X114.903 Y98.356 E0.038
G1 X114.938 Y98.506 E0.004
G1 X114.732 Y99.362 E0.022
G1 X114.365 Y99.869 E0.015
G1 X113.862 Y100.233 E0.016
G1 X112.994 Y100.438 E0.022
G1 X112.138 Y100.232 E0.022
G1 X111.923 Y100.077 E0.006
G1 X110.332 Y100.995 E0.046
G1 X110.671 Y101.335 E0.012
G1 X111.272 Y101.736 E0.018
G1 X111.926 Y102.007 E0.018
G1 X113.027 Y102.17 E0.028
G1 X113.63 E0.015
G1 X116.23 Y100.669 E0.075
G1 F2100 E-0.5
G0 X115.364 Y101.169 F2400
G0 X116.23 Y100.669 F2400
;rapid-dry
G0 X127.215 Y97.879 F7200
G1 F2100 E0.5
;bead-perimeter_outer
G1 X127.11 Y97.583 F1800 E0.007
G1 X126.965 Y97.305 E0.008
G1 X126.785 Y97.049 E0.008
G1 X126.57 Y96.819 E0.008
G1 X126.327 Y96.62 E0.008
G1 X126.058 Y96.457 E0.008
G1 X125.77 Y96.332 E0.007
G1 X125.468 Y96.248 E0.008
G1 X125.157 Y96.205 E0.008
G1 X124.844 E0.008
G1 X124.532 Y96.248 E0.008
G1 X124.23 Y96.332 E0.008
G1 X123.942 Y96.457 E0.007
G1 X123.604 Y96.677 E0.011
G1 X123.43 Y96.819 E0.005
G1 X123.215 Y97.049 E0.008
G1 X123.035 Y97.305 E0.008
G1 X122.89 Y97.583 E0.008
G1 X122.785 Y97.879 E0.007
G1 X122.721 Y98.187 E0.008
G1 X122.7 Y98.5 E0.008
G1 X122.721 Y98.813 E0.008
G1 X122.785 Y99.121 E0.008
G1 X122.89 Y99.417 E0.008
G1 X123.035 Y99.695 E0.007
G1 X123.215 Y99.951 E0.008
G1 X123.43 Y100.181 E0.008
G1 X123.673 Y100.38 E0.008
G1 X123.942 Y100.543 E0.008
G1 X124.23 Y100.668 E0.008
G1 X124.532 Y100.752 E0.007
G1 X124.843 Y100.795 E0.008
G1 X125.245 Y100.783 E0.01
G1 X125.468 Y100.752 E0.006
G1 X125.77 Y100.668 E0.008
G1 X126.058 Y100.543 E0.008
G1 X126.327 Y100.38 E0.007
G1 X126.57 Y100.181 E0.008
G1 X126.836 Y99.878 E0.01
G1 X126.965 Y99.695 E0.006
G1 X127.11 Y99.417 E0.008
G1 X127.215 Y99.121 E0.008
G1 X127.279 Y98.813 E0.007
G1 X127.301 Y98.5 E0.008
G1 X127.279 Y98.187 E0.008
G1 X127.215 Y97.879 E0.008
;rapid-leaky
G0 X127.563 Y97.782 F7200
;bead-perimeter_inner
G1 X127.441 Y97.439 F2400 E0.009
G1 X127.273 Y97.117 E0.009
G1 X127.065 Y96.821 E0.009
G1 X126.816 Y96.555 E0.009
G1 X126.535 Y96.326 E0.009
G1 X126.224 Y96.137 E0.009
G1 X125.89 Y95.992 E0.009
G1 X125.541 Y95.894 E0.009
G1 X125.181 Y95.845 E0.009
G1 X124.82 E0.009
G1 X124.459 Y95.895 E0.01
G1 X124.11 Y95.992 E0.009
G1 X123.776 Y96.137 E0.009
G1 X123.465 Y96.325 E0.009
G1 X123.376 Y96.398 E0.003
G1 X123.184 Y96.555 E0.006
G1 X122.935 Y96.821 E0.009
G1 X122.727 Y97.117 E0.009
G1 X122.559 Y97.439 E0.009
G1 X122.437 Y97.782 E0.009
G1 X122.364 Y98.138 E0.009
G1 X122.339 Y98.499 E0.009
G1 X122.364 Y98.863 E0.009
G1 X122.437 Y99.218 E0.009
G1 X122.559 Y99.561 E0.009
G1 X122.727 Y99.883 E0.009
G1 X122.935 Y100.179 E0.009
G1 X123.184 Y100.445 E0.01
G1 X123.465 Y100.674 E0.009
G1 X123.776 Y100.863 E0.009
G1 X124.11 Y101.008 E0.009
G1 X124.459 Y101.106 E0.009
G1 X124.819 Y101.155 E0.009
G1 X125.18 E0.009
G1 X125.293 Y101.14 E0.003
G1 X125.541 Y101.106 E0.006
G1 X125.89 Y101.008 E0.009
G1 X126.223 Y100.864 E0.009
G1 X126.535 Y100.674 E0.009
G1 X126.816 Y100.445 E0.009
G1 X127.064 Y100.18 E0.009
G1 X127.13 Y100.086 E0.003
G1 X127.274 Y99.883 E0.006
G1 X127.441 Y99.561 E0.009
G1 X127.563 Y99.218 E0.009
G1 X127.636 Y98.861 E0.01
G1 X127.661 Y98.5 E0.009
G1 X127.636 Y98.138 E0.009
G1 X127.563 Y97.782 E0.009
;rapid-leaky
G0 X130.385 Y95.38 F7200
;bead-sparse_infill
G1 X130 Y95.568 F3600 E0.01
G1 X129.072 Y96.636 E0.036
G1 X128.607 Y97.704 E0.029
G1 X128.539 Y98.773 E0.026
G1 X130.726 Y99.841 E0.061
G1 X131.654 Y100.909 E0.035
G1 X131.963 Y101.62 E0.02
G1 X126.763 E0.129
G1 X127.381 Y100.909 E0.024
G1 X127.846 Y99.841 E0.029
G1 X127.884 Y99.245 E0.015
G1 X127.954 Y98.905 E0.009
G1 X127.982 Y98.5 E0.01
G1 X127.954 Y98.094 E0.01
G1 X127.871 Y97.696 E0.01
G1 X127.735 Y97.311 E0.01
G1 X127.547 Y96.95 E0.01
G1 X127.313 Y96.619 E0.01
G1 X127.036 Y96.321 E0.011
G1 X126.72 Y96.064 E0.01
G1 X126.371 Y95.852 E0.01
G1 X125.998 Y95.69 E0.01
G1 X125.606 Y95.58 E0.01
G1 X125.203 Y95.525 E0.01
G1 X124.798 E0.011
G1 X124.394 Y95.58 E0.01
G1 X124.346 Y95.594 E0.001
G1 X124.335 Y95.568 E0.001
G1 X124.323 Y95.38 E0.004
G1 X121.84 E0.062
G1 X121.455 Y95.568 E0.011
G1 X120.527 Y96.636 E0.035
G1 X120.062 Y97.704 E0.029
G1 X119.994 Y98.773 E0.027
G1 X122.18 Y99.841 E0.061
G1 X123.108 Y100.909 E0.035
G1 X123.418 Y101.62 E0.019
G1 X118.218 E0.13
G1 X118.836 Y100.909 E0.024
G1 X119.301 Y99.841 E0.029
G1 X119.369 Y98.773 E0.026
G1 X117.68 Y97.948 E0.047
G1 F2100 E-0.5
;rapid-dry
G0 Y110.633 F7200
G1 F2100 E0.5
;bead-sparse_infill
G1 X117.908 Y110.522 F3600 E0.007
G1 X118.836 Y109.454 E0.035
G1 X119.301 Y108.386 E0.029
G1 Y108.38
G1 X122.168 E0.072
G1 X122.18 Y108.386
G1 X122.981 Y109.307 E0.03
G1 X122.964 Y109.321 E0.001
G1 X122.687 Y109.619 E0.01
G1 X122.453 Y109.95 E0.01
G1 X122.265 Y110.311 E0.01
G1 X122.128 Y110.696 E0.01
G1 X122.046 Y111.094 E0.011
G1 X122.018 Y111.499 E0.01
G1 X122.046 Y111.907 E0.01
G1 X122.128 Y112.304 E0.01
G1 X122.136 Y112.326 E0.001
G1 X121.455 Y112.658 E0.019
G1 X120.527 Y113.727 E0.035
G1 X120.138 Y114.62 E0.024
G1 X125.576 E0.136
G1 X125.424 Y114.445 E0.006
G1 X125.607 Y114.42 E0.004
G1 X125.998 Y114.31 E0.01
G1 X126.37 Y114.149 E0.01
G1 X126.721 Y113.936 E0.011
G1 X127.035 Y113.679 E0.01
G1 X127.313 Y113.382 E0.01
G1 X127.392 Y113.271 E0.003
G1 X127.548 Y113.049 E0.007
G1 X127.735 Y112.689 E0.01
G1 X127.871 Y112.304 E0.01
G1 X127.954 Y111.905 E0.011
G1 X127.982 Y111.5 E0.01
G1 X127.954 Y111.094 E0.01
G1 X127.871 Y110.695 E0.01
G1 X127.735 Y110.311 E0.01
G1 X127.547 Y109.95 E0.01
G1 X127.313 Y109.619 E0.01
G1 X127.274 Y109.577 E0.002
G1 X127.381 Y109.454 E0.004
G1 X127.846 Y108.386 E0.029
G1 Y108.38
G1 X130.714 E0.072
G1 X130.726 Y108.386
G1 X131.654 Y109.454 E0.035
G1 X132.119 Y110.522 E0.029
G1 X132.186 Y111.59 E0.027
G1 X130 Y112.658 E0.061
G1 X129.072 Y113.727 E0.035
G1 X128.683 Y114.62 E0.024
G1 F2100 E-0.5
;LAYER:7
;rapid-dry
G0 X133.77 Y112.096 Z1.1 F7200
G1 F2100 E0.5
;bead-support
G1 X135.102 Y111.327 F3300 E0.039
G1 X135.062 Y111.494 E0.004
G1 X135.267 Y112.362 E0.022
G1 X135.631 Y112.865 E0.016
G1 X136.138 Y113.232 E0.015
G1 X136.843 Y113.402 E0.018
G1 X133.788 Y115.166 E0.088
G1 X136.974 Y115.17 E0.08
G1 X138.074 Y115.007 E0.028
G1 X138.721 Y114.739 E0.017
G1 X139.593 Y114.092 E0.027
G1 X140.239 Y113.22 E0.027
G1 X140.507 Y112.574 E0.018
G1 X140.667 Y111.5 E0.027
G1 X140.625 Y111.218 E0.007
G1 X138.747 Y112.302 E0.054
G1 X138.938 Y111.506 E0.021
G1 X138.733 Y110.638 E0.022
G1 X138.369 Y110.135 E0.015
G1 X137.862 Y109.768 E0.016
G1 X137.821 Y109.758 E0.001
G1 X139.469 Y108.806 E0.047
G1 X139.328 Y108.666 E0.005
G1 X138.727 Y108.264 E0.018
G1 X138.074 Y107.993 E0.018
G1 X136.972 Y107.83 E0.028
G1 X135.826 E0.028
G1 X133.77 Y109.017 E0.06
G1 F2100 E-0.5
G0 X134.636 Y108.517 F2400
G0 X133.77 Y109.017 F2400
;rapid-dry
G0 X124.532 Y109.248 F7200
G1 F2100 E0.5
;bead-perimeter_outer
G1 X124.23 Y109.332 F1800 E0.007
G1 X123.942 Y109.457 E0.008
G1 X123.673 Y109.62 E0.008
G1 X123.43 Y109.819 E0.008
G1 X123.215 Y110.049 E0.008
G1 X123.035 Y110.305 E0.008
G1 X122.89 Y110.583 E0.007
G1 X122.785 Y110.879 E0.008
G1 X122.721 Y111.187 E0.008
G1 X122.7 Y111.5 E0.008
G1 X122.721 Y111.813 E0.008
G1 X122.785 Y112.121 E0.008
G1 X122.89 Y112.417 E0.007
G1 X123.035 Y112.695 E0.008
G1 X123.215 Y112.951 E0.008
G1 X123.43 Y113.181 E0.008
G1 X123.508 Y113.246 E0.002
G1 X123.674 Y113.38 E0.006
G1 X123.942 Y113.543 E0.008
G1 X124.23 Y113.668 E0.007
G1 X124.328 Y113.696 E0.003
G1 X124.532 Y113.752 E0.005
G1 X124.843 Y113.795 E0.008
G1 X125.157 E0.008
G1 X125.468 Y113.752 E0.008
G1 X125.77 Y113.668 E0.008
G1 X126.058 Y113.543 E0.007
G1 X126.327 Y113.38 E0.008
G1 X126.57 Y113.181 E0.008
G1 X126.784 Y112.952 E0.008
G1 X126.843 Y112.868 E0.002
G1 X126.965 Y112.695 E0.006
G1 X127.11 Y112.417 E0.008
G1 X127.215 Y112.121 E0.007
G1 X127.279 Y111.813 E0.008
G1 X127.3 Y111.5 E0.008
G1 X127.279 Y111.187 E0.008
G1 X127.215 Y110.879 E0.008
G1 X127.11 Y110.583 E0.008
G1 X126.965 Y110.305 E0.007
G1 X126.785 Y110.049 E0.008
G1 X126.57 Y109.819 E0.008
G1 X126.492 Y109.754 E0.003
